RRGGZZ/g1_deploy_sonic/data/example_scalelab/qwen_audio_new/audio_test/joint_pos.csv
joint_0,joint_1,joint_2,joint_3,joint_4,joint_5,joint_6,joint_7,joint_8,joint_9,joint_10,joint_11,joint_12,joint_13,joint_14,joint_15,joint_16,joint_17,joint_18,joint_19,joint_20,joint_21,joint_22,joint_23,joint_24,joint_25,joint_26,joint_27,joint_28
-0.050000,-0.050000,-0.041144,0.000000,0.000000,-0.039925,0.000000,0.000000,0.205483,0.100000,0.100000,-0.136995,-0.529903,-0.050000,-0.050000,0.457132,-0.773222,0.000000,0.000000,-0.512756,0.377955,1.118538,0.249391,0.239491,-0.405821,-0.079881,0.013619,0.126580,-0.584925
-0.050000,-0.050000,-0.042353,0.000000,0.000000,-0.035064,0.000000,0.000000,0.212290,0.100000,0.100000,-0.142925,-0.548631,-0.050000,-0.050000,0.442475,-0.778793,0.000000,0.000000,-0.503720,0.385543,1.140923,0.260449,0.234017,-0.399797,-0.092459,0.007355,0.133015,-0.594830
-0.050000,-0.050000,-0.043625,0.000000,0.000000,-0.031516,0.000000,0.000000,0.216976,0.100000,0.100000,-0.143861,-0.558426,-0.050000,-0.050000,0.434699,-0.784556,0.000000,0.000000,-0.494066,0.385097,1.150751,0.261083,0.227982,-0.394773,-0.097742,0.004106,0.135012,-0.600060
-0.050000,-0.050000,-0.044354,0.000000,0.000000,-0.028823,0.000000,0.000000,0.220188,0.100000,0.100000,-0.142136,-0.562872,-0.050000,-0.050000,0.430011,-0.790507,0.000000,0.000000,-0.484790,0.380481,1.155028,0.256333,0.221826,-0.390818,-0.099408,0.002720,0.134967,-0.603114
-0.050000,-0.050000,-0.044533,0.000000,0.000000,-0.026606,0.000000,0.000000,0.222587,0.100000,0.100000,-0.139074,-0.564158,-0.050000,-0.050000,0.426733,-0.796537,0.000000,0.000000,-0.475988,0.373521,1.156767,0.248709,0.215627,-0.387555,-0.099365,0.002364,0.134039,-0.605120
-0.050000,-0.050000,-0.044407,0.000000,0.000000,-0.024592,0.000000,0.000000,0.224757,0.100000,0.100000,-0.135240,-0.563258,-0.050000,-0.050000,0.424291,-0.803062,0.000000,0.000000,-0.467473,0.365393,1.157261,0.239283,0.210213,-0.385416,-0.098402,0.002576,0.132869,-0.606791
-0.050000,-0.050000,-0.044063,0.000000,0.000000,-0.022677,0.000000,0.000000,0.226748,0.100000,0.100000,-0.131073,-0.561080,-0.050000,-0.050000,0.422230,-0.809723,0.000000,0.000000,-0.459254,0.356596,1.157058,0.228919,0.205362,-0.384002,-0.097041,0.003095,0.131675,-0.608375
-0.050000,-0.050000,-0.043644,0.000000,0.000000,-0.020801,0.000000,0.000000,0.228747,0.100000,0.100000,-0.126721,-0.557963,-0.050000,-0.050000,0.420537,-0.816660,0.000000,0.000000,-0.451294,0.347611,1.156377,0.218001,0.201472,-0.383583,-0.095468,0.003780,0.130656,-0.610168
-0.050000,-0.050000,-0.043223,0.000000,0.000000,-0.018935,0.000000,0.000000,0.230776,0.100000,0.100000,-0.122326,-0.554216,-0.050000,-0.050000,0.419262,-0.823791,0.000000,0.000000,-0.443664,0.338700,1.155144,0.206903,0.198835,-0.384315,-0.093865,0.004555,0.130013,-0.612554
-0.050000,-0.050000,-0.042786,0.000000,0.000000,-0.017080,0.000000,0.000000,0.232814,0.100000,0.100000,-0.117849,-0.550083,-0.050000,-0.050000,0.418189,-0.830936,0.000000,0.000000,-0.436179,0.329798,1.153563,0.195769,0.196973,-0.385757,-0.092232,0.005353,0.129614,-0.615363
-0.050000,-0.050000,-0.042456,0.000000,0.000000,-0.015217,0.000000,0.000000,0.234887,0.100000,0.100000,-0.113564,-0.545693,-0.050000,-0.050000,0.417935,-0.838231,0.000000,0.000000,-0.429255,0.321248,1.151021,0.185006,0.197064,-0.388700,-0.090831,0.006209,0.130035,-0.619595
-0.050000,-0.050000,-0.042112,0.000000,0.000000,-0.013372,0.000000,0.000000,0.236935,0.100000,0.100000,-0.109281,-0.541236,-0.050000,-0.050000,0.418068,-0.845352,0.000000,0.000000,-0.422507,0.312719,1.147855,0.174662,0.198147,-0.392289,-0.089522,0.007052,0.130942,-0.624775
-0.050000,-0.050000,-0.041819,0.000000,0.000000,-0.011534,0.000000,0.000000,0.238937,0.100000,0.100000,-0.105190,-0.536826,-0.050000,-0.050000,0.418951,-0.852360,0.000000,0.000000,-0.416160,0.304296,1.143731,0.164945,0.200689,-0.396720,-0.088449,0.007926,0.132636,-0.631354
-0.050000,-0.050000,-0.041528,0.000000,0.000000,-0.009682,0.000000,0.000000,0.240822,0.100000,0.100000,-0.101437,-0.532641,-0.050000,-0.050000,0.420776,-0.859104,0.000000,0.000000,-0.410229,0.295792,1.138357,0.156142,0.204769,-0.401695,-0.087695,0.008871,0.135371,-0.639619
-0.050000,-0.050000,-0.041192,0.000000,0.000000,-0.007894,0.000000,0.000000,0.242675,0.100000,0.100000,-0.097778,-0.528619,-0.050000,-0.050000,0.423186,-0.865591,0.000000,0.000000,-0.404487,0.287247,1.132182,0.148029,0.209771,-0.406964,-0.087049,0.009801,0.138715,-0.648983
-0.050000,-0.050000,-0.040839,0.000000,0.000000,-0.005995,0.000000,0.000000,0.244228,0.100000,0.100000,-0.095025,-0.525130,-0.050000,-0.050000,0.427212,-0.871661,0.000000,0.000000,-0.399368,0.278362,1.123911,0.141387,0.216772,-0.412292,-0.086998,0.010931,0.143915,-0.660640
-0.050000,-0.050000,-0.040331,0.000000,0.000000,-0.004184,0.000000,0.000000,0.245728,0.100000,0.100000,-0.092602,-0.521959,-0.050000,-0.050000,0.432106,-0.877355,0.000000,0.000000,-0.394427,0.269312,1.114448,0.135740,0.224681,-0.417434,-0.087076,0.012030,0.150095,-0.673479
-0.050000,-0.050000,-0.039725,0.000000,0.000000,-0.002327,0.000000,0.000000,0.246999,0.100000,0.100000,-0.091007,-0.519256,-0.050000,-0.050000,0.438348,-0.882636,0.000000,0.000000,-0.389836,0.259984,1.103182,0.131362,0.233865,-0.422174,-0.087523,0.013198,0.157875,-0.687817
-0.050000,-0.050000,-0.038944,0.000000,0.000000,-0.000424,0.000000,0.000000,0.248033,0.100000,0.100000,-0.090534,-0.516993,-0.050000,-0.050000,0.446112,-0.887444,0.000000,0.000000,-0.385517,0.250431,1.089770,0.128323,0.244166,-0.426180,-0.088376,0.014349,0.167647,-0.703407
-0.050000,-0.050000,-0.037998,0.000000,0.000000,0.001401,0.000000,0.000000,0.249015,0.100000,0.100000,-0.090568,-0.515081,-0.050000,-0.050000,0.454832,-0.891931,0.000000,0.000000,-0.381318,0.240719,1.075026,0.126224,0.255129,-0.429692,-0.089288,0.015413,0.178557,-0.719794
-0.050000,-0.050000,-0.036857,0.000000,0.000000,0.003437,0.000000,0.000000,0.249546,0.100000,0.100000,-0.092788,-0.513497,-0.050000,-0.050000,0.465714,-0.895783,0.000000,0.000000,-0.377298,0.230960,1.056918,0.125613,0.267118,-0.431870,-0.090940,0.016294,0.192781,-0.737040
-0.050000,-0.050000,-0.035496,0.000000,0.000000,0.005358,0.000000,0.000000,0.250078,0.100000,0.100000,-0.095767,-0.512143,-0.050000,-0.050000,0.477670,-0.899259,0.000000,0.000000,-0.373241,0.221136,1.037042,0.125832,0.279437,-0.433291,-0.092621,0.016865,0.208607,-0.754597
-0.050000,-0.050000,-0.033972,0.000000,0.000000,0.007359,0.000000,0.000000,0.250353,0.100000,0.100000,-0.100384,-0.510849,-0.050000,-0.050000,0.491153,-0.902194,0.000000,0.000000,-0.369062,0.211419,1.014457,0.126936,0.292111,-0.433643,-0.094686,0.017036,0.227032,-0.772267
-0.050000,-0.050000,-0.032287,0.000000,0.000000,0.009407,0.000000,0.000000,0.250426,0.100000,0.100000,-0.106730,-0.509373,-0.050000,-0.050000,0.506068,-0.904458,0.000000,0.000000,-0.364545,0.201898,0.988844,0.128657,0.304787,-0.432866,-0.097167,0.016585,0.248364,-0.789663
-0.050000,-0.050000,-0.030478,0.000000,0.000000,0.011371,0.000000,0.000000,0.250472,0.100000,0.100000,-0.113825,-0.507853,-0.050000,-0.050000,0.521870,-0.906316,0.000000,0.000000,-0.359762,0.192333,0.961384,0.130773,0.317524,-0.431423,-0.099619,0.015687,0.271347,-0.806883
-0.050000,-0.050000,-0.028611,0.000000,0.000000,0.013514,0.000000,0.000000,0.250133,0.100000,0.100000,-0.123478,-0.505458,-0.050000,-0.050000,0.539093,-0.906999,0.000000,0.000000,-0.354099,0.183260,0.929573,0.132998,0.329742,-0.428634,-0.102947,0.013701,0.298504,-0.823168
-0.050000,-0.050000,-0.026694,0.000000,0.000000,0.015511,0.000000,0.000000,0.249827,0.100000,0.100000,-0.133594,-0.502655,-0.050000,-0.050000,0.556868,-0.907075,0.000000,0.000000,-0.347875,0.174000,0.895724,0.135125,0.341762,-0.425322,-0.106239,0.011048,0.327424,-0.838971
-0.050000,-0.050000,-0.024801,0.000000,0.000000,0.017527,0.000000,0.000000,0.249311,0.100000,0.100000,-0.144993,-0.498911,-0.050000,-0.050000,0.575163,-0.906116,0.000000,0.000000,-0.340685,0.164884,0.858819,0.136881,0.353364,-0.421324,-0.109972,0.007457,0.359064,-0.853955
-0.050000,-0.050000,-0.023001,0.000000,0.000000,0.019497,0.000000,0.000000,0.248662,0.100000,0.100000,-0.157143,-0.494048,-0.050000,-0.050000,0.593462,-0.903969,0.000000,0.000000,-0.332383,0.155737,0.819073,0.137918,0.364487,-0.416892,-0.114103,0.002853,0.393138,-0.868113
-0.050000,-0.050000,-0.021255,0.000000,0.000000,0.021353,0.000000,0.000000,0.247943,0.100000,0.100000,-0.169368,-0.488391,-0.050000,-0.050000,0.611692,-0.901097,0.000000,0.000000,-0.323202,0.146351,0.777609,0.138368,0.375607,-0.412336,-0.118241,-0.002366,0.428560,-0.881719
-0.050000,-0.050000,-0.019741,0.000000,0.000000,0.023170,0.000000,0.000000,0.247009,0.100000,0.100000,-0.182021,-0.481057,-0.050000,-0.050000,0.628791,-0.896420,0.000000,0.000000,-0.312476,0.137031,0.733194,0.137479,0.386095,-0.407665,-0.123044,-0.008824,0.466336,-0.894344
-0.050000,-0.050000,-0.018360,0.000000,0.000000,0.024830,0.000000,0.000000,0.246011,0.100000,0.100000,-0.193925,-0.472791,-0.050000,-0.050000,0.645058,-0.890941,0.000000,0.000000,-0.300791,0.127370,0.687764,0.135651,0.396772,-0.403293,-0.127740,-0.015778,0.504703,-0.906448
-0.050000,-0.050000,-0.017166,0.000000,0.000000,0.026361,0.000000,0.000000,0.244866,0.100000,0.100000,-0.205193,-0.463318,-0.050000,-0.050000,0.659744,-0.884167,0.000000,0.000000,-0.287929,0.117648,0.641120,0.132640,0.407424,-0.399261,-0.132584,-0.023386,0.543710,-0.917892
-0.050000,-0.050000,-0.016156,0.000000,0.000000,0.027697,0.000000,0.000000,0.243630,0.100000,0.100000,-0.215132,-0.452852,-0.050000,-0.050000,0.672363,-0.876209,0.000000,0.000000,-0.274168,0.107902,0.594270,0.128465,0.418135,-0.395780,-0.137285,-0.031403,0.582350,-0.928673
-0.050000,-0.050000,-0.015298,0.000000,0.000000,0.028949,0.000000,0.000000,0.242224,0.100000,0.100000,-0.224074,-0.441690,-0.050000,-0.050000,0.683510,-0.867543,0.000000,0.000000,-0.259561,0.098193,0.547303,0.123426,0.429208,-0.392775,-0.141837,-0.039583,0.620636,-0.938979
-0.050000,-0.050000,-0.014580,0.000000,0.000000,0.029857,0.000000,0.000000,0.240835,0.100000,0.100000,-0.230735,-0.429956,-0.050000,-0.050000,0.691414,-0.857581,0.000000,0.000000,-0.244722,0.088869,0.501938,0.117364,0.440023,-0.390420,-0.145804,-0.047797,0.656636,-0.948350
-0.050000,-0.050000,-0.014165,0.000000,0.000000,0.030624,0.000000,0.000000,0.245778,0.100000,0.100000,-0.238439,-0.420355,-0.050000,-0.050000,0.699596,-0.846368,0.000000,0.000000,-0.226806,0.075378,0.451976,0.109807,0.453429,-0.389172,-0.147345,-0.057027,0.694008,-0.958613
-0.050000,-0.050000,-0.013836,0.000000,0.000000,0.031109,0.000000,0.000000,0.245655,0.100000,0.100000,-0.242338,-0.409217,-0.050000,-0.050000,0.703482,-0.835173,0.000000,0.000000,-0.211312,0.066526,0.409176,0.102617,0.464539,-0.387913,-0.149348,-0.064668,0.725069,-0.966195
-0.050000,-0.050000,-0.013538,0.000000,0.000000,0.031577,0.000000,0.000000,0.244424,0.100000,0.100000,-0.244036,-0.398349,-0.050000,-0.050000,0.704829,-0.824063,0.000000,0.000000,-0.197048,0.059424,0.370613,0.095561,0.474590,-0.386577,-0.150993,-0.071247,0.752189,-0.972645
-0.050000,-0.050000,-0.013323,0.000000,0.000000,0.032100,0.000000,0.000000,0.242747,0.100000,0.100000,-0.244817,-0.387932,-0.050000,-0.050000,0.704682,-0.813040,0.000000,0.000000,-0.183248,0.053276,0.334220,0.088634,0.484171,-0.385196,-0.152381,-0.077258,0.777144,-0.978489
-0.050000,-0.050000,-0.012967,0.000000,0.000000,0.032308,0.000000,0.000000,0.241031,0.100000,0.100000,-0.243314,-0.379045,-0.050000,-0.050000,0.702490,-0.802516,0.000000,0.000000,-0.171813,0.048538,0.303820,0.082567,0.491946,-0.383365,-0.152259,-0.081779,0.795646,-0.982499
-0.050000,-0.050000,-0.012615,0.000000,0.000000,0.032567,0.000000,0.000000,0.239179,0.100000,0.100000,-0.241512,-0.371172,-0.050000,-0.050000,0.699578,-0.792538,0.000000,0.000000,-0.161361,0.044710,0.276145,0.077101,0.498681,-0.381155,-0.151728,-0.085519,0.811326,-0.985694
-0.050000,-0.050000,-0.012121,0.000000,0.000000,0.032683,0.000000,0.000000,0.237409,0.100000,0.100000,-0.238632,-0.364782,-0.050000,-0.050000,0.695911,-0.783380,0.000000,0.000000,-0.152848,0.041850,0.252961,0.072570,0.503774,-0.378366,-0.150249,-0.088088,0.822306,-0.987557
-0.050000,-0.050000,-0.011461,0.000000,0.000000,0.032746,0.000000,0.000000,0.235722,0.100000,0.100000,-0.235042,-0.360028,-0.050000,-0.050000,0.692088,-0.775429,0.000000,0.000000,-0.146376,0.039834,0.234311,0.069071,0.507021,-0.374915,-0.148023,-0.089459,0.828651,-0.988128
-0.050000,-0.050000,-0.010708,0.000000,0.000000,0.032835,0.000000,0.000000,0.234097,0.100000,0.100000,-0.231479,-0.356360,-0.050000,-0.050000,0.688192,-0.768227,0.000000,0.000000,-0.141106,0.038382,0.218371,0.066295,0.509044,-0.370986,-0.145516,-0.090138,0.832440,-0.987989
-0.050000,-0.050000,-0.009664,0.000000,0.000000,0.032895,0.000000,0.000000,0.232739,0.100000,0.100000,-0.226767,-0.354803,-0.050000,-0.050000,0.684961,-0.763127,0.000000,0.000000,-0.138639,0.037483,0.208289,0.064707,0.508717,-0.366394,-0.142249,-0.089408,0.830403,-0.986366
-0.050000,-0.050000,-0.008500,0.000000,0.000000,0.033096,0.000000,0.000000,0.231496,0.100000,0.100000,-0.222451,-0.354315,-0.050000,-0.050000,0.682115,-0.759086,0.000000,0.000000,-0.137319,0.036878,0.200741,0.063775,0.507165,-0.361430,-0.139087,-0.088165,0.826319,-0.984260
-0.050000,-0.050000,-0.007131,0.000000,0.000000,0.033416,0.000000,0.000000,0.230522,0.100000,0.100000,-0.217718,-0.355247,-0.050000,-0.050000,0.680027,-0.756756,0.000000,0.000000,-0.137788,0.036410,0.196948,0.063562,0.504146,-0.356197,-0.135836,-0.086221,0.818952,-0.981450
-0.050000,-0.050000,-0.005594,0.000000,0.000000,0.033974,0.000000,0.000000,0.229837,0.100000,0.100000,-0.212760,-0.357469,-0.050000,-0.050000,0.678786,-0.756275,0.000000,0.000000,-0.139871,0.035965,0.196592,0.063971,0.499861,-0.350888,-0.132850,-0.083823,0.808885,-0.978156
-0.050000,-0.050000,-0.003928,0.000000,0.000000,0.034717,0.000000,0.000000,0.229347,0.100000,0.100000,-0.208008,-0.360480,-0.050000,-0.050000,0.677949,-0.756863,0.000000,0.000000,-0.142920,0.035549,0.198369,0.064837,0.494803,-0.345476,-0.130145,-0.081211,0.797422,-0.974618
-0.050000,-0.050000,-0.002137,0.000000,0.000000,0.035873,0.000000,0.000000,0.229324,0.100000,0.100000,-0.202497,-0.364889,-0.050000,-0.050000,0.678215,-0.760034,0.000000,0.000000,-0.147928,0.035004,0.204280,0.066373,0.488678,-0.340346,-0.127991,-0.078360,0.782942,-0.970622
-0.050000,-0.050000,-0.000276,0.000000,0.000000,0.037331,0.000000,0.000000,0.229518,0.100000,0.100000,-0.197334,-0.369904,-0.050000,-0.050000,0.678637,-0.764236,0.000000,0.000000,-0.153791,0.034521,0.212179,0.068479,0.482092,-0.335188,-0.126376,-0.075543,0.767543,-0.966443
-0.050000,-0.050000,0.001615,0.000000,0.000000,0.039171,0.000000,0.000000,0.230075,0.100000,0.100000,-0.191906,-0.375734,-0.050000,-0.050000,0.679467,-0.770085,0.000000,0.000000,-0.160935,0.034036,0.222853,0.071268,0.475087,-0.330191,-0.125298,-0.072769,0.750520,-0.961938
-0.050000,-0.050000,0.003445,0.000000,0.000000,0.041432,0.000000,0.000000,0.230973,0.100000,0.100000,-0.186424,-0.382171,-0.050000,-0.050000,0.680340,-0.777250,0.000000,0.000000,-0.169272,0.033690,0.236151,0.075019,0.467854,-0.325178,-0.124774,-0.070094,0.732081,-0.956944
-0.050000,-0.050000,0.005271,0.000000,0.000000,0.043989,0.000000,0.000000,0.232070,0.100000,0.100000,-0.181134,-0.389043,-0.050000,-0.050000,0.681053,-0.785220,0.000000,0.000000,-0.178318,0.033477,0.251118,0.079434,0.460525,-0.320093,-0.124643,-0.067557,0.712938,-0.951686
-0.050000,-0.050000,0.006805,0.000000,0.000000,0.047043,0.000000,0.000000,0.233580,0.100000,0.100000,-0.175669,-0.396236,-0.050000,-0.050000,0.681372,-0.794196,0.000000,0.000000,-0.188726,0.033551,0.268999,0.085432,0.453223,-0.314681,-0.124916,-0.065077,0.691977,-0.945410
-0.050000,-0.050000,0.008226,0.000000,0.000000,0.050379,0.000000,0.000000,0.235208,0.100000,0.100000,-0.170619,-0.403554,-0.050000,-0.050000,0.681088,-0.803423,0.000000,0.000000,-0.199624,0.033837,0.288142,0.092318,0.446001,-0.308906,-0.125446,-0.062751,0.670528,-0.938668
-0.050000,-0.050000,0.009357,0.000000,0.000000,0.054035,0.000000,0.000000,0.237047,0.100000,0.100000,-0.165743,-0.410743,-0.050000,-0.050000,0.680053,-0.812730,0.000000,0.000000,-0.211173,0.034340,0.308792,0.100440,0.438957,-0.302623,-0.126094,-0.060485,0.648137,-0.931090
-0.050000,-0.050000,0.010112,0.000000,0.000000,0.057964,0.000000,0.000000,0.238978,0.100000,0.100000,-0.161304,-0.417334,-0.050000,-0.050000,0.677997,-0.821481,0.000000,0.000000,-0.222972,0.034960,0.330213,0.109681,0.432131,-0.295677,-0.126781,-0.058320,0.625235,-0.922703
-0.050000,-0.050000,0.010687,0.000000,0.000000,0.062041,0.000000,0.000000,0.240945,0.100000,0.100000,-0.157083,-0.423563,-0.050000,-0.050000,0.675270,-0.829959,0.000000,0.000000,-0.234886,0.035592,0.352063,0.119499,0.425509,-0.288363,-0.127433,-0.056254,0.602055,-0.913836
-0.050000,-0.050000,0.010579,0.000000,0.000000,0.066346,0.000000,0.000000,0.242878,0.100000,0.100000,-0.153627,-0.427923,-0.050000,-0.050000,0.671068,-0.836571,0.000000,0.000000,-0.246318,0.036003,0.373316,0.130211,0.419157,-0.280194,-0.128021,-0.054377,0.579057,-0.904171
-0.050000,-0.050000,0.010580,0.000000,0.000000,0.069258,0.000000,0.000000,0.240510,0.100000,0.100000,-0.143218,-0.426568,-0.050000,-0.050000,0.666379,-0.840708,0.000000,0.000000,-0.256997,0.036680,0.390268,0.138615,0.414478,-0.273108,-0.127678,-0.052495,0.558913,-0.895226
-0.050000,-0.050000,0.009884,0.000000,0.000000,0.073072,0.000000,0.000000,0.240290,0.100000,0.100000,-0.137232,-0.425529,-0.050000,-0.050000,0.661034,-0.843735,0.000000,0.000000,-0.266762,0.036425,0.407452,0.147966,0.409109,-0.264900,-0.127733,-0.050753,0.537700,-0.885476
-0.050000,-0.050000,0.008626,0.000000,0.000000,0.077147,0.000000,0.000000,0.240670,0.100000,0.100000,-0.133859,-0.423401,-0.050000,-0.050000,0.654847,-0.845242,0.000000,0.000000,-0.275380,0.035296,0.423319,0.157222,0.403555,-0.256342,-0.128046,-0.049534,0.517494,-0.875768
-0.050000,-0.050000,0.007147,0.000000,0.000000,0.081228,0.000000,0.000000,0.241350,0.100000,0.100000,-0.131434,-0.420118,-0.050000,-0.050000,0.648257,-0.845748,0.000000,0.000000,-0.283374,0.033433,0.438162,0.166036,0.398077,-0.247790,-0.128331,-0.048648,0.498082,-0.866168
-0.050000,-0.050000,0.005051,0.000000,0.000000,0.085252,0.000000,0.000000,0.241797,0.100000,0.100000,-0.130805,-0.413596,-0.050000,-0.050000,0.640890,-0.843490,0.000000,0.000000,-0.289230,0.030570,0.449196,0.173428,0.392764,-0.239531,-0.129087,-0.048621,0.481791,-0.857522
-0.050000,-0.050000,0.002825,0.000000,0.000000,0.089008,0.000000,0.000000,0.242152,0.100000,0.100000,-0.130276,-0.405001,-0.050000,-0.050000,0.633661,-0.839891,0.000000,0.000000,-0.294124,0.026697,0.458060,0.179306,0.387785,-0.231856,-0.129770,-0.048986,0.467079,-0.849489
-0.050000,-0.050000,0.000306,0.000000,0.000000,0.092491,0.000000,0.000000,0.242141,0.100000,0.100000,-0.130523,-0.393642,-0.050000,-0.050000,0.626452,-0.834238,0.000000,0.000000,-0.297382,0.021847,0.463551,0.183329,0.383121,-0.224867,-0.130714,-0.049919,0.454994,-0.842410
-0.050000,-0.050000,-0.002421,0.000000,0.000000,0.095567,0.000000,0.000000,0.241725,0.100000,0.100000,-0.131319,-0.379654,-0.050000,-0.050000,0.619680,-0.826700,0.000000,0.000000,-0.299003,0.016013,0.465465,0.185157,0.378966,-0.218810,-0.131894,-0.051389,0.445791,-0.836432
-0.050000,-0.050000,-0.005195,0.000000,0.000000,0.098263,0.000000,0.000000,0.241054,0.100000,0.100000,-0.132028,-0.363764,-0.050000,-0.050000,0.613393,-0.817775,0.000000,0.000000,-0.299696,0.009378,0.465005,0.185265,0.375205,-0.213499,-0.133041,-0.053067,0.438279,-0.831114
-0.050000,-0.050000,-0.008200,0.000000,0.000000,0.100397,0.000000,0.000000,0.239730,0.100000,0.100000,-0.133772,-0.345407,-0.050000,-0.050000,0.608018,-0.806905,0.000000,0.000000,-0.298284,0.002028,0.459942,0.182766,0.372291,-0.209365,-0.134692,-0.055354,0.434806,-0.827183
-0.050000,-0.050000,-0.011195,0.000000,0.000000,0.102030,0.000000,0.000000,0.238181,0.100000,0.100000,-0.135166,-0.325757,-0.050000,-0.050000,0.603499,-0.794885,0.000000,0.000000,-0.296051,-0.005881,0.452499,0.178518,0.370014,-0.206039,-0.136223,-0.057710,0.433089,-0.823850
-0.050000,-0.050000,-0.014266,0.000000,0.000000,0.103127,0.000000,0.000000,0.236162,0.100000,0.100000,-0.136898,-0.304925,-0.050000,-0.050000,0.599996,-0.781695,0.000000,0.000000,-0.292535,-0.014076,0.441876,0.172379,0.368543,-0.203566,-0.137925,-0.060273,0.434021,-0.821282
-0.050000,-0.050000,-0.017387,0.000000,0.000000,0.103646,0.000000,0.000000,0.233750,0.100000,0.100000,-0.138759,-0.283545,-0.050000,-0.050000,0.597699,-0.767719,0.000000,0.000000,-0.287952,-0.022390,0.428290,0.164494,0.367983,-0.201851,-0.139673,-0.062955,0.437371,-0.819304
-0.050000,-0.050000,-0.020540,0.000000,0.000000,0.103747,0.000000,0.000000,0.231141,0.100000,0.100000,-0.140399,-0.261915,-0.050000,-0.050000,0.596173,-0.753037,0.000000,0.000000,-0.282662,-0.030655,0.412750,0.155458,0.368031,-0.200631,-0.141307,-0.065604,0.442112,-0.817626
-0.050000,-0.050000,-0.023775,0.000000,0.000000,0.103197,0.000000,0.000000,0.228023,0.100000,0.100000,-0.142502,-0.240755,-0.050000,-0.050000,0.596242,-0.738311,0.000000,0.000000,-0.276329,-0.038656,0.393921,0.144733,0.369166,-0.200041,-0.143049,-0.068427,0.449470,-0.816388
-0.050000,-0.050000,-0.027062,0.000000,0.000000,0.102257,0.000000,0.000000,0.224857,0.100000,0.100000,-0.144281,-0.220150,-0.050000,-0.050000,0.597068,-0.723349,0.000000,0.000000,-0.269494,-0.046345,0.373420,0.133212,0.370815,-0.199729,-0.144553,-0.071172,0.457745,-0.815228
-0.050000,-0.050000,-0.030875,0.000000,0.000000,0.101207,0.000000,0.000000,0.226619,0.100000,0.100000,-0.150442,-0.201817,-0.050000,-0.050000,0.600608,-0.707446,0.000000,0.000000,-0.260599,-0.057474,0.348343,0.117620,0.373184,-0.200551,-0.144566,-0.073611,0.467103,-0.813802
-0.050000,-0.050000,-0.034257,0.000000,0.000000,0.099219,0.000000,0.000000,0.224626,0.100000,0.100000,-0.153388,-0.184183,-0.050000,-0.050000,0.603905,-0.692848,0.000000,0.000000,-0.252726,-0.065061,0.323397,0.103659,0.375646,-0.200987,-0.145122,-0.075866,0.476874,-0.812211
-0.050000,-0.050000,-0.037726,0.000000,0.000000,0.097037,0.000000,0.000000,0.221797,0.100000,0.100000,-0.155370,-0.167423,-0.050000,-0.050000,0.607393,-0.678740,0.000000,0.000000,-0.244598,-0.071313,0.297632,0.090020,0.378321,-0.201253,-0.145866,-0.078361,0.487123,-0.810823
-0.050000,-0.050000,-0.041079,0.000000,0.000000,0.094449,0.000000,0.000000,0.218701,0.100000,0.100000,-0.157281,-0.152924,-0.050000,-0.050000,0.611809,-0.666068,0.000000,0.000000,-0.236702,-0.076508,0.270470,0.076052,0.380823,-0.201574,-0.146636,-0.081024,0.497343,-0.809370
-0.050000,-0.050000,-0.044429,0.000000,0.000000,0.091729,0.000000,0.000000,0.215690,0.100000,0.100000,-0.159062,-0.139723,-0.050000,-0.050000,0.616363,-0.653911,0.000000,0.000000,-0.228740,-0.081014,0.242885,0.062325,0.383009,-0.201829,-0.147303,-0.083697,0.507150,-0.807843
-0.050000,-0.050000,-0.047586,0.000000,0.000000,0.088772,0.000000,0.000000,0.212828,0.100000,0.100000,-0.160872,-0.128291,-0.050000,-0.050000,0.621262,-0.642794,0.000000,0.000000,-0.221142,-0.084766,0.214927,0.048676,0.384614,-0.202097,-0.147958,-0.086373,0.516261,-0.806175
-0.050000,-0.050000,-0.050427,0.000000,0.000000,0.085632,0.000000,0.000000,0.210262,0.100000,0.100000,-0.162613,-0.118593,-0.050000,-0.050000,0.626261,-0.632681,0.000000,0.000000,-0.214072,-0.087748,0.187246,0.035449,0.385271,-0.202337,-0.148630,-0.088964,0.524312,-0.804373
-0.050000,-0.050000,-0.053133,0.000000,0.000000,0.082419,0.000000,0.000000,0.207916,0.100000,0.100000,-0.164416,-0.110047,-0.050000,-0.050000,0.631203,-0.623169,0.000000,0.000000,-0.207218,-0.090200,0.159788,0.022654,0.385326,-0.202509,-0.149359,-0.091546,0.531711,-0.802521
-0.050000,-0.050000,-0.055193,0.000000,0.000000,0.079012,0.000000,0.000000,0.206053,0.100000,0.100000,-0.165802,-0.103480,-0.050000,-0.050000,0.636032,-0.614986,0.000000,0.000000,-0.201421,-0.091738,0.133856,0.010751,0.383698,-0.202632,-0.150216,-0.093919,0.537422,-0.800577
-0.050000,-0.050000,-0.057063,0.000000,0.000000,0.075624,0.000000,0.000000,0.204469,0.100000,0.100000,-0.167163,-0.097913,-0.050000,-0.050000,0.640594,-0.607363,0.000000,0.000000,-0.195927,-0.092782,0.109004,-0.000273,0.381190,-0.202583,-0.151253,-0.096278,0.542419,-0.798707
-0.050000,-0.050000,-0.058502,0.000000,0.000000,0.072197,0.000000,0.000000,0.203284,0.100000,0.100000,-0.168096,-0.093580,-0.050000,-0.050000,0.644833,-0.600580,0.000000,0.000000,-0.191133,-0.093214,0.086005,-0.010230,0.377356,-0.202362,-0.152473,-0.098534,0.546290,-0.796912
-0.050000,-0.050000,-0.058889,0.000000,0.000000,0.068405,0.000000,0.000000,0.197655,0.100000,0.100000,-0.164723,-0.086206,-0.050000,-0.050000,0.647062,-0.594809,0.000000,0.000000,-0.188777,-0.091590,0.067160,-0.018486,0.373339,-0.201747,-0.154786,-0.100984,0.549578,-0.795370
-0.050000,-0.050000,-0.059378,0.000000,0.000000,0.065100,0.000000,0.000000,0.195158,0.100000,0.100000,-0.163195,-0.081319,-0.050000,-0.050000,0.650064,-0.589278,0.000000,0.000000,-0.185707,-0.090837,0.048308,-0.026612,0.367998,-0.200920,-0.156941,-0.103386,0.552466,-0.794080
-0.050000,-0.050000,-0.059735,0.000000,0.000000,0.061976,0.000000,0.000000,0.194131,0.100000,0.100000,-0.161256,-0.078177,-0.050000,-0.050000,0.652779,-0.584213,0.000000,0.000000,-0.182978,-0.090231,0.032841,-0.032936,0.360787,-0.199404,-0.158637,-0.105423,0.553848,-0.792851
-0.050000,-0.050000,-0.060199,0.000000,0.000000,0.059002,0.000000,0.000000,0.193640,0.100000,0.100000,-0.159519,-0.075933,-0.050000,-0.050000,0.655262,-0.579523,0.000000,0.000000,-0.180529,-0.089374,0.019472,-0.037866,0.352624,-0.197268,-0.160443,-0.107461,0.554582,-0.791649
-0.050000,-0.050000,-0.060670,0.000000,0.000000,0.056207,0.000000,0.000000,0.193681,0.100000,0.100000,-0.157159,-0.074288,-0.050000,-0.050000,0.657319,-0.575176,0.000000,0.000000,-0.178626,-0.088342,0.009244,-0.041011,0.343374,-0.194191,-0.162167,-0.109447,0.554404,-0.790470
-0.050000,-0.050000,-0.061309,0.000000,0.000000,0.053661,0.000000,0.000000,0.194031,0.100000,0.100000,-0.154234,-0.072953,-0.050000,-0.050000,0.658928,-0.571075,0.000000,0.000000,-0.177456,-0.087061,0.002308,-0.042152,0.333197,-0.189793,-0.163819,-0.111420,0.553180,-0.789062
-0.050000,-0.050000,-0.062059,0.000000,0.000000,0.051290,0.000000,0.000000,0.194474,0.100000,0.100000,-0.151222,-0.071888,-0.050000,-0.050000,0.660242,-0.567281,0.000000,0.000000,-0.176825,-0.085543,-0.002387,-0.041888,0.322432,-0.184435,-0.165629,-0.113542,0.551397,-0.787502
-0.050000,-0.050000,-0.063174,0.000000,0.000000,0.049283,0.000000,0.000000,0.195192,0.100000,0.100000,-0.147306,-0.070752,-0.050000,-0.050000,0.660977,-0.563449,0.000000,0.000000,-0.177510,-0.083677,-0.003000,-0.038898,0.310788,-0.176852,-0.166986,-0.115491,0.547630,-0.784921
-0.050000,-0.050000,-0.064469,0.000000,0.000000,0.047454,0.000000,0.000000,0.195803,0.100000,0.100000,-0.143548,-0.069708,-0.050000,-0.050000,0.661421,-0.559871,0.000000,0.000000,-0.179046,-0.081423,-0.001486,-0.034320,0.298713,-0.167850,-0.168449,-0.117609,0.542819,-0.781556
-0.050000,-0.050000,-0.066041,0.000000,0.000000,0.045889,0.000000,0.000000,0.196481,0.100000,0.100000,-0.139528,-0.068567,-0.050000,-0.050000,0.661448,-0.556276,0.000000,0.000000,-0.181832,-0.078725,0.002703,-0.027635,0.286159,-0.156918,-0.169638,-0.119680,0.536173,-0.776859
-0.050000,-0.050000,-0.067839,0.000000,0.000000,0.044539,0.000000,0.000000,0.197133,0.100000,0.100000,-0.135480,-0.067288,-0.050000,-0.050000,0.661076,-0.552648,0.000000,0.000000,-0.186061,-0.075351,0.009086,-0.018926,0.273263,-0.143990,-0.170598,-0.121711,0.527314,-0.770323
-0.050000,-0.050000,-0.069722,0.000000,0.000000,0.043319,0.000000,0.000000,0.197689,0.100000,0.100000,-0.131594,-0.065996,-0.050000,-0.050000,0.660427,-0.549124,0.000000,0.000000,-0.191171,-0.071668,0.016912,-0.008863,0.260124,-0.129690,-0.171433,-0.123799,0.517043,-0.762523
-0.050000,-0.050000,-0.071749,0.000000,0.000000,0.042294,0.000000,0.000000,0.198335,0.100000,0.100000,-0.127590,-0.064389,-0.050000,-0.050000,0.659283,-0.545302,0.000000,0.000000,-0.198306,-0.066805,0.026376,0.003250,0.246858,-0.113246,-0.171885,-0.125666,0.503442,-0.751778
-0.050000,-0.050000,-0.073687,0.000000,0.000000,0.041307,0.000000,0.000000,0.198849,0.100000,0.100000,-0.123814,-0.062753,-0.050000,-0.050000,0.657885,-0.541555,0.000000,0.000000,-0.206252,-0.061599,0.036479,0.016268,0.233549,-0.095770,-0.172205,-0.127555,0.488223,-0.739425
-0.050000,-0.050000,-0.075517,0.000000,0.000000,0.040380,0.000000,0.000000,0.199422,0.100000,0.100000,-0.120055,-0.060938,-0.050000,-0.050000,0.656145,-0.537632,0.000000,0.000000,-0.215461,-0.055620,0.046963,0.030186,0.220357,-0.077264,-0.172294,-0.129294,0.470720,-0.724873
-0.050000,-0.050000,-0.077075,0.000000,0.000000,0.039422,0.000000,0.000000,0.200030,0.100000,0.100000,-0.116334,-0.059005,-0.050000,-0.050000,0.654132,-0.533583,0.000000,0.000000,-0.225625,-0.048986,0.057196,0.044346,0.207507,-0.058368,-0.172251,-0.130937,0.451314,-0.708392
-0.050000,-0.050000,-0.078442,0.000000,0.000000,0.038446,0.000000,0.000000,0.200646,0.100000,0.100000,-0.112571,-0.056944,-0.050000,-0.050000,0.651929,-0.529409,0.000000,0.000000,-0.236243,-0.042120,0.067176,0.058580,0.194910,-0.039301,-0.171970,-0.132386,0.430727,-0.690677
-0.050000,-0.050000,-0.079272,0.000000,0.000000,0.037316,0.000000,0.000000,0.201410,0.100000,0.100000,-0.108748,-0.054821,-0.050000,-0.050000,0.649553,-0.525073,0.000000,0.000000,-0.247584,-0.034481,0.075825,0.071810,0.183271,-0.021096,-0.171731,-0.133797,0.408762,-0.671460
-0.050000,-0.050000,-0.079818,0.000000,0.000000,0.036094,0.000000,0.000000,0.202202,0.100000,0.100000,-0.104753,-0.052569,-0.050000,-0.050000,0.647124,-0.520573,0.000000,0.000000,-0.258847,-0.026885,0.083608,0.084192,0.172300,-0.003728,-0.171288,-0.134990,0.386490,-0.651855
-0.050000,-0.050000,-0.079922,0.000000,0.000000,0.034711,0.000000,0.000000,0.203080,0.100000,0.100000,-0.100620,-0.050279,-0.050000,-0.050000,0.644712,-0.515959,0.000000,0.000000,-0.270062,-0.019093,0.090008,0.095028,0.162410,0.012128,-0.170833,-0.136089,0.364187,-0.632099
-0.050000,-0.050000,-0.079596,0.000000,0.000000,0.033156,0.000000,0.000000,0.203978,0.100000,0.100000,-0.096370,-0.048020,-0.050000,-0.050000,0.642453,-0.511316,0.000000,0.000000,-0.280786,-0.011433,0.094948,0.103858,0.153917,0.025854,-0.170386,-0.137132,0.342695,-0.613064
-0.050000,-0.050000,-0.079042,0.000000,0.000000,0.031492,0.000000,0.000000,0.204936,0.100000,0.100000,-0.091904,-0.045637,-0.050000,-0.050000,0.640260,-0.506482,0.000000,0.000000,-0.291168,-0.003857,0.098881,0.111276,0.146402,0.038072,-0.169826,-0.137931,0.321802,-0.594622
-0.050000,-0.050000,-0.077994,0.000000,0.000000,0.029617,0.000000,0.000000,0.205741,0.100000,0.100000,-0.087585,-0.043593,-0.050000,-0.050000,0.638527,-0.502009,0.000000,0.000000,-0.300447,0.003215,0.101170,0.115706,0.141081,0.046842,-0.169491,-0.138913,0.303228,-0.578474
-0.050000,-0.050000,-0.076832,0.000000,0.000000,0.027676,0.000000,0.000000,0.206560,0.100000,0.100000,-0.083161,-0.041506,-0.050000,-0.050000,0.636938,-0.497439,0.000000,0.000000,-0.309153,0.010013,0.102694,0.118544,0.137033,0.053592,-0.169084,-0.139614,0.286071,-0.563888
-0.050000,-0.050000,-0.075465,0.000000,0.000000,0.025632,0.000000,0.000000,0.207188,0.100000,0.100000,-0.078931,-0.039690,-0.050000,-0.050000,0.635729,-0.493212,0.000000,0.000000,-0.316935,0.016295,0.103411,0.119269,0.134701,0.057593,-0.168787,-0.140281,0.271116,-0.551666
-0.050000,-0.050000,-0.074038,0.000000,0.000000,0.023548,0.000000,0.000000,0.207595,0.100000,0.100000,-0.075011,-0.038226,-0.050000,-0.050000,0.634900,-0.489455,0.000000,0.000000,-0.323822,0.021975,0.103782,0.118235,0.134014,0.058840,-0.168532,-0.140777,0.258519,-0.542136
-0.050000,-0.050000,-0.072598,0.000000,0.000000,0.021462,0.000000,0.000000,0.207932,0.100000,0.100000,-0.071287,-0.036942,-0.050000,-0.050000,0.634196,-0.485862,0.000000,0.000000,-0.330264,0.027405,0.103997,0.116064,0.134402,0.058288,-0.168325,-0.141051,0.247448,-0.534386
-0.050000,-0.050000,-0.071262,0.000000,0.000000,0.019390,0.000000,0.000000,0.207802,0.100000,0.100000,-0.068299,-0.036458,-0.050000,-0.050000,0.634088,-0.483442,0.000000,0.000000,-0.335659,0.031897,0.104777,0.112592,0.136403,0.054643,-0.168082,-0.141061,0.239167,-0.530083
-0.050000,-0.050000,-0.070048,0.000000,0.000000,0.017402,0.000000,0.000000,0.207639,0.100000,0.100000,-0.065736,-0.036384,-0.050000,-0.050000,0.633977,-0.481376,0.000000,0.000000,-0.340888,0.036247,0.106176,0.108723,0.139087,0.049559,-0.167824,-0.140689,0.232116,-0.527422
-0.050000,-0.050000,-0.069028,0.000000,0.000000,0.015491,0.000000,0.000000,0.207213,0.100000,0.100000,-0.063847,-0.037047,-0.050000,-0.050000,0.634133,-0.480258,0.000000,0.000000,-0.345714,0.040106,0.108756,0.104674,0.142451,0.042782,-0.167456,-0.139917,0.226536,-0.526811
-0.050000,-0.050000,-0.068255,0.000000,0.000000,0.013700,0.000000,0.000000,0.206655,0.100000,0.100000,-0.062648,-0.038576,-0.050000,-0.050000,0.634406,-0.480117,0.000000,0.000000,-0.350443,0.043705,0.113122,0.101070,0.146034,0.034942,-0.166857,-0.138621,0.221794,-0.527594
-0.050000,-0.050000,-0.067642,0.000000,0.000000,0.012028,0.000000,0.000000,0.206071,0.100000,0.100000,-0.062078,-0.040788,-0.050000,-0.050000,0.634605,-0.480581,0.000000,0.000000,-0.355207,0.047231,0.118791,0.097890,0.149703,0.026548,-0.166242,-0.137024,0.217557,-0.529185
-0.050000,-0.050000,-0.067360,0.000000,0.000000,0.010503,0.000000,0.000000,0.205433,0.100000,0.100000,-0.062218,-0.044299,-0.050000,-0.050000,0.634935,-0.482476,0.000000,0.000000,-0.360112,0.050636,0.127752,0.096173,0.152887,0.018148,-0.165022,-0.134753,0.213172,-0.531067
-0.050000,-0.050000,-0.067227,0.000000,0.000000,0.009141,0.000000,0.000000,0.204936,0.100000,0.100000,-0.063062,-0.048770,-0.050000,-0.050000,0.634980,-0.485009,0.000000,0.000000,-0.365286,0.054254,0.138787,0.095501,0.155641,0.010320,-0.163748,-0.132308,0.208486,-0.532597
-0.050000,-0.050000,-0.067276,0.000000,0.000000,0.007934,0.000000,0.000000,0.204620,0.100000,0.100000,-0.064470,-0.054425,-0.050000,-0.050000,0.634851,-0.488493,0.000000,0.000000,-0.370762,0.058079,0.152870,0.096310,0.157674,0.003614,-0.162081,-0.129604,0.203007,-0.533185
-0.050000,-0.050000,-0.067423,0.000000,0.000000,0.006906,0.000000,0.000000,0.204640,0.100000,0.100000,-0.066364,-0.061383,-0.050000,-0.050000,0.634349,-0.492722,0.000000,0.000000,-0.376622,0.062356,0.170380,0.098597,0.158803,-0.001033,-0.160016,-0.126920,0.196312,-0.531942
-0.050000,-0.050000,-0.067665,0.000000,0.000000,0.006017,0.000000,0.000000,0.204909,0.100000,0.100000,-0.068841,-0.069360,-0.050000,-0.050000,0.633461,-0.497531,0.000000,0.000000,-0.382692,0.066906,0.190229,0.102015,0.159328,-0.004156,-0.157922,-0.124398,0.188845,-0.529402
-0.050000,-0.050000,-0.067827,0.000000,0.000000,0.005359,0.000000,0.000000,0.205833,0.100000,0.100000,-0.071387,-0.078964,-0.050000,-0.050000,0.631932,-0.502766,0.000000,0.000000,-0.389241,0.072255,0.214864,0.106702,0.158637,-0.003273,-0.155067,-0.122426,0.179356,-0.523388
-0.050000,-0.050000,-0.068026,0.000000,0.000000,0.004844,0.000000,0.000000,0.207128,0.100000,0.100000,-0.074483,-0.089687,-0.050000,-0.050000,0.629763,-0.508315,0.000000,0.000000,-0.395916,0.077954,0.242145,0.112092,0.157360,0.000198,-0.152286,-0.121095,0.168950,-0.515389
-0.050000,-0.050000,-0.068097,0.000000,0.000000,0.004536,0.000000,0.000000,0.209033,0.100000,0.100000,-0.077683,-0.101716,-0.050000,-0.050000,0.626792,-0.513864,0.000000,0.000000,-0.402819,0.084220,0.273041,0.117856,0.155341,0.007379,-0.149170,-0.120663,0.157168,-0.504590
-0.050000,-0.050000,-0.068033,0.000000,0.000000,0.004447,0.000000,0.000000,0.211546,0.100000,0.100000,-0.081001,-0.115060,-0.050000,-0.050000,0.622821,-0.519079,0.000000,0.000000,-0.409866,0.090949,0.307461,0.123295,0.152779,0.018734,-0.145823,-0.121505,0.144248,-0.491175
-0.050000,-0.050000,-0.067928,0.000000,0.000000,0.004484,0.000000,0.000000,0.214482,0.100000,0.100000,-0.084627,-0.129246,-0.050000,-0.050000,0.618067,-0.524227,0.000000,0.000000,-0.416879,0.097918,0.344232,0.128623,0.149935,0.032856,-0.142556,-0.123059,0.130653,-0.476031
-0.050000,-0.050000,-0.067536,0.000000,0.000000,0.004879,0.000000,0.000000,0.218174,0.100000,0.100000,-0.087990,-0.144981,-0.050000,-0.050000,0.611805,-0.528063,0.000000,0.000000,-0.424057,0.105240,0.385059,0.132025,0.146827,0.052645,-0.138785,-0.126691,0.116074,-0.458509
-0.050000,-0.050000,-0.067137,0.000000,0.000000,0.005395,0.000000,0.000000,0.222230,0.100000,0.100000,-0.091732,-0.161357,-0.050000,-0.050000,0.604570,-0.531510,0.000000,0.000000,-0.431092,0.112564,0.427930,0.134489,0.143829,0.075364,-0.135177,-0.131132,0.101259,-0.440007
-0.050000,-0.050000,-0.066569,0.000000,0.000000,0.006205,0.000000,0.000000,0.226761,0.100000,0.100000,-0.095442,-0.178699,-0.050000,-0.050000,0.595998,-0.533771,0.000000,0.000000,-0.438099,0.119867,0.473303,0.134991,0.141042,0.102063,-0.131379,-0.136973,0.086175,-0.420668
-0.050000,-0.050000,-0.065910,0.000000,0.000000,0.007307,0.000000,0.000000,0.231627,0.100000,0.100000,-0.099276,-0.196819,-0.050000,-0.050000,0.586080,-0.534769,0.000000,0.000000,-0.445007,0.126962,0.520578,0.133310,0.138778,0.132359,-0.127450,-0.144098,0.071203,-0.401318
-0.050000,-0.050000,-0.065186,0.000000,0.000000,0.008567,0.000000,0.000000,0.236743,0.100000,0.100000,-0.103272,-0.215255,-0.050000,-0.050000,0.575208,-0.535054,0.000000,0.000000,-0.451695,0.133940,0.569079,0.130266,0.136943,0.164901,-0.123540,-0.151678,0.056324,-0.381892
-0.050000,-0.050000,-0.064348,0.000000,0.000000,0.010325,0.000000,0.000000,0.242011,0.100000,0.100000,-0.107307,-0.234556,-0.050000,-0.050000,0.562777,-0.533373,0.000000,0.000000,-0.458300,0.140466,0.618558,0.124259,0.136120,0.201025,-0.119312,-0.160806,0.042095,-0.363748
-0.050000,-0.050000,-0.063461,0.000000,0.000000,0.012245,0.000000,0.000000,0.247379,0.100000,0.100000,-0.111546,-0.253837,-0.050000,-0.050000,0.549600,-0.531048,0.000000,0.000000,-0.464585,0.146872,0.668146,0.117021,0.135973,0.238465,-0.115078,-0.169977,0.028344,-0.346224
-0.050000,-0.050000,-0.062495,0.000000,0.000000,0.014538,0.000000,0.000000,0.252723,0.100000,0.100000,-0.115858,-0.273377,-0.050000,-0.050000,0.535521,-0.527499,0.000000,0.000000,-0.470611,0.153023,0.717253,0.108047,0.136690,0.277430,-0.110711,-0.179589,0.015336,-0.329928
-0.050000,-0.050000,-0.061444,0.000000,0.000000,0.017179,0.000000,0.000000,0.257959,0.100000,0.100000,-0.120336,-0.292841,-0.050000,-0.050000,0.520922,-0.523119,0.000000,0.000000,-0.476252,0.159091,0.764721,0.097854,0.138202,0.316901,-0.106359,-0.189106,0.003310,-0.314895
-0.050000,-0.050000,-0.060335,0.000000,0.000000,0.020021,0.000000,0.000000,0.263145,0.100000,0.100000,-0.124687,-0.312137,-0.050000,-0.050000,0.506041,-0.518146,0.000000,0.000000,-0.481514,0.165167,0.810949,0.086849,0.140223,0.356552,-0.101879,-0.198318,-0.008154,-0.300561
-0.050000,-0.050000,-0.059106,0.000000,0.000000,0.023356,0.000000,0.000000,0.268008,0.100000,0.100000,-0.129401,-0.331005,-0.050000,-0.050000,0.491253,-0.512715,0.000000,0.000000,-0.486241,0.171406,0.852921,0.075122,0.142808,0.395232,-0.097839,-0.206849,-0.018003,-0.287612
-0.050000,-0.050000,-0.057804,0.000000,0.000000,0.026883,0.000000,0.000000,0.272774,0.100000,0.100000,-0.133809,-0.349374,-0.050000,-0.050000,0.476818,-0.507147,0.000000,0.000000,-0.490498,0.177859,0.892041,0.063021,0.145501,0.432926,-0.093772,-0.214538,-0.027141,-0.275105
-0.050000,-0.050000,-0.056425,0.000000,0.000000,0.030714,0.000000,0.000000,0.277283,0.100000,0.100000,-0.138278,-0.367027,-0.050000,-0.050000,0.463041,-0.501656,0.000000,0.000000,-0.494212,0.184652,0.926684,0.050721,0.148140,0.468953,-0.090145,-0.221124,-0.035078,-0.263112
-0.050000,-0.050000,-0.054980,0.000000,0.000000,0.034801,0.000000,0.000000,0.281588,0.100000,0.100000,-0.142742,-0.383709,-0.050000,-0.050000,0.450315,-0.496634,0.000000,0.000000,-0.497344,0.191848,0.956037,0.038332,0.150326,0.502741,-0.087144,-0.226351,-0.041805,-0.251264
-0.050000,-0.050000,-0.053500,0.000000,0.000000,0.039042,0.000000,0.000000,0.285758,0.100000,0.100000,-0.146783,-0.399716,-0.050000,-0.050000,0.438424,-0.491740,0.000000,0.000000,-0.500101,0.199276,0.981734,0.025746,0.152139,0.535059,-0.084214,-0.230563,-0.047922,-0.239515
-0.050000,-0.050000,-0.052015,0.000000,0.000000,0.043505,0.000000,0.000000,0.289701,0.100000,0.100000,-0.151308,-0.414112,-0.050000,-0.050000,0.428274,-0.488119,0.000000,0.000000,-0.502172,0.207196,0.999907,0.013166,0.152809,0.563965,-0.082756,-0.233029,-0.052356,-0.227469
-0.050000,-0.050000,-0.050528,0.000000,0.000000,0.048066,0.000000,0.000000,0.293597,0.100000,0.100000,-0.155250,-0.427643,-0.050000,-0.050000,0.419254,-0.484844,0.000000,0.000000,-0.503986,0.215153,1.014015,0.000224,0.152737,0.591154,-0.081397,-0.234528,-0.056317,-0.215369
-0.050000,-0.050000,-0.049092,0.000000,0.000000,0.052676,0.000000,0.000000,0.297387,0.100000,0.100000,-0.159302,-0.439824,-0.050000,-0.050000,0.411674,-0.482486,0.000000,0.000000,-0.505407,0.223246,1.022669,-0.012976,0.151621,0.615884,-0.080911,-0.234865,-0.059304,-0.203043
-0.050000,-0.050000,-0.047746,0.000000,0.000000,0.057277,0.000000,0.000000,0.301172,0.100000,0.100000,-0.163309,-0.450690,-0.050000,-0.050000,0.405452,-0.480964,0.000000,0.000000,-0.506569,0.231164,1.026455,-0.026576,0.149461,0.638332,-0.081117,-0.234370,-0.061512,-0.190692
-0.050000,-0.050000,-0.046400,0.000000,0.000000,0.061861,0.000000,0.000000,0.304942,0.100000,0.100000,-0.167046,-0.460648,-0.050000,-0.050000,0.400191,-0.479829,0.000000,0.000000,-0.507640,0.238924,1.027062,-0.040580,0.146612,0.659331,-0.081512,-0.233260,-0.063360,-0.178418
-0.050000,-0.050000,-0.045267,0.000000,0.000000,0.066274,0.000000,0.000000,0.308793,0.100000,0.100000,-0.171132,-0.469006,-0.050000,-0.050000,0.396226,-0.479765,0.000000,0.000000,-0.508493,0.246024,1.023022,-0.054917,0.142699,0.677743,-0.082852,-0.231807,-0.064253,-0.166628
-0.050000,-0.050000,-0.044090,0.000000,0.000000,0.070601,0.000000,0.000000,0.312704,0.100000,0.100000,-0.174907,-0.476556,-0.050000,-0.050000,0.392950,-0.479881,0.000000,0.000000,-0.509427,0.252617,1.017003,-0.069612,0.138330,0.694917,-0.084117,-0.230211,-0.064940,-0.155427
-0.050000,-0.050000,-0.043002,0.000000,0.000000,0.074722,0.000000,0.000000,0.316693,0.100000,0.100000,-0.178753,-0.483044,-0.050000,-0.050000,0.390349,-0.480434,0.000000,0.000000,-0.510351,0.258426,1.008873,-0.084460,0.133489,0.710452,-0.085624,-0.228712,-0.065145,-0.145150
-0.050000,-0.050000,-0.041931,0.000000,0.000000,0.078624,0.000000,0.000000,0.320786,0.100000,0.100000,-0.182472,-0.488632,-0.050000,-0.050000,0.388191,-0.481167,0.000000,0.000000,-0.511337,0.263247,0.999738,-0.099243,0.128454,0.724471,-0.087039,-0.227581,-0.064992,-0.136214
-0.050000,-0.050000,-0.040789,0.000000,0.000000,0.082371,0.000000,0.000000,0.324912,0.100000,0.100000,-0.186128,-0.493614,-0.050000,-0.050000,0.386300,-0.481916,0.000000,0.000000,-0.512443,0.267490,0.990054,-0.114061,0.123338,0.737480,-0.088370,-0.226671,-0.064619,-0.128191
-0.050000,-0.050000,-0.039683,0.000000,0.000000,0.085799,0.000000,0.000000,0.329161,0.100000,0.100000,-0.189454,-0.497682,-0.050000,-0.050000,0.384588,-0.482687,0.000000,0.000000,-0.513513,0.270186,0.980817,-0.128148,0.118442,0.748643,-0.089304,-0.226629,-0.063826,-0.122345
-0.050000,-0.050000,-0.038415,0.000000,0.000000,0.089057,0.000000,0.000000,0.333389,0.100000,0.100000,-0.192586,-0.501284,-0.050000,-0.050000,0.382922,-0.483252,0.000000,0.000000,-0.514713,0.272275,0.972128,-0.141937,0.113798,0.758757,-0.090003,-0.227021,-0.062829,-0.117636
-0.050000,-0.050000,-0.037079,0.000000,0.000000,0.092086,0.000000,0.000000,0.337626,0.100000,0.100000,-0.195280,-0.504303,-0.050000,-0.050000,0.381252,-0.483639,0.000000,0.000000,-0.515865,0.273288,0.964622,-0.154956,0.109583,0.767487,-0.090291,-0.228105,-0.061563,-0.114547
-0.050000,-0.050000,-0.035621,0.000000,0.000000,0.094906,0.000000,0.000000,0.341800,0.100000,0.100000,-0.197357,-0.506799,-0.050000,-0.050000,0.379548,-0.483782,0.000000,0.000000,-0.516910,0.273361,0.958750,-0.167030,0.105974,0.774814,-0.090143,-0.229850,-0.060060,-0.112924
-0.050000,-0.050000,-0.034061,0.000000,0.000000,0.097577,0.000000,0.000000,0.345874,0.100000,0.100000,-0.199112,-0.508956,-0.050000,-0.050000,0.377768,-0.483685,0.000000,0.000000,-0.517947,0.272949,0.953975,-0.178531,0.102800,0.781205,-0.089840,-0.232043,-0.058359,-0.112191
-0.050000,-0.050000,-0.032423,0.000000,0.000000,0.100034,0.000000,0.000000,0.349805,0.100000,0.100000,-0.199629,-0.510502,-0.050000,-0.050000,0.375999,-0.483418,0.000000,0.000000,-0.518554,0.271393,0.951838,-0.188399,0.100588,0.785915,-0.088911,-0.234941,-0.056472,-0.112958
-0.050000,-0.050000,-0.030711,0.000000,0.000000,0.102360,0.000000,0.000000,0.353509,0.100000,0.100000,-0.199645,-0.511752,-0.050000,-0.050000,0.374137,-0.482915,0.000000,0.000000,-0.519059,0.269594,0.951035,-0.197462,0.098972,0.789794,-0.087963,-0.238205,-0.054430,-0.114286
-0.050000,-0.050000,-0.028980,0.000000,0.000000,0.104555,0.000000,0.000000,0.356993,0.100000,0.100000,-0.198648,-0.512595,-0.050000,-0.050000,0.372280,-0.482321,0.000000,0.000000,-0.519191,0.267239,0.952225,-0.205190,0.098141,0.792644,-0.086752,-0.241860,-0.052300,-0.116351
-0.050000,-0.050000,-0.027270,0.000000,0.000000,0.106631,0.000000,0.000000,0.360182,0.100000,0.100000,-0.196623,-0.513072,-0.050000,-0.050000,0.370417,-0.481655,0.000000,0.000000,-0.518962,0.264539,0.955299,-0.211464,0.098122,0.794746,-0.085417,-0.245797,-0.050157,-0.118946
-0.050000,-0.050000,-0.025591,0.000000,0.000000,0.108625,0.000000,0.000000,0.363116,0.100000,0.100000,-0.193970,-0.513361,-0.050000,-0.050000,0.368491,-0.480891,0.000000,0.000000,-0.518514,0.261729,0.959563,-0.216773,0.098652,0.796416,-0.084134,-0.249975,-0.047976,-0.121797
-0.050000,-0.050000,-0.024037,0.000000,0.000000,0.110515,0.000000,0.000000,0.365703,0.100000,0.100000,-0.189882,-0.513240,-0.050000,-0.050000,0.366622,-0.480182,0.000000,0.000000,-0.517565,0.258518,0.966008,-0.219936,0.100116,0.797739,-0.082668,-0.254301,-0.045993,-0.125252
-0.050000,-0.050000,-0.022575,0.000000,0.000000,0.112333,0.000000,0.000000,0.367987,0.100000,0.100000,-0.185210,-0.513050,-0.050000,-0.050000,0.364648,-0.479358,0.000000,0.000000,-0.516457,0.255342,0.973372,-0.221941,0.102070,0.799122,-0.081379,-0.258835,-0.044077,-0.128887
-0.050000,-0.050000,-0.021261,0.000000,0.000000,0.114078,0.000000,0.000000,0.369997,0.100000,0.100000,-0.179633,-0.512704,-0.050000,-0.050000,0.362652,-0.478506,0.000000,0.000000,-0.515086,0.252005,0.981973,-0.222268,0.104587,0.800734,-0.080103,-0.263491,-0.042376,-0.132941
-0.050000,-0.050000,-0.020109,0.000000,0.000000,0.115740,0.000000,0.000000,0.371744,0.100000,0.100000,-0.173355,-0.512313,-0.050000,-0.050000,0.360579,-0.477505,0.000000,0.000000,-0.513603,0.248568,0.991424,-0.220930,0.107524,0.802915,-0.078922,-0.268285,-0.040928,-0.137481
-0.050000,-0.050000,-0.019057,0.000000,0.000000,0.117336,0.000000,0.000000,0.373297,0.100000,0.100000,-0.166652,-0.511993,-0.050000,-0.050000,0.358455,-0.476416,0.000000,0.000000,-0.512040,0.245125,1.001377,-0.218475,0.110721,0.805521,-0.077846,-0.273241,-0.039631,-0.142248
-0.050000,-0.050000,-0.018219,0.000000,0.000000,0.118804,0.000000,0.000000,0.374671,0.100000,0.100000,-0.159399,-0.511692,-0.050000,-0.050000,0.356253,-0.474981,0.000000,0.000000,-0.510559,0.241474,1.011767,-0.214030,0.114131,0.809223,-0.076831,-0.278269,-0.038736,-0.147899
-0.050000,-0.050000,-0.017448,0.000000,0.000000,0.120164,0.000000,0.000000,0.375918,0.100000,0.100000,-0.152013,-0.511621,-0.050000,-0.050000,0.354050,-0.473366,0.000000,0.000000,-0.509161,0.237849,1.022164,-0.208600,0.117572,0.813543,-0.075913,-0.283439,-0.038012,-0.153829
-0.050000,-0.050000,-0.016798,0.000000,0.000000,0.121381,0.000000,0.000000,0.377098,0.100000,0.100000,-0.144549,-0.511733,-0.050000,-0.050000,0.351837,-0.471424,0.000000,0.000000,-0.507945,0.234150,1.032394,-0.201914,0.120953,0.818723,-0.075049,-0.288650,-0.037562,-0.160351
-0.050000,-0.050000,-0.016216,0.000000,0.000000,0.122413,0.000000,0.000000,0.378232,0.100000,0.100000,-0.137287,-0.512113,-0.050000,-0.050000,0.349689,-0.469158,0.000000,0.000000,-0.506994,0.230492,1.042108,-0.194240,0.124138,0.824646,-0.074240,-0.293816,-0.037355,-0.167362
-0.050000,-0.050000,-0.015662,0.000000,0.000000,0.123311,0.000000,0.000000,0.379364,0.100000,0.100000,-0.130150,-0.512752,-0.050000,-0.050000,0.347642,-0.466705,0.000000,0.000000,-0.506191,0.226844,1.051446,-0.185930,0.127159,0.831038,-0.073409,-0.298968,-0.037323,-0.174625
-0.050000,-0.050000,-0.015156,0.000000,0.000000,0.123917,0.000000,0.000000,0.380463,0.100000,0.100000,-0.123750,-0.513659,-0.050000,-0.050000,0.345762,-0.463889,0.000000,0.000000,-0.505808,0.223448,1.059625,-0.176862,0.129781,0.838025,-0.072642,-0.303763,-0.037549,-0.182342
-0.050000,-0.050000,-0.014631,0.000000,0.000000,0.124353,0.000000,0.000000,0.381578,0.100000,0.100000,-0.117741,-0.514836,-0.050000,-0.050000,0.344121,-0.460986,0.000000,0.000000,-0.505570,0.220177,1.067133,-0.167533,0.132137,0.845179,-0.071779,-0.308343,-0.037939,-0.190109
-0.050000,-0.050000,-0.014105,0.000000,0.000000,0.124543,0.000000,0.000000,0.382661,0.100000,0.100000,-0.112489,-0.516201,-0.050000,-0.050000,0.342730,-0.457959,0.000000,0.000000,-0.505576,0.217211,1.073588,-0.158007,0.134165,0.852449,-0.070894,-0.312499,-0.038496,-0.197917
-0.050000,-0.050000,-0.013570,0.000000,0.000000,0.124481,0.000000,0.000000,0.383664,0.100000,0.100000,-0.108114,-0.517687,-0.050000,-0.050000,0.341672,-0.454957,0.000000,0.000000,-0.505731,0.214616,1.078945,-0.148600,0.135884,0.859576,-0.069953,-0.316142,-0.039174,-0.205513
-0.050000,-0.050000,-0.013029,0.000000,0.000000,0.124264,0.000000,0.000000,0.384658,0.100000,0.100000,-0.104249,-0.519259,-0.050000,-0.050000,0.340862,-0.451958,0.000000,0.000000,-0.505954,0.212188,1.083578,-0.139318,0.137385,0.866590,-0.068892,-0.319431,-0.039974,-0.212967
-0.050000,-0.050000,-0.012528,0.000000,0.000000,0.123705,0.000000,0.000000,0.385373,0.100000,0.100000,-0.101770,-0.520712,-0.050000,-0.050000,0.340506,-0.449208,0.000000,0.000000,-0.506203,0.210359,1.086783,-0.130737,0.138610,0.873057,-0.067862,-0.322022,-0.040746,-0.219720
-0.050000,-0.050000,-0.012065,0.000000,0.000000,0.123003,0.000000,0.000000,0.386020,0.100000,0.100000,-0.099835,-0.522072,-0.050000,-0.050000,0.340430,-0.446561,0.000000,0.000000,-0.506369,0.208626,1.089302,-0.122700,0.139666,0.879183,-0.066692,-0.324283,-0.041554,-0.226076
-0.050000,-0.050000,-0.011684,0.000000,0.000000,0.122054,0.000000,0.000000,0.386408,0.100000,0.100000,-0.098873,-0.523188,-0.050000,-0.050000,0.340714,-0.444162,0.000000,0.000000,-0.506396,0.207188,1.090856,-0.115555,0.140563,0.884749,-0.065518,-0.326142,-0.042243,-0.231705
-0.050000,-0.050000,-0.011443,0.000000,0.000000,0.120866,0.000000,0.000000,0.386514,0.100000,0.100000,-0.098777,-0.523991,-0.050000,-0.050000,0.341350,-0.442021,0.000000,0.000000,-0.506159,0.205859,1.091562,-0.109557,0.141294,0.889672,-0.064352,-0.327789,-0.042709,-0.236488
-0.050000,-0.050000,-0.011285,0.000000,0.000000,0.119528,0.000000,0.000000,0.386473,0.100000,0.100000,-0.099168,-0.524516,-0.050000,-0.050000,0.342217,-0.439999,0.000000,0.000000,-0.505760,0.204540,1.091735,-0.104360,0.141919,0.894171,-0.063147,-0.329279,-0.043056,-0.240764
-0.050000,-0.050000,-0.011412,0.000000,0.000000,0.117825,0.000000,0.000000,0.385943,0.100000,0.100000,-0.100621,-0.524642,-0.050000,-0.050000,0.343503,-0.438370,0.000000,0.000000,-0.504877,0.203159,1.090967,-0.100938,0.142278,0.897708,-0.062138,-0.330888,-0.042836,-0.243803
-0.050000,-0.050000,-0.011669,0.000000,0.000000,0.115942,0.000000,0.000000,0.385280,0.100000,0.100000,-0.102403,-0.524473,-0.050000,-0.050000,0.344997,-0.436811,0.000000,0.000000,-0.503776,0.201588,1.089797,-0.098478,0.142459,0.900728,-0.061157,-0.332565,-0.042369,-0.246358
-0.050000,-0.050000,-0.012156,0.000000,0.000000,0.113755,0.000000,0.000000,0.384296,0.100000,0.100000,-0.104753,-0.524066,-0.050000,-0.050000,0.346778,-0.435471,0.000000,0.000000,-0.502327,0.199773,1.088065,-0.097363,0.142352,0.902971,-0.060364,-0.334498,-0.041415,-0.248168
-0.050000,-0.050000,-0.012863,0.000000,0.000000,0.111243,0.000000,0.000000,0.383080,0.100000,0.100000,-0.107488,-0.523575,-0.050000,-0.050000,0.348817,-0.434310,0.000000,0.000000,-0.500596,0.197613,1.085882,-0.097426,0.141874,0.904387,-0.059787,-0.336748,-0.039981,-0.249479
-0.050000,-0.050000,-0.013693,0.000000,0.000000,0.108518,0.000000,0.000000,0.381750,0.100000,0.100000,-0.110443,-0.522998,-0.050000,-0.050000,0.351039,-0.433197,0.000000,0.000000,-0.498718,0.195235,1.083432,-0.098240,0.141145,0.905237,-0.059346,-0.339173,-0.038249,-0.250555
-0.050000,-0.050000,-0.014785,0.000000,0.000000,0.105303,0.000000,0.000000,0.380187,0.100000,0.100000,-0.113713,-0.522809,-0.050000,-0.050000,0.353554,-0.432423,0.000000,0.000000,-0.496645,0.192385,1.080544,-0.100080,0.139824,0.904898,-0.059276,-0.342012,-0.035948,-0.251479
-0.050000,-0.050000,-0.015942,0.000000,0.000000,0.101855,0.000000,0.000000,0.378643,0.100000,0.100000,-0.117076,-0.522881,-0.050000,-0.050000,0.356246,-0.431701,0.000000,0.000000,-0.494595,0.189372,1.077513,-0.102215,0.138190,0.903871,-0.059372,-0.344925,-0.033445,-0.252646
-0.050000,-0.050000,-0.017213,0.000000,0.000000,0.098038,0.000000,0.000000,0.377067,0.100000,0.100000,-0.120542,-0.523559,-0.050000,-0.050000,0.359151,-0.431243,0.000000,0.000000,-0.492601,0.186117,1.074297,-0.104595,0.136116,0.901860,-0.059731,-0.347941,-0.030689,-0.254233
-0.050000,-0.050000,-0.018514,0.000000,0.000000,0.093876,0.000000,0.000000,0.375575,0.100000,0.100000,-0.124030,-0.525080,-0.050000,-0.050000,0.362274,-0.431115,0.000000,0.000000,-0.490830,0.182780,1.071013,-0.106757,0.133666,0.898784,-0.060308,-0.350832,-0.027851,-0.256635
-0.050000,-0.050000,-0.019832,0.000000,0.000000,0.089514,0.000000,0.000000,0.374180,0.100000,0.100000,-0.127585,-0.527257,-0.050000,-0.050000,0.365534,-0.431147,0.000000,0.000000,-0.489199,0.179434,1.067703,-0.108696,0.130958,0.894966,-0.061037,-0.353612,-0.024975,-0.259693
-0.050000,-0.050000,-0.021089,0.000000,0.000000,0.084724,0.000000,0.000000,0.372976,0.100000,0.100000,-0.131038,-0.530865,-0.050000,-0.050000,0.369078,-0.431933,0.000000,0.000000,-0.488060,0.176255,1.064501,-0.109690,0.127954,0.889628,-0.061940,-0.355840,-0.022276,-0.264254
-0.050000,-0.050000,-0.022294,0.000000,0.000000,0.079813,0.000000,0.000000,0.371954,0.100000,0.100000,-0.134554,-0.535435,-0.050000,-0.050000,0.372740,-0.433032,0.000000,0.000000,-0.487154,0.173309,1.061412,-0.109983,0.124812,0.883380,-0.062929,-0.357682,-0.019726,-0.269831
-0.050000,-0.050000,-0.023411,0.000000,0.000000,0.074674,0.000000,0.000000,0.371149,0.100000,0.100000,-0.138017,-0.541251,-0.050000,-0.050000,0.376588,-0.434817,0.000000,0.000000,-0.486633,0.170731,1.058549,-0.109239,0.121588,0.875862,-0.063969,-0.358872,-0.017461,-0.276740
-0.050000,-0.050000,-0.024419,0.000000,0.000000,0.069402,0.000000,0.000000,0.370559,0.100000,0.100000,-0.141439,-0.548316,-0.050000,-0.050000,0.380596,-0.437390,0.000000,0.000000,-0.486459,0.168671,1.056011,-0.107332,0.118373,0.866951,-0.065007,-0.359301,-0.015547,-0.284969
-0.050000,-0.050000,-0.025384,0.000000,0.000000,0.064102,0.000000,0.000000,0.370147,0.100000,0.100000,-0.144911,-0.556325,-0.050000,-0.050000,0.384634,-0.440425,0.000000,0.000000,-0.486461,0.167005,1.053693,-0.104621,0.115159,0.857106,-0.066061,-0.359205,-0.013868,-0.294140
-0.050000,-0.050000,-0.026209,0.000000,0.000000,0.058702,0.000000,0.000000,0.369933,0.100000,0.100000,-0.148227,-0.565599,-0.050000,-0.050000,0.388861,-0.444769,0.000000,0.000000,-0.486811,0.166154,1.051966,-0.100441,0.112093,0.845260,-0.067016,-0.358042,-0.012686,-0.304637
-0.050000,-0.050000,-0.027031,0.000000,0.000000,0.053409,0.000000,0.000000,0.369845,0.100000,0.100000,-0.151608,-0.575661,-0.050000,-0.050000,0.392993,-0.449651,0.000000,0.000000,-0.487211,0.165808,1.050548,-0.095471,0.109073,0.832305,-0.067977,-0.356350,-0.011741,-0.315870
-0.050000,-0.050000,-0.027827,0.000000,0.000000,0.048175,0.000000,0.000000,0.369870,0.100000,0.100000,-0.154922,-0.586448,-0.050000,-0.050000,0.397121,-0.455498,0.000000,0.000000,-0.487693,0.166135,1.049635,-0.089508,0.106161,0.817754,-0.068885,-0.353914,-0.011114,-0.327810
-0.050000,-0.050000,-0.028657,0.000000,0.000000,0.043091,0.000000,0.000000,0.369952,0.100000,0.100000,-0.158190,-0.597679,-0.050000,-0.050000,0.401130,-0.462240,0.000000,0.000000,-0.488135,0.167088,1.049214,-0.082605,0.103313,0.801553,-0.069783,-0.350841,-0.010748,-0.340205
-0.050000,-0.050000,-0.029534,0.000000,0.000000,0.038166,0.000000,0.000000,0.370068,0.100000,0.100000,-0.161458,-0.609250,-0.050000,-0.050000,0.404964,-0.469498,0.000000,0.000000,-0.488541,0.168529,1.049131,-0.075104,0.100509,0.784300,-0.070709,-0.347314,-0.010540,-0.352890
-0.050000,-0.050000,-0.030525,0.000000,0.000000,0.033439,0.000000,0.000000,0.370152,0.100000,0.100000,-0.164606,-0.620662,-0.050000,-0.050000,0.408633,-0.477910,0.000000,0.000000,-0.488747,0.170603,1.049638,-0.066371,0.097712,0.764895,-0.071659,-0.343055,-0.010574,-0.365610
-0.050000,-0.050000,-0.031607,0.000000,0.000000,0.028938,0.000000,0.000000,0.370178,0.100000,0.100000,-0.167739,-0.632001,-0.050000,-0.050000,0.412024,-0.486712,0.000000,0.000000,-0.488865,0.173101,1.050418,-0.056941,0.094908,0.744487,-0.072701,-0.338369,-0.010718,-0.378282
-0.050000,-0.050000,-0.032818,0.000000,0.000000,0.024635,0.000000,0.000000,0.370113,0.100000,0.100000,-0.170807,-0.642881,-0.050000,-0.050000,0.415206,-0.496195,0.000000,0.000000,-0.488792,0.176046,1.051541,-0.046436,0.092065,0.722675,-0.073822,-0.333061,-0.010996,-0.390665
-0.050000,-0.050000,-0.034149,0.000000,0.000000,0.020537,0.000000,0.000000,0.369905,0.100000,0.100000,-0.173851,-0.653048,-0.050000,-0.050000,0.418175,-0.506195,0.000000,0.000000,-0.488536,0.179416,1.052870,-0.034615,0.089164,0.699699,-0.075041,-0.326992,-0.011417,-0.402517
-0.050000,-0.050000,-0.035545,0.000000,0.000000,0.016603,0.000000,0.000000,0.369555,0.100000,0.100000,-0.176833,-0.662812,-0.050000,-0.050000,0.420970,-0.516478,0.000000,0.000000,-0.488213,0.183114,1.054327,-0.021941,0.086230,0.676075,-0.076330,-0.320410,-0.011939,-0.413870
-0.050000,-0.050000,-0.037048,0.000000,0.000000,0.012827,0.000000,0.000000,0.368977,0.100000,0.100000,-0.179916,-0.671125,-0.050000,-0.050000,0.423735,-0.527308,0.000000,0.000000,-0.487602,0.187364,1.055765,-0.007030,0.083191,0.651386,-0.077684,-0.312444,-0.012700,-0.424011
-0.050000,-0.050000,-0.038544,0.000000,0.000000,0.009179,0.000000,0.000000,0.368165,0.100000,0.100000,-0.182972,-0.678844,-0.050000,-0.050000,0.426482,-0.538266,0.000000,0.000000,-0.486965,0.191980,1.057094,0.009041,0.080092,0.626478,-0.079045,-0.303752,-0.013641,-0.433112
-0.050000,-0.050000,-0.040036,0.000000,0.000000,0.005617,0.000000,0.000000,0.367103,0.100000,0.100000,-0.186173,-0.685394,-0.050000,-0.050000,0.429390,-0.549450,0.000000,0.000000,-0.486147,0.197141,1.058160,0.026958,0.076882,0.601278,-0.080378,-0.293836,-0.014828,-0.440709
-0.050000,-0.050000,-0.041444,0.000000,0.000000,0.002136,0.000000,0.000000,0.365734,0.100000,0.100000,-0.189621,-0.690776,-0.050000,-0.050000,0.432654,-0.560717,0.000000,0.000000,-0.485147,0.202949,1.058733,0.046632,0.073494,0.576125,-0.081629,-0.282658,-0.016305,-0.446403
-0.050000,-0.050000,-0.042787,0.000000,0.000000,-0.001307,0.000000,0.000000,0.364127,0.100000,0.100000,-0.193122,-0.695495,-0.050000,-0.050000,0.436187,-0.571968,0.000000,0.000000,-0.484074,0.209144,1.058904,0.067426,0.069964,0.551139,-0.082756,-0.270775,-0.018022,-0.450542
-0.050000,-0.050000,-0.043924,0.000000,0.000000,-0.004650,0.000000,0.000000,0.362119,0.100000,0.100000,-0.197367,-0.698490,-0.050000,-0.050000,0.440626,-0.583138,0.000000,0.000000,-0.482552,0.216413,1.057969,0.090067,0.065978,0.526547,-0.083745,-0.257332,-0.020054,-0.451786
-0.050000,-0.050000,-0.044944,0.000000,0.000000,-0.007951,0.000000,0.000000,0.359837,0.100000,0.100000,-0.201792,-0.700856,-0.050000,-0.050000,0.445665,-0.594105,0.000000,0.000000,-0.480853,0.224058,1.056199,0.113273,0.061617,0.502409,-0.084525,-0.243499,-0.022326,-0.451077
-0.050000,-0.050000,-0.045766,0.000000,0.000000,-0.011154,0.000000,0.000000,0.357223,0.100000,0.100000,-0.206891,-0.702039,-0.050000,-0.050000,0.451694,-0.604778,0.000000,0.000000,-0.478710,0.232466,1.053139,0.137080,0.056654,0.478804,-0.085140,-0.229053,-0.024758,-0.447883
-0.050000,-0.050000,-0.046390,0.000000,0.000000,-0.014196,0.000000,0.000000,0.354260,0.100000,0.100000,-0.212786,-0.702206,-0.050000,-0.050000,0.458908,-0.615026,0.000000,0.000000,-0.475991,0.241462,1.048407,0.160630,0.050826,0.455923,-0.085628,-0.214550,-0.027186,-0.442332
-0.050000,-0.050000,-0.046904,0.000000,0.000000,-0.017204,0.000000,0.000000,0.351102,0.100000,0.100000,-0.219033,-0.701673,-0.050000,-0.050000,0.466991,-0.624909,0.000000,0.000000,-0.472943,0.250716,1.042431,0.183856,0.044377,0.433442,-0.085886,-0.200182,-0.029681,-0.435107
-0.050000,-0.050000,-0.047151,0.000000,0.000000,-0.019811,0.000000,0.000000,0.347465,0.100000,0.100000,-0.226892,-0.699938,-0.050000,-0.050000,0.476905,-0.634081,0.000000,0.000000,-0.468758,0.260518,1.033572,0.205267,0.036342,0.412245,-0.086298,-0.186623,-0.031573,-0.425615
-0.050000,-0.050000,-0.047327,0.000000,0.000000,-0.022355,0.000000,0.000000,0.343689,0.100000,0.100000,-0.235217,-0.697594,-0.050000,-0.050000,0.487942,-0.642810,0.000000,0.000000,-0.464052,0.270155,1.022841,0.225228,0.027320,0.391733,-0.086529,-0.173836,-0.033179,-0.415064
-0.050000,-0.050000,-0.047341,0.000000,0.000000,-0.024603,0.000000,0.000000,0.339591,0.100000,0.100000,-0.244771,-0.694481,-0.050000,-0.050000,0.500527,-0.650893,0.000000,0.000000,-0.458368,0.279702,1.009345,0.242836,0.016827,0.372455,-0.086912,-0.162304,-0.033962,-0.403481
-0.050000,-0.050000,-0.047249,0.000000,0.000000,-0.026562,0.000000,0.000000,0.335221,0.100000,0.100000,-0.255546,-0.690805,-0.050000,-0.050000,0.514677,-0.658341,0.000000,0.000000,-0.451588,0.288700,0.992708,0.257555,0.004704,0.354788,-0.087542,-0.152368,-0.033562,-0.391523
-0.050000,-0.050000,-0.047086,0.000000,0.000000,-0.028462,0.000000,0.000000,0.330777,0.100000,0.100000,-0.266889,-0.686613,-0.050000,-0.050000,0.529945,-0.665391,0.000000,0.000000,-0.444195,0.297204,0.973881,0.270256,-0.008471,0.338104,-0.088155,-0.143425,-0.032427,-0.379378
-0.050000,-0.050000,-0.046807,0.000000,0.000000,-0.029843,0.000000,0.000000,0.325870,0.100000,0.100000,-0.280207,-0.682174,-0.050000,-0.050000,0.547033,-0.671575,0.000000,0.000000,-0.435013,0.304411,0.950492,0.278746,-0.023853,0.324396,-0.089634,-0.136952,-0.028909,-0.367909
-0.050000,-0.050000,-0.046488,0.000000,0.000000,-0.031251,0.000000,0.000000,0.321011,0.100000,0.100000,-0.293975,-0.677403,-0.050000,-0.050000,0.565136,-0.677442,0.000000,0.000000,-0.425107,0.310619,0.924598,0.285019,-0.040238,0.312188,-0.091205,-0.131504,-0.024195,-0.356995
-0.050000,-0.050000,-0.046097,0.000000,0.000000,-0.032420,0.000000,0.000000,0.315900,0.100000,0.100000,-0.308934,-0.672567,-0.050000,-0.050000,0.584355,-0.682675,0.000000,0.000000,-0.413848,0.315369,0.895175,0.288241,-0.058012,0.302510,-0.093491,-0.127787,-0.017391,-0.347178
-0.050000,-0.050000,-0.045664,0.000000,0.000000,-0.033467,0.000000,0.000000,0.310666,0.100000,0.100000,-0.324771,-0.667760,-0.050000,-0.050000,0.604377,-0.687302,0.000000,0.000000,-0.401257,0.318368,0.862469,0.288816,-0.076851,0.295464,-0.096488,-0.125620,-0.008395,-0.338809
-0.050000,-0.050000,-0.045185,0.000000,0.000000,-0.034556,0.000000,0.000000,0.305459,0.100000,0.100000,-0.340951,-0.662865,-0.050000,-0.050000,0.624865,-0.691592,0.000000,0.000000,-0.387872,0.320219,0.827597,0.287668,-0.096150,0.290080,-0.099936,-0.124309,0.002021,-0.331374
-0.050000,-0.050000,-0.044690,0.000000,0.000000,-0.035419,0.000000,0.000000,0.299989,0.100000,0.100000,-0.358094,-0.658326,-0.050000,-0.050000,0.645505,-0.694835,0.000000,0.000000,-0.372577,0.319405,0.789248,0.284039,-0.116181,0.288262,-0.104653,-0.124936,0.015389,-0.326340
-0.050000,-0.050000,-0.044163,0.000000,0.000000,-0.036415,0.000000,0.000000,0.294677,0.100000,0.100000,-0.375138,-0.653727,-0.050000,-0.050000,0.666007,-0.697692,0.000000,0.000000,-0.356545,0.317312,0.749421,0.279407,-0.135990,0.287999,-0.109872,-0.126207,0.030088,-0.322466
-0.050000,-0.050000,-0.043638,0.000000,0.000000,-0.037359,0.000000,0.000000,0.289296,0.100000,0.100000,-0.392295,-0.649303,-0.050000,-0.050000,0.685896,-0.699681,0.000000,0.000000,-0.339232,0.313192,0.707908,0.273742,-0.155513,0.290050,-0.116047,-0.128610,0.046645,-0.320450
-0.050000,-0.050000,-0.043134,0.000000,0.000000,-0.038308,0.000000,0.000000,0.284013,0.100000,0.100000,-0.409043,-0.644916,-0.050000,-0.050000,0.704702,-0.700788,0.000000,0.000000,-0.320915,0.307181,0.665658,0.267743,-0.174264,0.294029,-0.122962,-0.131881,0.064617,-0.320228
-0.050000,-0.050000,-0.042633,0.000000,0.000000,-0.039305,0.000000,0.000000,0.278794,0.100000,0.100000,-0.425423,-0.640502,-0.050000,-0.050000,0.722582,-0.701356,0.000000,0.000000,-0.301939,0.300076,0.623000,0.261559,-0.192115,0.299143,-0.130575,-0.135710,0.083426,-0.321095
-0.050000,-0.050000,-0.042240,0.000000,0.000000,-0.040180,0.000000,0.000000,0.273779,0.100000,0.100000,-0.440597,-0.636006,-0.050000,-0.050000,0.738224,-0.700506,0.000000,0.000000,-0.282042,0.290641,0.581187,0.256139,-0.208663,0.306280,-0.138725,-0.140372,0.103202,-0.324190
-0.050000,-0.050000,-0.041882,0.000000,0.000000,-0.041058,0.000000,0.000000,0.268901,0.100000,0.100000,-0.454926,-0.631297,-0.050000,-0.050000,0.752417,-0.699099,0.000000,0.000000,-0.261912,0.280522,0.540192,0.251266,-0.223968,0.314124,-0.147365,-0.145386,0.123145,-0.328114
-0.050000,-0.050000,-0.041641,0.000000,0.000000,-0.041809,0.000000,0.000000,0.264271,0.100000,0.100000,-0.467839,-0.626315,-0.050000,-0.050000,0.764435,-0.696660,0.000000,0.000000,-0.241536,0.269186,0.500993,0.247584,-0.237989,0.323017,-0.156246,-0.150763,0.143074,-0.333275
-0.050000,-0.050000,-0.041539,0.000000,0.000000,-0.042408,0.000000,0.000000,0.259985,0.100000,0.100000,-0.479037,-0.620871,-0.050000,-0.050000,0.774168,-0.693287,0.000000,0.000000,-0.221394,0.257206,0.464380,0.245438,-0.250820,0.332690,-0.165120,-0.156246,0.162461,-0.339190
-0.050000,-0.050000,-0.041528,0.000000,0.000000,-0.042873,0.000000,0.000000,0.255786,0.100000,0.100000,-0.489218,-0.615150,-0.050000,-0.050000,0.782272,-0.689383,0.000000,0.000000,-0.201410,0.245000,0.429538,0.244310,-0.262687,0.342817,-0.174292,-0.161902,0.181376,-0.345487
-0.050000,-0.050000,-0.041767,0.000000,0.000000,-0.043044,0.000000,0.000000,0.252345,0.100000,0.100000,-0.496589,-0.608570,-0.050000,-0.050000,0.787420,-0.684245,0.000000,0.000000,-0.182521,0.232648,0.399406,0.245746,-0.273818,0.353848,-0.182649,-0.167148,0.198848,-0.351967
-0.050000,-0.050000,-0.042136,0.000000,0.000000,-0.042995,0.000000,0.000000,0.248966,0.100000,0.100000,-0.502861,-0.601571,-0.050000,-0.050000,0.791023,-0.678719,0.000000,0.000000,-0.164357,0.220819,0.371880,0.248484,-0.284478,0.365303,-0.191134,-0.172319,0.215317,-0.358124
-0.050000,-0.050000,-0.042713,0.000000,0.000000,-0.042654,0.000000,0.000000,0.246145,0.100000,0.100000,-0.507072,-0.593860,-0.050000,-0.050000,0.792542,-0.672455,0.000000,0.000000,-0.147495,0.209641,0.348469,0.253265,-0.294994,0.377449,-0.199005,-0.177005,0.230284,-0.363680
-0.050000,-0.050000,-0.043498,0.000000,0.000000,-0.041999,0.000000,0.000000,0.243822,0.100000,0.100000,-0.509397,-0.585399,-0.050000,-0.050000,0.792241,-0.665604,0.000000,0.000000,-0.132238,0.199673,0.329381,0.260035,-0.305700,0.390346,-0.206199,-0.181066,0.243525,-0.368079
-0.050000,-0.050000,-0.044439,0.000000,0.000000,-0.041082,0.000000,0.000000,0.241635,0.100000,0.100000,-0.510753,-0.576546,-0.050000,-0.050000,0.790780,-0.658473,0.000000,0.000000,-0.118060,0.190608,0.313275,0.268162,-0.316615,0.403823,-0.213293,-0.184817,0.255541,-0.371594
-0.050000,-0.050000,-0.045628,0.000000,0.000000,-0.039783,0.000000,0.000000,0.240472,0.100000,0.100000,-0.509546,-0.566617,-0.050000,-0.050000,0.787376,-0.650586,0.000000,0.000000,-0.106481,0.183660,0.303145,0.278789,-0.328360,0.418420,-0.218734,-0.187323,0.265091,-0.372905
-0.050000,-0.050000,-0.046984,0.000000,0.000000,-0.038195,0.000000,0.000000,0.239340,0.100000,0.100000,-0.507722,-0.556343,-0.050000,-0.050000,0.783170,-0.642572,0.000000,0.000000,-0.096228,0.177980,0.296282,0.290712,-0.340720,0.433756,-0.223963,-0.189386,0.273158,-0.372812
-0.050000,-0.050000,-0.048504,0.000000,0.000000,-0.036290,0.000000,0.000000,0.238863,0.100000,0.100000,-0.504477,-0.545426,-0.050000,-0.050000,0.777843,-0.634169,0.000000,0.000000,-0.088062,0.174093,0.294005,0.304366,-0.353945,0.450028,-0.228029,-0.190505,0.279192,-0.370717
-0.050000,-0.050000,-0.050168,0.000000,0.000000,-0.034070,0.000000,0.000000,0.238866,0.100000,0.100000,-0.500196,-0.534016,-0.050000,-0.050000,0.771639,-0.625534,0.000000,0.000000,-0.081906,0.171929,0.296158,0.319523,-0.368070,0.467169,-0.230928,-0.190742,0.283089,-0.366570
-0.050000,-0.050000,-0.051929,0.000000,0.000000,-0.031611,0.000000,0.000000,0.239061,0.100000,0.100000,-0.495587,-0.522368,-0.050000,-0.050000,0.764923,-0.616814,0.000000,0.000000,-0.077075,0.170861,0.301400,0.335733,-0.382934,0.484942,-0.233302,-0.190409,0.285456,-0.360992
-0.050000,-0.050000,-0.053762,0.000000,0.000000,-0.028810,0.000000,0.000000,0.240101,0.100000,0.100000,-0.489608,-0.510261,-0.050000,-0.050000,0.757213,-0.607891,0.000000,0.000000,-0.074774,0.171677,0.312029,0.353395,-0.398782,0.503421,-0.233544,-0.188941,0.284965,-0.353002
-0.050000,-0.050000,-0.055630,0.000000,0.000000,-0.025777,0.000000,0.000000,0.241213,0.100000,0.100000,-0.483689,-0.498121,-0.050000,-0.050000,0.749113,-0.599086,0.000000,0.000000,-0.073585,0.173211,0.325579,0.371805,-0.415371,0.522246,-0.233194,-0.187023,0.282747,-0.343780
-0.050000,-0.050000,-0.057466,0.000000,0.000000,-0.022490,0.000000,0.000000,0.242824,0.100000,0.100000,-0.477224,-0.485948,-0.050000,-0.050000,0.740347,-0.590373,0.000000,0.000000,-0.074010,0.175653,0.342929,0.390973,-0.432699,0.541249,-0.231402,-0.184457,0.278252,-0.333078
-0.050000,-0.050000,-0.059220,0.000000,0.000000,-0.018971,0.000000,0.000000,0.244737,0.100000,0.100000,-0.470496,-0.474017,-0.050000,-0.050000,0.730966,-0.582015,0.000000,0.000000,-0.075640,0.178526,0.363649,0.410554,-0.450774,0.560123,-0.228398,-0.181532,0.271549,-0.321292
-0.050000,-0.050000,-0.060891,0.000000,0.000000,-0.015256,0.000000,0.000000,0.246850,0.100000,0.100000,-0.463888,-0.462255,-0.050000,-0.050000,0.721152,-0.573906,0.000000,0.000000,-0.078001,0.181615,0.386656,0.430427,-0.469386,0.578844,-0.224673,-0.178300,0.263249,-0.308821
-0.050000,-0.050000,-0.062335,0.000000,0.000000,-0.011359,0.000000,0.000000,0.249311,0.100000,0.100000,-0.456728,-0.451345,-0.050000,-0.050000,0.710541,-0.566698,0.000000,0.000000,-0.081262,0.184512,0.413095,0.450081,-0.488880,0.596856,-0.219515,-0.175159,0.252579,-0.295744
-0.050000,-0.050000,-0.063624,0.000000,0.000000,-0.007280,0.000000,0.000000,0.251871,0.100000,0.100000,-0.449876,-0.440950,-0.050000,-0.050000,0.699553,-0.560095,0.000000,0.000000,-0.084633,0.187120,0.441139,0.469576,-0.508972,0.614414,-0.213972,-0.172071,0.240619,-0.282545
-0.050000,-0.050000,-0.064669,0.000000,0.000000,-0.003095,0.000000,0.000000,0.254587,0.100000,0.100000,-0.442900,-0.431569,-0.050000,-0.050000,0.688093,-0.554518,0.000000,0.000000,-0.088015,0.189088,0.471022,0.488479,-0.529817,0.631254,-0.207809,-0.169358,0.227321,-0.269436
-0.050000,-0.050000,-0.065434,0.000000,0.000000,0.001154,0.000000,0.000000,0.257326,0.100000,0.100000,-0.436023,-0.423431,-0.050000,-0.050000,0.676464,-0.550240,0.000000,0.000000,-0.090819,0.190099,0.501953,0.506485,-0.551520,0.647416,-0.201557,-0.167277,0.213284,-0.256839
-0.050000,-0.050000,-0.066041,0.000000,0.000000,0.005495,0.000000,0.000000,0.260187,0.100000,0.100000,-0.429302,-0.416113,-0.050000,-0.050000,0.664684,-0.546782,0.000000,0.000000,-0.093152,0.190519,0.533482,0.523912,-0.573722,0.663125,-0.195139,-0.165499,0.198728,-0.244634
-0.050000,-0.050000,-0.066206,0.000000,0.000000,0.009702,0.000000,0.000000,0.262809,0.100000,0.100000,-0.422714,-0.410888,-0.050000,-0.050000,0.653548,-0.545568,0.000000,0.000000,-0.093787,0.189093,0.564897,0.539528,-0.597142,0.678255,-0.189501,-0.165104,0.184630,-0.233806
-0.050000,-0.050000,-0.066216,0.000000,0.000000,0.013930,0.000000,0.000000,0.265521,0.100000,0.100000,-0.416417,-0.406681,-0.050000,-0.050000,0.642898,-0.545410,0.000000,0.000000,-0.093334,0.186836,0.595794,0.554248,-0.621053,0.693216,-0.184257,-0.165205,0.170943,-0.223855
-0.050000,-0.050000,-0.065912,0.000000,0.000000,0.017994,0.000000,0.000000,0.268018,0.100000,0.100000,-0.410426,-0.404120,-0.050000,-0.050000,0.633456,-0.547094,0.000000,0.000000,-0.091037,0.183010,0.625560,0.567390,-0.645739,0.708092,-0.180049,-0.166403,0.158440,-0.215332
-0.050000,-0.050000,-0.065316,0.000000,0.000000,0.021878,0.000000,0.000000,0.270299,0.100000,0.100000,-0.404906,-0.403066,-0.050000,-0.050000,0.625854,-0.550635,0.000000,0.000000,-0.086645,0.177559,0.653458,0.578920,-0.670955,0.723173,-0.177256,-0.168682,0.147690,-0.208458
-0.050000,-0.050000,-0.064582,0.000000,0.000000,0.025613,0.000000,0.000000,0.272580,0.100000,0.100000,-0.399625,-0.402997,-0.050000,-0.050000,0.619429,-0.555249,0.000000,0.000000,-0.080893,0.171163,0.679967,0.589391,-0.696460,0.738430,-0.175171,-0.171537,0.138127,-0.202672
-0.050000,-0.050000,-0.063419,0.000000,0.000000,0.029028,0.000000,0.000000,0.274237,0.100000,0.100000,-0.395145,-0.404595,-0.050000,-0.050000,0.616752,-0.562598,0.000000,0.000000,-0.071993,0.162272,0.703105,0.597668,-0.722182,0.754387,-0.175776,-0.176020,0.131701,-0.199301
-0.050000,-0.050000,-0.062150,0.000000,0.000000,0.032217,0.000000,0.000000,0.275933,0.100000,0.100000,-0.390890,-0.406873,-0.050000,-0.050000,0.615872,-0.570902,0.000000,0.000000,-0.061710,0.152419,0.724239,0.604919,-0.747743,0.770766,-0.177331,-0.181012,0.126925,-0.197112
-0.050000,-0.050000,-0.060626,0.000000,0.000000,0.035135,0.000000,0.000000,0.277196,0.100000,0.100000,-0.387141,-0.409970,-0.050000,-0.050000,0.618262,-0.581080,0.000000,0.000000,-0.049151,0.140786,0.742505,0.610697,-0.772947,0.787813,-0.180865,-0.187048,0.124637,-0.196653
-0.050000,-0.050000,-0.058917,0.000000,0.000000,0.037785,0.000000,0.000000,0.278140,0.100000,0.100000,-0.383714,-0.413470,-0.050000,-0.050000,0.623921,-0.592870,0.000000,0.000000,-0.034630,0.127533,0.758021,0.615276,-0.797372,0.805533,-0.186150,-0.193920,0.124695,-0.197704
-0.050000,-0.050000,-0.057094,0.000000,0.000000,0.040178,0.000000,0.000000,0.278947,0.100000,0.100000,-0.380358,-0.417166,-0.050000,-0.050000,0.631594,-0.605522,0.000000,0.000000,-0.018907,0.113311,0.771645,0.619047,-0.821223,0.823681,-0.192427,-0.201278,0.126277,-0.199658
-0.050000,-0.050000,-0.055081,0.000000,0.000000,0.042347,0.000000,0.000000,0.279125,0.100000,0.100000,-0.377134,-0.420668,-0.050000,-0.050000,0.643733,-0.620361,0.000000,0.000000,-0.000925,0.096946,0.782344,0.621797,-0.843434,0.842576,-0.200832,-0.209616,0.130449,-0.203172
-0.050000,-0.050000,-0.052990,0.000000,0.000000,0.044225,0.000000,0.000000,0.279204,0.100000,0.100000,-0.373587,-0.423846,-0.050000,-0.050000,0.657543,-0.635736,0.000000,0.000000,0.017838,0.079738,0.791645,0.624090,-0.864617,0.861779,-0.209797,-0.218243,0.135785,-0.207176
-0.050000,-0.050000,-0.050813,0.000000,0.000000,0.045909,0.000000,0.000000,0.278867,0.100000,0.100000,-0.369619,-0.426371,-0.050000,-0.050000,0.674124,-0.652356,0.000000,0.000000,0.037835,0.061153,0.799403,0.626014,-0.884227,0.881317,-0.219718,-0.227362,0.142532,-0.211856
-0.050000,-0.050000,-0.048586,0.000000,0.000000,0.047364,0.000000,0.000000,0.278214,0.100000,0.100000,-0.364844,-0.427975,-0.050000,-0.050000,0.692708,-0.669765,0.000000,0.000000,0.058605,0.041451,0.806296,0.627900,-0.902124,0.900993,-0.229981,-0.236740,0.150200,-0.216828
-0.050000,-0.050000,-0.046296,0.000000,0.000000,0.048618,0.000000,0.000000,0.277309,0.100000,0.100000,-0.359373,-0.428808,-0.050000,-0.050000,0.712470,-0.687568,0.000000,0.000000,0.079896,0.021004,0.812619,0.629753,-0.918839,0.920733,-0.240387,-0.246298,0.158409,-0.221835
-0.050000,-0.050000,-0.044008,0.000000,0.000000,0.049677,0.000000,0.000000,0.275998,0.100000,0.100000,-0.352338,-0.428148,-0.050000,-0.050000,0.733873,-0.706008,0.000000,0.000000,0.101661,-0.000577,0.819068,0.632192,-0.933205,0.940231,-0.250434,-0.255884,0.166999,-0.226827
-0.050000,-0.050000,-0.041657,0.000000,0.000000,0.050520,0.000000,0.000000,0.274398,0.100000,0.100000,-0.344211,-0.426460,-0.050000,-0.050000,0.755562,-0.724326,0.000000,0.000000,0.123584,-0.022636,0.825684,0.634965,-0.946313,0.959504,-0.260005,-0.265417,0.175560,-0.231479
-0.050000,-0.050000,-0.039289,0.000000,0.000000,0.051183,0.000000,0.000000,0.272483,0.100000,0.100000,-0.334498,-0.423445,-0.050000,-0.050000,0.777506,-0.742528,0.000000,0.000000,0.145554,-0.045252,0.833001,0.638470,-0.957689,0.978294,-0.268736,-0.274749,0.183893,-0.235773
-0.050000,-0.050000,-0.036886,0.000000,0.000000,0.051642,0.000000,0.000000,0.270260,0.100000,0.100000,-0.323145,-0.419153,-0.050000,-0.050000,0.798922,-0.760091,0.000000,0.000000,0.167280,-0.068056,0.841321,0.642861,-0.967451,0.996376,-0.276299,-0.283670,0.191657,-0.239540
-0.050000,-0.050000,-0.035258,0.000000,0.000000,0.052728,0.000000,0.000000,0.273746,0.100000,0.100000,-0.315804,-0.418615,-0.050000,-0.050000,0.820854,-0.778364,0.000000,0.000000,0.190710,-0.092911,0.850614,0.648553,-0.977340,1.016878,-0.283406,-0.293034,0.198722,-0.241506
-0.050000,-0.050000,-0.033040,0.000000,0.000000,0.052988,0.000000,0.000000,0.272797,0.100000,0.100000,-0.302997,-0.413830,-0.050000,-0.050000,0.840143,-0.794346,0.000000,0.000000,0.211774,-0.115590,0.862133,0.656082,-0.984100,1.033613,-0.288035,-0.300680,0.204524,-0.243292
-0.050000,-0.050000,-0.030638,0.000000,0.000000,0.053007,0.000000,0.000000,0.270368,0.100000,0.100000,-0.287807,-0.407085,-0.050000,-0.050000,0.858150,-0.809063,0.000000,0.000000,0.232423,-0.137748,0.874007,0.663816,-0.989900,1.049058,-0.291811,-0.307794,0.209719,-0.245003
-0.050000,-0.050000,-0.028207,0.000000,0.000000,0.052822,0.000000,0.000000,0.267291,0.100000,0.100000,-0.270845,-0.399116,-0.050000,-0.050000,0.873974,-0.821931,0.000000,0.000000,0.252149,-0.159011,0.886878,0.672363,-0.994420,1.062962,-0.294051,-0.313856,0.213894,-0.246351
-0.050000,-0.050000,-0.025804,0.000000,0.000000,0.052470,0.000000,0.000000,0.263863,0.100000,0.100000,-0.252814,-0.390455,-0.050000,-0.050000,0.887359,-0.832834,0.000000,0.000000,0.270731,-0.178970,0.900586,0.681753,-0.997841,1.075197,-0.294871,-0.318686,0.217027,-0.247298
-0.050000,-0.050000,-0.023439,0.000000,0.000000,0.052036,0.000000,0.000000,0.260197,0.100000,0.100000,-0.234045,-0.381383,-0.050000,-0.050000,0.899162,-0.842552,0.000000,0.000000,0.288752,-0.198149,0.914827,0.691673,-1.000562,1.086312,-0.294835,-0.322737,0.219528,-0.248065
-0.050000,-0.050000,-0.021204,0.000000,0.000000,0.051354,0.000000,0.000000,0.256575,0.100000,0.100000,-0.215051,-0.372132,-0.050000,-0.050000,0.907124,-0.849191,0.000000,0.000000,0.304343,-0.214624,0.929833,0.702758,-1.001909,1.094864,-0.292956,-0.324689,0.220559,-0.248201
-0.050000,-0.050000,-0.019082,0.000000,0.000000,0.050618,0.000000,0.000000,0.252883,0.100000,0.100000,-0.196030,-0.362873,-0.050000,-0.050000,0.913355,-0.854591,0.000000,0.000000,0.318990,-0.229854,0.945034,0.714248,-1.002572,1.101978,-0.290421,-0.325683,0.221046,-0.248255
-0.050000,-0.050000,-0.017140,0.000000,0.000000,0.049702,0.000000,0.000000,0.249358,0.100000,0.100000,-0.177448,-0.353723,-0.050000,-0.050000,0.916643,-0.857668,0.000000,0.000000,0.331555,-0.242703,0.960379,0.726387,-1.002208,1.106922,-0.286733,-0.324970,0.220527,-0.247908
-0.050000,-0.050000,-0.015434,0.000000,0.000000,0.048617,0.000000,0.000000,0.246065,0.100000,0.100000,-0.159727,-0.344763,-0.050000,-0.050000,0.917202,-0.858600,0.000000,0.000000,0.341955,-0.253079,0.975552,0.738965,-1.000824,1.109567,-0.282129,-0.322575,0.219115,-0.247192
-0.050000,-0.050000,-0.013876,0.000000,0.000000,0.047457,0.000000,0.000000,0.242907,0.100000,0.100000,-0.142659,-0.336008,-0.050000,-0.050000,0.916025,-0.858249,0.000000,0.000000,0.350964,-0.261947,0.990615,0.751765,-0.998713,1.110629,-0.277015,-0.319135,0.217254,-0.246396
-0.050000,-0.050000,-0.012729,0.000000,0.000000,0.045954,0.000000,0.000000,0.240306,0.100000,0.100000,-0.127505,-0.327452,-0.050000,-0.050000,0.911232,-0.854846,0.000000,0.000000,0.356548,-0.267024,1.004944,0.764901,-0.995228,1.108457,-0.270788,-0.313296,0.214032,-0.244744
-0.050000,-0.050000,-0.011759,0.000000,0.000000,0.044377,0.000000,0.000000,0.237917,0.100000,0.100000,-0.113461,-0.319094,-0.050000,-0.050000,0.904919,-0.850323,0.000000,0.000000,0.360584,-0.270597,1.018950,0.778030,-0.990974,1.104530,-0.264260,-0.306482,0.210474,-0.242993
-0.050000,-0.050000,-0.011112,0.000000,0.000000,0.042532,0.000000,0.000000,0.236006,0.100000,0.100000,-0.101235,-0.310825,-0.050000,-0.050000,0.896132,-0.843704,0.000000,0.000000,0.361988,-0.271410,1.032229,0.791152,-0.985658,1.098086,-0.257108,-0.298001,0.205986,-0.240566
-0.050000,-0.050000,-0.010783,0.000000,0.000000,0.040428,0.000000,0.000000,0.234546,0.100000,0.100000,-0.090904,-0.302574,-0.050000,-0.050000,0.885196,-0.835291,0.000000,0.000000,0.360949,-0.269734,1.044758,0.804088,-0.979342,1.089228,-0.249497,-0.288086,0.200703,-0.237456
-0.050000,-0.050000,-0.010603,0.000000,0.000000,0.038201,0.000000,0.000000,0.233380,0.100000,0.100000,-0.081898,-0.294354,-0.050000,-0.050000,0.872925,-0.825796,0.000000,0.000000,0.358292,-0.266612,1.056860,0.816823,-0.972319,1.078737,-0.241683,-0.277342,0.195023,-0.233980
-0.050000,-0.050000,-0.010896,0.000000,0.000000,0.035509,0.000000,0.000000,0.232868,0.100000,0.100000,-0.075515,-0.285923,-0.050000,-0.050000,0.858003,-0.813979,0.000000,0.000000,0.352459,-0.260064,1.067764,0.829026,-0.964118,1.065327,-0.233286,-0.264889,0.188107,-0.229135
-0.050000,-0.050000,-0.011295,0.000000,0.000000,0.032710,0.000000,0.000000,0.232632,0.100000,0.100000,-0.070436,-0.277436,-0.050000,-0.050000,0.842069,-0.801374,0.000000,0.000000,0.345248,-0.252395,1.078255,0.840761,-0.955304,1.050536,-0.224817,-0.251955,0.180945,-0.223834
-0.050000,-0.050000,-0.011969,0.000000,0.000000,0.029595,0.000000,0.000000,0.232864,0.100000,0.100000,-0.067281,-0.268736,-0.050000,-0.050000,0.824517,-0.787374,0.000000,0.000000,0.335927,-0.242542,1.087878,0.851766,-0.945698,1.033896,-0.216074,-0.238194,0.173042,-0.217438
-0.050000,-0.050000,-0.012223,0.000000,0.000000,0.025318,0.000000,0.000000,0.229608,0.100000,0.100000,-0.060427,-0.255442,-0.050000,-0.050000,0.806594,-0.772815,0.000000,0.000000,0.325096,-0.230155,1.095927,0.861202,-0.937021,1.018588,-0.207500,-0.224904,0.164281,-0.209866
-0.050000,-0.050000,-0.012987,0.000000,0.000000,0.021477,0.000000,0.000000,0.228772,0.100000,0.100000,-0.057373,-0.244374,-0.050000,-0.050000,0.787361,-0.757027,0.000000,0.000000,0.313181,-0.217094,1.103388,0.870032,-0.926992,1.000778,-0.198638,-0.211000,0.155244,-0.201466
-0.050000,-0.050000,-0.014263,0.000000,0.000000,0.017593,0.000000,0.000000,0.229259,0.100000,0.100000,-0.057643,-0.234523,-0.050000,-0.050000,0.767341,-0.740725,0.000000,0.000000,0.299720,-0.202501,1.109870,0.877312,-0.916149,0.981542,-0.189671,-0.197135,0.145981,-0.192002
-0.050000,-0.050000,-0.015619,0.000000,0.000000,0.013770,0.000000,0.000000,0.230461,0.100000,0.100000,-0.059407,-0.225224,-0.050000,-0.050000,0.747275,-0.724513,0.000000,0.000000,0.285752,-0.187630,1.116076,0.883682,-0.905040,0.961969,-0.180818,-0.183740,0.136976,-0.182223
-0.050000,-0.050000,-0.017096,0.000000,0.000000,0.009906,0.000000,0.000000,0.232239,0.100000,0.100000,-0.062663,-0.216317,-0.050000,-0.050000,0.727528,-0.708571,0.000000,0.000000,0.271158,-0.172156,1.121417,0.888452,-0.893938,0.942606,-0.172169,-0.171187,0.128075,-0.171851
-0.050000,-0.050000,-0.018632,0.000000,0.000000,0.006121,0.000000,0.000000,0.234422,0.100000,0.100000,-0.066982,-0.207897,-0.050000,-0.050000,0.708964,-0.693488,0.000000,0.000000,0.256529,-0.156769,1.125783,0.891406,-0.883273,0.924283,-0.163945,-0.160012,0.119638,-0.161320
-0.050000,-0.050000,-0.020156,0.000000,0.000000,0.002352,0.000000,0.000000,0.236945,0.100000,0.100000,-0.071952,-0.199716,-0.050000,-0.050000,0.691172,-0.678924,0.000000,0.000000,0.241942,-0.141460,1.129525,0.893159,-0.872967,0.906800,-0.155965,-0.149814,0.111537,-0.150714
-0.050000,-0.050000,-0.021791,0.000000,0.000000,-0.001092,0.000000,0.000000,0.239630,0.100000,0.100000,-0.077800,-0.192662,-0.050000,-0.050000,0.676714,-0.666700,0.000000,0.000000,0.228210,-0.127316,1.131494,0.892191,-0.863986,0.892050,-0.149047,-0.142176,0.104590,-0.140807
-0.050000,-0.050000,-0.023404,0.000000,0.000000,-0.004425,0.000000,0.000000,0.242573,0.100000,0.100000,-0.084043,-0.186186,-0.050000,-0.050000,0.664105,-0.655649,0.000000,0.000000,0.215080,-0.113902,1.132576,0.889969,-0.855908,0.879124,-0.142635,-0.135917,0.098396,-0.131555
-0.050000,-0.050000,-0.025084,0.000000,0.000000,-0.007412,0.000000,0.000000,0.245551,0.100000,0.100000,-0.090720,-0.180924,-0.050000,-0.050000,0.655058,-0.647010,0.000000,0.000000,0.203103,-0.102030,1.132082,0.885777,-0.849270,0.869050,-0.137332,-0.131893,0.093488,-0.123579
-0.050000,-0.050000,-0.026827,0.000000,0.000000,-0.010000,0.000000,0.000000,0.248496,0.100000,0.100000,-0.097701,-0.177123,-0.050000,-0.050000,0.650125,-0.641100,0.000000,0.000000,0.192513,-0.092063,1.129844,0.879885,-0.844256,0.862162,-0.133353,-0.130114,0.090091,-0.117386
-0.050000,-0.050000,-0.028594,0.000000,0.000000,-0.012415,0.000000,0.000000,0.251540,0.100000,0.100000,-0.104947,-0.174337,-0.050000,-0.050000,0.647764,-0.636810,0.000000,0.000000,0.182754,-0.083186,1.126460,0.872989,-0.840378,0.857485,-0.130134,-0.129717,0.087684,-0.112400
-0.050000,-0.050000,-0.030522,0.000000,0.000000,-0.014072,0.000000,0.000000,0.254093,0.100000,0.100000,-0.112387,-0.174036,-0.050000,-0.050000,0.652093,-0.637060,0.000000,0.000000,0.175177,-0.077639,1.120276,0.864194,-0.838688,0.857163,-0.129315,-0.132355,0.087643,-0.110522
-0.050000,-0.050000,-0.032477,0.000000,0.000000,-0.015573,0.000000,0.000000,0.256696,0.100000,0.100000,-0.120093,-0.175088,-0.050000,-0.050000,0.659217,-0.639026,0.000000,0.000000,0.168397,-0.073256,1.112680,0.854846,-0.838124,0.859089,-0.129432,-0.136180,0.088703,-0.110180
-0.050000,-0.050000,-0.034550,0.000000,0.000000,-0.016558,0.000000,0.000000,0.258871,0.100000,0.100000,-0.127989,-0.178241,-0.050000,-0.050000,0.671292,-0.644325,0.000000,0.000000,0.163077,-0.071273,1.102794,0.844583,-0.839010,0.864031,-0.131429,-0.141981,0.091532,-0.112287
-0.050000,-0.050000,-0.036700,0.000000,0.000000,-0.017151,0.000000,0.000000,0.260676,0.100000,0.100000,-0.136133,-0.183428,-0.050000,-0.050000,0.687607,-0.652486,0.000000,0.000000,0.158859,-0.071257,1.090639,0.833843,-0.841033,0.871487,-0.135150,-0.149311,0.095889,-0.116607
-0.050000,-0.050000,-0.038887,0.000000,0.000000,-0.017555,0.000000,0.000000,0.262342,0.100000,0.100000,-0.144554,-0.190097,-0.050000,-0.050000,0.706451,-0.662303,0.000000,0.000000,0.155226,-0.072288,1.076972,0.822928,-0.843752,0.880537,-0.139908,-0.157598,0.101247,-0.122280
-0.050000,-0.050000,-0.041154,0.000000,0.000000,-0.017435,0.000000,0.000000,0.263242,0.100000,0.100000,-0.153287,-0.199195,-0.050000,-0.050000,0.730151,-0.675649,0.000000,0.000000,0.152604,-0.075587,1.060299,0.811750,-0.847244,0.891761,-0.146935,-0.167420,0.108227,-0.130415
-0.050000,-0.050000,-0.043384,0.000000,0.000000,-0.017261,0.000000,0.000000,0.264085,0.100000,0.100000,-0.162375,-0.209614,-0.050000,-0.050000,0.755228,-0.689984,0.000000,0.000000,0.150056,-0.079254,1.042192,0.800777,-0.850917,0.903749,-0.154719,-0.177700,0.115876,-0.139382
-0.050000,-0.050000,-0.045611,0.000000,0.000000,-0.016863,0.000000,0.000000,0.264473,0.100000,0.100000,-0.171848,-0.221638,-0.050000,-0.050000,0.782540,-0.706109,0.000000,0.000000,0.147646,-0.083717,1.022022,0.789947,-0.854574,0.916401,-0.163782,-0.188618,0.124339,-0.149508
-0.050000,-0.050000,-0.047755,0.000000,0.000000,-0.016416,0.000000,0.000000,0.264614,0.100000,0.100000,-0.181732,-0.234868,-0.050000,-0.050000,0.810674,-0.723124,0.000000,0.000000,0.144864,-0.088158,1.000162,0.779451,-0.857813,0.928927,-0.173624,-0.199651,0.133226,-0.160179
-0.050000,-0.050000,-0.049838,0.000000,0.000000,-0.015928,0.000000,0.000000,0.264607,0.100000,0.100000,-0.191974,-0.249001,-0.050000,-0.050000,0.839133,-0.740609,0.000000,0.000000,0.141730,-0.092403,0.977154,0.769226,-0.860607,0.941213,-0.183925,-0.210760,0.142431,-0.171110
-0.050000,-0.050000,-0.051753,0.000000,0.000000,-0.015543,0.000000,0.000000,0.264372,0.100000,0.100000,-0.202640,-0.263828,-0.050000,-0.050000,0.866831,-0.758165,0.000000,0.000000,0.137417,-0.095553,0.952632,0.759486,-0.862193,0.951984,-0.194551,-0.221224,0.151510,-0.181903
-0.050000,-0.050000,-0.053552,0.000000,0.000000,-0.015203,0.000000,0.000000,0.264089,0.100000,0.100000,-0.213564,-0.278992,-0.050000,-0.050000,0.893413,-0.775340,0.000000,0.000000,0.132265,-0.097727,0.927519,0.750082,-0.862819,0.961540,-0.205077,-0.231183,0.160556,-0.192403
-0.050000,-0.050000,-0.055189,0.000000,0.000000,-0.015023,0.000000,0.000000,0.263780,0.100000,0.100000,-0.224736,-0.294176,-0.050000,-0.050000,0.917994,-0.791669,0.000000,0.000000,0.125741,-0.098211,0.901885,0.741088,-0.862037,0.969055,-0.215235,-0.240117,0.169176,-0.202260
-0.050000,-0.050000,-0.056656,0.000000,0.000000,-0.015034,0.000000,0.000000,0.263549,0.100000,0.100000,-0.235992,-0.308955,-0.050000,-0.050000,0.939679,-0.806532,0.000000,0.000000,0.117601,-0.096521,0.876402,0.732538,-0.859605,0.974031,-0.224556,-0.247651,0.177143,-0.211179
-0.050000,-0.050000,-0.058041,0.000000,0.000000,-0.015078,0.000000,0.000000,0.263233,0.100000,0.100000,-0.247344,-0.323450,-0.050000,-0.050000,0.959391,-0.820459,0.000000,0.000000,0.108348,-0.093394,0.851068,0.724205,-0.855905,0.977142,-0.233302,-0.254234,0.184719,-0.219558
-0.050000,-0.050000,-0.059216,0.000000,0.000000,-0.015494,0.000000,0.000000,0.263320,0.100000,0.100000,-0.258434,-0.336565,-0.050000,-0.050000,0.973926,-0.831340,0.000000,0.000000,0.096551,-0.086559,0.827268,0.716575,-0.849843,0.976343,-0.240060,-0.258246,0.190801,-0.226195
-0.050000,-0.050000,-0.060393,0.000000,0.000000,-0.015860,0.000000,0.000000,0.263255,0.100000,0.100000,-0.269424,-0.348882,-0.050000,-0.050000,0.985786,-0.840754,0.000000,0.000000,0.083402,-0.077936,0.804633,0.709184,-0.842228,0.973208,-0.245719,-0.260892,0.196147,-0.232152
-0.050000,-0.050000,-0.061509,0.000000,0.000000,-0.016397,0.000000,0.000000,0.263458,0.100000,0.100000,-0.280089,-0.359737,-0.050000,-0.050000,0.993199,-0.847389,0.000000,0.000000,0.068112,-0.066266,0.784140,0.702356,-0.832599,0.966852,-0.249381,-0.261254,0.200038,-0.236731
-0.050000,-0.050000,-0.062704,0.000000,0.000000,-0.016981,0.000000,0.000000,0.263834,0.100000,0.100000,-0.290413,-0.368986,-0.050000,-0.050000,0.996148,-0.851079,0.000000,0.000000,0.050620,-0.051627,0.766424,0.696193,-0.820836,0.957337,-0.250779,-0.259240,0.202284,-0.239959
-0.050000,-0.050000,-0.063977,0.000000,0.000000,-0.017503,0.000000,0.000000,0.264110,0.100000,0.100000,-0.300640,-0.377083,-0.050000,-0.050000,0.996245,-0.852968,0.000000,0.000000,0.031632,-0.035154,0.750794,0.690345,-0.807587,0.945601,-0.250741,-0.255661,0.203338,-0.242406
-0.050000,-0.050000,-0.065531,0.000000,0.000000,-0.018132,0.000000,0.000000,0.264999,0.100000,0.100000,-0.310368,-0.382780,-0.050000,-0.050000,0.990082,-0.850209,0.000000,0.000000,0.009479,-0.014697,0.739711,0.685846,-0.791491,0.930113,-0.247103,-0.248672,0.201677,-0.242728
-0.050000,-0.050000,-0.067331,0.000000,0.000000,-0.018606,0.000000,0.000000,0.265666,0.100000,0.100000,-0.320287,-0.387215,-0.050000,-0.050000,0.981194,-0.845555,0.000000,0.000000,-0.014311,0.007287,0.731336,0.681830,-0.773716,0.912561,-0.241886,-0.240127,0.198491,-0.242223
-0.050000,-0.050000,-0.069475,0.000000,0.000000,-0.019064,0.000000,0.000000,0.266700,0.100000,0.100000,-0.330209,-0.389743,-0.050000,-0.050000,0.967842,-0.837430,0.000000,0.000000,-0.040584,0.031715,0.726749,0.678909,-0.753659,0.892442,-0.234023,-0.229160,0.192959,-0.240113
-0.050000,-0.050000,-0.072070,0.000000,0.000000,-0.019457,0.000000,0.000000,0.267943,0.100000,0.100000,-0.340514,-0.390536,-0.050000,-0.050000,0.950605,-0.826207,0.000000,0.000000,-0.069139,0.057852,0.725577,0.677002,-0.731334,0.870124,-0.223877,-0.216184,0.185184,-0.236555
-0.050000,-0.050000,-0.074832,0.000000,0.000000,-0.019801,0.000000,0.000000,0.269238,0.100000,0.100000,-0.351271,-0.390026,-0.050000,-0.050000,0.930860,-0.813108,0.000000,0.000000,-0.099235,0.084819,0.726875,0.675661,-0.707425,0.846291,-0.212480,-0.202032,0.175793,-0.231957
-0.050000,-0.050000,-0.078310,0.000000,0.000000,-0.020191,0.000000,0.000000,0.271141,0.100000,0.100000,-0.362732,-0.387499,-0.050000,-0.050000,0.906378,-0.796036,0.000000,0.000000,-0.131832,0.112965,0.731186,0.675487,-0.680885,0.820466,-0.198689,-0.185987,0.163812,-0.225530
-0.050000,-0.050000,-0.081854,0.000000,0.000000,-0.020602,0.000000,0.000000,0.273106,0.100000,0.100000,-0.374952,-0.383838,-0.050000,-0.050000,0.879940,-0.777627,0.000000,0.000000,-0.165408,0.140806,0.736820,0.675440,-0.653070,0.793681,-0.184465,-0.169596,0.150677,-0.218282
-0.050000,-0.050000,-0.085739,0.000000,0.000000,-0.021126,0.000000,0.000000,0.275525,0.100000,0.100000,-0.387916,-0.378789,-0.050000,-0.050000,0.850523,-0.756949,0.000000,0.000000,-0.200100,0.168220,0.743317,0.675555,-0.623853,0.766045,-0.169593,-0.152827,0.136144,-0.209952
-0.050000,-0.050000,-0.089777,0.000000,0.000000,-0.021810,0.000000,0.000000,0.278274,0.100000,0.100000,-0.401708,-0.372735,-0.050000,-0.050000,0.818888,-0.734866,0.000000,0.000000,-0.235012,0.194240,0.749247,0.675043,-0.594164,0.738247,-0.155047,-0.136639,0.121022,-0.201087
-0.050000,-0.050000,-0.093738,0.000000,0.000000,-0.022623,0.000000,0.000000,0.281345,0.100000,0.100000,-0.415728,-0.365819,-0.050000,-0.050000,0.785802,-0.712015,0.000000,0.000000,-0.269830,0.219142,0.754626,0.673923,-0.564186,0.710340,-0.140912,-0.120994,0.105566,-0.191806
-0.050000,-0.050000,-0.097854,0.000000,0.000000,-0.023713,0.000000,0.000000,0.284754,0.100000,0.100000,-0.430736,-0.358544,-0.050000,-0.050000,0.750743,-0.688382,0.000000,0.000000,-0.303282,0.241055,0.756488,0.670612,-0.535831,0.683756,-0.128519,-0.107570,0.090849,-0.182967
-0.050000,-0.050000,-0.101676,0.000000,0.000000,-0.024914,0.000000,0.000000,0.288476,0.100000,0.100000,-0.445660,-0.350955,-0.050000,-0.050000,0.715095,-0.664979,0.000000,0.000000,-0.335477,0.261141,0.756009,0.665660,-0.508774,0.658030,-0.117266,-0.095611,0.076923,-0.174537
-0.050000,-0.050000,-0.105342,0.000000,0.000000,-0.026294,0.000000,0.000000,0.292369,0.100000,0.100000,-0.460901,-0.343616,-0.050000,-0.050000,0.678760,-0.642007,0.000000,0.000000,-0.365373,0.278336,0.751367,0.658032,-0.484549,0.634204,-0.108023,-0.086165,0.064576,-0.167209
-0.050000,-0.050000,-0.108642,0.000000,0.000000,-0.027732,0.000000,0.000000,0.296351,0.100000,0.100000,-0.476252,-0.336995,-0.050000,-0.050000,0.642470,-0.620216,0.000000,0.000000,-0.392424,0.292550,0.742082,0.647288,-0.464046,0.612688,-0.100955,-0.079539,0.054386,-0.161475
-0.050000,-0.050000,-0.111714,0.000000,0.000000,-0.029183,0.000000,0.000000,0.300529,0.100000,0.100000,-0.491273,-0.330784,-0.050000,-0.050000,0.606299,-0.599317,0.000000,0.000000,-0.417350,0.304921,0.729507,0.634419,-0.446103,0.592742,-0.095079,-0.074627,0.045656,-0.156812
-0.050000,-0.050000,-0.114186,0.000000,0.000000,-0.030509,0.000000,0.000000,0.304325,0.100000,0.100000,-0.506751,-0.326667,-0.050000,-0.050000,0.571182,-0.580857,0.000000,0.000000,-0.437775,0.313140,0.710588,0.617030,-0.434208,0.576350,-0.092370,-0.073839,0.040452,-0.155054
-0.050000,-0.050000,-0.116380,0.000000,0.000000,-0.031611,0.000000,0.000000,0.308288,0.100000,0.100000,-0.521812,-0.323504,-0.050000,-0.050000,0.536951,-0.563884,0.000000,0.000000,-0.455888,0.319785,0.688503,0.597506,-0.425146,0.561560,-0.090572,-0.074612,0.036918,-0.154706
-0.050000,-0.050000,-0.118089,0.000000,0.000000,-0.032413,0.000000,0.000000,0.311884,0.100000,0.100000,-0.536938,-0.322339,-0.050000,-0.050000,0.504169,-0.549164,0.000000,0.000000,-0.470433,0.323670,0.662212,0.574823,-0.420339,0.549130,-0.090696,-0.078079,0.035961,-0.156674
-0.050000,-0.050000,-0.119354,0.000000,0.000000,-0.032732,0.000000,0.000000,0.315193,0.100000,0.100000,-0.551997,-0.323248,-0.050000,-0.050000,0.473314,-0.536813,0.000000,0.000000,-0.481967,0.325433,0.632800,0.549634,-0.418789,0.538459,-0.092150,-0.083594,0.037174,-0.160794
-0.050000,-0.050000,-0.120418,0.000000,0.000000,-0.032728,0.000000,0.000000,0.318442,0.100000,0.100000,-0.566862,-0.325521,-0.050000,-0.050000,0.443647,-0.525908,0.000000,0.000000,-0.491295,0.325892,0.601305,0.522879,-0.419267,0.528807,-0.094310,-0.090258,0.039660,-0.166257
-0.050000,-0.050000,-0.120849,0.000000,0.000000,-0.031926,0.000000,0.000000,0.320929,0.100000,0.100000,-0.581840,-0.330796,-0.050000,-0.050000,0.417285,-0.518204,0.000000,0.000000,-0.497551,0.323996,0.567884,0.493873,-0.422182,0.520475,-0.097786,-0.098943,0.044405,-0.174436
-0.050000,-0.050000,-0.121183,0.000000,0.000000,-0.030712,0.000000,0.000000,0.323446,0.100000,0.100000,-0.596654,-0.337411,-0.050000,-0.050000,0.392428,-0.511767,0.000000,0.000000,-0.502314,0.321395,0.533827,0.464211,-0.425747,0.512443,-0.101437,-0.108045,0.049800,-0.183719
-0.050000,-0.050000,-0.121163,0.000000,0.000000,-0.028874,0.000000,0.000000,0.325497,0.100000,0.100000,-0.611396,-0.346065,-0.050000,-0.050000,0.370264,-0.507415,0.000000,0.000000,-0.505371,0.317566,0.499791,0.433799,-0.429681,0.504636,-0.105437,-0.117839,0.056172,-0.194721
-0.050000,-0.050000,-0.120905,0.000000,0.000000,-0.026485,0.000000,0.000000,0.327299,0.100000,0.100000,-0.625961,-0.356284,-0.050000,-0.050000,0.350703,-0.504751,0.000000,0.000000,-0.507370,0.312995,0.466779,0.403393,-0.433138,0.496725,-0.109322,-0.127716,0.062946,-0.207098
-0.050000,-0.050000,-0.120542,0.000000,0.000000,-0.023790,0.000000,0.000000,0.328989,0.100000,0.100000,-0.640413,-0.367555,-0.050000,-0.050000,0.332650,-0.502926,0.000000,0.000000,-0.508552,0.307992,0.434533,0.373076,-0.436197,0.488600,-0.113158,-0.137538,0.069814,-0.220291
-0.050000,-0.050000,-0.119818,0.000000,0.000000,-0.020490,0.000000,0.000000,0.330327,0.100000,0.100000,-0.654383,-0.380045,-0.050000,-0.050000,0.318274,-0.503099,0.000000,0.000000,-0.509389,0.302360,0.405318,0.343748,-0.437725,0.480182,-0.116279,-0.146864,0.076597,-0.234926
-0.050000,-0.050000,-0.119029,0.000000,0.000000,-0.017090,0.000000,0.000000,0.331672,0.100000,0.100000,-0.668134,-0.392982,-0.050000,-0.050000,0.305124,-0.503608,0.000000,0.000000,-0.509970,0.296648,0.377781,0.315181,-0.438594,0.471599,-0.119140,-0.155736,0.082924,-0.249981
-0.050000,-0.050000,-0.118025,0.000000,0.000000,-0.013450,0.000000,0.000000,0.332914,0.100000,0.100000,-0.681300,-0.406161,-0.050000,-0.050000,0.294335,-0.505066,0.000000,0.000000,-0.510639,0.290761,0.353217,0.287946,-0.438337,0.462902,-0.121285,-0.163876,0.088630,-0.265639
-0.050000,-0.050000,-0.116861,0.000000,0.000000,-0.009783,0.000000,0.000000,0.334181,0.100000,0.100000,-0.693741,-0.419043,-0.050000,-0.050000,0.285303,-0.506979,0.000000,0.000000,-0.511562,0.284937,0.331717,0.262358,-0.437382,0.454415,-0.122733,-0.171161,0.093375,-0.281445
-0.050000,-0.050000,-0.115590,0.000000,0.000000,-0.006161,0.000000,0.000000,0.335396,0.100000,0.100000,-0.705732,-0.431719,-0.050000,-0.050000,0.277299,-0.509015,0.000000,0.000000,-0.512657,0.279182,0.312340,0.237906,-0.436062,0.446084,-0.123866,-0.177911,0.097351,-0.297218
-0.050000,-0.050000,-0.114124,0.000000,0.000000,-0.002644,0.000000,0.000000,0.336801,0.100000,0.100000,-0.716292,-0.443048,-0.050000,-0.050000,0.271247,-0.511449,0.000000,0.000000,-0.514409,0.273790,0.297177,0.216187,-0.434543,0.438697,-0.123832,-0.183359,0.099761,-0.312539
-0.050000,-0.050000,-0.112587,0.000000,0.000000,0.000649,0.000000,0.000000,0.338100,0.100000,0.100000,-0.726195,-0.453672,-0.050000,-0.050000,0.265713,-0.513648,0.000000,0.000000,-0.516466,0.268682,0.284107,0.195964,-0.433293,0.432022,-0.123600,-0.188309,0.101110,-0.327244
-0.050000,-0.050000,-0.110957,0.000000,0.000000,0.003723,0.000000,0.000000,0.339507,0.100000,0.100000,-0.734843,-0.462885,-0.050000,-0.050000,0.261124,-0.515761,0.000000,0.000000,-0.519044,0.264060,0.274060,0.178128,-0.432494,0.426519,-0.122646,-0.192328,0.101063,-0.341035
