RRGGZZ/g1_deploy_sonic/data/example_scalelab/qwen_audio/g1_ref_en/case_test14/joint_pos.csv
joint_0,joint_1,joint_2,joint_3,joint_4,joint_5,joint_6,joint_7,joint_8,joint_9,joint_10,joint_11,joint_12,joint_13,joint_14,joint_15,joint_16,joint_17,joint_18,joint_19,joint_20,joint_21,joint_22,joint_23,joint_24,joint_25,joint_26,joint_27,joint_28
-0.050000,-0.050000,0.000000,0.000000,0.000000,0.000000,0.000000,0.000000,0.000000,0.100000,0.100000,-0.075387,-0.518550,-0.050000,-0.050000,0.414816,-0.744188,0.000000,0.000000,-0.439064,0.268908,1.181710,-0.191413,0.235482,-0.439269,-0.034419,-0.041054,0.037414,-0.513622
-0.050000,-0.050000,0.000000,0.000000,0.000000,0.000000,0.000000,0.000000,0.000000,0.100000,0.100000,-0.082890,-0.520829,-0.050000,-0.050000,0.407100,-0.745376,0.000000,0.000000,-0.436370,0.265611,1.194322,-0.176366,0.231870,-0.434871,-0.041243,-0.038216,0.041082,-0.519621
-0.050000,-0.050000,0.000000,0.000000,0.000000,0.000000,0.000000,0.000000,0.000000,0.100000,0.100000,-0.089674,-0.522118,-0.050000,-0.050000,0.400785,-0.746158,0.000000,0.000000,-0.433504,0.261227,1.204729,-0.161196,0.228269,-0.430124,-0.046937,-0.035255,0.044185,-0.525249
-0.050000,-0.050000,0.000000,0.000000,0.000000,0.000000,0.000000,0.000000,0.000000,0.100000,0.100000,-0.095019,-0.521424,-0.050000,-0.050000,0.397274,-0.746127,0.000000,0.000000,-0.430293,0.254670,1.210722,-0.145778,0.224688,-0.424679,-0.050372,-0.032052,0.046155,-0.530138
-0.050000,-0.050000,0.000000,0.000000,0.000000,0.000000,0.000000,0.000000,0.000000,0.100000,0.100000,-0.099393,-0.519155,-0.050000,-0.050000,0.395263,-0.745967,0.000000,0.000000,-0.427055,0.246952,1.214120,-0.130079,0.221486,-0.418907,-0.052785,-0.028936,0.047775,-0.534724
-0.050000,-0.050000,0.000000,0.000000,0.000000,0.000000,0.000000,0.000000,0.000000,0.100000,0.100000,-0.103281,-0.516097,-0.050000,-0.050000,0.394003,-0.745742,0.000000,0.000000,-0.423805,0.238651,1.216219,-0.114241,0.218473,-0.412973,-0.054687,-0.025865,0.049219,-0.539158
-0.050000,-0.050000,0.000000,0.000000,0.000000,0.000000,0.000000,0.000000,0.000000,0.100000,0.100000,-0.106117,-0.510966,-0.050000,-0.050000,0.394195,-0.745832,0.000000,0.000000,-0.420666,0.229402,1.215272,-0.098350,0.216453,-0.406797,-0.056064,-0.023372,0.050941,-0.543663
-0.050000,-0.050000,0.000000,0.000000,0.000000,0.000000,0.000000,0.000000,0.000000,0.100000,0.100000,-0.108674,-0.505191,-0.050000,-0.050000,0.394772,-0.746066,0.000000,0.000000,-0.417580,0.219981,1.213308,-0.082628,0.214848,-0.400605,-0.057455,-0.021179,0.052940,-0.548350
-0.050000,-0.050000,0.000000,0.000000,0.000000,0.000000,0.000000,0.000000,0.000000,0.100000,0.100000,-0.110672,-0.498128,-0.050000,-0.050000,0.396118,-0.746585,0.000000,0.000000,-0.414600,0.210217,1.209310,-0.067243,0.214072,-0.394380,-0.058874,-0.019586,0.055492,-0.553402
-0.050000,-0.050000,0.000000,0.000000,0.000000,0.000000,0.000000,0.000000,0.000000,0.100000,0.100000,-0.112196,-0.489822,-0.050000,-0.050000,0.398184,-0.747255,0.000000,0.000000,-0.411722,0.200264,1.203012,-0.052544,0.214157,-0.388237,-0.060549,-0.018672,0.058866,-0.559082
-0.050000,-0.050000,0.000000,0.000000,0.000000,0.000000,0.000000,0.000000,0.000000,0.100000,0.100000,-0.113483,-0.480894,-0.050000,-0.050000,0.400611,-0.748001,0.000000,0.000000,-0.408894,0.190216,1.195565,-0.038188,0.214674,-0.382136,-0.062352,-0.018098,0.062650,-0.565076
-0.050000,-0.050000,0.000000,0.000000,0.000000,0.000000,0.000000,0.000000,0.000000,0.100000,0.100000,-0.114184,-0.470196,-0.050000,-0.050000,0.404144,-0.748561,0.000000,0.000000,-0.406189,0.180000,1.184150,-0.025205,0.216333,-0.376315,-0.064736,-0.018439,0.067944,-0.572236
-0.050000,-0.050000,0.000000,0.000000,0.000000,0.000000,0.000000,0.000000,0.000000,0.100000,0.100000,-0.114752,-0.458981,-0.050000,-0.050000,0.408061,-0.748898,0.000000,0.000000,-0.403518,0.169760,1.171268,-0.012718,0.218274,-0.370632,-0.067332,-0.018988,0.073780,-0.579773
-0.050000,-0.050000,0.000000,0.000000,0.000000,0.000000,0.000000,0.000000,0.000000,0.100000,0.100000,-0.115053,-0.446730,-0.050000,-0.050000,0.412747,-0.748785,0.000000,0.000000,-0.400915,0.159471,1.155449,-0.001222,0.220776,-0.365224,-0.070352,-0.019954,0.080704,-0.588065
-0.050000,-0.050000,0.000000,0.000000,0.000000,0.000000,0.000000,0.000000,0.000000,0.100000,0.100000,-0.115271,-0.433711,-0.050000,-0.050000,0.418214,-0.747937,0.000000,0.000000,-0.398392,0.149241,1.136552,0.009326,0.223593,-0.360158,-0.073733,-0.021079,0.088677,-0.596902
-0.050000,-0.050000,0.000000,0.000000,0.000000,0.000000,0.000000,0.000000,0.000000,0.100000,0.100000,-0.115448,-0.420309,-0.050000,-0.050000,0.424072,-0.746720,0.000000,0.000000,-0.395908,0.139040,1.116116,0.019399,0.226566,-0.355263,-0.077293,-0.022284,0.097176,-0.606010
-0.050000,-0.050000,0.000000,0.000000,0.000000,0.000000,0.000000,0.000000,0.000000,0.100000,0.100000,-0.115874,-0.406359,-0.050000,-0.050000,0.431052,-0.744133,0.000000,0.000000,-0.393606,0.129211,1.091146,0.028185,0.229665,-0.350922,-0.081169,-0.023360,0.107038,-0.615388
-0.050000,-0.050000,0.000000,0.000000,0.000000,0.000000,0.000000,0.000000,0.000000,0.100000,0.100000,-0.116536,-0.392480,-0.050000,-0.050000,0.438364,-0.741074,0.000000,0.000000,-0.391394,0.119644,1.064783,0.036572,0.232729,-0.346751,-0.085053,-0.024313,0.117258,-0.624631
-0.050000,-0.050000,0.000000,0.000000,0.000000,0.000000,0.000000,0.000000,0.000000,0.100000,0.100000,-0.117666,-0.378742,-0.050000,-0.050000,0.446338,-0.737070,0.000000,0.000000,-0.389365,0.110601,1.035637,0.044160,0.235722,-0.342918,-0.088954,-0.025020,0.128196,-0.633604
-0.050000,-0.050000,0.000000,0.000000,0.000000,0.000000,0.000000,0.000000,0.000000,0.100000,0.100000,-0.119585,-0.365689,-0.050000,-0.050000,0.454846,-0.732231,0.000000,0.000000,-0.387574,0.102408,1.004069,0.050928,0.238599,-0.339316,-0.092702,-0.025453,0.139697,-0.641860
-0.050000,-0.050000,0.000000,0.000000,0.000000,0.000000,0.000000,0.000000,0.000000,0.100000,0.100000,-0.121898,-0.352980,-0.050000,-0.050000,0.463620,-0.726974,0.000000,0.000000,-0.385901,0.094641,0.971288,0.057287,0.241419,-0.335831,-0.096373,-0.025750,0.151478,-0.649757
-0.050000,-0.050000,0.000000,0.000000,0.000000,0.000000,0.000000,0.000000,0.000000,0.100000,0.100000,-0.125827,-0.342049,-0.050000,-0.050000,0.472970,-0.720774,0.000000,0.000000,-0.384602,0.088627,0.935462,0.062268,0.244179,-0.332418,-0.099697,-0.025813,0.164052,-0.656032
-0.050000,-0.050000,0.000000,0.000000,0.000000,0.000000,0.000000,0.000000,0.000000,0.100000,0.100000,-0.130394,-0.331893,-0.050000,-0.050000,0.482437,-0.714381,0.000000,0.000000,-0.383398,0.083323,0.898795,0.066721,0.247009,-0.328912,-0.102932,-0.025915,0.176957,-0.661658
-0.050000,-0.050000,0.000000,0.000000,0.000000,0.000000,0.000000,0.000000,0.000000,0.100000,0.100000,-0.136235,-0.323289,-0.050000,-0.050000,0.492142,-0.707601,0.000000,0.000000,-0.382381,0.079436,0.860447,0.070119,0.249979,-0.325222,-0.105989,-0.026094,0.190525,-0.665985
-0.050000,-0.050000,0.000000,0.000000,0.000000,0.000000,0.000000,0.000000,0.000000,0.100000,0.100000,-0.143405,-0.316405,-0.050000,-0.050000,0.501958,-0.700655,0.000000,0.000000,-0.381400,0.077094,0.820696,0.072357,0.253342,-0.321117,-0.109041,-0.026638,0.205035,-0.668983
-0.050000,-0.050000,0.000000,0.000000,0.000000,0.000000,0.000000,0.000000,0.000000,0.100000,0.100000,-0.151240,-0.310381,-0.050000,-0.050000,0.511831,-0.693626,0.000000,0.000000,-0.380437,0.075524,0.780244,0.074015,0.256900,-0.316804,-0.112092,-0.027364,0.220015,-0.671316
-0.050000,-0.050000,0.000000,0.000000,0.000000,0.000000,0.000000,0.000000,0.000000,0.100000,0.100000,-0.160881,-0.306844,-0.050000,-0.050000,0.521712,-0.686590,0.000000,0.000000,-0.379185,0.076247,0.738053,0.073914,0.261467,-0.311628,-0.115490,-0.029038,0.236900,-0.671903
-0.050000,-0.050000,0.000000,0.000000,0.000000,0.000000,0.000000,0.000000,0.000000,0.100000,0.100000,-0.170968,-0.303994,-0.050000,-0.050000,0.531545,-0.679595,0.000000,0.000000,-0.377706,0.077657,0.695424,0.073284,0.266496,-0.306144,-0.119105,-0.031116,0.254535,-0.672073
-0.050000,-0.050000,0.000000,0.000000,0.000000,0.000000,0.000000,0.000000,0.000000,0.100000,0.100000,-0.181947,-0.302518,-0.050000,-0.050000,0.541280,-0.672685,0.000000,0.000000,-0.375775,0.080444,0.651917,0.071596,0.272448,-0.300043,-0.123154,-0.034005,0.273669,-0.671411
-0.050000,-0.050000,0.000000,0.000000,0.000000,0.000000,0.000000,0.000000,0.000000,0.100000,0.100000,-0.193344,-0.301965,-0.050000,-0.050000,0.550791,-0.665887,0.000000,0.000000,-0.373166,0.084348,0.607935,0.069097,0.279480,-0.293422,-0.127716,-0.037754,0.294287,-0.670341
-0.050000,-0.050000,0.000000,0.000000,0.000000,0.000000,0.000000,0.000000,0.000000,0.100000,0.100000,-0.204950,-0.301874,-0.050000,-0.050000,0.560189,-0.659145,0.000000,0.000000,-0.370220,0.088810,0.563716,0.066190,0.287051,-0.286541,-0.132535,-0.041934,0.315647,-0.669066
-0.050000,-0.050000,0.000000,0.000000,0.000000,0.000000,0.000000,0.000000,0.000000,0.100000,0.100000,-0.216311,-0.302358,-0.050000,-0.050000,0.568986,-0.652542,0.000000,0.000000,-0.366085,0.094472,0.519648,0.062575,0.296209,-0.279162,-0.137985,-0.047272,0.338692,-0.667782
-0.050000,-0.050000,0.000000,0.000000,0.000000,0.000000,0.000000,0.000000,0.000000,0.100000,0.100000,-0.227286,-0.302770,-0.050000,-0.050000,0.577469,-0.645960,0.000000,0.000000,-0.361573,0.100369,0.476000,0.058915,0.305761,-0.271716,-0.143515,-0.052888,0.361935,-0.666617
-0.050000,-0.050000,0.000000,0.000000,0.000000,0.000000,0.000000,0.000000,0.000000,0.100000,0.100000,-0.237489,-0.303040,-0.050000,-0.050000,0.585321,-0.639420,0.000000,0.000000,-0.356307,0.106740,0.433193,0.055165,0.316100,-0.264135,-0.149209,-0.059062,0.385576,-0.665693
-0.050000,-0.050000,0.000000,0.000000,0.000000,0.000000,0.000000,0.000000,0.000000,0.100000,0.100000,-0.246368,-0.302749,-0.050000,-0.050000,0.592279,-0.632855,0.000000,0.000000,-0.350481,0.113296,0.392067,0.051696,0.326667,-0.256518,-0.154707,-0.065485,0.408609,-0.664999
-0.050000,-0.050000,0.000000,0.000000,0.000000,0.000000,0.000000,0.000000,0.000000,0.100000,0.100000,-0.254586,-0.302179,-0.050000,-0.050000,0.598790,-0.626277,0.000000,0.000000,-0.344376,0.119947,0.351782,0.048368,0.337349,-0.248884,-0.160107,-0.072031,0.431337,-0.664421
-0.050000,-0.050000,0.000000,0.000000,0.000000,0.000000,0.000000,0.000000,0.000000,0.100000,0.100000,-0.260193,-0.300415,-0.050000,-0.050000,0.603572,-0.619565,0.000000,0.000000,-0.337874,0.126552,0.315265,0.045918,0.347147,-0.241102,-0.164654,-0.078412,0.451482,-0.663749
-0.050000,-0.050000,0.000000,0.000000,0.000000,0.000000,0.000000,0.000000,0.000000,0.100000,0.100000,-0.264810,-0.298243,-0.050000,-0.050000,0.607676,-0.612788,0.000000,0.000000,-0.331388,0.133073,0.280350,0.043861,0.356164,-0.233160,-0.168763,-0.084562,0.470269,-0.662802
-0.050000,-0.050000,0.000000,0.000000,0.000000,0.000000,0.000000,0.000000,0.000000,0.100000,0.100000,-0.267447,-0.295253,-0.050000,-0.050000,0.610428,-0.605881,0.000000,0.000000,-0.324933,0.139424,0.248639,0.042589,0.363621,-0.224895,-0.171996,-0.090254,0.486338,-0.661306
-0.050000,-0.050000,0.000000,0.000000,0.000000,0.000000,0.000000,0.000000,0.000000,0.100000,0.100000,-0.268057,-0.291621,-0.050000,-0.050000,0.611727,-0.598856,0.000000,0.000000,-0.318694,0.145522,0.220558,0.042160,0.368566,-0.216007,-0.174159,-0.095218,0.499042,-0.658763
-0.050000,-0.050000,0.000000,0.000000,0.000000,0.000000,0.000000,0.000000,0.000000,0.100000,0.100000,-0.267654,-0.287667,-0.050000,-0.050000,0.612301,-0.591772,0.000000,0.000000,-0.312563,0.151493,0.194293,0.042154,0.372254,-0.206809,-0.175787,-0.099818,0.510065,-0.655697
-0.050000,-0.050000,0.000000,0.000000,0.000000,0.000000,0.000000,0.000000,0.000000,0.100000,0.100000,-0.264397,-0.283204,-0.050000,-0.050000,0.610740,-0.584622,0.000000,0.000000,-0.306741,0.156998,0.173599,0.043281,0.371053,-0.196308,-0.175720,-0.103141,0.515837,-0.650632
-0.050000,-0.050000,0.000000,0.000000,0.000000,0.000000,0.000000,0.000000,0.000000,0.100000,0.100000,-0.260319,-0.278740,-0.050000,-0.050000,0.608548,-0.577518,0.000000,0.000000,-0.300918,0.162320,0.154620,0.044677,0.368026,-0.185336,-0.175131,-0.106068,0.520065,-0.644945
-0.050000,-0.050000,0.000000,0.000000,0.000000,0.000000,0.000000,0.000000,0.000000,0.100000,0.100000,-0.254601,-0.274277,-0.050000,-0.050000,0.605096,-0.570504,0.000000,0.000000,-0.295090,0.167277,0.139075,0.046609,0.361348,-0.173421,-0.173498,-0.108203,0.521203,-0.638012
-0.050000,-0.050000,0.000000,0.000000,0.000000,0.000000,0.000000,0.000000,0.000000,0.100000,0.100000,-0.247606,-0.270093,-0.050000,-0.050000,0.600664,-0.563745,0.000000,0.000000,-0.288919,0.171816,0.126388,0.048788,0.351042,-0.160692,-0.171060,-0.109784,0.520089,-0.630299
-0.050000,-0.050000,0.000000,0.000000,0.000000,0.000000,0.000000,0.000000,0.000000,0.100000,0.100000,-0.239973,-0.266049,-0.050000,-0.050000,0.595743,-0.557112,0.000000,0.000000,-0.282577,0.176148,0.115129,0.051090,0.338922,-0.147557,-0.168220,-0.111088,0.517849,-0.622195
-0.050000,-0.050000,0.000000,0.000000,0.000000,0.000000,0.000000,0.000000,0.000000,0.100000,0.100000,-0.231085,-0.262663,-0.050000,-0.050000,0.589918,-0.551084,0.000000,0.000000,-0.275229,0.179813,0.107053,0.053357,0.321989,-0.133615,-0.164736,-0.112081,0.513752,-0.613930
-0.050000,-0.050000,0.000000,0.000000,0.000000,0.000000,0.000000,0.000000,0.000000,0.100000,0.100000,-0.222026,-0.259511,-0.050000,-0.050000,0.584010,-0.545305,0.000000,0.000000,-0.267464,0.183268,0.099672,0.055537,0.303808,-0.119547,-0.161263,-0.113139,0.509478,-0.605906
-0.050000,-0.050000,0.000000,0.000000,0.000000,0.000000,0.000000,0.000000,0.000000,0.100000,0.100000,-0.212625,-0.256824,-0.050000,-0.050000,0.577936,-0.540024,0.000000,0.000000,-0.258864,0.186302,0.093683,0.057545,0.283135,-0.105229,-0.157811,-0.114327,0.504851,-0.598361
-0.050000,-0.050000,0.000000,0.000000,0.000000,0.000000,0.000000,0.000000,0.000000,0.100000,0.100000,-0.203407,-0.254532,-0.050000,-0.050000,0.572143,-0.535250,0.000000,0.000000,-0.249530,0.189004,0.088501,0.059421,0.260850,-0.090833,-0.154785,-0.115837,0.500370,-0.591511
-0.050000,-0.050000,0.000000,0.000000,0.000000,0.000000,0.000000,0.000000,0.000000,0.100000,0.100000,-0.194281,-0.252438,-0.050000,-0.050000,0.566490,-0.530732,0.000000,0.000000,-0.239829,0.191539,0.083724,0.061230,0.237759,-0.076398,-0.151972,-0.117507,0.495963,-0.585007
-0.050000,-0.050000,0.000000,0.000000,0.000000,0.000000,0.000000,0.000000,0.000000,0.100000,0.100000,-0.186199,-0.250777,-0.050000,-0.050000,0.561861,-0.526873,0.000000,0.000000,-0.229598,0.193775,0.079629,0.063184,0.213609,-0.061818,-0.150148,-0.119599,0.491773,-0.579062
-0.050000,-0.050000,0.000000,0.000000,0.000000,0.000000,0.000000,0.000000,0.000000,0.100000,0.100000,-0.178691,-0.249215,-0.050000,-0.050000,0.557720,-0.523172,0.000000,0.000000,-0.219477,0.195977,0.075699,0.065356,0.189499,-0.047090,-0.148648,-0.121699,0.487433,-0.572896
-0.050000,-0.050000,0.000000,0.000000,0.000000,0.000000,0.000000,0.000000,0.000000,0.100000,0.100000,-0.172332,-0.247851,-0.050000,-0.050000,0.554551,-0.519786,0.000000,0.000000,-0.209579,0.198114,0.072100,0.067962,0.165470,-0.032066,-0.147795,-0.123816,0.482794,-0.566287
-0.050000,-0.050000,0.000000,0.000000,0.000000,0.000000,0.000000,0.000000,0.000000,0.100000,0.100000,-0.167454,-0.246640,-0.050000,-0.050000,0.552469,-0.516566,0.000000,0.000000,-0.200523,0.200255,0.068877,0.071303,0.142064,-0.016445,-0.147361,-0.125575,0.477159,-0.558156
-0.050000,-0.050000,0.000000,0.000000,0.000000,0.000000,0.000000,0.000000,0.000000,0.100000,0.100000,-0.163317,-0.245506,-0.050000,-0.050000,0.550929,-0.513429,0.000000,0.000000,-0.191889,0.202400,0.065841,0.075012,0.118968,-0.000527,-0.147134,-0.127157,0.471027,-0.549264
-0.050000,-0.050000,0.000000,0.000000,0.000000,0.000000,0.000000,0.000000,0.000000,0.100000,0.100000,-0.161652,-0.244577,-0.050000,-0.050000,0.550848,-0.510324,0.000000,0.000000,-0.185278,0.204478,0.063538,0.079984,0.097102,0.016727,-0.147041,-0.127722,0.462358,-0.536576
-0.050000,-0.050000,0.000000,0.000000,0.000000,0.000000,0.000000,0.000000,0.000000,0.100000,0.100000,-0.160798,-0.243706,-0.050000,-0.050000,0.551077,-0.507167,0.000000,0.000000,-0.179474,0.206432,0.061524,0.085278,0.075544,0.034529,-0.146855,-0.127891,0.452606,-0.522320
-0.050000,-0.050000,0.000000,0.000000,0.000000,0.000000,0.000000,0.000000,0.000000,0.100000,0.100000,-0.161565,-0.242950,-0.050000,-0.050000,0.551926,-0.503905,0.000000,0.000000,-0.175281,0.208137,0.060088,0.091215,0.054603,0.053426,-0.146483,-0.127269,0.440690,-0.504927
-0.050000,-0.050000,0.000000,0.000000,0.000000,0.000000,0.000000,0.000000,0.000000,0.100000,0.100000,-0.163727,-0.242234,-0.050000,-0.050000,0.552851,-0.500428,0.000000,0.000000,-0.172658,0.209239,0.059235,0.097272,0.033685,0.073513,-0.145816,-0.126030,0.426508,-0.484423
-0.050000,-0.050000,0.000000,0.000000,0.000000,0.000000,0.000000,0.000000,0.000000,0.100000,0.100000,-0.166588,-0.241538,-0.050000,-0.050000,0.553813,-0.496844,0.000000,0.000000,-0.170820,0.210040,0.058673,0.103388,0.012779,0.094194,-0.145001,-0.124484,0.411192,-0.462363
-0.050000,-0.050000,0.000000,0.000000,0.000000,0.000000,0.000000,0.000000,0.000000,0.100000,0.100000,-0.170959,-0.240663,-0.050000,-0.050000,0.553933,-0.492775,0.000000,0.000000,-0.170836,0.209256,0.058834,0.108550,-0.009438,0.116714,-0.143866,-0.122696,0.392972,-0.436726
-0.050000,-0.050000,0.000000,0.000000,0.000000,0.000000,0.000000,0.000000,0.000000,0.100000,0.100000,-0.175587,-0.239609,-0.050000,-0.050000,0.553475,-0.488484,0.000000,0.000000,-0.171196,0.207715,0.059144,0.112985,-0.032606,0.139876,-0.142730,-0.121143,0.374147,-0.410559
-0.050000,-0.050000,0.000000,0.000000,0.000000,0.000000,0.000000,0.000000,0.000000,0.100000,0.100000,-0.180732,-0.238195,-0.050000,-0.050000,0.551865,-0.483748,0.000000,0.000000,-0.172244,0.204660,0.059754,0.115966,-0.057676,0.164323,-0.141592,-0.120060,0.354114,-0.383333
-0.050000,-0.050000,0.000000,0.000000,0.000000,0.000000,0.000000,0.000000,0.000000,0.100000,0.100000,-0.185887,-0.236140,-0.050000,-0.050000,0.548693,-0.478427,0.000000,0.000000,-0.173339,0.199744,0.060444,0.116826,-0.085567,0.190182,-0.140693,-0.120098,0.333904,-0.356736
-0.050000,-0.050000,0.000000,0.000000,0.000000,0.000000,0.000000,0.000000,0.000000,0.100000,0.100000,-0.191049,-0.233764,-0.050000,-0.050000,0.544741,-0.472812,0.000000,0.000000,-0.174458,0.193897,0.061174,0.116624,-0.114868,0.216746,-0.139913,-0.120696,0.313605,-0.330453
-0.050000,-0.050000,0.000000,0.000000,0.000000,0.000000,0.000000,0.000000,0.000000,0.100000,0.100000,-0.195600,-0.230060,-0.050000,-0.050000,0.538259,-0.466087,0.000000,0.000000,-0.174744,0.185072,0.061725,0.112716,-0.149211,0.245661,-0.139781,-0.123738,0.294806,-0.307717
-0.050000,-0.050000,0.000000,0.000000,0.000000,0.000000,0.000000,0.000000,0.000000,0.100000,0.100000,-0.199824,-0.225847,-0.050000,-0.050000,0.531026,-0.458926,0.000000,0.000000,-0.174525,0.175335,0.062152,0.107605,-0.185211,0.275395,-0.139924,-0.127732,0.277084,-0.286899
-0.050000,-0.050000,0.000000,0.000000,0.000000,0.000000,0.000000,0.000000,0.000000,0.100000,0.100000,-0.203391,-0.220618,-0.050000,-0.050000,0.522293,-0.450893,0.000000,0.000000,-0.173293,0.163772,0.062332,0.100087,-0.224523,0.306769,-0.140617,-0.133629,0.261517,-0.269918
-0.050000,-0.050000,0.000000,0.000000,0.000000,0.000000,0.000000,0.000000,0.000000,0.100000,0.100000,-0.209451,-0.215459,-0.050000,-0.050000,0.514105,-0.442949,0.000000,0.000000,-0.170465,0.148968,0.063318,0.089992,-0.270730,0.342728,-0.141924,-0.141647,0.247222,-0.256100
-0.050000,-0.050000,0.000000,0.000000,0.000000,0.000000,0.000000,0.000000,0.000000,0.100000,0.100000,-0.216758,-0.210333,-0.050000,-0.050000,0.506190,-0.435050,0.000000,0.000000,-0.166840,0.132543,0.064709,0.078609,-0.320385,0.380981,-0.143537,-0.150726,0.233564,-0.243865
-0.050000,-0.050000,0.000000,0.000000,0.000000,0.000000,0.000000,0.000000,0.000000,0.100000,0.100000,-0.219776,-0.202878,-0.050000,-0.050000,0.495811,-0.424410,0.000000,0.000000,-0.162070,0.117359,0.064944,0.066205,-0.366829,0.417063,-0.146479,-0.162381,0.228508,-0.242495
-0.050000,-0.050000,0.000000,0.000000,0.000000,0.000000,0.000000,0.000000,0.000000,0.100000,0.100000,-0.222289,-0.195084,-0.050000,-0.050000,0.485419,-0.413314,0.000000,0.000000,-0.156679,0.102380,0.065018,0.053663,-0.412820,0.453168,-0.149799,-0.174791,0.225727,-0.243889
-0.050000,-0.050000,0.000000,0.000000,0.000000,0.000000,0.000000,0.000000,0.000000,0.100000,0.100000,-0.223791,-0.186614,-0.050000,-0.050000,0.475000,-0.401305,0.000000,0.000000,-0.150044,0.087808,0.064767,0.040847,-0.457903,0.489322,-0.153873,-0.188712,0.227496,-0.250812
-0.050000,-0.050000,0.000000,0.000000,0.000000,0.000000,0.000000,0.000000,0.000000,0.100000,0.100000,-0.225010,-0.178012,-0.050000,-0.050000,0.465223,-0.388824,0.000000,0.000000,-0.142340,0.073962,0.064628,0.028672,-0.501039,0.525093,-0.158682,-0.203685,0.233485,-0.262450
-0.050000,-0.050000,0.000000,0.000000,0.000000,0.000000,0.000000,0.000000,0.000000,0.100000,0.100000,-0.226087,-0.169345,-0.050000,-0.050000,0.455767,-0.376106,0.000000,0.000000,-0.134101,0.060477,0.064543,0.016817,-0.543202,0.560673,-0.163860,-0.219184,0.241585,-0.276447
-0.050000,-0.050000,0.000000,0.000000,0.000000,0.000000,0.000000,0.000000,0.000000,0.100000,0.100000,-0.227212,-0.160941,-0.050000,-0.050000,0.447763,-0.363250,0.000000,0.000000,-0.124661,0.048564,0.065064,0.006994,-0.580998,0.594661,-0.170043,-0.235547,0.255332,-0.296319
-0.050000,-0.050000,0.000000,0.000000,0.000000,0.000000,0.000000,0.000000,0.000000,0.100000,0.100000,-0.228381,-0.152696,-0.050000,-0.050000,0.440285,-0.350512,0.000000,0.000000,-0.114957,0.037250,0.065865,-0.001938,-0.617122,0.627807,-0.176475,-0.251945,0.270603,-0.317720
-0.050000,-0.050000,0.000000,0.000000,0.000000,0.000000,0.000000,0.000000,0.000000,0.100000,0.100000,-0.229639,-0.144768,-0.050000,-0.050000,0.433860,-0.338011,0.000000,0.000000,-0.104725,0.027136,0.067224,-0.009091,-0.649902,0.659268,-0.183406,-0.268413,0.288921,-0.342176
-0.050000,-0.050000,0.000000,0.000000,0.000000,0.000000,0.000000,0.000000,0.000000,0.100000,0.100000,-0.230839,-0.137190,-0.050000,-0.050000,0.428388,-0.325994,0.000000,0.000000,-0.094217,0.018190,0.069156,-0.014326,-0.679450,0.688547,-0.190589,-0.284428,0.309339,-0.368778
-0.050000,-0.050000,0.000000,0.000000,0.000000,0.000000,0.000000,0.000000,0.000000,0.100000,0.100000,-0.232009,-0.129787,-0.050000,-0.050000,0.423391,-0.314218,0.000000,0.000000,-0.083570,0.009828,0.071374,-0.018603,-0.707382,0.716736,-0.197897,-0.300216,0.330805,-0.396451
-0.050000,-0.050000,0.000000,0.000000,0.000000,0.000000,0.000000,0.000000,0.000000,0.100000,0.100000,-0.232648,-0.122870,-0.050000,-0.050000,0.419526,-0.303408,0.000000,0.000000,-0.072838,0.002970,0.074274,-0.020165,-0.731167,0.741102,-0.205194,-0.314552,0.353762,-0.425909
-0.050000,-0.050000,0.000000,0.000000,0.000000,0.000000,0.000000,0.000000,0.000000,0.100000,0.100000,-0.232932,-0.116099,-0.050000,-0.050000,0.415933,-0.292967,0.000000,0.000000,-0.062167,-0.003498,0.077294,-0.020961,-0.753844,0.764064,-0.212378,-0.328167,0.376643,-0.455471
-0.050000,-0.050000,0.000000,0.000000,0.000000,0.000000,0.000000,0.000000,0.000000,0.100000,0.100000,-0.232504,-0.109619,-0.050000,-0.050000,0.412885,-0.283266,0.000000,0.000000,-0.051620,-0.009190,0.080553,-0.020225,-0.774308,0.784218,-0.219336,-0.340344,0.399370,-0.485241
-0.050000,-0.050000,0.000000,0.000000,0.000000,0.000000,0.000000,0.000000,0.000000,0.100000,0.100000,-0.231041,-0.103415,-0.050000,-0.050000,0.410229,-0.274372,0.000000,0.000000,-0.041349,-0.014325,0.083796,-0.018332,-0.792960,0.801397,-0.225916,-0.350710,0.420900,-0.514263
-0.050000,-0.050000,0.000000,0.000000,0.000000,0.000000,0.000000,0.000000,0.000000,0.100000,0.100000,-0.229061,-0.097348,-0.050000,-0.050000,0.407770,-0.265882,0.000000,0.000000,-0.031217,-0.019180,0.087029,-0.015860,-0.810705,0.817089,-0.232305,-0.360171,0.441830,-0.542910
-0.050000,-0.050000,0.000000,0.000000,0.000000,0.000000,0.000000,0.000000,0.000000,0.100000,0.100000,-0.225241,-0.091709,-0.050000,-0.050000,0.405796,-0.258693,0.000000,0.000000,-0.021710,-0.023438,0.089885,-0.012261,-0.825920,0.828205,-0.237968,-0.366579,0.459757,-0.569156
-0.050000,-0.050000,0.000000,0.000000,0.000000,0.000000,0.000000,0.000000,0.000000,0.100000,0.100000,-0.220810,-0.086222,-0.050000,-0.050000,0.403988,-0.251967,0.000000,0.000000,-0.012488,-0.027536,0.092532,-0.008482,-0.840214,0.837809,-0.243349,-0.371947,0.476447,-0.594267
-0.050000,-0.050000,0.000000,0.000000,0.000000,0.000000,0.000000,0.000000,0.000000,0.100000,0.100000,-0.215155,-0.081040,-0.050000,-0.050000,0.402512,-0.246167,0.000000,0.000000,-0.003835,-0.031313,0.094761,-0.004343,-0.852670,0.844388,-0.248165,-0.375234,0.490663,-0.617110
-0.050000,-0.050000,0.000000,0.000000,0.000000,0.000000,0.000000,0.000000,0.000000,0.100000,0.100000,-0.208493,-0.076176,-0.050000,-0.050000,0.401425,-0.241343,0.000000,0.000000,0.004071,-0.034761,0.096499,-0.000193,-0.862949,0.848081,-0.252333,-0.376559,0.502265,-0.637244
-0.050000,-0.050000,0.000000,0.000000,0.000000,0.000000,0.000000,0.000000,0.000000,0.100000,0.100000,-0.201327,-0.071470,-0.050000,-0.050000,0.400534,-0.237007,0.000000,0.000000,0.011604,-0.038044,0.097991,0.003963,-0.872139,0.850329,-0.256178,-0.376902,0.512561,-0.656023
-0.050000,-0.050000,0.000000,0.000000,0.000000,0.000000,0.000000,0.000000,0.000000,0.100000,0.100000,-0.190814,-0.063962,-0.050000,-0.050000,0.399438,-0.234757,0.000000,0.000000,0.017114,-0.040807,0.098600,0.007619,-0.876814,0.849572,-0.258702,-0.375079,0.518541,-0.668138
-0.050000,-0.050000,0.000000,0.000000,0.000000,0.000000,0.000000,0.000000,0.000000,0.100000,0.100000,-0.180623,-0.057178,-0.050000,-0.050000,0.398876,-0.232959,0.000000,0.000000,0.022100,-0.043199,0.098918,0.011012,-0.880326,0.847610,-0.260909,-0.372544,0.523619,-0.679327
-0.050000,-0.050000,0.000000,0.000000,0.000000,0.000000,0.000000,0.000000,0.000000,0.100000,0.100000,-0.171080,-0.051840,-0.050000,-0.050000,0.399379,-0.232065,0.000000,0.000000,0.026035,-0.044851,0.098655,0.013878,-0.881510,0.843240,-0.262482,-0.368587,0.526892,-0.688664
-0.050000,-0.050000,0.000000,0.000000,0.000000,0.000000,0.000000,0.000000,0.000000,0.100000,0.100000,-0.162245,-0.047299,-0.050000,-0.050000,0.400760,-0.232112,0.000000,0.000000,0.028704,-0.045819,0.098074,0.016162,-0.879669,0.836610,-0.263072,-0.363223,0.528069,-0.695300
-0.050000,-0.050000,0.000000,0.000000,0.000000,0.000000,0.000000,0.000000,0.000000,0.100000,0.100000,-0.153764,-0.043157,-0.050000,-0.050000,0.402579,-0.232629,0.000000,0.000000,0.030738,-0.046445,0.097333,0.018156,-0.876316,0.828851,-0.263172,-0.357154,0.528199,-0.700586
-0.050000,-0.050000,0.000000,0.000000,0.000000,0.000000,0.000000,0.000000,0.000000,0.100000,0.100000,-0.146562,-0.039650,-0.050000,-0.050000,0.405744,-0.234580,0.000000,0.000000,0.030530,-0.045891,0.096208,0.019236,-0.867952,0.818218,-0.261443,-0.349001,0.524884,-0.701107
-0.050000,-0.050000,0.000000,0.000000,0.000000,0.000000,0.000000,0.000000,0.000000,0.100000,0.100000,-0.139850,-0.036254,-0.050000,-0.050000,0.409427,-0.237018,0.000000,0.000000,0.029483,-0.044900,0.094952,0.020040,-0.857823,0.806775,-0.258964,-0.340111,0.520221,-0.699795
-0.050000,-0.050000,0.000000,0.000000,0.000000,0.000000,0.000000,0.000000,0.000000,0.100000,0.100000,-0.134117,-0.033080,-0.050000,-0.050000,0.414146,-0.240430,0.000000,0.000000,0.026757,-0.043037,0.093435,0.020292,-0.844161,0.793711,-0.254984,-0.329745,0.512862,-0.694816
-0.050000,-0.050000,0.000000,0.000000,0.000000,0.000000,0.000000,0.000000,0.000000,0.100000,0.100000,-0.131706,-0.032425,-0.050000,-0.050000,0.420144,-0.243930,0.000000,0.000000,0.022946,-0.041059,0.092377,0.020502,-0.825215,0.777890,-0.248539,-0.316363,0.501340,-0.685026
-0.050000,-0.050000,0.000000,0.000000,0.000000,0.000000,0.000000,0.000000,0.000000,0.100000,0.100000,-0.130956,-0.033030,-0.050000,-0.050000,0.426783,-0.247474,0.000000,0.000000,0.018593,-0.039024,0.091548,0.020691,-0.803628,0.760692,-0.240862,-0.301475,0.487737,-0.672830
-0.050000,-0.050000,0.000000,0.000000,0.000000,0.000000,0.000000,0.000000,0.000000,0.100000,0.100000,-0.129519,-0.031197,-0.050000,-0.050000,0.435577,-0.253560,0.000000,0.000000,0.010795,-0.035332,0.089919,0.020631,-0.777695,0.743313,-0.230347,-0.285263,0.468159,-0.653095
-0.050000,-0.050000,0.000000,0.000000,0.000000,0.000000,0.000000,0.000000,0.000000,0.100000,0.100000,-0.128212,-0.029111,-0.050000,-0.050000,0.445218,-0.260260,0.000000,0.000000,0.002050,-0.031204,0.088059,0.020656,-0.749761,0.725426,-0.218685,-0.268272,0.446039,-0.630673
-0.050000,-0.050000,0.000000,0.000000,0.000000,0.000000,0.000000,0.000000,0.000000,0.100000,0.100000,-0.127165,-0.026521,-0.050000,-0.050000,0.456555,-0.268185,0.000000,0.000000,-0.008591,-0.026205,0.085739,0.020850,-0.717827,0.706523,-0.204730,-0.249721,0.418836,-0.602879
-0.050000,-0.050000,0.000000,0.000000,0.000000,0.000000,0.000000,0.000000,0.000000,0.100000,0.100000,-0.126613,-0.023879,-0.050000,-0.050000,0.469720,-0.277224,0.000000,0.000000,-0.020865,-0.020543,0.083079,0.021490,-0.681530,0.686288,-0.188607,-0.229750,0.386166,-0.570045
-0.050000,-0.050000,0.000000,0.000000,0.000000,0.000000,0.000000,0.000000,0.000000,0.100000,0.100000,-0.126308,-0.021211,-0.050000,-0.050000,0.483800,-0.286819,0.000000,0.000000,-0.033955,-0.014549,0.080248,0.022352,-0.643050,0.665387,-0.171400,-0.209068,0.350763,-0.534691
-0.050000,-0.050000,0.000000,0.000000,0.000000,0.000000,0.000000,0.000000,0.000000,0.100000,0.100000,-0.126893,-0.018861,-0.050000,-0.050000,0.500468,-0.297902,0.000000,0.000000,-0.049107,-0.007838,0.077084,0.024114,-0.597884,0.642163,-0.151971,-0.187154,0.307594,-0.493223
-0.050000,-0.050000,0.000000,0.000000,0.000000,0.000000,0.000000,0.000000,0.000000,0.100000,0.100000,-0.127818,-0.016727,-0.050000,-0.050000,0.517786,-0.309365,0.000000,0.000000,-0.064785,-0.000988,0.073870,0.026168,-0.550663,0.618121,-0.132420,-0.165305,0.262415,-0.450534
-0.050000,-0.050000,0.000000,0.000000,0.000000,0.000000,0.000000,0.000000,0.000000,0.100000,0.100000,-0.129422,-0.015024,-0.050000,-0.050000,0.536407,-0.321588,0.000000,0.000000,-0.081513,0.006142,0.070558,0.028805,-0.499334,0.592445,-0.112622,-0.143584,0.213213,-0.405404
-0.050000,-0.050000,0.000000,0.000000,0.000000,0.000000,0.000000,0.000000,0.000000,0.100000,0.100000,-0.131764,-0.013940,-0.050000,-0.050000,0.555580,-0.334203,0.000000,0.000000,-0.098882,0.013337,0.067279,0.031833,-0.444961,0.565344,-0.094146,-0.123130,0.162065,-0.359999
-0.050000,-0.050000,0.000000,0.000000,0.000000,0.000000,0.000000,0.000000,0.000000,0.100000,0.100000,-0.134476,-0.013167,-0.050000,-0.050000,0.575029,-0.347015,0.000000,0.000000,-0.116571,0.020563,0.064016,0.035056,-0.389068,0.537529,-0.076330,-0.103310,0.109944,-0.314455
-0.050000,-0.050000,0.000000,0.000000,0.000000,0.000000,0.000000,0.000000,0.000000,0.100000,0.100000,-0.138273,-0.013532,-0.050000,-0.050000,0.593819,-0.359686,0.000000,0.000000,-0.134478,0.027534,0.061003,0.038389,-0.331507,0.508550,-0.062685,-0.087029,0.059175,-0.272110
-0.050000,-0.050000,0.000000,0.000000,0.000000,0.000000,0.000000,0.000000,0.000000,0.100000,0.100000,-0.142370,-0.014315,-0.050000,-0.050000,0.611855,-0.372036,0.000000,0.000000,-0.152181,0.034305,0.058136,0.041586,-0.274722,0.479739,-0.050860,-0.072324,0.010468,-0.231978
-0.050000,-0.050000,0.000000,0.000000,0.000000,0.000000,0.000000,0.000000,0.000000,0.100000,0.100000,-0.147065,-0.015935,-0.050000,-0.050000,0.628385,-0.383743,0.000000,0.000000,-0.169473,0.040675,0.055559,0.044512,-0.219488,0.451265,-0.042676,-0.060774,-0.034113,-0.196270
-0.050000,-0.050000,0.000000,0.000000,0.000000,0.000000,0.000000,0.000000,0.000000,0.100000,0.100000,-0.152129,-0.018406,-0.050000,-0.050000,0.642458,-0.394263,0.000000,0.000000,-0.185795,0.046455,0.053386,0.046898,-0.168767,0.424574,-0.038131,-0.052717,-0.071579,-0.166804
-0.050000,-0.050000,0.000000,0.000000,0.000000,0.000000,0.000000,0.000000,0.000000,0.100000,0.100000,-0.157377,-0.021304,-0.050000,-0.050000,0.655303,-0.404191,0.000000,0.000000,-0.201633,0.051940,0.051415,0.049015,-0.120303,0.398774,-0.035404,-0.046407,-0.105488,-0.140460
-0.050000,-0.050000,0.000000,0.000000,0.000000,0.000000,0.000000,0.000000,0.000000,0.100000,0.100000,-0.158931,-0.022072,-0.050000,-0.050000,0.664149,-0.412776,0.000000,0.000000,-0.215636,0.057783,0.048374,0.048570,-0.086645,0.380034,-0.036693,-0.045111,-0.123543,-0.126641
-0.050000,-0.050000,0.000000,0.000000,0.000000,0.000000,0.000000,0.000000,0.000000,0.100000,0.100000,-0.161087,-0.023820,-0.050000,-0.050000,0.671089,-0.419960,0.000000,0.000000,-0.228433,0.062866,0.045933,0.048155,-0.056014,0.362861,-0.038837,-0.045116,-0.137719,-0.115714
-0.050000,-0.050000,0.000000,0.000000,0.000000,0.000000,0.000000,0.000000,0.000000,0.100000,0.100000,-0.164450,-0.027530,-0.050000,-0.050000,0.674217,-0.424344,0.000000,0.000000,-0.238819,0.066429,0.044691,0.047800,-0.031437,0.348823,-0.042689,-0.047723,-0.144137,-0.110575
-0.050000,-0.050000,0.000000,0.000000,0.000000,0.000000,0.000000,0.000000,0.000000,0.100000,0.100000,-0.168046,-0.032458,-0.050000,-0.050000,0.673798,-0.426364,0.000000,0.000000,-0.247030,0.069166,0.044443,0.047443,-0.016231,0.339955,-0.047519,-0.052636,-0.141524,-0.111855
-0.050000,-0.050000,0.000000,0.000000,0.000000,0.000000,0.000000,0.000000,0.000000,0.100000,0.100000,-0.171759,-0.037996,-0.050000,-0.050000,0.671606,-0.427200,0.000000,0.000000,-0.254154,0.071490,0.044693,0.047086,-0.005710,0.333673,-0.052837,-0.058701,-0.134397,-0.116345
-0.050000,-0.050000,0.000000,0.000000,0.000000,0.000000,0.000000,0.000000,0.000000,0.100000,0.100000,-0.175229,-0.044767,-0.050000,-0.050000,0.664901,-0.424918,0.000000,0.000000,-0.258227,0.073395,0.046424,0.047047,-0.010276,0.336359,-0.058701,-0.067316,-0.115425,-0.128976
-0.050000,-0.050000,0.000000,0.000000,0.000000,0.000000,0.000000,0.000000,0.000000,0.100000,0.100000,-0.178561,-0.051841,-0.050000,-0.050000,0.657024,-0.421761,0.000000,0.000000,-0.261358,0.075358,0.048659,0.047281,-0.019640,0.342097,-0.064633,-0.076492,-0.093609,-0.143481
-0.050000,-0.050000,0.000000,0.000000,0.000000,0.000000,0.000000,0.000000,0.000000,0.100000,0.100000,-0.181613,-0.059521,-0.050000,-0.050000,0.646803,-0.416855,0.000000,0.000000,-0.262607,0.077436,0.051905,0.048060,-0.038598,0.353936,-0.070699,-0.086788,-0.066104,-0.161733
-0.050000,-0.050000,0.000000,0.000000,0.000000,0.000000,0.000000,0.000000,0.000000,0.100000,0.100000,-0.184377,-0.067642,-0.050000,-0.050000,0.634964,-0.410629,0.000000,0.000000,-0.262192,0.079888,0.056129,0.049679,-0.066018,0.371501,-0.076925,-0.097714,-0.035528,-0.181820
-0.050000,-0.050000,0.000000,0.000000,0.000000,0.000000,0.000000,0.000000,0.000000,0.100000,0.100000,-0.186997,-0.075983,-0.050000,-0.050000,0.622316,-0.403742,0.000000,0.000000,-0.260945,0.082526,0.060842,0.051718,-0.097668,0.391930,-0.083229,-0.108955,-0.003415,-0.202825
-0.050000,-0.050000,0.000000,0.000000,0.000000,0.000000,0.000000,0.000000,0.000000,0.100000,0.100000,-0.189176,-0.084728,-0.050000,-0.050000,0.608298,-0.395587,0.000000,0.000000,-0.257615,0.085841,0.066827,0.055238,-0.139628,0.419799,-0.089907,-0.120534,0.029471,-0.223877
-0.050000,-0.050000,0.000000,0.000000,0.000000,0.000000,0.000000,0.000000,0.000000,0.100000,0.100000,-0.192845,-0.095390,-0.050000,-0.050000,0.594796,-0.387807,0.000000,0.000000,-0.253882,0.089768,0.073965,0.060099,-0.186180,0.451024,-0.097329,-0.132760,0.062664,-0.244993
-0.050000,-0.050000,0.000000,0.000000,0.000000,0.000000,0.000000,0.000000,0.000000,0.100000,0.100000,-0.199493,-0.109888,-0.050000,-0.050000,0.582326,-0.380775,0.000000,0.000000,-0.249347,0.094918,0.083409,0.067642,-0.241914,0.488960,-0.106242,-0.146277,0.096468,-0.266238
-0.050000,-0.050000,0.000000,0.000000,0.000000,0.000000,0.000000,0.000000,0.000000,0.100000,0.100000,-0.203381,-0.121670,-0.050000,-0.050000,0.569105,-0.372860,0.000000,0.000000,-0.243507,0.099162,0.092171,0.075132,-0.297181,0.527523,-0.114447,-0.158501,0.124447,-0.283189
-0.050000,-0.050000,0.000000,0.000000,0.000000,0.000000,0.000000,0.000000,0.000000,0.100000,0.100000,-0.205888,-0.132095,-0.050000,-0.050000,0.555509,-0.364504,0.000000,0.000000,-0.237013,0.102953,0.100592,0.082596,-0.352215,0.566400,-0.122298,-0.170078,0.149515,-0.297995
-0.050000,-0.050000,0.000000,0.000000,0.000000,0.000000,0.000000,0.000000,0.000000,0.100000,0.100000,-0.206409,-0.140659,-0.050000,-0.050000,0.542441,-0.356230,0.000000,0.000000,-0.229486,0.105967,0.108223,0.089831,-0.407031,0.606399,-0.129579,-0.180598,0.168502,-0.308725
-0.050000,-0.050000,0.000000,0.000000,0.000000,0.000000,0.000000,0.000000,0.000000,0.100000,0.100000,-0.205246,-0.147274,-0.050000,-0.050000,0.529040,-0.347590,0.000000,0.000000,-0.221945,0.108387,0.115091,0.096252,-0.458862,0.644629,-0.136325,-0.190377,0.185526,-0.318358
-0.050000,-0.050000,0.000000,0.000000,0.000000,0.000000,0.000000,0.000000,0.000000,0.100000,0.100000,-0.200711,-0.149991,-0.050000,-0.050000,0.514974,-0.338216,0.000000,0.000000,-0.214376,0.109616,0.120430,0.101043,-0.504721,0.679322,-0.141999,-0.198673,0.198623,-0.325794
-0.050000,-0.050000,0.000000,0.000000,0.000000,0.000000,0.000000,0.000000,0.000000,0.100000,0.100000,-0.196934,-0.153427,-0.050000,-0.050000,0.502652,-0.330014,0.000000,0.000000,-0.206517,0.110360,0.125617,0.105932,-0.550106,0.714604,-0.147893,-0.207382,0.209722,-0.332377
-0.050000,-0.050000,0.000000,0.000000,0.000000,0.000000,0.000000,0.000000,0.000000,0.100000,0.100000,-0.193536,-0.157222,-0.050000,-0.050000,0.491202,-0.322397,0.000000,0.000000,-0.198515,0.110863,0.130728,0.110870,-0.595252,0.750182,-0.153897,-0.216297,0.219823,-0.338533
-0.050000,-0.050000,0.000000,0.000000,0.000000,0.000000,0.000000,0.000000,0.000000,0.100000,0.100000,-0.190403,-0.160623,-0.050000,-0.050000,0.481452,-0.315742,0.000000,0.000000,-0.190197,0.109793,0.135308,0.115689,-0.634261,0.782856,-0.159787,-0.225489,0.227010,-0.343484
-0.050000,-0.050000,0.000000,0.000000,0.000000,0.000000,0.000000,0.000000,0.000000,0.100000,0.100000,-0.187339,-0.163665,-0.050000,-0.050000,0.472146,-0.309312,0.000000,0.000000,-0.181802,0.108173,0.139567,0.120305,-0.670568,0.814054,-0.165637,-0.234758,0.233664,-0.348271
-0.050000,-0.050000,0.000000,0.000000,0.000000,0.000000,0.000000,0.000000,0.000000,0.100000,0.100000,-0.184416,-0.165988,-0.050000,-0.050000,0.463728,-0.303331,0.000000,0.000000,-0.173250,0.105454,0.143183,0.124518,-0.701472,0.842300,-0.171407,-0.244180,0.239253,-0.352731
-0.050000,-0.050000,0.000000,0.000000,0.000000,0.000000,0.000000,0.000000,0.000000,0.100000,0.100000,-0.181846,-0.167416,-0.050000,-0.050000,0.456123,-0.297751,0.000000,0.000000,-0.164587,0.101822,0.145908,0.128070,-0.726599,0.867155,-0.177173,-0.253689,0.244622,-0.357208
-0.050000,-0.050000,0.000000,0.000000,0.000000,0.000000,0.000000,0.000000,0.000000,0.100000,0.100000,-0.179453,-0.168396,-0.050000,-0.050000,0.448924,-0.292370,0.000000,0.000000,-0.155867,0.097733,0.148187,0.131290,-0.748837,0.890314,-0.182938,-0.263242,0.249882,-0.361692
-0.050000,-0.050000,0.000000,0.000000,0.000000,0.000000,0.000000,0.000000,0.000000,0.100000,0.100000,-0.177995,-0.168005,-0.050000,-0.050000,0.442977,-0.287612,0.000000,0.000000,-0.147045,0.092751,0.148786,0.133192,-0.762604,0.908205,-0.188801,-0.272726,0.255684,-0.366336
-0.050000,-0.050000,0.000000,0.000000,0.000000,0.000000,0.000000,0.000000,0.000000,0.100000,0.100000,-0.176955,-0.167196,-0.050000,-0.050000,0.437489,-0.283087,0.000000,0.000000,-0.138216,0.087652,0.148726,0.134548,-0.773753,0.924376,-0.194706,-0.282102,0.261808,-0.370978
-0.050000,-0.050000,0.000000,0.000000,0.000000,0.000000,0.000000,0.000000,0.000000,0.100000,0.100000,-0.176749,-0.165553,-0.050000,-0.050000,0.432918,-0.279028,0.000000,0.000000,-0.129373,0.082320,0.147345,0.134817,-0.779664,0.937107,-0.200699,-0.291263,0.268579,-0.375616
-0.050000,-0.050000,0.000000,0.000000,0.000000,0.000000,0.000000,0.000000,0.000000,0.100000,0.100000,-0.177465,-0.163216,-0.050000,-0.050000,0.429353,-0.275490,0.000000,0.000000,-0.120593,0.077103,0.144512,0.133812,-0.780920,0.946601,-0.206745,-0.300046,0.276048,-0.380064
-0.050000,-0.050000,0.000000,0.000000,0.000000,0.000000,0.000000,0.000000,0.000000,0.100000,0.100000,-0.178643,-0.160532,-0.050000,-0.050000,0.426289,-0.272212,0.000000,0.000000,-0.111845,0.071942,0.140955,0.132170,-0.779848,0.954477,-0.212818,-0.308641,0.283866,-0.384416
-0.050000,-0.050000,0.000000,0.000000,0.000000,0.000000,0.000000,0.000000,0.000000,0.100000,0.100000,-0.181131,-0.157073,-0.050000,-0.050000,0.424763,-0.269750,0.000000,0.000000,-0.103333,0.067370,0.135243,0.128444,-0.772920,0.957965,-0.218844,-0.316489,0.292623,-0.388279
-0.050000,-0.050000,0.000000,0.000000,0.000000,0.000000,0.000000,0.000000,0.000000,0.100000,0.100000,-0.183973,-0.153451,-0.050000,-0.050000,0.423695,-0.267542,0.000000,0.000000,-0.094954,0.063091,0.128927,0.124028,-0.764537,0.960208,-0.224792,-0.324052,0.301648,-0.391986
-0.050000,-0.050000,0.000000,0.000000,0.000000,0.000000,0.000000,0.000000,0.000000,0.100000,0.100000,-0.187526,-0.149504,-0.050000,-0.050000,0.423542,-0.265841,0.000000,0.000000,-0.086839,0.059396,0.121404,0.118232,-0.753245,0.959958,-0.230581,-0.331045,0.311207,-0.395382
-0.050000,-0.050000,0.000000,0.000000,0.000000,0.000000,0.000000,0.000000,0.000000,0.100000,0.100000,-0.191555,-0.145423,-0.050000,-0.050000,0.424041,-0.264539,0.000000,0.000000,-0.079094,0.056393,0.113144,0.111226,-0.740356,0.957775,-0.236058,-0.337431,0.321250,-0.398664
-0.050000,-0.050000,0.000000,0.000000,0.000000,0.000000,0.000000,0.000000,0.000000,0.100000,0.100000,-0.195822,-0.141275,-0.050000,-0.050000,0.424867,-0.263437,0.000000,0.000000,-0.071534,0.053735,0.104517,0.103616,-0.726668,0.954626,-0.241379,-0.343513,0.331535,-0.401890
-0.050000,-0.050000,0.000000,0.000000,0.000000,0.000000,0.000000,0.000000,0.000000,0.100000,0.100000,-0.200408,-0.137191,-0.050000,-0.050000,0.426099,-0.262686,0.000000,0.000000,-0.064667,0.052165,0.095805,0.094679,-0.712999,0.949583,-0.245994,-0.348662,0.342556,-0.405483
-0.050000,-0.050000,0.000000,0.000000,0.000000,0.000000,0.000000,0.000000,0.000000,0.100000,0.100000,-0.204968,-0.133201,-0.050000,-0.050000,0.427254,-0.261951,0.000000,0.000000,-0.058057,0.050947,0.087456,0.085516,-0.700212,0.944270,-0.250316,-0.353500,0.353836,-0.409422
-0.050000,-0.050000,0.000000,0.000000,0.000000,0.000000,0.000000,0.000000,0.000000,0.100000,0.100000,-0.209475,-0.129401,-0.050000,-0.050000,0.428256,-0.261251,0.000000,0.000000,-0.051963,0.050434,0.079832,0.075898,-0.689191,0.938417,-0.254052,-0.357716,0.365637,-0.414054
-0.050000,-0.050000,0.000000,0.000000,0.000000,0.000000,0.000000,0.000000,0.000000,0.100000,0.100000,-0.213664,-0.125885,-0.050000,-0.050000,0.428741,-0.260388,0.000000,0.000000,-0.046378,0.050554,0.073658,0.066278,-0.681545,0.932711,-0.257179,-0.361334,0.377962,-0.419819
-0.050000,-0.050000,0.000000,0.000000,0.000000,0.000000,0.000000,0.000000,0.000000,0.100000,0.100000,-0.217694,-0.122512,-0.050000,-0.050000,0.428967,-0.259444,0.000000,0.000000,-0.041046,0.050991,0.068210,0.056657,-0.675585,0.927078,-0.260002,-0.364653,0.390550,-0.426151
-0.050000,-0.050000,0.000000,0.000000,0.000000,0.000000,0.000000,0.000000,0.000000,0.100000,0.100000,-0.220847,-0.119600,-0.050000,-0.050000,0.428083,-0.258012,0.000000,0.000000,-0.036334,0.052191,0.065696,0.047610,-0.676377,0.922497,-0.262063,-0.367166,0.403813,-0.434692
-0.050000,-0.050000,0.000000,0.000000,0.000000,0.000000,0.000000,0.000000,0.000000,0.100000,0.100000,-0.223574,-0.116810,-0.050000,-0.050000,0.426811,-0.256362,0.000000,0.000000,-0.031739,0.053554,0.064249,0.038881,-0.679608,0.918439,-0.263978,-0.369464,0.417208,-0.444053
-0.050000,-0.050000,0.000000,0.000000,0.000000,0.000000,0.000000,0.000000,0.000000,0.100000,0.100000,-0.225449,-0.114266,-0.050000,-0.050000,0.424761,-0.254278,0.000000,0.000000,-0.027377,0.055240,0.064933,0.030790,-0.687719,0.915426,-0.265603,-0.371334,0.430863,-0.455055
-0.050000,-0.050000,0.000000,0.000000,0.000000,0.000000,0.000000,0.000000,0.000000,0.100000,0.100000,-0.226222,-0.111826,-0.050000,-0.050000,0.422073,-0.251721,0.000000,0.000000,-0.023024,0.057015,0.067580,0.023440,-0.700242,0.913557,-0.267210,-0.372923,0.444465,-0.467659
-0.050000,-0.050000,0.000000,0.000000,0.000000,0.000000,0.000000,0.000000,0.000000,0.100000,0.100000,-0.226444,-0.109438,-0.050000,-0.050000,0.419064,-0.248928,0.000000,0.000000,-0.018674,0.058834,0.071210,0.016460,-0.714973,0.912259,-0.268807,-0.374371,0.458041,-0.481063
-0.050000,-0.050000,0.000000,0.000000,0.000000,0.000000,0.000000,0.000000,0.000000,0.100000,0.100000,-0.224720,-0.106919,-0.050000,-0.050000,0.415487,-0.245478,0.000000,0.000000,-0.014042,0.060394,0.077150,0.010574,-0.734556,0.912477,-0.270719,-0.375631,0.470929,-0.496514
-0.050000,-0.050000,0.000000,0.000000,0.000000,0.000000,0.000000,0.000000,0.000000,0.100000,0.100000,-0.222298,-0.104263,-0.050000,-0.050000,0.411868,-0.241863,0.000000,0.000000,-0.009271,0.061748,0.083595,0.005020,-0.754968,0.913043,-0.272783,-0.376887,0.483376,-0.512455
-0.050000,-0.050000,0.000000,0.000000,0.000000,0.000000,0.000000,0.000000,0.000000,0.100000,0.100000,-0.218481,-0.101331,-0.050000,-0.050000,0.408168,-0.237914,0.000000,0.000000,-0.004225,0.062690,0.091051,0.000132,-0.777035,0.914307,-0.275150,-0.378137,0.494942,-0.529375
-0.050000,-0.050000,0.000000,0.000000,0.000000,0.000000,0.000000,0.000000,0.000000,0.100000,0.100000,-0.213301,-0.098000,-0.050000,-0.050000,0.404642,-0.233792,0.000000,0.000000,0.001021,0.063051,0.099018,-0.004135,-0.799161,0.915846,-0.277732,-0.379415,0.505284,-0.546813
-0.050000,-0.050000,0.000000,0.000000,0.000000,0.000000,0.000000,0.000000,0.000000,0.100000,0.100000,-0.207440,-0.094468,-0.050000,-0.050000,0.401203,-0.229583,0.000000,0.000000,0.006366,0.063123,0.107243,-0.008091,-0.821315,0.917523,-0.280420,-0.380709,0.515013,-0.564511
-0.050000,-0.050000,0.000000,0.000000,0.000000,0.000000,0.000000,0.000000,0.000000,0.100000,0.100000,-0.203675,-0.093673,-0.050000,-0.050000,0.400012,-0.224958,0.000000,0.000000,0.012144,0.062449,0.117500,-0.012189,-0.844921,0.917660,-0.283690,-0.381687,0.522385,-0.585992
-0.050000,-0.050000,0.000000,0.000000,0.000000,0.000000,0.000000,0.000000,0.000000,0.100000,0.100000,-0.198596,-0.091977,-0.050000,-0.050000,0.398593,-0.220470,0.000000,0.000000,0.017615,0.061331,0.127430,-0.015587,-0.866506,0.917653,-0.286621,-0.382545,0.528903,-0.606389
-0.050000,-0.050000,0.000000,0.000000,0.000000,0.000000,0.000000,0.000000,0.000000,0.100000,0.100000,-0.190887,-0.088482,-0.050000,-0.050000,0.396716,-0.216254,0.000000,0.000000,0.022476,0.059324,0.136704,-0.017584,-0.884048,0.917359,-0.288876,-0.383164,0.533713,-0.624618
-0.050000,-0.050000,0.000000,0.000000,0.000000,0.000000,0.000000,0.000000,0.000000,0.100000,0.100000,-0.182041,-0.084484,-0.050000,-0.050000,0.394984,-0.212576,0.000000,0.000000,0.026431,0.056820,0.145319,-0.018518,-0.898712,0.916302,-0.290338,-0.383434,0.537545,-0.641678
-0.050000,-0.050000,0.000000,0.000000,0.000000,0.000000,0.000000,0.000000,0.000000,0.100000,0.100000,-0.172626,-0.080236,-0.050000,-0.050000,0.393323,-0.209167,0.000000,0.000000,0.029934,0.054068,0.153605,-0.018921,-0.911939,0.914862,-0.291403,-0.383530,0.540889,-0.658155
-0.050000,-0.050000,0.000000,0.000000,0.000000,0.000000,0.000000,0.000000,0.000000,0.100000,0.100000,-0.162675,-0.076212,-0.050000,-0.050000,0.392130,-0.206791,0.000000,0.000000,0.031728,0.050836,0.161115,-0.017724,-0.921254,0.911557,-0.291046,-0.382693,0.543133,-0.673110
-0.050000,-0.050000,0.000000,0.000000,0.000000,0.000000,0.000000,0.000000,0.000000,0.100000,0.100000,-0.151820,-0.071452,-0.050000,-0.050000,0.390852,-0.205024,0.000000,0.000000,0.032841,0.047661,0.168048,-0.016066,-0.929070,0.907953,-0.290216,-0.381605,0.545220,-0.686784
-0.050000,-0.050000,0.000000,0.000000,0.000000,0.000000,0.000000,0.000000,0.000000,0.100000,0.100000,-0.139157,-0.065216,-0.050000,-0.050000,0.389406,-0.204473,0.000000,0.000000,0.032594,0.044602,0.173825,-0.013483,-0.933886,0.903750,-0.288440,-0.380017,0.546993,-0.697896
-0.050000,-0.050000,0.000000,0.000000,0.000000,0.000000,0.000000,0.000000,0.000000,0.100000,0.100000,-0.127793,-0.060757,-0.050000,-0.050000,0.388744,-0.204624,0.000000,0.000000,0.031134,0.041523,0.179328,-0.010116,-0.937127,0.897432,-0.285814,-0.377500,0.548272,-0.708940
-0.050000,-0.050000,0.000000,0.000000,0.000000,0.000000,0.000000,0.000000,0.000000,0.100000,0.100000,-0.117079,-0.057187,-0.050000,-0.050000,0.388474,-0.205126,0.000000,0.000000,0.029066,0.038434,0.184692,-0.006358,-0.939581,0.890056,-0.282764,-0.374518,0.549306,-0.719951
-0.050000,-0.050000,0.000000,0.000000,0.000000,0.000000,0.000000,0.000000,0.000000,0.100000,0.100000,-0.108010,-0.055676,-0.050000,-0.050000,0.389084,-0.206826,0.000000,0.000000,0.025390,0.035217,0.189558,-0.001601,-0.939118,0.879435,-0.278594,-0.370081,0.549758,-0.729864
-0.050000,-0.050000,0.000000,0.000000,0.000000,0.000000,0.000000,0.000000,0.000000,0.100000,0.100000,-0.099417,-0.054713,-0.050000,-0.050000,0.389945,-0.208939,0.000000,0.000000,0.021269,0.031969,0.194174,0.003369,-0.937601,0.867712,-0.274137,-0.365184,0.550044,-0.739258
-0.050000,-0.050000,0.000000,0.000000,0.000000,0.000000,0.000000,0.000000,0.000000,0.100000,0.100000,-0.091777,-0.054846,-0.050000,-0.050000,0.391308,-0.211878,0.000000,0.000000,0.016262,0.028663,0.198290,0.008765,-0.933975,0.853785,-0.269104,-0.359370,0.549998,-0.747618
-0.050000,-0.050000,0.000000,0.000000,0.000000,0.000000,0.000000,0.000000,0.000000,0.100000,0.100000,-0.084988,-0.055832,-0.050000,-0.050000,0.393152,-0.215639,0.000000,0.000000,0.010606,0.025329,0.201753,0.014293,-0.928073,0.837544,-0.263661,-0.352690,0.549607,-0.754780
-0.050000,-0.050000,0.000000,0.000000,0.000000,0.000000,0.000000,0.000000,0.000000,0.100000,0.100000,-0.078624,-0.057245,-0.050000,-0.050000,0.395238,-0.219810,0.000000,0.000000,0.004627,0.021982,0.204889,0.019887,-0.921034,0.820145,-0.258012,-0.345577,0.549044,-0.761345
-0.050000,-0.050000,0.000000,0.000000,0.000000,0.000000,0.000000,0.000000,0.000000,0.100000,0.100000,-0.073379,-0.059568,-0.050000,-0.050000,0.398096,-0.225210,0.000000,0.000000,-0.001964,0.018727,0.206884,0.025258,-0.910233,0.799032,-0.251936,-0.337174,0.547855,-0.765959
-0.050000,-0.050000,0.000000,0.000000,0.000000,0.000000,0.000000,0.000000,0.000000,0.100000,0.100000,-0.068451,-0.062083,-0.050000,-0.050000,0.401257,-0.231023,0.000000,0.000000,-0.008661,0.015593,0.208475,0.030447,-0.898012,0.776609,-0.245756,-0.328319,0.546395,-0.769873
-0.050000,-0.050000,0.000000,0.000000,0.000000,0.000000,0.000000,0.000000,0.000000,0.100000,0.100000,-0.064155,-0.064979,-0.050000,-0.050000,0.405026,-0.237662,0.000000,0.000000,-0.015573,0.012702,0.209256,0.035271,-0.882949,0.751566,-0.239366,-0.318560,0.544393,-0.772384
-0.050000,-0.050000,0.000000,0.000000,0.000000,0.000000,0.000000,0.000000,0.000000,0.100000,0.100000,-0.060395,-0.068098,-0.050000,-0.050000,0.409554,-0.245141,0.000000,0.000000,-0.022597,0.010342,0.209255,0.039635,-0.864596,0.723893,-0.232784,-0.307831,0.541664,-0.773342
-0.050000,-0.050000,0.000000,0.000000,0.000000,0.000000,0.000000,0.000000,0.000000,0.100000,0.100000,-0.056903,-0.071328,-0.050000,-0.050000,0.414461,-0.253040,0.000000,0.000000,-0.029676,0.008248,0.208863,0.043770,-0.844598,0.694905,-0.226104,-0.296617,0.538572,-0.773522
-0.050000,-0.050000,0.000000,0.000000,0.000000,0.000000,0.000000,0.000000,0.000000,0.100000,0.100000,-0.054142,-0.074811,-0.050000,-0.050000,0.420785,-0.262183,0.000000,0.000000,-0.036945,0.007539,0.207490,0.047332,-0.818884,0.662362,-0.219061,-0.283900,0.533989,-0.770971
-0.050000,-0.050000,0.000000,0.000000,0.000000,0.000000,0.000000,0.000000,0.000000,0.100000,0.100000,-0.051641,-0.078415,-0.050000,-0.050000,0.427669,-0.271711,0.000000,0.000000,-0.044351,0.007522,0.205918,0.050849,-0.791032,0.628954,-0.211846,-0.270711,0.528718,-0.767293
-0.050000,-0.050000,0.000000,0.000000,0.000000,0.000000,0.000000,0.000000,0.000000,0.100000,0.100000,-0.049661,-0.082262,-0.050000,-0.050000,0.435670,-0.282009,0.000000,0.000000,-0.052030,0.008890,0.203949,0.054274,-0.758906,0.593817,-0.204284,-0.256581,0.522069,-0.761362
-0.050000,-0.050000,0.000000,0.000000,0.000000,0.000000,0.000000,0.000000,0.000000,0.100000,0.100000,-0.051078,-0.089769,-0.050000,-0.050000,0.444104,-0.291866,0.000000,0.000000,-0.059716,0.011071,0.202528,0.059117,-0.718981,0.554893,-0.195376,-0.240210,0.513454,-0.752512
-0.050000,-0.050000,0.000000,0.000000,0.000000,0.000000,0.000000,0.000000,0.000000,0.100000,0.100000,-0.054192,-0.099106,-0.050000,-0.050000,0.452754,-0.301505,0.000000,0.000000,-0.067405,0.013660,0.201381,0.064671,-0.675158,0.514074,-0.185794,-0.222719,0.503856,-0.742202
-0.050000,-0.050000,0.000000,0.000000,0.000000,0.000000,0.000000,0.000000,0.000000,0.100000,0.100000,-0.055902,-0.106287,-0.050000,-0.050000,0.463949,-0.313209,0.000000,0.000000,-0.076760,0.020795,0.200843,0.071222,-0.628711,0.478827,-0.176583,-0.206727,0.490242,-0.725842
-0.050000,-0.050000,0.000000,0.000000,0.000000,0.000000,0.000000,0.000000,0.000000,0.100000,0.100000,-0.057985,-0.113808,-0.050000,-0.050000,0.475651,-0.325089,0.000000,0.000000,-0.086704,0.029267,0.200872,0.078718,-0.580868,0.444965,-0.167310,-0.190965,0.474970,-0.707251
-0.050000,-0.050000,0.000000,0.000000,0.000000,0.000000,0.000000,0.000000,0.000000,0.100000,0.100000,-0.060812,-0.122011,-0.050000,-0.050000,0.488365,-0.337321,0.000000,0.000000,-0.097827,0.040417,0.202035,0.088104,-0.530234,0.413876,-0.157914,-0.175664,0.456381,-0.684196
-0.050000,-0.050000,0.000000,0.000000,0.000000,0.000000,0.000000,0.000000,0.000000,0.100000,0.100000,-0.065192,-0.131728,-0.050000,-0.050000,0.501497,-0.349400,0.000000,0.000000,-0.110161,0.054055,0.204899,0.099841,-0.478209,0.386408,-0.148666,-0.161056,0.434354,-0.656608
-0.050000,-0.050000,0.000000,0.000000,0.000000,0.000000,0.000000,0.000000,0.000000,0.100000,0.100000,-0.070349,-0.142202,-0.050000,-0.050000,0.514838,-0.361403,0.000000,0.000000,-0.123100,0.068939,0.208612,0.112753,-0.425488,0.360750,-0.139491,-0.146795,0.410609,-0.626755
-0.050000,-0.050000,0.000000,0.000000,0.000000,0.000000,0.000000,0.000000,0.000000,0.100000,0.100000,-0.078446,-0.155439,-0.050000,-0.050000,0.527677,-0.372509,0.000000,0.000000,-0.137538,0.086922,0.215314,0.129087,-0.373884,0.341519,-0.131252,-0.133989,0.382364,-0.590784
-0.050000,-0.050000,0.000000,0.000000,0.000000,0.000000,0.000000,0.000000,0.000000,0.100000,0.100000,-0.087564,-0.169581,-0.050000,-0.050000,0.539919,-0.383116,0.000000,0.000000,-0.152194,0.105548,0.222966,0.146234,-0.323835,0.324504,-0.123536,-0.121771,0.353219,-0.553370
-0.050000,-0.050000,0.000000,0.000000,0.000000,0.000000,0.000000,0.000000,0.000000,0.100000,0.100000,-0.098726,-0.185532,-0.050000,-0.050000,0.550967,-0.392723,0.000000,0.000000,-0.167283,0.125458,0.232517,0.165007,-0.276896,0.311924,-0.116870,-0.110729,0.322274,-0.513071
-0.050000,-0.050000,0.000000,0.000000,0.000000,0.000000,0.000000,0.000000,0.000000,0.100000,0.100000,-0.108274,-0.198868,-0.050000,-0.050000,0.560526,-0.401163,0.000000,0.000000,-0.182704,0.146387,0.240949,0.180956,-0.237616,0.303175,-0.111286,-0.100896,0.293417,-0.474796
-0.050000,-0.050000,0.000000,0.000000,0.000000,0.000000,0.000000,0.000000,0.000000,0.100000,0.100000,-0.117014,-0.210898,-0.050000,-0.050000,0.569341,-0.409021,0.000000,0.000000,-0.198291,0.167826,0.248821,0.195493,-0.202167,0.296341,-0.106245,-0.091668,0.265603,-0.437532
-0.050000,-0.050000,0.000000,0.000000,0.000000,0.000000,0.000000,0.000000,0.000000,0.100000,0.100000,-0.130245,-0.227411,-0.050000,-0.050000,0.573814,-0.414342,0.000000,0.000000,-0.210599,0.186703,0.259521,0.211544,-0.173142,0.294472,-0.102545,-0.084198,0.238564,-0.398952
-0.050000,-0.050000,0.000000,0.000000,0.000000,0.000000,0.000000,0.000000,0.000000,0.100000,0.100000,-0.144169,-0.244493,-0.050000,-0.050000,0.576911,-0.419085,0.000000,0.000000,-0.221500,0.204277,0.270296,0.227012,-0.147750,0.294157,-0.099420,-0.077720,0.213415,-0.361908
-0.050000,-0.050000,0.000000,0.000000,0.000000,0.000000,0.000000,0.000000,0.000000,0.100000,0.100000,-0.159478,-0.262714,-0.050000,-0.050000,0.577256,-0.422674,0.000000,0.000000,-0.229586,0.219243,0.281221,0.241314,-0.129625,0.296952,-0.097444,-0.073226,0.192047,-0.327938
-0.050000,-0.050000,0.000000,0.000000,0.000000,0.000000,0.000000,0.000000,0.000000,0.100000,0.100000,-0.175080,-0.280820,-0.050000,-0.050000,0.575373,-0.425563,0.000000,0.000000,-0.234347,0.230911,0.290992,0.253155,-0.119253,0.302342,-0.096405,-0.070871,0.176204,-0.299491
-0.050000,-0.050000,0.000000,0.000000,0.000000,0.000000,0.000000,0.000000,0.000000,0.100000,0.100000,-0.190830,-0.298869,-0.050000,-0.050000,0.572377,-0.428103,0.000000,0.000000,-0.237445,0.240929,0.300185,0.263765,-0.112758,0.309029,-0.095835,-0.069585,0.163124,-0.273805
-0.050000,-0.050000,0.000000,0.000000,0.000000,0.000000,0.000000,0.000000,0.000000,0.100000,0.100000,-0.205911,-0.315541,-0.050000,-0.050000,0.567313,-0.430354,0.000000,0.000000,-0.235370,0.245549,0.306314,0.269970,-0.116895,0.318811,-0.096459,-0.071358,0.159250,-0.258418
-0.050000,-0.050000,0.000000,0.000000,0.000000,0.000000,0.000000,0.000000,0.000000,0.100000,0.100000,-0.220571,-0.331559,-0.050000,-0.050000,0.562088,-0.432766,0.000000,0.000000,-0.231770,0.248491,0.311240,0.274855,-0.123912,0.329340,-0.097460,-0.073980,0.158216,-0.246557
-0.050000,-0.050000,0.000000,0.000000,0.000000,0.000000,0.000000,0.000000,0.000000,0.100000,0.100000,-0.234386,-0.346269,-0.050000,-0.050000,0.556541,-0.435503,0.000000,0.000000,-0.225120,0.248075,0.313758,0.277100,-0.136687,0.341366,-0.099214,-0.078303,0.162859,-0.241746
-0.050000,-0.050000,0.000000,0.000000,0.000000,0.000000,0.000000,0.000000,0.000000,0.100000,0.100000,-0.247284,-0.359665,-0.050000,-0.050000,0.551763,-0.439041,0.000000,0.000000,-0.216258,0.245032,0.314036,0.277565,-0.153609,0.354255,-0.101647,-0.083758,0.171859,-0.243104
-0.050000,-0.050000,0.000000,0.000000,0.000000,0.000000,0.000000,0.000000,0.000000,0.100000,0.100000,-0.259724,-0.372404,-0.050000,-0.050000,0.547370,-0.442980,0.000000,0.000000,-0.206291,0.240676,0.313194,0.277140,-0.172604,0.367577,-0.104419,-0.089781,0.183037,-0.247545
-0.050000,-0.050000,0.000000,0.000000,0.000000,0.000000,0.000000,0.000000,0.000000,0.100000,0.100000,-0.271076,-0.383631,-0.050000,-0.050000,0.545600,-0.448735,0.000000,0.000000,-0.194629,0.233961,0.309841,0.275689,-0.195470,0.381212,-0.107893,-0.096424,0.198047,-0.258752
-0.050000,-0.050000,0.000000,0.000000,0.000000,0.000000,0.000000,0.000000,0.000000,0.100000,0.100000,-0.282257,-0.394612,-0.050000,-0.050000,0.545086,-0.455254,0.000000,0.000000,-0.182951,0.227045,0.306029,0.274393,-0.218974,0.394659,-0.111432,-0.102907,0.213405,-0.271195
-0.050000,-0.050000,0.000000,0.000000,0.000000,0.000000,0.000000,0.000000,0.000000,0.100000,0.100000,-0.293092,-0.405100,-0.050000,-0.050000,0.547081,-0.463302,0.000000,0.000000,-0.171241,0.219725,0.301299,0.273407,-0.243757,0.407730,-0.115099,-0.109066,0.229458,-0.286110
-0.050000,-0.050000,0.000000,0.000000,0.000000,0.000000,0.000000,0.000000,0.000000,0.100000,0.100000,-0.304076,-0.415708,-0.050000,-0.050000,0.552059,-0.473068,0.000000,0.000000,-0.160430,0.213089,0.296393,0.273373,-0.268862,0.419990,-0.118548,-0.114314,0.244642,-0.301482
-0.050000,-0.050000,0.000000,0.000000,0.000000,0.000000,0.000000,0.000000,0.000000,0.100000,0.100000,-0.315134,-0.426377,-0.050000,-0.050000,0.558527,-0.483692,0.000000,0.000000,-0.150070,0.206793,0.291399,0.273815,-0.294128,0.431845,-0.121888,-0.119106,0.259391,-0.317081
-0.050000,-0.050000,0.000000,0.000000,0.000000,0.000000,0.000000,0.000000,0.000000,0.100000,0.100000,-0.327240,-0.438154,-0.050000,-0.050000,0.569672,-0.496912,0.000000,0.000000,-0.142050,0.202793,0.287000,0.275939,-0.318906,0.442101,-0.124594,-0.122087,0.271262,-0.330872
-0.050000,-0.050000,0.000000,0.000000,0.000000,0.000000,0.000000,0.000000,0.000000,0.100000,0.100000,-0.339968,-0.450571,-0.050000,-0.050000,0.582268,-0.510892,0.000000,0.000000,-0.134994,0.199815,0.282959,0.278479,-0.343297,0.451775,-0.127106,-0.124502,0.281940,-0.343526
-0.050000,-0.050000,0.000000,0.000000,0.000000,0.000000,0.000000,0.000000,0.000000,0.100000,0.100000,-0.353938,-0.464270,-0.050000,-0.050000,0.597766,-0.526394,0.000000,0.000000,-0.129865,0.198879,0.279636,0.281850,-0.366914,0.460285,-0.129229,-0.125784,0.290231,-0.353904
-0.050000,-0.050000,0.000000,0.000000,0.000000,0.000000,0.000000,0.000000,0.000000,0.100000,0.100000,-0.369626,-0.479657,-0.050000,-0.050000,0.615610,-0.542970,0.000000,0.000000,-0.126758,0.200117,0.277088,0.285418,-0.389394,0.467657,-0.131227,-0.126355,0.296211,-0.361639
-0.050000,-0.050000,0.000000,0.000000,0.000000,0.000000,0.000000,0.000000,0.000000,0.100000,0.100000,-0.386172,-0.495887,-0.050000,-0.050000,0.634628,-0.560085,0.000000,0.000000,-0.124661,0.202442,0.274926,0.289084,-0.411305,0.474460,-0.133163,-0.126571,0.301035,-0.368053
-0.050000,-0.050000,0.000000,0.000000,0.000000,0.000000,0.000000,0.000000,0.000000,0.100000,0.100000,-0.405783,-0.514964,-0.050000,-0.050000,0.655905,-0.577822,0.000000,0.000000,-0.125397,0.207662,0.273659,0.291832,-0.430963,0.479741,-0.135535,-0.126711,0.303138,-0.370956
-0.050000,-0.050000,0.000000,0.000000,0.000000,0.000000,0.000000,0.000000,0.000000,0.100000,0.100000,-0.426466,-0.534970,-0.050000,-0.050000,0.677421,-0.595367,0.000000,0.000000,-0.126919,0.213563,0.272515,0.293873,-0.449672,0.484623,-0.138276,-0.127193,0.304716,-0.373089
-0.050000,-0.050000,0.000000,0.000000,0.000000,0.000000,0.000000,0.000000,0.000000,0.100000,0.100000,-0.449295,-0.556835,-0.050000,-0.050000,0.699412,-0.612525,0.000000,0.000000,-0.130011,0.220826,0.271619,0.294498,-0.466483,0.488710,-0.141753,-0.128361,0.305247,-0.373684
-0.050000,-0.050000,0.000000,0.000000,0.000000,0.000000,0.000000,0.000000,0.000000,0.100000,0.100000,-0.474100,-0.580239,-0.050000,-0.050000,0.720781,-0.628457,0.000000,0.000000,-0.134210,0.228653,0.270525,0.293065,-0.480990,0.492314,-0.146323,-0.130869,0.305588,-0.373770
-0.050000,-0.050000,0.000000,0.000000,0.000000,0.000000,0.000000,0.000000,0.000000,0.100000,0.100000,-0.499892,-0.604413,-0.050000,-0.050000,0.741840,-0.643775,0.000000,0.000000,-0.138961,0.236763,0.269332,0.290601,-0.494345,0.495675,-0.151442,-0.134046,0.305834,-0.373603
-0.050000,-0.050000,0.000000,0.000000,0.000000,0.000000,0.000000,0.000000,0.000000,0.100000,0.100000,-0.527976,-0.630006,-0.050000,-0.050000,0.760422,-0.656116,0.000000,0.000000,-0.144526,0.244387,0.267155,0.284478,-0.503716,0.498870,-0.158486,-0.139900,0.306966,-0.374125
-0.050000,-0.050000,0.000000,0.000000,0.000000,0.000000,0.000000,0.000000,0.000000,0.100000,0.100000,-0.556491,-0.655675,-0.050000,-0.050000,0.777760,-0.667182,0.000000,0.000000,-0.150066,0.251436,0.264452,0.277096,-0.511654,0.502194,-0.166164,-0.146735,0.308673,-0.375212
-0.050000,-0.050000,0.000000,0.000000,0.000000,0.000000,0.000000,0.000000,0.000000,0.100000,0.100000,-0.585866,-0.681494,-0.050000,-0.050000,0.792608,-0.675700,0.000000,0.000000,-0.155555,0.257338,0.260699,0.267196,-0.516723,0.505777,-0.175109,-0.155532,0.311530,-0.377429
-0.050000,-0.050000,0.000000,0.000000,0.000000,0.000000,0.000000,0.000000,0.000000,0.100000,0.100000,-0.615326,-0.706595,-0.050000,-0.050000,0.804404,-0.681375,0.000000,0.000000,-0.160463,0.261487,0.255633,0.254996,-0.518920,0.509889,-0.185106,-0.166200,0.315793,-0.381044
-0.050000,-0.050000,0.000000,0.000000,0.000000,0.000000,0.000000,0.000000,0.000000,0.100000,0.100000,-0.644828,-0.731336,-0.050000,-0.050000,0.814674,-0.685630,0.000000,0.000000,-0.165080,0.264758,0.249911,0.241645,-0.519681,0.514267,-0.195628,-0.177803,0.320758,-0.385358
-0.050000,-0.050000,0.000000,0.000000,0.000000,0.000000,0.000000,0.000000,0.000000,0.100000,0.100000,-0.673328,-0.753820,-0.050000,-0.050000,0.819987,-0.685637,0.000000,0.000000,-0.168262,0.264983,0.242101,0.225534,-0.516488,0.519580,-0.207179,-0.191739,0.327746,-0.391609
-0.050000,-0.050000,0.000000,0.000000,0.000000,0.000000,0.000000,0.000000,0.000000,0.100000,0.100000,-0.701188,-0.775271,-0.050000,-0.050000,0.823668,-0.684378,0.000000,0.000000,-0.170887,0.264233,0.233664,0.208824,-0.512205,0.525136,-0.218851,-0.206211,0.335256,-0.398331
-0.050000,-0.050000,0.000000,0.000000,0.000000,0.000000,0.000000,0.000000,0.000000,0.100000,0.100000,-0.727767,-0.794654,-0.050000,-0.050000,0.824089,-0.680587,0.000000,0.000000,-0.172400,0.261535,0.223973,0.190920,-0.505742,0.531178,-0.230766,-0.221757,0.343809,-0.405996
-0.050000,-0.050000,0.000000,0.000000,0.000000,0.000000,0.000000,0.000000,0.000000,0.100000,0.100000,-0.752662,-0.811704,-0.050000,-0.050000,0.821541,-0.674803,0.000000,0.000000,-0.172879,0.257287,0.213397,0.172596,-0.497719,0.537354,-0.242477,-0.237791,0.352963,-0.414171
-0.050000,-0.050000,0.000000,0.000000,0.000000,0.000000,0.000000,0.000000,0.000000,0.100000,0.100000,-0.776716,-0.827589,-0.050000,-0.050000,0.817510,-0.668023,0.000000,0.000000,-0.172843,0.252265,0.202378,0.154062,-0.488914,0.543598,-0.254086,-0.254068,0.362416,-0.422602
-0.050000,-0.050000,0.000000,0.000000,0.000000,0.000000,0.000000,0.000000,0.000000,0.100000,0.100000,-0.797979,-0.840027,-0.050000,-0.050000,0.809730,-0.659292,0.000000,0.000000,-0.171685,0.245828,0.190930,0.136189,-0.478841,0.549317,-0.264804,-0.270126,0.372066,-0.431229
-0.050000,-0.050000,0.000000,0.000000,0.000000,0.000000,0.000000,0.000000,0.000000,0.100000,0.100000,-0.818323,-0.851451,-0.050000,-0.050000,0.800983,-0.650283,0.000000,0.000000,-0.170366,0.239264,0.179740,0.118990,-0.468726,0.554623,-0.275073,-0.285800,0.381576,-0.439789
-0.050000,-0.050000,0.000000,0.000000,0.000000,0.000000,0.000000,0.000000,0.000000,0.100000,0.100000,-0.836829,-0.860847,-0.050000,-0.050000,0.790300,-0.640719,0.000000,0.000000,-0.168729,0.232443,0.169065,0.103136,-0.458526,0.559104,-0.284445,-0.300707,0.390808,-0.448216
-0.050000,-0.050000,0.000000,0.000000,0.000000,0.000000,0.000000,0.000000,0.000000,0.100000,0.100000,-0.853657,-0.868628,-0.050000,-0.050000,0.778251,-0.631282,0.000000,0.000000,-0.167269,0.226025,0.159845,0.089528,-0.449024,0.562460,-0.292713,-0.314294,0.399446,-0.456352
-0.050000,-0.050000,0.000000,0.000000,0.000000,0.000000,0.000000,0.000000,0.000000,0.100000,0.100000,-0.869647,-0.875601,-0.050000,-0.050000,0.765518,-0.621909,0.000000,0.000000,-0.165898,0.219808,0.151353,0.077044,-0.439872,0.565252,-0.300430,-0.327220,0.407788,-0.464344
-0.050000,-0.050000,0.000000,0.000000,0.000000,0.000000,0.000000,0.000000,0.000000,0.100000,0.100000,-0.883468,-0.880843,-0.050000,-0.050000,0.751477,-0.613511,0.000000,0.000000,-0.165538,0.215037,0.146533,0.069180,-0.432968,0.566373,-0.306324,-0.337507,0.414896,-0.471740
-0.050000,-0.050000,0.000000,0.000000,0.000000,0.000000,0.000000,0.000000,0.000000,0.100000,0.100000,-0.898430,-0.886637,-0.050000,-0.050000,0.736880,-0.605793,0.000000,0.000000,-0.165992,0.210689,0.143734,0.063023,-0.426542,0.566601,-0.311769,-0.347168,0.421990,-0.479384
-0.050000,-0.050000,0.000000,0.000000,0.000000,0.000000,0.000000,0.000000,0.000000,0.100000,0.100000,-0.915675,-0.893534,-0.050000,-0.050000,0.721172,-0.599433,0.000000,0.000000,-0.168074,0.207188,0.144979,0.060279,-0.421068,0.565042,-0.316316,-0.355576,0.429057,-0.487524
-0.050000,-0.050000,0.000000,0.000000,0.000000,0.000000,0.000000,0.000000,0.000000,0.100000,0.100000,-0.930040,-0.899238,-0.050000,-0.050000,0.705635,-0.594132,0.000000,0.000000,-0.171582,0.205908,0.150964,0.062902,-0.420456,0.564478,-0.319553,-0.360978,0.433888,-0.493992
-0.050000,-0.050000,0.000000,0.000000,0.000000,0.000000,0.000000,0.000000,0.000000,0.100000,0.100000,-0.942964,-0.904345,-0.050000,-0.050000,0.690183,-0.589360,0.000000,0.000000,-0.175803,0.205737,0.159320,0.068209,-0.422275,0.564411,-0.322135,-0.364877,0.437602,-0.499623
-0.050000,-0.050000,0.000000,0.000000,0.000000,0.000000,0.000000,0.000000,0.000000,0.100000,0.100000,-0.953440,-0.908900,-0.050000,-0.050000,0.674808,-0.585803,0.000000,0.000000,-0.181839,0.208372,0.174524,0.080567,-0.430606,0.566595,-0.323417,-0.365743,0.438501,-0.502920
-0.050000,-0.050000,0.000000,0.000000,0.000000,0.000000,0.000000,0.000000,0.000000,0.100000,0.100000,-0.963238,-0.913385,-0.050000,-0.050000,0.659485,-0.582570,0.000000,0.000000,-0.188381,0.211794,0.191864,0.095031,-0.441092,0.569870,-0.324281,-0.365738,0.438473,-0.505329
-0.050000,-0.050000,0.000000,0.000000,0.000000,0.000000,0.000000,0.000000,0.000000,0.100000,0.100000,-0.971681,-0.917730,-0.050000,-0.050000,0.644265,-0.579985,0.000000,0.000000,-0.195936,0.216790,0.213478,0.113706,-0.455885,0.575326,-0.324309,-0.363987,0.436589,-0.505962
-0.050000,-0.050000,0.000000,0.000000,0.000000,0.000000,0.000000,0.000000,0.000000,0.100000,0.100000,-0.978658,-0.921837,-0.050000,-0.050000,0.629275,-0.577829,0.000000,0.000000,-0.204030,0.222898,0.238508,0.135687,-0.474680,0.583395,-0.323556,-0.360835,0.432825,-0.504607
-0.050000,-0.050000,0.000000,0.000000,0.000000,0.000000,0.000000,0.000000,0.000000,0.100000,0.100000,-0.984900,-0.925824,-0.050000,-0.050000,0.614400,-0.575888,0.000000,0.000000,-0.212392,0.229563,0.265247,0.159321,-0.495476,0.592770,-0.322412,-0.356981,0.428122,-0.502258
-0.050000,-0.050000,0.000000,0.000000,0.000000,0.000000,0.000000,0.000000,0.000000,0.100000,0.100000,-0.988569,-0.929032,-0.050000,-0.050000,0.600237,-0.574359,0.000000,0.000000,-0.220544,0.236977,0.295040,0.185889,-0.521057,0.605949,-0.320234,-0.351689,0.420773,-0.496942
-0.050000,-0.050000,0.000000,0.000000,0.000000,0.000000,0.000000,0.000000,0.000000,0.100000,0.100000,-0.991267,-0.931797,-0.050000,-0.050000,0.586485,-0.572948,0.000000,0.000000,-0.228269,0.244305,0.325006,0.212617,-0.547593,0.620095,-0.317790,-0.346174,0.412715,-0.490807
-0.050000,-0.050000,0.000000,0.000000,0.000000,0.000000,0.000000,0.000000,0.000000,0.100000,0.100000,-0.992023,-0.933677,-0.050000,-0.050000,0.573554,-0.571772,0.000000,0.000000,-0.235142,0.251459,0.355315,0.239662,-0.576037,0.636175,-0.314813,-0.340214,0.403242,-0.483032
-0.050000,-0.050000,0.000000,0.000000,0.000000,0.000000,0.000000,0.000000,0.000000,0.100000,0.100000,-0.990752,-0.934330,-0.050000,-0.050000,0.561822,-0.570897,0.000000,0.000000,-0.240598,0.257818,0.384270,0.265368,-0.604859,0.653252,-0.311553,-0.334356,0.392921,-0.474252
-0.050000,-0.050000,0.000000,0.000000,0.000000,0.000000,0.000000,0.000000,0.000000,0.100000,0.100000,-0.988469,-0.934369,-0.050000,-0.050000,0.550688,-0.570172,0.000000,0.000000,-0.245346,0.263779,0.412547,0.290405,-0.633871,0.670826,-0.308151,-0.328550,0.382175,-0.464969
-0.050000,-0.050000,0.000000,0.000000,0.000000,0.000000,0.000000,0.000000,0.000000,0.100000,0.100000,-0.983326,-0.932232,-0.050000,-0.050000,0.541818,-0.570067,0.000000,0.000000,-0.247534,0.267835,0.436716,0.311385,-0.661283,0.688444,-0.304824,-0.323665,0.371166,-0.455333
-0.050000,-0.050000,0.000000,0.000000,0.000000,0.000000,0.000000,0.000000,0.000000,0.100000,0.100000,-0.977395,-0.929356,-0.050000,-0.050000,0.533792,-0.570217,0.000000,0.000000,-0.248878,0.271122,0.459097,0.330606,-0.687630,0.705718,-0.301696,-0.319278,0.360377,-0.445926
-0.050000,-0.050000,0.000000,0.000000,0.000000,0.000000,0.000000,0.000000,0.000000,0.100000,0.100000,-0.969886,-0.925000,-0.050000,-0.050000,0.527453,-0.570878,0.000000,0.000000,-0.248536,0.272870,0.477905,0.346307,-0.711847,0.722305,-0.298962,-0.315887,0.350030,-0.436976
-0.050000,-0.050000,0.000000,0.000000,0.000000,0.000000,0.000000,0.000000,0.000000,0.100000,0.100000,-0.961280,-0.919349,-0.050000,-0.050000,0.522840,-0.572097,0.000000,0.000000,-0.246793,0.273032,0.492937,0.358339,-0.733403,0.737885,-0.296875,-0.313661,0.340568,-0.428929
-0.050000,-0.050000,0.000000,0.000000,0.000000,0.000000,0.000000,0.000000,0.000000,0.100000,0.100000,-0.952126,-0.913051,-0.050000,-0.050000,0.519090,-0.573595,0.000000,0.000000,-0.244349,0.272402,0.506080,0.368537,-0.753628,0.752961,-0.295113,-0.312016,0.331549,-0.421332
-0.050000,-0.050000,0.000000,0.000000,0.000000,0.000000,0.000000,0.000000,0.000000,0.100000,0.100000,-0.942152,-0.905365,-0.050000,-0.050000,0.517836,-0.575933,0.000000,0.000000,-0.240480,0.269627,0.514076,0.373899,-0.769796,0.766602,-0.294465,-0.312013,0.324235,-0.415303
-0.050000,-0.050000,0.000000,0.000000,0.000000,0.000000,0.000000,0.000000,0.000000,0.100000,0.100000,-0.932166,-0.897457,-0.050000,-0.050000,0.517356,-0.578545,0.000000,0.000000,-0.236387,0.266294,0.520703,0.378064,-0.784748,0.779902,-0.294162,-0.312434,0.317544,-0.409742
-0.050000,-0.050000,0.000000,0.000000,0.000000,0.000000,0.000000,0.000000,0.000000,0.100000,0.100000,-0.922156,-0.889104,-0.050000,-0.050000,0.518426,-0.581704,0.000000,0.000000,-0.231849,0.261843,0.524591,0.379833,-0.797269,0.792519,-0.294548,-0.313703,0.312100,-0.405118
-0.050000,-0.050000,0.000000,0.000000,0.000000,0.000000,0.000000,0.000000,0.000000,0.100000,0.100000,-0.912539,-0.880815,-0.050000,-0.050000,0.520910,-0.585414,0.000000,0.000000,-0.227318,0.256674,0.526542,0.380140,-0.807740,0.804769,-0.295484,-0.315509,0.307937,-0.401188
-0.050000,-0.050000,0.000000,0.000000,0.000000,0.000000,0.000000,0.000000,0.000000,0.100000,0.100000,-0.903118,-0.872557,-0.050000,-0.050000,0.524101,-0.589401,0.000000,0.000000,-0.222791,0.251146,0.527524,0.379715,-0.817186,0.816835,-0.296695,-0.317584,0.304416,-0.397606
-0.050000,-0.050000,0.000000,0.000000,0.000000,0.000000,0.000000,0.000000,0.000000,0.100000,0.100000,-0.894678,-0.865077,-0.050000,-0.050000,0.529171,-0.594267,0.000000,0.000000,-0.218778,0.245165,0.526678,0.378290,-0.824042,0.828654,-0.298507,-0.320053,0.302805,-0.394659
-0.050000,-0.050000,0.000000,0.000000,0.000000,0.000000,0.000000,0.000000,0.000000,0.100000,0.100000,-0.886606,-0.858031,-0.050000,-0.050000,0.534764,-0.599452,0.000000,0.000000,-0.215031,0.239220,0.525487,0.376790,-0.830124,0.840390,-0.300461,-0.322563,0.301801,-0.391812
-0.050000,-0.050000,0.000000,0.000000,0.000000,0.000000,0.000000,0.000000,0.000000,0.100000,0.100000,-0.879270,-0.851853,-0.050000,-0.050000,0.541399,-0.605274,0.000000,0.000000,-0.211813,0.233346,0.523608,0.375141,-0.834658,0.851964,-0.302698,-0.325156,0.302009,-0.389166
-0.050000,-0.050000,0.000000,0.000000,0.000000,0.000000,0.000000,0.000000,0.000000,0.100000,0.100000,-0.871426,-0.845928,-0.050000,-0.050000,0.548290,-0.611164,0.000000,0.000000,-0.209458,0.228463,0.521971,0.373999,-0.837436,0.862114,-0.304892,-0.327393,0.303252,-0.387234
-0.050000,-0.050000,0.000000,0.000000,0.000000,0.000000,0.000000,0.000000,0.000000,0.100000,0.100000,-0.863327,-0.840129,-0.050000,-0.050000,0.555310,-0.617088,0.000000,0.000000,-0.207534,0.224076,0.520455,0.373109,-0.839337,0.871552,-0.307065,-0.329453,0.305013,-0.385658
-0.050000,-0.050000,0.000000,0.000000,0.000000,0.000000,0.000000,0.000000,0.000000,0.100000,0.100000,-0.856594,-0.836302,-0.050000,-0.050000,0.563546,-0.624496,0.000000,0.000000,-0.206098,0.219855,0.517871,0.371386,-0.839410,0.881005,-0.309852,-0.331961,0.307656,-0.383473
-0.050000,-0.050000,0.000000,0.000000,0.000000,0.000000,0.000000,0.000000,0.000000,0.100000,0.100000,-0.850080,-0.833110,-0.050000,-0.050000,0.571881,-0.632269,0.000000,0.000000,-0.204897,0.215883,0.515225,0.369576,-0.838682,0.890060,-0.312655,-0.334461,0.310519,-0.381174
-0.050000,-0.050000,0.000000,0.000000,0.000000,0.000000,0.000000,0.000000,0.000000,0.100000,0.100000,-0.844003,-0.831188,-0.050000,-0.050000,0.580414,-0.640770,0.000000,0.000000,-0.204168,0.212412,0.512458,0.367589,-0.836355,0.898318,-0.315491,-0.336944,0.313824,-0.378645
-0.050000,-0.050000,0.000000,0.000000,0.000000,0.000000,0.000000,0.000000,0.000000,0.100000,0.100000,-0.837901,-0.830372,-0.050000,-0.050000,0.588696,-0.649753,0.000000,0.000000,-0.203939,0.209583,0.509838,0.365486,-0.832188,0.905351,-0.318177,-0.339348,0.317247,-0.375972
-0.050000,-0.050000,0.000000,0.000000,0.000000,0.000000,0.000000,0.000000,0.000000,0.100000,0.100000,-0.831787,-0.830108,-0.050000,-0.050000,0.596852,-0.658978,0.000000,0.000000,-0.203959,0.207076,0.507293,0.363324,-0.827100,0.911771,-0.320788,-0.341713,0.320730,-0.373227
-0.050000,-0.050000,0.000000,0.000000,0.000000,0.000000,0.000000,0.000000,0.000000,0.100000,0.100000,-0.825008,-0.831223,-0.050000,-0.050000,0.604148,-0.668578,0.000000,0.000000,-0.204807,0.205566,0.505402,0.361060,-0.818962,0.916042,-0.322807,-0.343882,0.323871,-0.370377
-0.050000,-0.050000,0.000000,0.000000,0.000000,0.000000,0.000000,0.000000,0.000000,0.100000,0.100000,-0.817804,-0.832697,-0.050000,-0.050000,0.611055,-0.678185,0.000000,0.000000,-0.206001,0.204374,0.503933,0.358841,-0.809721,0.919602,-0.324458,-0.345940,0.326743,-0.367538
-0.050000,-0.050000,0.000000,0.000000,0.000000,0.000000,0.000000,0.000000,0.000000,0.100000,0.100000,-0.809750,-0.834890,-0.050000,-0.050000,0.617188,-0.687805,0.000000,0.000000,-0.207886,0.203819,0.503308,0.356713,-0.798272,0.921741,-0.325372,-0.347779,0.329080,-0.364721
-0.050000,-0.050000,0.000000,0.000000,0.000000,0.000000,0.000000,0.000000,0.000000,0.100000,0.100000,-0.800448,-0.837599,-0.050000,-0.050000,0.622467,-0.697205,0.000000,0.000000,-0.210702,0.203854,0.504054,0.354952,-0.784434,0.922682,-0.325125,-0.349278,0.330620,-0.362028
-0.050000,-0.050000,0.000000,0.000000,0.000000,0.000000,0.000000,0.000000,0.000000,0.100000,0.100000,-0.790522,-0.840568,-0.050000,-0.050000,0.627319,-0.706495,0.000000,0.000000,-0.213983,0.204183,0.505484,0.353377,-0.769401,0.923024,-0.324297,-0.350607,0.331762,-0.359396
-0.050000,-0.050000,0.000000,0.000000,0.000000,0.000000,0.000000,0.000000,0.000000,0.100000,0.100000,-0.780525,-0.846546,-0.050000,-0.050000,0.630284,-0.715613,0.000000,0.000000,-0.218224,0.204867,0.509517,0.353223,-0.747217,0.922094,-0.321064,-0.351520,0.332193,-0.356834
-0.050000,-0.050000,0.000000,0.000000,0.000000,0.000000,0.000000,0.000000,0.000000,0.100000,0.100000,-0.769002,-0.852053,-0.050000,-0.050000,0.632929,-0.724307,0.000000,0.000000,-0.223453,0.206004,0.515041,0.353694,-0.724283,0.920986,-0.316703,-0.351990,0.331784,-0.354488
-0.050000,-0.050000,0.000000,0.000000,0.000000,0.000000,0.000000,0.000000,0.000000,0.100000,0.100000,-0.754431,-0.856618,-0.050000,-0.050000,0.634931,-0.732150,0.000000,0.000000,-0.230658,0.208050,0.523546,0.355417,-0.699851,0.919525,-0.310084,-0.351572,0.329696,-0.352576
-0.050000,-0.050000,0.000000,0.000000,0.000000,0.000000,0.000000,0.000000,0.000000,0.100000,0.100000,-0.737306,-0.860608,-0.050000,-0.050000,0.636332,-0.739139,0.000000,0.000000,-0.239714,0.210408,0.535031,0.358342,-0.672720,0.918166,-0.301332,-0.350430,0.325762,-0.350929
-0.050000,-0.050000,0.000000,0.000000,0.000000,0.000000,0.000000,0.000000,0.000000,0.100000,0.100000,-0.718904,-0.864310,-0.050000,-0.050000,0.637433,-0.745702,0.000000,0.000000,-0.249697,0.212922,0.548006,0.361869,-0.644239,0.916858,-0.291514,-0.348926,0.320905,-0.349415
-0.050000,-0.050000,0.000000,0.000000,0.000000,0.000000,0.000000,0.000000,0.000000,0.100000,0.100000,-0.696840,-0.867023,-0.050000,-0.050000,0.637570,-0.751088,0.000000,0.000000,-0.262266,0.215387,0.565531,0.367148,-0.611355,0.916073,-0.278623,-0.346261,0.313084,-0.348201
-0.050000,-0.050000,0.000000,0.000000,0.000000,0.000000,0.000000,0.000000,0.000000,0.100000,0.100000,-0.673592,-0.869256,-0.050000,-0.050000,0.637319,-0.756142,0.000000,0.000000,-0.275492,0.217635,0.584458,0.372845,-0.577116,0.915472,-0.264934,-0.343245,0.304228,-0.347059
-0.050000,-0.050000,0.000000,0.000000,0.000000,0.000000,0.000000,0.000000,0.000000,0.100000,0.100000,-0.647979,-0.870527,-0.050000,-0.050000,0.636290,-0.760532,0.000000,0.000000,-0.290032,0.219446,0.606188,0.379375,-0.540170,0.915240,-0.249649,-0.339524,0.293302,-0.346060
-0.050000,-0.050000,0.000000,0.000000,0.000000,0.000000,0.000000,0.000000,0.000000,0.100000,0.100000,-0.620186,-0.870434,-0.050000,-0.050000,0.634264,-0.764450,0.000000,0.000000,-0.305148,0.220329,0.630209,0.386106,-0.501203,0.915177,-0.233554,-0.335332,0.280424,-0.345184
-0.050000,-0.050000,0.000000,0.000000,0.000000,0.000000,0.000000,0.000000,0.000000,0.100000,0.100000,-0.591302,-0.869659,-0.050000,-0.050000,0.631738,-0.768132,0.000000,0.000000,-0.320553,0.220749,0.655375,0.392938,-0.461225,0.915199,-0.217052,-0.330903,0.266572,-0.344368
-0.050000,-0.050000,0.000000,0.000000,0.000000,0.000000,0.000000,0.000000,0.000000,0.100000,0.100000,-0.559687,-0.866235,-0.050000,-0.050000,0.627338,-0.771464,0.000000,0.000000,-0.335374,0.219018,0.682920,0.398876,-0.419949,0.914968,-0.200739,-0.326340,0.250455,-0.343785
-0.050000,-0.050000,0.000000,0.000000,0.000000,0.000000,0.000000,0.000000,0.000000,0.100000,0.100000,-0.527442,-0.861782,-0.050000,-0.050000,0.622215,-0.774795,0.000000,0.000000,-0.349497,0.216367,0.710869,0.404141,-0.379000,0.914475,-0.184908,-0.321960,0.233949,-0.343321
-0.050000,-0.050000,0.000000,0.000000,0.000000,0.000000,0.000000,0.000000,0.000000,0.100000,0.100000,-0.493938,-0.855271,-0.050000,-0.050000,0.615643,-0.778124,0.000000,0.000000,-0.362222,0.211877,0.739624,0.408061,-0.338706,0.913456,-0.170042,-0.317947,0.216665,-0.343097
-0.050000,-0.050000,0.000000,0.000000,0.000000,0.000000,0.000000,0.000000,0.000000,0.100000,0.100000,-0.459944,-0.846613,-0.050000,-0.050000,0.607564,-0.781615,0.000000,0.000000,-0.372728,0.205348,0.768449,0.410155,-0.300716,0.911654,-0.156672,-0.314702,0.199462,-0.343209
-0.050000,-0.050000,0.000000,0.000000,0.000000,0.000000,0.000000,0.000000,0.000000,0.100000,0.100000,-0.425705,-0.836883,-0.050000,-0.050000,0.598730,-0.785187,0.000000,0.000000,-0.382124,0.197799,0.797309,0.411337,-0.263878,0.909460,-0.144051,-0.311841,0.182299,-0.343491
-0.050000,-0.050000,0.000000,0.000000,0.000000,0.000000,0.000000,0.000000,0.000000,0.100000,0.100000,-0.392125,-0.824185,-0.050000,-0.050000,0.587848,-0.789086,0.000000,0.000000,-0.387506,0.187309,0.825344,0.409692,-0.232694,0.905976,-0.133898,-0.310461,0.166397,-0.344369
-0.050000,-0.050000,0.000000,0.000000,0.000000,0.000000,0.000000,0.000000,0.000000,0.100000,0.100000,-0.359265,-0.810708,-0.050000,-0.050000,0.576473,-0.793071,0.000000,0.000000,-0.391540,0.176017,0.852864,0.407301,-0.203896,0.902131,-0.124486,-0.309556,0.151158,-0.345435
-0.050000,-0.050000,0.000000,0.000000,0.000000,0.000000,0.000000,0.000000,0.000000,0.100000,0.100000,-0.327847,-0.795672,-0.050000,-0.050000,0.564113,-0.797227,0.000000,0.000000,-0.392881,0.163121,0.879355,0.403415,-0.179870,0.897563,-0.116557,-0.309603,0.137245,-0.346874
-0.050000,-0.050000,0.000000,0.000000,0.000000,0.000000,0.000000,0.000000,0.000000,0.100000,0.100000,-0.298830,-0.779694,-0.050000,-0.050000,0.551390,-0.801439,0.000000,0.000000,-0.391876,0.149204,0.904450,0.398770,-0.161033,0.892606,-0.109794,-0.310331,0.124822,-0.348554
-0.050000,-0.050000,0.000000,0.000000,0.000000,0.000000,0.000000,0.000000,0.000000,0.100000,0.100000,-0.271013,-0.763245,-0.050000,-0.050000,0.538486,-0.805680,0.000000,0.000000,-0.389700,0.134777,0.928847,0.393745,-0.144790,0.887456,-0.103613,-0.311399,0.113143,-0.350355
-0.050000,-0.050000,0.000000,0.000000,0.000000,0.000000,0.000000,0.000000,0.000000,0.100000,0.100000,-0.248018,-0.746463,-0.050000,-0.050000,0.526290,-0.809820,0.000000,0.000000,-0.384817,0.119878,0.950665,0.388914,-0.136192,0.882437,-0.098700,-0.312887,0.103586,-0.352175
-0.050000,-0.050000,0.000000,0.000000,0.000000,0.000000,0.000000,0.000000,0.000000,0.100000,0.100000,-0.226929,-0.729931,-0.050000,-0.050000,0.514817,-0.813883,0.000000,0.000000,-0.379291,0.105172,0.971445,0.384566,-0.129959,0.877727,-0.094100,-0.314317,0.094656,-0.353862
-0.050000,-0.050000,0.000000,0.000000,0.000000,0.000000,0.000000,0.000000,0.000000,0.100000,0.100000,-0.209653,-0.713897,-0.050000,-0.050000,0.504793,-0.817794,0.000000,0.000000,-0.372479,0.090854,0.990148,0.381181,-0.128457,0.873635,-0.090124,-0.315633,0.086981,-0.355283
-0.050000,-0.050000,0.000000,0.000000,0.000000,0.000000,0.000000,0.000000,0.000000,0.100000,0.100000,-0.194588,-0.699452,-0.050000,-0.050000,0.497198,-0.821747,0.000000,0.000000,-0.364881,0.078802,1.005329,0.380401,-0.131229,0.871154,-0.086436,-0.316456,0.081072,-0.356268
-0.050000,-0.050000,0.000000,0.000000,0.000000,0.000000,0.000000,0.000000,0.000000,0.100000,0.100000,-0.180629,-0.685802,-0.050000,-0.050000,0.490819,-0.825722,0.000000,0.000000,-0.356890,0.067881,1.018748,0.380922,-0.136138,0.869478,-0.082892,-0.317032,0.076048,-0.357034
-0.050000,-0.050000,0.000000,0.000000,0.000000,0.000000,0.000000,0.000000,0.000000,0.100000,0.100000,-0.174410,-0.673251,-0.050000,-0.050000,0.488969,-0.829243,0.000000,0.000000,-0.346984,0.057905,1.028621,0.382888,-0.146553,0.869183,-0.080681,-0.317214,0.072267,-0.356732
-0.050000,-0.050000,0.000000,0.000000,0.000000,0.000000,0.000000,0.000000,0.000000,0.100000,0.100000,-0.170530,-0.661368,-0.050000,-0.050000,0.489144,-0.832779,0.000000,0.000000,-0.336564,0.048479,1.036882,0.385524,-0.159052,0.869569,-0.078962,-0.317197,0.069129,-0.356133
-0.050000,-0.050000,0.000000,0.000000,0.000000,0.000000,0.000000,0.000000,0.000000,0.100000,0.100000,-0.171329,-0.650824,-0.050000,-0.050000,0.493369,-0.836346,0.000000,0.000000,-0.325119,0.040150,1.041921,0.389501,-0.175716,0.871316,-0.078228,-0.316783,0.067273,-0.354941
-0.050000,-0.050000,0.000000,0.000000,0.000000,0.000000,0.000000,0.000000,0.000000,0.100000,0.100000,-0.176397,-0.641790,-0.050000,-0.050000,0.502181,-0.840184,0.000000,0.000000,-0.312471,0.033005,1.043036,0.394751,-0.196871,0.874550,-0.078707,-0.316206,0.066997,-0.353210
-0.050000,-0.050000,0.000000,0.000000,0.000000,0.000000,0.000000,0.000000,0.000000,0.100000,0.100000,-0.183599,-0.633511,-0.050000,-0.050000,0.513286,-0.844158,0.000000,0.000000,-0.299221,0.026453,1.042190,0.400639,-0.220272,0.878528,-0.079792,-0.315548,0.067510,-0.351211
-0.050000,-0.050000,0.000000,0.000000,0.000000,0.000000,0.000000,0.000000,0.000000,0.100000,0.100000,-0.196529,-0.627453,-0.050000,-0.050000,0.531486,-0.848923,0.000000,0.000000,-0.283977,0.021457,1.034722,0.407810,-0.250530,0.884562,-0.083156,-0.315196,0.070697,-0.348605
-0.050000,-0.050000,0.000000,0.000000,0.000000,0.000000,0.000000,0.000000,0.000000,0.100000,0.100000,-0.211102,-0.622065,-0.050000,-0.050000,0.551913,-0.854067,0.000000,0.000000,-0.268137,0.016852,1.024928,0.415082,-0.282891,0.891128,-0.087440,-0.315138,0.074792,-0.345894
-0.050000,-0.050000,0.000000,0.000000,0.000000,0.000000,0.000000,0.000000,0.000000,0.100000,0.100000,-0.228960,-0.618019,-0.050000,-0.050000,0.576795,-0.859970,0.000000,0.000000,-0.251106,0.013029,1.010482,0.422556,-0.319454,0.898757,-0.093563,-0.315670,0.080703,-0.342973
-0.050000,-0.050000,0.000000,0.000000,0.000000,0.000000,0.000000,0.000000,0.000000,0.100000,0.100000,-0.249499,-0.615147,-0.050000,-0.050000,0.605448,-0.866784,0.000000,0.000000,-0.233354,0.009717,0.991418,0.429428,-0.359259,0.906994,-0.101776,-0.317130,0.088230,-0.340038
-0.050000,-0.050000,0.000000,0.000000,0.000000,0.000000,0.000000,0.000000,0.000000,0.100000,0.100000,-0.271378,-0.612862,-0.050000,-0.050000,0.635987,-0.874056,0.000000,0.000000,-0.215242,0.006662,0.970045,0.435999,-0.400684,0.915535,-0.111035,-0.319055,0.096566,-0.337097
-0.050000,-0.050000,0.000000,0.000000,0.000000,0.000000,0.000000,0.000000,0.000000,0.100000,0.100000,-0.300910,-0.616696,-0.050000,-0.050000,0.675388,-0.882265,0.000000,0.000000,-0.197283,0.001888,0.939520,0.441463,-0.452085,0.925987,-0.122526,-0.323741,0.107211,-0.333128
-0.050000,-0.050000,0.000000,0.000000,0.000000,0.000000,0.000000,0.000000,0.000000,0.100000,0.100000,-0.330074,-0.619957,-0.050000,-0.050000,0.714396,-0.890938,0.000000,0.000000,-0.179820,-0.002285,0.907800,0.445649,-0.501410,0.935685,-0.135250,-0.328879,0.118133,-0.329589
-0.050000,-0.050000,0.000000,0.000000,0.000000,0.000000,0.000000,0.000000,0.000000,0.100000,0.100000,-0.358498,-0.622074,-0.050000,-0.050000,0.752615,-0.900535,0.000000,0.000000,-0.163347,-0.005254,0.873690,0.447280,-0.546582,0.943878,-0.150440,-0.334924,0.129605,-0.326908
-0.050000,-0.050000,0.000000,0.000000,0.000000,0.000000,0.000000,0.000000,0.000000,0.100000,0.100000,-0.387153,-0.624266,-0.050000,-0.050000,0.790170,-0.910579,0.000000,0.000000,-0.148484,-0.007917,0.836686,0.445455,-0.588729,0.950763,-0.167570,-0.342292,0.141175,-0.324857
-0.050000,-0.050000,0.000000,0.000000,0.000000,0.000000,0.000000,0.000000,0.000000,0.100000,0.100000,-0.415922,-0.626495,-0.050000,-0.050000,0.827394,-0.920845,0.000000,0.000000,-0.134426,-0.010427,0.798235,0.441900,-0.629361,0.956994,-0.185671,-0.350321,0.152795,-0.323120
-0.050000,-0.050000,0.000000,0.000000,0.000000,0.000000,0.000000,0.000000,0.000000,0.100000,0.100000,-0.444770,-0.629313,-0.050000,-0.050000,0.861965,-0.930743,0.000000,0.000000,-0.123716,-0.012618,0.756835,0.432917,-0.663762,0.961021,-0.205317,-0.360131,0.163758,-0.322105
-0.050000,-0.050000,0.000000,0.000000,0.000000,0.000000,0.000000,0.000000,0.000000,0.100000,0.100000,-0.473439,-0.632364,-0.050000,-0.050000,0.894984,-0.940088,0.000000,0.000000,-0.114284,-0.014628,0.715085,0.422247,-0.695672,0.964351,-0.225022,-0.370379,0.174371,-0.321256
-0.050000,-0.050000,0.000000,0.000000,0.000000,0.000000,0.000000,0.000000,0.000000,0.100000,0.100000,-0.501749,-0.635878,-0.050000,-0.050000,0.924904,-0.948331,0.000000,0.000000,-0.107408,-0.016276,0.672635,0.408204,-0.722601,0.966290,-0.244843,-0.381505,0.184284,-0.320741
-0.050000,-0.050000,0.000000,0.000000,0.000000,0.000000,0.000000,0.000000,0.000000,0.100000,0.100000,-0.526709,-0.638493,-0.050000,-0.050000,0.949001,-0.954990,0.000000,0.000000,-0.102974,-0.015550,0.633281,0.392700,-0.742691,0.967606,-0.263510,-0.391879,0.191669,-0.319537
-0.050000,-0.050000,0.000000,0.000000,0.000000,0.000000,0.000000,0.000000,0.000000,0.100000,0.100000,-0.549994,-0.640658,-0.050000,-0.050000,0.970187,-0.960856,0.000000,0.000000,-0.099760,-0.013638,0.595474,0.376465,-0.759362,0.968612,-0.281599,-0.401878,0.197790,-0.317989
-0.050000,-0.050000,0.000000,0.000000,0.000000,0.000000,0.000000,0.000000,0.000000,0.100000,0.100000,-0.573387,-0.645305,-0.050000,-0.050000,0.984881,-0.961987,0.000000,0.000000,-0.099782,-0.011715,0.558268,0.357416,-0.772860,0.969503,-0.298131,-0.412947,0.204532,-0.316776
-0.050000,-0.050000,0.000000,0.000000,0.000000,0.000000,0.000000,0.000000,0.000000,0.100000,0.100000,-0.596248,-0.650305,-0.050000,-0.050000,0.996541,-0.961180,0.000000,0.000000,-0.100854,-0.009318,0.522864,0.338495,-0.785022,0.970485,-0.313458,-0.423557,0.211268,-0.315568
-0.050000,-0.050000,0.000000,0.000000,0.000000,0.000000,0.000000,0.000000,0.000000,0.100000,0.100000,-0.618043,-0.656009,-0.050000,-0.050000,1.002133,-0.956497,0.000000,0.000000,-0.104026,-0.005972,0.491061,0.319832,-0.794514,0.971645,-0.326373,-0.433247,0.217990,-0.314370
-0.050000,-0.050000,0.000000,0.000000,0.000000,0.000000,0.000000,0.000000,0.000000,0.100000,0.100000,-0.638225,-0.662033,-0.050000,-0.050000,1.000684,-0.947548,0.000000,0.000000,-0.109060,-0.001012,0.464730,0.303379,-0.802351,0.973421,-0.336274,-0.440943,0.224616,-0.313044
-0.050000,-0.050000,0.000000,0.000000,0.000000,0.000000,0.000000,0.000000,0.000000,0.100000,0.100000,-0.657601,-0.668216,-0.050000,-0.050000,0.995716,-0.936466,0.000000,0.000000,-0.115024,0.004755,0.441136,0.288030,-0.809361,0.975503,-0.344667,-0.447641,0.231194,-0.311652
-0.050000,-0.050000,0.000000,0.000000,0.000000,0.000000,0.000000,0.000000,0.000000,0.100000,0.100000,-0.673979,-0.674650,-0.050000,-0.050000,0.979750,-0.919147,0.000000,0.000000,-0.123201,0.013564,0.427550,0.278758,-0.815933,0.978776,-0.348053,-0.450058,0.237490,-0.309947
-0.050000,-0.050000,0.000000,0.000000,0.000000,0.000000,0.000000,0.000000,0.000000,0.100000,0.100000,-0.690924,-0.682243,-0.050000,-0.050000,0.959881,-0.899767,0.000000,0.000000,-0.132431,0.023513,0.417750,0.272278,-0.822682,0.981866,-0.349714,-0.450854,0.244365,-0.308350
-0.050000,-0.050000,0.000000,0.000000,0.000000,0.000000,0.000000,0.000000,0.000000,0.100000,0.100000,-0.709006,-0.692154,-0.050000,-0.050000,0.932206,-0.876266,0.000000,0.000000,-0.143766,0.035740,0.415524,0.271384,-0.829782,0.984592,-0.347923,-0.448409,0.252400,-0.306970
-0.050000,-0.050000,0.000000,0.000000,0.000000,0.000000,0.000000,0.000000,0.000000,0.100000,0.100000,-0.722168,-0.700990,-0.050000,-0.050000,0.899102,-0.850960,0.000000,0.000000,-0.154615,0.050205,0.420602,0.277505,-0.838933,0.988120,-0.343183,-0.441901,0.258023,-0.304791
-0.050000,-0.050000,0.000000,0.000000,0.000000,0.000000,0.000000,0.000000,0.000000,0.100000,0.100000,-0.732871,-0.709288,-0.050000,-0.050000,0.863282,-0.824752,0.000000,0.000000,-0.165221,0.065789,0.429333,0.287133,-0.849108,0.992050,-0.336967,-0.433363,0.262439,-0.302212
-0.050000,-0.050000,0.000000,0.000000,0.000000,0.000000,0.000000,0.000000,0.000000,0.100000,0.100000,-0.737505,-0.716677,-0.050000,-0.050000,0.821319,-0.796372,0.000000,0.000000,-0.173923,0.083584,0.445200,0.305208,-0.862062,0.995400,-0.327752,-0.420360,0.264193,-0.298671
-0.050000,-0.050000,0.000000,0.000000,0.000000,0.000000,0.000000,0.000000,0.000000,0.100000,0.100000,-0.740289,-0.723538,-0.050000,-0.050000,0.778344,-0.767786,0.000000,0.000000,-0.181769,0.101581,0.462216,0.325185,-0.875389,0.998039,-0.317975,-0.406396,0.265142,-0.294986
-0.050000,-0.050000,0.000000,0.000000,0.000000,0.000000,0.000000,0.000000,0.000000,0.100000,0.100000,-0.739372,-0.729344,-0.050000,-0.050000,0.733344,-0.738788,0.000000,0.000000,-0.187902,0.119984,0.481530,0.348962,-0.889461,0.999256,-0.307076,-0.390511,0.264483,-0.291012
-0.050000,-0.050000,0.000000,0.000000,0.000000,0.000000,0.000000,0.000000,0.000000,0.100000,0.100000,-0.735234,-0.733355,-0.050000,-0.050000,0.688395,-0.710294,0.000000,0.000000,-0.192314,0.137641,0.500706,0.374173,-0.902860,0.998439,-0.295988,-0.374046,0.262368,-0.287087
-0.050000,-0.050000,0.000000,0.000000,0.000000,0.000000,0.000000,0.000000,0.000000,0.100000,0.100000,-0.729487,-0.736468,-0.050000,-0.050000,0.643473,-0.682053,0.000000,0.000000,-0.195865,0.154924,0.519813,0.400099,-0.915923,0.996606,-0.284807,-0.357291,0.259524,-0.283186
-0.050000,-0.050000,0.000000,0.000000,0.000000,0.000000,0.000000,0.000000,0.000000,0.100000,0.100000,-0.719997,-0.735874,-0.050000,-0.050000,0.601329,-0.655595,0.000000,0.000000,-0.197453,0.169560,0.535949,0.424687,-0.925985,0.991551,-0.274459,-0.341667,0.254879,-0.279876
-0.050000,-0.050000,0.000000,0.000000,0.000000,0.000000,0.000000,0.000000,0.000000,0.100000,0.100000,-0.709705,-0.733874,-0.050000,-0.050000,0.560766,-0.629924,0.000000,0.000000,-0.198734,0.182992,0.550675,0.447972,-0.934614,0.985590,-0.264568,-0.326907,0.249802,-0.276918
-0.050000,-0.050000,0.000000,0.000000,0.000000,0.000000,0.000000,0.000000,0.000000,0.100000,0.100000,-0.697813,-0.729063,-0.050000,-0.050000,0.523369,-0.605828,0.000000,0.000000,-0.199398,0.194014,0.562580,0.468653,-0.940377,0.977815,-0.255594,-0.313874,0.243862,-0.274667
-0.050000,-0.050000,0.000000,0.000000,0.000000,0.000000,0.000000,0.000000,0.000000,0.100000,0.100000,-0.685275,-0.721586,-0.050000,-0.050000,0.489882,-0.583392,0.000000,0.000000,-0.200210,0.202499,0.571896,0.485944,-0.943048,0.968819,-0.247480,-0.302962,0.237426,-0.273317
-0.050000,-0.050000,0.000000,0.000000,0.000000,0.000000,0.000000,0.000000,0.000000,0.100000,0.100000,-0.672414,-0.712778,-0.050000,-0.050000,0.458352,-0.561785,0.000000,0.000000,-0.201094,0.209714,0.579917,0.501541,-0.944175,0.959214,-0.239797,-0.293110,0.230744,-0.272417
-0.050000,-0.050000,0.000000,0.000000,0.000000,0.000000,0.000000,0.000000,0.000000,0.100000,0.100000,-0.659943,-0.700865,-0.050000,-0.050000,0.433034,-0.542439,0.000000,0.000000,-0.203142,0.213669,0.585550,0.512197,-0.941193,0.948728,-0.232908,-0.286174,0.223868,-0.272872
-0.050000,-0.050000,0.000000,0.000000,0.000000,0.000000,0.000000,0.000000,0.000000,0.100000,0.100000,-0.647980,-0.688342,-0.050000,-0.050000,0.409706,-0.523715,0.000000,0.000000,-0.205761,0.216882,0.591004,0.521528,-0.937186,0.938206,-0.226095,-0.279942,0.217092,-0.273677
-0.050000,-0.050000,0.000000,0.000000,0.000000,0.000000,0.000000,0.000000,0.000000,0.100000,0.100000,-0.637032,-0.674599,-0.050000,-0.050000,0.390357,-0.506235,0.000000,0.000000,-0.209520,0.218613,0.596097,0.528213,-0.931131,0.927612,-0.219435,-0.275119,0.210518,-0.275180
-0.050000,-0.050000,0.000000,0.000000,0.000000,0.000000,0.000000,0.000000,0.000000,0.100000,0.100000,-0.627605,-0.660491,-0.050000,-0.050000,0.374575,-0.489758,0.000000,0.000000,-0.214466,0.219654,0.601765,0.533033,-0.923777,0.917296,-0.212713,-0.271090,0.204402,-0.277025
-0.050000,-0.050000,0.000000,0.000000,0.000000,0.000000,0.000000,0.000000,0.000000,0.100000,0.100000,-0.618939,-0.646200,-0.050000,-0.050000,0.360578,-0.473781,0.000000,0.000000,-0.220006,0.220348,0.607720,0.536920,-0.915772,0.907118,-0.205959,-0.267459,0.198514,-0.279040
-0.050000,-0.050000,0.000000,0.000000,0.000000,0.000000,0.000000,0.000000,0.000000,0.100000,0.100000,-0.612827,-0.632330,-0.050000,-0.050000,0.351156,-0.459102,0.000000,0.000000,-0.226970,0.221019,0.614972,0.538901,-0.906717,0.897680,-0.199183,-0.264334,0.193523,-0.280945
-0.050000,-0.050000,0.000000,0.000000,0.000000,0.000000,0.000000,0.000000,0.000000,0.100000,0.100000,-0.606741,-0.618722,-0.050000,-0.050000,0.342967,-0.445180,0.000000,0.000000,-0.234162,0.222269,0.622066,0.540792,-0.897871,0.889173,-0.192635,-0.261281,0.188986,-0.282336
-0.050000,-0.050000,0.000000,0.000000,0.000000,0.000000,0.000000,0.000000,0.000000,0.100000,0.100000,-0.600705,-0.605641,-0.050000,-0.050000,0.337245,-0.432771,0.000000,0.000000,-0.241808,0.224677,0.628845,0.542504,-0.889444,0.882525,-0.186542,-0.258371,0.185355,-0.282701
-0.050000,-0.050000,0.000000,0.000000,0.000000,0.000000,0.000000,0.000000,0.000000,0.100000,0.100000,-0.596550,-0.593105,-0.050000,-0.050000,0.333515,-0.420779,0.000000,0.000000,-0.249523,0.227148,0.635544,0.542775,-0.880183,0.875652,-0.180935,-0.255807,0.181952,-0.282692
-0.050000,-0.050000,0.000000,0.000000,0.000000,0.000000,0.000000,0.000000,0.000000,0.100000,0.100000,-0.593335,-0.580841,-0.050000,-0.050000,0.330781,-0.408996,0.000000,0.000000,-0.257275,0.229652,0.642205,0.542324,-0.870506,0.868666,-0.175570,-0.253415,0.178662,-0.282496
-0.050000,-0.050000,0.000000,0.000000,0.000000,0.000000,0.000000,0.000000,0.000000,0.100000,0.100000,-0.591544,-0.569315,-0.050000,-0.050000,0.330721,-0.398593,0.000000,0.000000,-0.264507,0.232495,0.647120,0.539822,-0.860630,0.862388,-0.171802,-0.251550,0.175735,-0.281491
-0.050000,-0.050000,0.000000,0.000000,0.000000,0.000000,0.000000,0.000000,0.000000,0.100000,0.100000,-0.589818,-0.557940,-0.050000,-0.050000,0.331403,-0.388733,0.000000,0.000000,-0.271412,0.235394,0.650992,0.536667,-0.850821,0.856496,-0.168726,-0.249953,0.172834,-0.280183
-0.050000,-0.050000,0.000000,0.000000,0.000000,0.000000,0.000000,0.000000,0.000000,0.100000,0.100000,-0.588220,-0.546867,-0.050000,-0.050000,0.333569,-0.379959,0.000000,0.000000,-0.277661,0.238406,0.652776,0.532206,-0.841147,0.851375,-0.167031,-0.248892,0.169988,-0.278272
-0.050000,-0.050000,0.000000,0.000000,0.000000,0.000000,0.000000,0.000000,0.000000,0.100000,0.100000,-0.586081,-0.535945,-0.050000,-0.050000,0.336890,-0.372306,0.000000,0.000000,-0.283093,0.241318,0.651990,0.526611,-0.831838,0.847178,-0.166758,-0.248485,0.167054,-0.275850
-0.050000,-0.050000,0.000000,0.000000,0.000000,0.000000,0.000000,0.000000,0.000000,0.100000,0.100000,-0.583671,-0.525100,-0.050000,-0.050000,0.340789,-0.365212,0.000000,0.000000,-0.288115,0.244179,0.649920,0.520449,-0.822711,0.843443,-0.167196,-0.248405,0.164076,-0.273174
-0.050000,-0.050000,0.000000,0.000000,0.000000,0.000000,0.000000,0.000000,0.000000,0.100000,0.100000,-0.579742,-0.514413,-0.050000,-0.050000,0.345800,-0.359640,0.000000,0.000000,-0.291903,0.246626,0.644130,0.513122,-0.814552,0.841257,-0.169400,-0.249249,0.160897,-0.270028
-0.050000,-0.050000,0.000000,0.000000,0.000000,0.000000,0.000000,0.000000,0.000000,0.100000,0.100000,-0.575196,-0.503815,-0.050000,-0.050000,0.350922,-0.354451,0.000000,0.000000,-0.295341,0.248899,0.637415,0.505673,-0.806871,0.839644,-0.171954,-0.250312,0.157684,-0.266844
-0.050000,-0.050000,0.000000,0.000000,0.000000,0.000000,0.000000,0.000000,0.000000,0.100000,0.100000,-0.569414,-0.493395,-0.050000,-0.050000,0.356263,-0.350031,0.000000,0.000000,-0.298079,0.250822,0.628848,0.497980,-0.800145,0.839175,-0.175206,-0.251809,0.154403,-0.263586
-0.050000,-0.050000,0.000000,0.000000,0.000000,0.000000,0.000000,0.000000,0.000000,0.100000,0.100000,-0.562427,-0.483314,-0.050000,-0.050000,0.361227,-0.346024,0.000000,0.000000,-0.300320,0.252431,0.619435,0.490670,-0.794656,0.839980,-0.178547,-0.253482,0.151220,-0.260496
