RRGGZZ/g1_deploy_sonic/data/example_scalelab/qwen_50fps/case_test09/joint_pos.csv
joint_0,joint_1,joint_2,joint_3,joint_4,joint_5,joint_6,joint_7,joint_8,joint_9,joint_10,joint_11,joint_12,joint_13,joint_14,joint_15,joint_16,joint_17,joint_18,joint_19,joint_20,joint_21,joint_22,joint_23,joint_24,joint_25,joint_26,joint_27,joint_28
-0.050000,-0.050000,0.000000,0.000000,0.000000,0.000000,0.000000,0.000000,0.000000,0.100000,0.100000,-0.189479,-0.508338,-0.050000,-0.050000,0.416381,-0.738634,0.000000,0.000000,-0.495794,0.225238,1.084276,-0.035035,0.125543,-0.324542,-0.073009,-0.034110,0.025306,-0.571017
-0.050000,-0.050000,0.000000,0.000000,0.000000,0.000000,0.000000,0.000000,0.000000,0.100000,0.100000,-0.202805,-0.522217,-0.050000,-0.050000,0.401166,-0.745119,0.000000,0.000000,-0.496317,0.224326,1.115629,-0.021436,0.128887,-0.319950,-0.088857,-0.037489,0.027414,-0.579119
-0.050000,-0.050000,0.000000,0.000000,0.000000,0.000000,0.000000,0.000000,0.000000,0.100000,0.100000,-0.206126,-0.528411,-0.050000,-0.050000,0.392467,-0.748266,0.000000,0.000000,-0.494769,0.219419,1.134018,-0.014232,0.133210,-0.315797,-0.096232,-0.038840,0.026214,-0.582733
-0.050000,-0.050000,0.000000,0.000000,0.000000,0.000000,0.000000,0.000000,0.000000,0.100000,0.100000,-0.204183,-0.530212,-0.050000,-0.050000,0.386860,-0.749708,0.000000,0.000000,-0.492464,0.212406,1.146574,-0.010002,0.137716,-0.312238,-0.099366,-0.038430,0.023443,-0.584493
-0.050000,-0.050000,0.000000,0.000000,0.000000,0.000000,0.000000,0.000000,0.000000,0.100000,0.100000,-0.199642,-0.529591,-0.050000,-0.050000,0.382720,-0.750272,0.000000,0.000000,-0.490007,0.204234,1.156392,-0.007335,0.142247,-0.309069,-0.100472,-0.036978,0.019943,-0.585433
-0.050000,-0.050000,0.000000,0.000000,0.000000,0.000000,0.000000,0.000000,0.000000,0.100000,0.100000,-0.193227,-0.527256,-0.050000,-0.050000,0.379273,-0.750711,0.000000,0.000000,-0.486978,0.195187,1.165372,-0.004700,0.146488,-0.306348,-0.100248,-0.034447,0.016047,-0.586030
-0.050000,-0.050000,0.000000,0.000000,0.000000,0.000000,0.000000,0.000000,0.000000,0.100000,0.100000,-0.186091,-0.524045,-0.050000,-0.050000,0.376144,-0.751110,0.000000,0.000000,-0.483845,0.185831,1.173731,-0.002231,0.150533,-0.303894,-0.099473,-0.031491,0.012050,-0.586578
-0.050000,-0.050000,0.000000,0.000000,0.000000,0.000000,0.000000,0.000000,0.000000,0.100000,0.100000,-0.178372,-0.520092,-0.050000,-0.050000,0.373221,-0.751747,0.000000,0.000000,-0.480331,0.176266,1.181881,0.000633,0.154174,-0.301785,-0.098263,-0.028079,0.008076,-0.587298
-0.050000,-0.050000,0.000000,0.000000,0.000000,0.000000,0.000000,0.000000,0.000000,0.100000,0.100000,-0.170455,-0.515539,-0.050000,-0.050000,0.370496,-0.752719,0.000000,0.000000,-0.476496,0.166692,1.189657,0.003971,0.157285,-0.300022,-0.096848,-0.024405,0.004299,-0.588504
-0.050000,-0.050000,0.000000,0.000000,0.000000,0.000000,0.000000,0.000000,0.000000,0.100000,0.100000,-0.162435,-0.510690,-0.050000,-0.050000,0.367863,-0.753887,0.000000,0.000000,-0.472517,0.157153,1.197164,0.007638,0.160047,-0.298449,-0.095296,-0.020640,0.000638,-0.590095
-0.050000,-0.050000,0.000000,0.000000,0.000000,0.000000,0.000000,0.000000,0.000000,0.100000,0.100000,-0.154695,-0.505106,-0.050000,-0.050000,0.365590,-0.755547,0.000000,0.000000,-0.468180,0.147733,1.203822,0.012049,0.161955,-0.297202,-0.093790,-0.016723,-0.002499,-0.592767
-0.050000,-0.050000,0.000000,0.000000,0.000000,0.000000,0.000000,0.000000,0.000000,0.100000,0.100000,-0.147154,-0.499284,-0.050000,-0.050000,0.363490,-0.757350,0.000000,0.000000,-0.463879,0.138406,1.209857,0.016825,0.163428,-0.295967,-0.092289,-0.012885,-0.005391,-0.596138
-0.050000,-0.050000,0.000000,0.000000,0.000000,0.000000,0.000000,0.000000,0.000000,0.100000,0.100000,-0.140082,-0.492957,-0.050000,-0.050000,0.361716,-0.759382,0.000000,0.000000,-0.459543,0.129184,1.214906,0.022150,0.164263,-0.294700,-0.090923,-0.009077,-0.007807,-0.600492
-0.050000,-0.050000,0.000000,0.000000,0.000000,0.000000,0.000000,0.000000,0.000000,0.100000,0.100000,-0.133659,-0.486164,-0.050000,-0.050000,0.360284,-0.761484,0.000000,0.000000,-0.455404,0.120090,1.218752,0.028015,0.164518,-0.293098,-0.089749,-0.005365,-0.009704,-0.605785
-0.050000,-0.050000,0.000000,0.000000,0.000000,0.000000,0.000000,0.000000,0.000000,0.100000,0.100000,-0.127596,-0.479119,-0.050000,-0.050000,0.359119,-0.763617,0.000000,0.000000,-0.451440,0.111045,1.221794,0.034277,0.164370,-0.291207,-0.088623,-0.001780,-0.011300,-0.611718
-0.050000,-0.050000,0.000000,0.000000,0.000000,0.000000,0.000000,0.000000,0.000000,0.100000,0.100000,-0.122764,-0.471408,-0.050000,-0.050000,0.358397,-0.765584,0.000000,0.000000,-0.448022,0.102333,1.223010,0.041296,0.163623,-0.288332,-0.087872,0.001679,-0.012119,-0.618390
-0.050000,-0.050000,0.000000,0.000000,0.000000,0.000000,0.000000,0.000000,0.000000,0.100000,0.100000,-0.118404,-0.463530,-0.050000,-0.050000,0.357977,-0.767435,0.000000,0.000000,-0.445020,0.093786,1.223341,0.048798,0.162555,-0.284743,-0.087117,0.004916,-0.012652,-0.625275
-0.050000,-0.050000,0.000000,0.000000,0.000000,0.000000,0.000000,0.000000,0.000000,0.100000,0.100000,-0.115041,-0.455269,-0.050000,-0.050000,0.357891,-0.769016,0.000000,0.000000,-0.442654,0.085693,1.222305,0.056993,0.161141,-0.280019,-0.086543,0.007923,-0.012683,-0.632111
-0.050000,-0.050000,0.000000,0.000000,0.000000,0.000000,0.000000,0.000000,0.000000,0.100000,0.100000,-0.112665,-0.446754,-0.050000,-0.050000,0.358117,-0.770282,0.000000,0.000000,-0.441061,0.078326,1.220068,0.065936,0.159477,-0.273964,-0.086038,0.010577,-0.012333,-0.638241
-0.050000,-0.050000,0.000000,0.000000,0.000000,0.000000,0.000000,0.000000,0.000000,0.100000,0.100000,-0.110856,-0.438197,-0.050000,-0.050000,0.358583,-0.771372,0.000000,0.000000,-0.439961,0.071397,1.217058,0.075481,0.157610,-0.266956,-0.085503,0.012910,-0.011770,-0.643834
-0.050000,-0.050000,0.000000,0.000000,0.000000,0.000000,0.000000,0.000000,0.000000,0.100000,0.100000,-0.110625,-0.429328,-0.050000,-0.050000,0.359325,-0.771957,0.000000,0.000000,-0.440107,0.066260,1.212677,0.086068,0.155628,-0.258043,-0.085058,0.014623,-0.010877,-0.647055
-0.050000,-0.050000,0.000000,0.000000,0.000000,0.000000,0.000000,0.000000,0.000000,0.100000,0.100000,-0.110937,-0.420653,-0.050000,-0.050000,0.360253,-0.772426,0.000000,0.000000,-0.440801,0.062030,1.207775,0.097409,0.153501,-0.248118,-0.084477,0.015825,-0.009949,-0.648747
-0.050000,-0.050000,0.000000,0.000000,0.000000,0.000000,0.000000,0.000000,0.000000,0.100000,0.100000,-0.112427,-0.411969,-0.050000,-0.050000,0.361329,-0.772582,0.000000,0.000000,-0.442479,0.059715,1.202061,0.109693,0.151334,-0.236810,-0.083870,0.016347,-0.008971,-0.647636
-0.050000,-0.050000,0.000000,0.000000,0.000000,0.000000,0.000000,0.000000,0.000000,0.100000,0.100000,-0.114962,-0.403434,-0.050000,-0.050000,0.362500,-0.772534,0.000000,0.000000,-0.445072,0.059617,1.195766,0.122952,0.149116,-0.224392,-0.083193,0.016104,-0.008079,-0.643176
-0.050000,-0.050000,0.000000,0.000000,0.000000,0.000000,0.000000,0.000000,0.000000,0.100000,0.100000,-0.118111,-0.395245,-0.050000,-0.050000,0.363693,-0.772381,0.000000,0.000000,-0.448171,0.061015,1.189125,0.137049,0.146819,-0.211235,-0.082440,0.015314,-0.007273,-0.636340
-0.050000,-0.050000,0.000000,0.000000,0.000000,0.000000,0.000000,0.000000,0.000000,0.100000,0.100000,-0.122831,-0.387055,-0.050000,-0.050000,0.364851,-0.771910,0.000000,0.000000,-0.452577,0.066356,1.181814,0.152293,0.144523,-0.197285,-0.081766,0.013516,-0.006662,-0.624058
-0.050000,-0.050000,0.000000,0.000000,0.000000,0.000000,0.000000,0.000000,0.000000,0.100000,0.100000,-0.127999,-0.379427,-0.050000,-0.050000,0.365878,-0.771349,0.000000,0.000000,-0.457303,0.073543,1.174323,0.168514,0.142071,-0.183127,-0.081090,0.011187,-0.006172,-0.608986
-0.050000,-0.050000,0.000000,0.000000,0.000000,0.000000,0.000000,0.000000,0.000000,0.100000,0.100000,-0.134220,-0.372000,-0.050000,-0.050000,0.366704,-0.770471,0.000000,0.000000,-0.462813,0.084164,1.166400,0.185782,0.139529,-0.168989,-0.080592,0.008155,-0.005803,-0.589498
-0.050000,-0.050000,0.000000,0.000000,0.000000,0.000000,0.000000,0.000000,0.000000,0.100000,0.100000,-0.141169,-0.364914,-0.050000,-0.050000,0.367203,-0.769186,0.000000,0.000000,-0.468809,0.097978,1.158160,0.204216,0.136788,-0.155384,-0.080349,0.004550,-0.005465,-0.566125
-0.050000,-0.050000,0.000000,0.000000,0.000000,0.000000,0.000000,0.000000,0.000000,0.100000,0.100000,-0.148498,-0.358311,-0.050000,-0.050000,0.367407,-0.767511,0.000000,0.000000,-0.474986,0.114045,1.149751,0.223630,0.133885,-0.142243,-0.080306,0.000629,-0.005123,-0.540108
-0.050000,-0.050000,0.000000,0.000000,0.000000,0.000000,0.000000,0.000000,0.000000,0.100000,0.100000,-0.156666,-0.351717,-0.050000,-0.050000,0.367002,-0.764814,0.000000,0.000000,-0.481687,0.134482,1.140877,0.244618,0.130699,-0.130713,-0.080835,-0.003781,-0.004606,-0.509783
-0.050000,-0.050000,0.000000,0.000000,0.000000,0.000000,0.000000,0.000000,0.000000,0.100000,0.100000,-0.164795,-0.345712,-0.050000,-0.050000,0.366170,-0.761327,0.000000,0.000000,-0.488252,0.156819,1.131988,0.266925,0.127311,-0.120199,-0.081657,-0.008307,-0.003946,-0.477845
-0.050000,-0.050000,0.000000,0.000000,0.000000,0.000000,0.000000,0.000000,0.000000,0.100000,0.100000,-0.173151,-0.339839,-0.050000,-0.050000,0.364712,-0.756480,0.000000,0.000000,-0.494863,0.182181,1.122902,0.290960,0.123713,-0.111442,-0.083000,-0.012925,-0.003040,-0.443739
-0.050000,-0.050000,0.000000,0.000000,0.000000,0.000000,0.000000,0.000000,0.000000,0.100000,0.100000,-0.181286,-0.334262,-0.050000,-0.050000,0.362625,-0.750016,0.000000,0.000000,-0.501266,0.209634,1.113900,0.317139,0.119986,-0.104453,-0.084753,-0.017380,-0.001937,-0.408728
-0.050000,-0.050000,0.000000,0.000000,0.000000,0.000000,0.000000,0.000000,0.000000,0.100000,0.100000,-0.189192,-0.328976,-0.050000,-0.050000,0.360105,-0.742119,0.000000,0.000000,-0.507426,0.238601,1.105007,0.344972,0.116213,-0.098847,-0.086831,-0.021748,-0.000674,-0.373296
-0.050000,-0.050000,0.000000,0.000000,0.000000,0.000000,0.000000,0.000000,0.000000,0.100000,0.100000,-0.196442,-0.323748,-0.050000,-0.050000,0.356754,-0.731592,0.000000,0.000000,-0.513229,0.269049,1.096635,0.376442,0.112550,-0.095529,-0.089189,-0.025341,0.000559,-0.338288
-0.050000,-0.050000,0.000000,0.000000,0.000000,0.000000,0.000000,0.000000,0.000000,0.100000,0.100000,-0.203160,-0.318851,-0.050000,-0.050000,0.353091,-0.719266,0.000000,0.000000,-0.518698,0.299982,1.088772,0.410171,0.109084,-0.093466,-0.091654,-0.028619,0.001716,-0.304063
-0.050000,-0.050000,0.000000,0.000000,0.000000,0.000000,0.000000,0.000000,0.000000,0.100000,0.100000,-0.209036,-0.314044,-0.050000,-0.050000,0.348891,-0.704415,0.000000,0.000000,-0.523734,0.330942,1.081815,0.447521,0.105991,-0.093017,-0.094044,-0.030951,0.002504,-0.271261
-0.050000,-0.050000,0.000000,0.000000,0.000000,0.000000,0.000000,0.000000,0.000000,0.100000,0.100000,-0.214001,-0.309458,-0.050000,-0.050000,0.344371,-0.687230,0.000000,0.000000,-0.528343,0.361123,1.076051,0.488421,0.103441,-0.093700,-0.096116,-0.032274,0.002699,-0.240265
-0.050000,-0.050000,0.000000,0.000000,0.000000,0.000000,0.000000,0.000000,0.000000,0.100000,0.100000,-0.218395,-0.304890,-0.050000,-0.050000,0.339665,-0.668076,0.000000,0.000000,-0.532647,0.390588,1.071175,0.531921,0.101329,-0.095385,-0.097969,-0.032980,0.002439,-0.210649
-0.050000,-0.050000,0.000000,0.000000,0.000000,0.000000,0.000000,0.000000,0.000000,0.100000,0.100000,-0.221336,-0.300633,-0.050000,-0.050000,0.334743,-0.646528,0.000000,0.000000,-0.536306,0.417411,1.068477,0.579952,0.100146,-0.097565,-0.098832,-0.031819,0.000906,-0.183765
-0.050000,-0.050000,0.000000,0.000000,0.000000,0.000000,0.000000,0.000000,0.000000,0.100000,0.100000,-0.223861,-0.296392,-0.050000,-0.050000,0.329851,-0.623480,0.000000,0.000000,-0.539705,0.442741,1.066850,0.629861,0.099500,-0.100218,-0.099282,-0.030108,-0.001217,-0.158274
-0.050000,-0.050000,0.000000,0.000000,0.000000,0.000000,0.000000,0.000000,0.000000,0.100000,0.100000,-0.225272,-0.292382,-0.050000,-0.050000,0.325032,-0.599064,0.000000,0.000000,-0.542498,0.465033,1.067189,0.682344,0.099636,-0.102729,-0.098739,-0.027040,-0.004437,-0.134954
-0.050000,-0.050000,0.000000,0.000000,0.000000,0.000000,0.000000,0.000000,0.000000,0.100000,0.100000,-0.225922,-0.288600,-0.050000,-0.050000,0.320443,-0.573985,0.000000,0.000000,-0.544725,0.484422,1.069151,0.735677,0.100389,-0.104761,-0.097379,-0.023188,-0.008439,-0.113472
-0.050000,-0.050000,0.000000,0.000000,0.000000,0.000000,0.000000,0.000000,0.000000,0.100000,0.100000,-0.226112,-0.284767,-0.050000,-0.050000,0.316010,-0.548491,0.000000,0.000000,-0.546561,0.501441,1.072281,0.789297,0.101593,-0.106525,-0.095440,-0.018726,-0.012994,-0.093241
-0.050000,-0.050000,0.000000,0.000000,0.000000,0.000000,0.000000,0.000000,0.000000,0.100000,0.100000,-0.225084,-0.281691,-0.050000,-0.050000,0.312167,-0.523878,0.000000,0.000000,-0.547284,0.514235,1.077386,0.841005,0.103229,-0.106399,-0.092449,-0.013841,-0.018122,-0.075601
-0.050000,-0.050000,0.000000,0.000000,0.000000,0.000000,0.000000,0.000000,0.000000,0.100000,0.100000,-0.223884,-0.278494,-0.050000,-0.050000,0.308545,-0.499955,0.000000,0.000000,-0.547576,0.524948,1.083156,0.890569,0.105017,-0.105493,-0.089168,-0.008813,-0.023321,-0.059060
-0.050000,-0.050000,0.000000,0.000000,0.000000,0.000000,0.000000,0.000000,0.000000,0.100000,0.100000,-0.221843,-0.275934,-0.050000,-0.050000,0.305520,-0.477893,0.000000,0.000000,-0.546815,0.532334,1.090047,0.935789,0.106755,-0.102512,-0.085355,-0.004094,-0.028403,-0.044770
-0.050000,-0.050000,0.000000,0.000000,0.000000,0.000000,0.000000,0.000000,0.000000,0.100000,0.100000,-0.219365,-0.273737,-0.050000,-0.050000,0.302990,-0.458013,0.000000,0.000000,-0.545163,0.537278,1.097404,0.975590,0.108181,-0.097576,-0.081410,0.000021,-0.032983,-0.032491
-0.050000,-0.050000,0.000000,0.000000,0.000000,0.000000,0.000000,0.000000,0.000000,0.100000,0.100000,-0.216572,-0.271634,-0.050000,-0.050000,0.300779,-0.440073,0.000000,0.000000,-0.542858,0.540416,1.105055,1.010823,0.109322,-0.091078,-0.077393,0.003878,-0.037139,-0.021675
-0.050000,-0.050000,0.000000,0.000000,0.000000,0.000000,0.000000,0.000000,0.000000,0.100000,0.100000,-0.213110,-0.270671,-0.050000,-0.050000,0.299400,-0.425749,0.000000,0.000000,-0.539193,0.540942,1.112789,1.036973,0.109487,-0.081463,-0.073578,0.005930,-0.040038,-0.014206
-0.050000,-0.050000,0.000000,0.000000,0.000000,0.000000,0.000000,0.000000,0.000000,0.100000,0.100000,-0.209592,-0.269552,-0.050000,-0.050000,0.298213,-0.413627,0.000000,0.000000,-0.535043,0.540542,1.120345,1.058001,0.109142,-0.070346,-0.069963,0.007775,-0.042313,-0.008076
-0.050000,-0.050000,0.000000,0.000000,0.000000,0.000000,0.000000,0.000000,0.000000,0.100000,0.100000,-0.205716,-0.269361,-0.050000,-0.050000,0.297614,-0.404713,0.000000,0.000000,-0.529949,0.538612,1.127596,1.070982,0.107770,-0.056776,-0.066752,0.008093,-0.043389,-0.004715
-0.050000,-0.050000,0.000000,0.000000,0.000000,0.000000,0.000000,0.000000,0.000000,0.100000,0.100000,-0.201816,-0.269636,-0.050000,-0.050000,0.297350,-0.398458,0.000000,0.000000,-0.524337,0.535909,1.134417,1.077554,0.105575,-0.041472,-0.063955,0.007572,-0.043581,-0.003312
-0.050000,-0.050000,0.000000,0.000000,0.000000,0.000000,0.000000,0.000000,0.000000,0.100000,0.100000,-0.197911,-0.270228,-0.050000,-0.050000,0.297298,-0.394302,0.000000,0.000000,-0.518341,0.532662,1.140905,1.079122,0.102731,-0.024844,-0.061473,0.006504,-0.043117,-0.003374
-0.050000,-0.050000,0.000000,0.000000,0.000000,0.000000,0.000000,0.000000,0.000000,0.100000,0.100000,-0.194177,-0.272175,-0.050000,-0.050000,0.297703,-0.392986,0.000000,0.000000,-0.512069,0.528749,1.146788,1.073774,0.098998,-0.006707,-0.059557,0.004056,-0.041796,-0.005634
-0.050000,-0.050000,0.000000,0.000000,0.000000,0.000000,0.000000,0.000000,0.000000,0.100000,0.100000,-0.190726,-0.274312,-0.050000,-0.050000,0.298150,-0.393148,0.000000,0.000000,-0.505777,0.524696,1.152372,1.065176,0.094931,0.012048,-0.057862,0.001565,-0.040263,-0.008547
-0.050000,-0.050000,0.000000,0.000000,0.000000,0.000000,0.000000,0.000000,0.000000,0.100000,0.100000,-0.187704,-0.277655,-0.050000,-0.050000,0.298834,-0.395193,0.000000,0.000000,-0.499676,0.520346,1.157486,1.052227,0.090503,0.031382,-0.056542,-0.001668,-0.038509,-0.012459
-0.050000,-0.050000,0.000000,0.000000,0.000000,0.000000,0.000000,0.000000,0.000000,0.100000,0.100000,-0.185254,-0.281766,-0.050000,-0.050000,0.299583,-0.398508,0.000000,0.000000,-0.493934,0.515863,1.162218,1.036536,0.086054,0.050908,-0.055442,-0.005077,-0.036933,-0.016533
-0.050000,-0.050000,0.000000,0.000000,0.000000,0.000000,0.000000,0.000000,0.000000,0.100000,0.100000,-0.183296,-0.286532,-0.050000,-0.050000,0.300384,-0.402757,0.000000,0.000000,-0.488497,0.511222,1.166654,1.018793,0.081629,0.070509,-0.054496,-0.008642,-0.035564,-0.020637
-0.050000,-0.050000,0.000000,0.000000,0.000000,0.000000,0.000000,0.000000,0.000000,0.100000,0.100000,-0.182241,-0.292561,-0.050000,-0.050000,0.301247,-0.408084,0.000000,0.000000,-0.483891,0.506369,1.170424,0.998503,0.077638,0.090134,-0.053815,-0.012546,-0.034902,-0.024156
-0.050000,-0.050000,0.000000,0.000000,0.000000,0.000000,0.000000,0.000000,0.000000,0.100000,0.100000,-0.181738,-0.298977,-0.050000,-0.050000,0.302113,-0.413893,0.000000,0.000000,-0.479612,0.501247,1.173818,0.976971,0.073866,0.109849,-0.053221,-0.016467,-0.034697,-0.027175
-0.050000,-0.050000,0.000000,0.000000,0.000000,0.000000,0.000000,0.000000,0.000000,0.100000,0.100000,-0.182065,-0.306231,-0.050000,-0.050000,0.302975,-0.420253,0.000000,0.000000,-0.476086,0.495755,1.176380,0.953543,0.070627,0.129847,-0.052882,-0.020715,-0.035320,-0.029241
-0.050000,-0.050000,0.000000,0.000000,0.000000,0.000000,0.000000,0.000000,0.000000,0.100000,0.100000,-0.183047,-0.313838,-0.050000,-0.050000,0.303828,-0.426878,0.000000,0.000000,-0.473012,0.489732,1.178061,0.928552,0.067740,0.150466,-0.052787,-0.025259,-0.036616,-0.030450
-0.050000,-0.050000,0.000000,0.000000,0.000000,0.000000,0.000000,0.000000,0.000000,0.100000,0.100000,-0.184535,-0.321656,-0.050000,-0.050000,0.304703,-0.433665,0.000000,0.000000,-0.470329,0.483225,1.178960,0.902243,0.065130,0.171625,-0.052886,-0.030088,-0.038466,-0.030952
-0.050000,-0.050000,0.000000,0.000000,0.000000,0.000000,0.000000,0.000000,0.000000,0.100000,0.100000,-0.186729,-0.329618,-0.050000,-0.050000,0.305497,-0.440387,0.000000,0.000000,-0.468064,0.475742,1.178142,0.873622,0.062768,0.194538,-0.053579,-0.035692,-0.041014,-0.030488
-0.050000,-0.050000,0.000000,0.000000,0.000000,0.000000,0.000000,0.000000,0.000000,0.100000,0.100000,-0.189192,-0.337345,-0.050000,-0.050000,0.306381,-0.447031,0.000000,0.000000,-0.465955,0.467608,1.176383,0.843790,0.060396,0.218443,-0.054496,-0.041641,-0.043858,-0.029613
-0.050000,-0.050000,0.000000,0.000000,0.000000,0.000000,0.000000,0.000000,0.000000,0.100000,0.100000,-0.192076,-0.344782,-0.050000,-0.050000,0.307195,-0.453261,0.000000,0.000000,-0.463959,0.458361,1.172815,0.811926,0.057877,0.244530,-0.056060,-0.048434,-0.046990,-0.028260
-0.050000,-0.050000,0.000000,0.000000,0.000000,0.000000,0.000000,0.000000,0.000000,0.100000,0.100000,-0.195135,-0.351695,-0.050000,-0.050000,0.308052,-0.459021,0.000000,0.000000,-0.461946,0.448138,1.167796,0.778684,0.055014,0.272565,-0.058087,-0.055829,-0.050129,-0.026811
-0.050000,-0.050000,0.000000,0.000000,0.000000,0.000000,0.000000,0.000000,0.000000,0.100000,0.100000,-0.198293,-0.358104,-0.050000,-0.050000,0.308944,-0.464253,0.000000,0.000000,-0.459930,0.437092,1.161531,0.744317,0.051823,0.302204,-0.060501,-0.063803,-0.053225,-0.025310
-0.050000,-0.050000,0.000000,0.000000,0.000000,0.000000,0.000000,0.000000,0.000000,0.100000,0.100000,-0.201574,-0.363752,-0.050000,-0.050000,0.309744,-0.468464,0.000000,0.000000,-0.457680,0.424705,1.153430,0.708874,0.047896,0.334907,-0.063609,-0.072529,-0.055879,-0.024248
-0.050000,-0.050000,0.000000,0.000000,0.000000,0.000000,0.000000,0.000000,0.000000,0.100000,0.100000,-0.204785,-0.368854,-0.050000,-0.050000,0.310639,-0.472035,0.000000,0.000000,-0.455462,0.411723,1.144517,0.673092,0.043595,0.368907,-0.066903,-0.081652,-0.058257,-0.023437
-0.050000,-0.050000,0.000000,0.000000,0.000000,0.000000,0.000000,0.000000,0.000000,0.100000,0.100000,-0.208000,-0.373247,-0.050000,-0.050000,0.311423,-0.474468,0.000000,0.000000,-0.453081,0.397684,1.134434,0.637321,0.038639,0.405453,-0.070616,-0.091263,-0.059979,-0.023401
-0.050000,-0.050000,0.000000,0.000000,0.000000,0.000000,0.000000,0.000000,0.000000,0.100000,0.100000,-0.211133,-0.377113,-0.050000,-0.050000,0.312195,-0.476014,0.000000,0.000000,-0.450782,0.383030,1.123893,0.602172,0.033339,0.443567,-0.074406,-0.101139,-0.061129,-0.024109
-0.050000,-0.050000,0.000000,0.000000,0.000000,0.000000,0.000000,0.000000,0.000000,0.100000,0.100000,-0.214221,-0.380576,-0.050000,-0.050000,0.312901,-0.476683,0.000000,0.000000,-0.448551,0.367895,1.113060,0.567702,0.027785,0.482906,-0.078258,-0.111365,-0.061762,-0.025421
-0.050000,-0.050000,0.000000,0.000000,0.000000,0.000000,0.000000,0.000000,0.000000,0.100000,0.100000,-0.217248,-0.383540,-0.050000,-0.050000,0.313471,-0.476395,0.000000,0.000000,-0.446623,0.352090,1.102529,0.535286,0.022212,0.523891,-0.081875,-0.121554,-0.061593,-0.028216
-0.050000,-0.050000,0.000000,0.000000,0.000000,0.000000,0.000000,0.000000,0.000000,0.100000,0.100000,-0.220267,-0.386397,-0.050000,-0.050000,0.313954,-0.475495,0.000000,0.000000,-0.444991,0.336147,1.092397,0.504074,0.016789,0.565226,-0.085307,-0.132071,-0.061019,-0.031554
-0.050000,-0.050000,0.000000,0.000000,0.000000,0.000000,0.000000,0.000000,0.000000,0.100000,0.100000,-0.223243,-0.388989,-0.050000,-0.050000,0.314306,-0.474036,0.000000,0.000000,-0.443916,0.319821,1.083358,0.475481,0.011871,0.607096,-0.088191,-0.142505,-0.059861,-0.036362
-0.050000,-0.050000,0.000000,0.000000,0.000000,0.000000,0.000000,0.000000,0.000000,0.100000,0.100000,-0.226214,-0.391585,-0.050000,-0.050000,0.314543,-0.472321,0.000000,0.000000,-0.443429,0.303410,1.075550,0.449092,0.007631,0.648549,-0.090539,-0.153061,-0.058380,-0.042124
-0.050000,-0.050000,0.000000,0.000000,0.000000,0.000000,0.000000,0.000000,0.000000,0.100000,0.100000,-0.229203,-0.394210,-0.050000,-0.050000,0.314645,-0.470396,0.000000,0.000000,-0.443459,0.286936,1.068929,0.424727,0.004050,0.689457,-0.092404,-0.163821,-0.056641,-0.048667
-0.050000,-0.050000,0.000000,0.000000,0.000000,0.000000,0.000000,0.000000,0.000000,0.100000,0.100000,-0.232017,-0.396808,-0.050000,-0.050000,0.314755,-0.468909,0.000000,0.000000,-0.444421,0.270411,1.064507,0.403783,0.001809,0.728476,-0.093248,-0.174306,-0.054816,-0.056732
-0.050000,-0.050000,0.000000,0.000000,0.000000,0.000000,0.000000,0.000000,0.000000,0.100000,0.100000,-0.234845,-0.399602,-0.050000,-0.050000,0.314697,-0.467493,0.000000,0.000000,-0.445825,0.253992,1.061297,0.384586,0.000300,0.766007,-0.093690,-0.185066,-0.052957,-0.065198
-0.050000,-0.050000,0.000000,0.000000,0.000000,0.000000,0.000000,0.000000,0.000000,0.100000,0.100000,-0.237344,-0.402379,-0.050000,-0.050000,0.314742,-0.466960,0.000000,0.000000,-0.448019,0.237703,1.060247,0.368569,0.000157,0.800417,-0.093171,-0.195479,-0.051296,-0.074841
-0.050000,-0.050000,0.000000,0.000000,0.000000,0.000000,0.000000,0.000000,0.000000,0.100000,0.100000,-0.239568,-0.405237,-0.050000,-0.050000,0.314748,-0.467079,0.000000,0.000000,-0.450635,0.221675,1.060700,0.354774,0.000966,0.831734,-0.092110,-0.205744,-0.049867,-0.084999
-0.050000,-0.050000,0.000000,0.000000,0.000000,0.000000,0.000000,0.000000,0.000000,0.100000,0.100000,-0.241464,-0.408105,-0.050000,-0.050000,0.314763,-0.467858,0.000000,0.000000,-0.453595,0.205894,1.062483,0.342973,0.002623,0.860084,-0.090562,-0.215814,-0.048689,-0.095623
-0.050000,-0.050000,0.000000,0.000000,0.000000,0.000000,0.000000,0.000000,0.000000,0.100000,0.100000,-0.242554,-0.410658,-0.050000,-0.050000,0.314999,-0.470076,0.000000,0.000000,-0.456781,0.190689,1.065966,0.333967,0.005341,0.883179,-0.088359,-0.224999,-0.048046,-0.106866
-0.050000,-0.050000,0.000000,0.000000,0.000000,0.000000,0.000000,0.000000,0.000000,0.100000,0.100000,-0.243188,-0.413097,-0.050000,-0.050000,0.315149,-0.472732,0.000000,0.000000,-0.459951,0.175839,1.070183,0.326263,0.008543,0.903286,-0.085990,-0.233863,-0.047677,-0.118261
-0.050000,-0.050000,0.000000,0.000000,0.000000,0.000000,0.000000,0.000000,0.000000,0.100000,0.100000,-0.242802,-0.414874,-0.050000,-0.050000,0.315529,-0.476742,0.000000,0.000000,-0.462903,0.161752,1.075508,0.320691,0.012395,0.918044,-0.083269,-0.241578,-0.047848,-0.129933
-0.050000,-0.050000,0.000000,0.000000,0.000000,0.000000,0.000000,0.000000,0.000000,0.100000,0.100000,-0.241567,-0.416037,-0.050000,-0.050000,0.315895,-0.481351,0.000000,0.000000,-0.465462,0.148292,1.081294,0.316251,0.016533,0.928920,-0.080510,-0.248455,-0.048388,-0.141613
-0.050000,-0.050000,0.000000,0.000000,0.000000,0.000000,0.000000,0.000000,0.000000,0.100000,0.100000,-0.239469,-0.416483,-0.050000,-0.050000,0.316313,-0.486556,0.000000,0.000000,-0.467595,0.135442,1.087437,0.312733,0.020894,0.936234,-0.077722,-0.254457,-0.049266,-0.153313
-0.050000,-0.050000,0.000000,0.000000,0.000000,0.000000,0.000000,0.000000,0.000000,0.100000,0.100000,-0.236148,-0.415540,-0.050000,-0.050000,0.316796,-0.492481,0.000000,0.000000,-0.468860,0.123561,1.093791,0.310079,0.025300,0.938902,-0.075020,-0.259091,-0.050568,-0.164667
-0.050000,-0.050000,0.000000,0.000000,0.000000,0.000000,0.000000,0.000000,0.000000,0.100000,0.100000,-0.232017,-0.413734,-0.050000,-0.050000,0.317212,-0.498439,0.000000,0.000000,-0.469616,0.112158,1.100082,0.307524,0.029734,0.939222,-0.072433,-0.263022,-0.052089,-0.175898
-0.050000,-0.050000,0.000000,0.000000,0.000000,0.000000,0.000000,0.000000,0.000000,0.100000,0.100000,-0.226790,-0.410290,-0.050000,-0.050000,0.317618,-0.504606,0.000000,0.000000,-0.469409,0.101622,1.106253,0.305041,0.034028,0.936195,-0.070029,-0.265786,-0.053899,-0.186509
-0.050000,-0.050000,0.000000,0.000000,0.000000,0.000000,0.000000,0.000000,0.000000,0.100000,0.100000,-0.220746,-0.405582,-0.050000,-0.050000,0.317929,-0.510480,0.000000,0.000000,-0.468547,0.091578,1.112178,0.302122,0.038225,0.931435,-0.067793,-0.267885,-0.055879,-0.196637
-0.050000,-0.050000,0.000000,0.000000,0.000000,0.000000,0.000000,0.000000,0.000000,0.100000,0.100000,-0.213984,-0.399616,-0.050000,-0.050000,0.318183,-0.516060,0.000000,0.000000,-0.467073,0.081980,1.117864,0.298713,0.042313,0.925278,-0.065701,-0.269393,-0.057994,-0.206244
-0.050000,-0.050000,0.000000,0.000000,0.000000,0.000000,0.000000,0.000000,0.000000,0.100000,0.100000,-0.206571,-0.392124,-0.050000,-0.050000,0.318309,-0.520917,0.000000,0.000000,-0.464898,0.072857,1.123241,0.294436,0.046234,0.918336,-0.063784,-0.270453,-0.060226,-0.214870
-0.050000,-0.050000,0.000000,0.000000,0.000000,0.000000,0.000000,0.000000,0.000000,0.100000,0.100000,-0.198707,-0.383708,-0.050000,-0.050000,0.318403,-0.525227,0.000000,0.000000,-0.462412,0.063896,1.128425,0.289489,0.050127,0.911233,-0.061946,-0.271337,-0.062524,-0.223006
-0.050000,-0.050000,0.000000,0.000000,0.000000,0.000000,0.000000,0.000000,0.000000,0.100000,0.100000,-0.190534,-0.374213,-0.050000,-0.050000,0.318393,-0.528524,0.000000,0.000000,-0.459566,0.055171,1.133406,0.283632,0.053962,0.904645,-0.060209,-0.272226,-0.064888,-0.230154
-0.050000,-0.050000,0.000000,0.000000,0.000000,0.000000,0.000000,0.000000,0.000000,0.100000,0.100000,-0.182188,-0.364141,-0.050000,-0.050000,0.318381,-0.531007,0.000000,0.000000,-0.456654,0.046498,1.138326,0.277166,0.057872,0.898904,-0.058506,-0.273294,-0.067310,-0.236671
-0.050000,-0.050000,0.000000,0.000000,0.000000,0.000000,0.000000,0.000000,0.000000,0.100000,0.100000,-0.173779,-0.353674,-0.050000,-0.050000,0.318365,-0.532693,0.000000,0.000000,-0.453734,0.037870,1.143231,0.270241,0.061870,0.894147,-0.056832,-0.274606,-0.069789,-0.242568
-0.050000,-0.050000,0.000000,0.000000,0.000000,0.000000,0.000000,0.000000,0.000000,0.100000,0.100000,-0.165492,-0.343279,-0.050000,-0.050000,0.318362,-0.533280,0.000000,0.000000,-0.451113,0.029296,1.148282,0.263054,0.066170,0.891153,-0.055147,-0.276426,-0.072396,-0.247818
-0.050000,-0.050000,0.000000,0.000000,0.000000,0.000000,0.000000,0.000000,0.000000,0.100000,0.100000,-0.157310,-0.333046,-0.050000,-0.050000,0.318435,-0.533324,0.000000,0.000000,-0.448675,0.020771,1.153485,0.255950,0.070696,0.889189,-0.053472,-0.278576,-0.075089,-0.252683
-0.050000,-0.050000,0.000000,0.000000,0.000000,0.000000,0.000000,0.000000,0.000000,0.100000,0.100000,-0.149406,-0.323590,-0.050000,-0.050000,0.318562,-0.532458,0.000000,0.000000,-0.446832,0.012424,1.159004,0.249228,0.075772,0.888942,-0.051766,-0.281260,-0.077996,-0.257206
-0.050000,-0.050000,0.000000,0.000000,0.000000,0.000000,0.000000,0.000000,0.000000,0.100000,0.100000,-0.141776,-0.314987,-0.050000,-0.050000,0.318792,-0.531156,0.000000,0.000000,-0.445443,0.004342,1.164815,0.243210,0.081354,0.889667,-0.050065,-0.284277,-0.081080,-0.261565
-0.050000,-0.050000,0.000000,0.000000,0.000000,0.000000,0.000000,0.000000,0.000000,0.100000,0.100000,-0.134439,-0.307402,-0.050000,-0.050000,0.319090,-0.529454,0.000000,0.000000,-0.444541,-0.003411,1.170918,0.238012,0.087483,0.891232,-0.048371,-0.287593,-0.084351,-0.265840
-0.050000,-0.050000,0.000000,0.000000,0.000000,0.000000,0.000000,0.000000,0.000000,0.100000,0.100000,-0.127532,-0.301457,-0.050000,-0.050000,0.319495,-0.527492,0.000000,0.000000,-0.444510,-0.010419,1.177331,0.234177,0.094545,0.893184,-0.046681,-0.291006,-0.087882,-0.270298
-0.050000,-0.050000,0.000000,0.000000,0.000000,0.000000,0.000000,0.000000,0.000000,0.100000,0.100000,-0.120950,-0.296713,-0.050000,-0.050000,0.319958,-0.525488,0.000000,0.000000,-0.444816,-0.016871,1.183919,0.231431,0.102135,0.895110,-0.045038,-0.294459,-0.091522,-0.274861
-0.050000,-0.050000,0.000000,0.000000,0.000000,0.000000,0.000000,0.000000,0.000000,0.100000,0.100000,-0.114899,-0.293901,-0.050000,-0.050000,0.320532,-0.523625,0.000000,0.000000,-0.446049,-0.022110,1.190571,0.230306,0.110743,0.896187,-0.043443,-0.297561,-0.095303,-0.279858
-0.050000,-0.050000,0.000000,0.000000,0.000000,0.000000,0.000000,0.000000,0.000000,0.100000,0.100000,-0.109312,-0.292675,-0.050000,-0.050000,0.321179,-0.522047,0.000000,0.000000,-0.447724,-0.026256,1.197105,0.230506,0.119963,0.895951,-0.041929,-0.300222,-0.099040,-0.285253
-0.050000,-0.050000,0.000000,0.000000,0.000000,0.000000,0.000000,0.000000,0.000000,0.100000,0.100000,-0.104193,-0.293038,-0.050000,-0.050000,0.321892,-0.520810,0.000000,0.000000,-0.449876,-0.029198,1.203419,0.231940,0.129777,0.894089,-0.040490,-0.302296,-0.102691,-0.291132
-0.050000,-0.050000,0.000000,0.000000,0.000000,0.000000,0.000000,0.000000,0.000000,0.100000,0.100000,-0.099865,-0.295329,-0.050000,-0.050000,0.322799,-0.520357,0.000000,0.000000,-0.452712,-0.030163,1.209017,0.234725,0.140125,0.888864,-0.039221,-0.303107,-0.105957,-0.297667
-0.050000,-0.050000,0.000000,0.000000,0.000000,0.000000,0.000000,0.000000,0.000000,0.100000,0.100000,-0.095957,-0.299010,-0.050000,-0.050000,0.323739,-0.520284,0.000000,0.000000,-0.455681,-0.029909,1.214106,0.238317,0.150609,0.881268,-0.038012,-0.303057,-0.108933,-0.304822
-0.050000,-0.050000,0.000000,0.000000,0.000000,0.000000,0.000000,0.000000,0.000000,0.100000,0.100000,-0.093050,-0.304482,-0.050000,-0.050000,0.324988,-0.521288,0.000000,0.000000,-0.459181,-0.027218,1.217937,0.242796,0.161056,0.868809,-0.037049,-0.301135,-0.111171,-0.312643
-0.050000,-0.050000,0.000000,0.000000,0.000000,0.000000,0.000000,0.000000,0.000000,0.100000,0.100000,-0.090786,-0.311369,-0.050000,-0.050000,0.326389,-0.522925,0.000000,0.000000,-0.462737,-0.022774,1.220714,0.247688,0.171061,0.852338,-0.036204,-0.297650,-0.112806,-0.321142
-0.050000,-0.050000,0.000000,0.000000,0.000000,0.000000,0.000000,0.000000,0.000000,0.100000,0.100000,-0.089257,-0.319565,-0.050000,-0.050000,0.328022,-0.525274,0.000000,0.000000,-0.466391,-0.016416,1.222310,0.252800,0.180494,0.831556,-0.035503,-0.292408,-0.113777,-0.330209
-0.050000,-0.050000,0.000000,0.000000,0.000000,0.000000,0.000000,0.000000,0.000000,0.100000,0.100000,-0.088861,-0.329166,-0.050000,-0.050000,0.330120,-0.528753,0.000000,0.000000,-0.470118,-0.007367,1.222175,0.257928,0.188660,0.804647,-0.035100,-0.284635,-0.113768,-0.339530
-0.050000,-0.050000,0.000000,0.000000,0.000000,0.000000,0.000000,0.000000,0.000000,0.100000,0.100000,-0.088971,-0.339863,-0.050000,-0.050000,0.332372,-0.532570,0.000000,0.000000,-0.473709,0.003212,1.221001,0.262870,0.195883,0.773955,-0.034733,-0.275137,-0.113274,-0.349216
-0.050000,-0.050000,0.000000,0.000000,0.000000,0.000000,0.000000,0.000000,0.000000,0.100000,0.100000,-0.090341,-0.351781,-0.050000,-0.050000,0.335246,-0.537521,0.000000,0.000000,-0.477251,0.016726,1.218051,0.267527,0.201302,0.736908,-0.034698,-0.262821,-0.111846,-0.358432
-0.050000,-0.050000,0.000000,0.000000,0.000000,0.000000,0.000000,0.000000,0.000000,0.100000,0.100000,-0.092368,-0.364768,-0.050000,-0.050000,0.338410,-0.542825,0.000000,0.000000,-0.480610,0.032091,1.214037,0.271880,0.205333,0.695798,-0.034733,-0.248482,-0.110000,-0.367205
-0.050000,-0.050000,0.000000,0.000000,0.000000,0.000000,0.000000,0.000000,0.000000,0.100000,0.100000,-0.095200,-0.378730,-0.050000,-0.050000,0.341984,-0.548592,0.000000,0.000000,-0.483818,0.049502,1.208979,0.275961,0.207945,0.650702,-0.034900,-0.232150,-0.107726,-0.375001
-0.050000,-0.050000,0.000000,0.000000,0.000000,0.000000,0.000000,0.000000,0.000000,0.100000,0.100000,-0.099079,-0.393720,-0.050000,-0.050000,0.346148,-0.554916,0.000000,0.000000,-0.486898,0.069500,1.202990,0.279980,0.208901,0.601421,-0.035224,-0.213684,-0.105096,-0.380866
-0.050000,-0.050000,0.000000,0.000000,0.000000,0.000000,0.000000,0.000000,0.000000,0.100000,0.100000,-0.103484,-0.409635,-0.050000,-0.050000,0.350532,-0.561226,0.000000,0.000000,-0.489823,0.090905,1.196580,0.284043,0.208909,0.550099,-0.035545,-0.194122,-0.102400,-0.385161
-0.050000,-0.050000,0.000000,0.000000,0.000000,0.000000,0.000000,0.000000,0.000000,0.100000,0.100000,-0.108985,-0.426470,-0.050000,-0.050000,0.355547,-0.567827,0.000000,0.000000,-0.492689,0.114863,1.189876,0.288547,0.207716,0.496213,-0.035934,-0.173288,-0.099608,-0.386447
-0.050000,-0.050000,0.000000,0.000000,0.000000,0.000000,0.000000,0.000000,0.000000,0.100000,0.100000,-0.115121,-0.444172,-0.050000,-0.050000,0.360803,-0.574202,0.000000,0.000000,-0.495449,0.140188,1.183305,0.293668,0.205976,0.441702,-0.036262,-0.152260,-0.096926,-0.385267
-0.050000,-0.050000,0.000000,0.000000,0.000000,0.000000,0.000000,0.000000,0.000000,0.100000,0.100000,-0.122011,-0.462621,-0.050000,-0.050000,0.366384,-0.580355,0.000000,0.000000,-0.498158,0.167004,1.177023,0.299590,0.203840,0.386910,-0.036548,-0.131435,-0.094344,-0.381318
-0.050000,-0.050000,0.000000,0.000000,0.000000,0.000000,0.000000,0.000000,0.000000,0.100000,0.100000,-0.129822,-0.481573,-0.050000,-0.050000,0.372328,-0.585970,0.000000,0.000000,-0.500820,0.195194,1.171477,0.306746,0.201643,0.333274,-0.036693,-0.111473,-0.091949,-0.374313
-0.050000,-0.050000,0.000000,0.000000,0.000000,0.000000,0.000000,0.000000,0.000000,0.100000,0.100000,-0.138223,-0.501035,-0.050000,-0.050000,0.378374,-0.591063,0.000000,0.000000,-0.503417,0.224005,1.166480,0.314892,0.199490,0.280784,-0.036795,-0.092805,-0.089682,-0.365166
-0.050000,-0.050000,0.000000,0.000000,0.000000,0.000000,0.000000,0.000000,0.000000,0.100000,0.100000,-0.147605,-0.520343,-0.050000,-0.050000,0.384692,-0.595149,0.000000,0.000000,-0.505905,0.253344,1.162518,0.324509,0.197676,0.231521,-0.036713,-0.076028,-0.087595,-0.353644
-0.050000,-0.050000,0.000000,0.000000,0.000000,0.000000,0.000000,0.000000,0.000000,0.100000,0.100000,-0.157651,-0.539454,-0.050000,-0.050000,0.391042,-0.598391,0.000000,0.000000,-0.508273,0.282445,1.159221,0.335182,0.196109,0.185153,-0.036602,-0.061287,-0.085599,-0.340830
-0.050000,-0.050000,0.000000,0.000000,0.000000,0.000000,0.000000,0.000000,0.000000,0.100000,0.100000,-0.168402,-0.557945,-0.050000,-0.050000,0.397445,-0.600648,0.000000,0.000000,-0.510523,0.311055,1.156577,0.346845,0.194816,0.142240,-0.036439,-0.048632,-0.083669,-0.327094
-0.050000,-0.050000,0.000000,0.000000,0.000000,0.000000,0.000000,0.000000,0.000000,0.100000,0.100000,-0.179954,-0.574894,-0.050000,-0.050000,0.403775,-0.601604,0.000000,0.000000,-0.512427,0.338040,1.154346,0.359391,0.193672,0.104646,-0.036293,-0.038404,-0.081728,-0.313393
-0.050000,-0.050000,0.000000,0.000000,0.000000,0.000000,0.000000,0.000000,0.000000,0.100000,0.100000,-0.191988,-0.590710,-0.050000,-0.050000,0.410086,-0.601876,0.000000,0.000000,-0.514329,0.363852,1.152249,0.372288,0.192553,0.070321,-0.036220,-0.029982,-0.079757,-0.299845
-0.050000,-0.050000,0.000000,0.000000,0.000000,0.000000,0.000000,0.000000,0.000000,0.100000,0.100000,-0.204753,-0.603784,-0.050000,-0.050000,0.416094,-0.600826,0.000000,0.000000,-0.515693,0.386622,1.149746,0.385497,0.191116,0.042560,-0.036355,-0.023843,-0.077599,-0.287742
-0.050000,-0.050000,0.000000,0.000000,0.000000,0.000000,0.000000,0.000000,0.000000,0.100000,0.100000,-0.217889,-0.614705,-0.050000,-0.050000,0.421950,-0.599284,0.000000,0.000000,-0.517044,0.407176,1.146572,0.398424,0.189268,0.018898,-0.036724,-0.019298,-0.075255,-0.276820
-0.050000,-0.050000,0.000000,0.000000,0.000000,0.000000,0.000000,0.000000,0.000000,0.100000,0.100000,-0.231387,-0.623027,-0.050000,-0.050000,0.427501,-0.597159,0.000000,0.000000,-0.518228,0.424989,1.142390,0.410957,0.186815,-0.000128,-0.037383,-0.016217,-0.072653,-0.267457
-0.050000,-0.050000,0.000000,0.000000,0.000000,0.000000,0.000000,0.000000,0.000000,0.100000,0.100000,-0.245186,-0.628035,-0.050000,-0.050000,0.432447,-0.594552,0.000000,0.000000,-0.519145,0.439263,1.136264,0.422696,0.183306,-0.013745,-0.038609,-0.014692,-0.069583,-0.260241
-0.050000,-0.050000,0.000000,0.000000,0.000000,0.000000,0.000000,0.000000,0.000000,0.100000,0.100000,-0.259015,-0.630773,-0.050000,-0.050000,0.437164,-0.591996,0.000000,0.000000,-0.520323,0.451457,1.128786,0.433583,0.179131,-0.024375,-0.040106,-0.014055,-0.066237,-0.254212
-0.050000,-0.050000,0.000000,0.000000,0.000000,0.000000,0.000000,0.000000,0.000000,0.100000,0.100000,-0.272921,-0.630002,-0.050000,-0.050000,0.440851,-0.589205,0.000000,0.000000,-0.521309,0.459971,1.118288,0.443321,0.173567,-0.029935,-0.042484,-0.014785,-0.062225,-0.250349
-0.050000,-0.050000,0.000000,0.000000,0.000000,0.000000,0.000000,0.000000,0.000000,0.100000,0.100000,-0.286584,-0.626997,-0.050000,-0.050000,0.444041,-0.586709,0.000000,0.000000,-0.522747,0.466602,1.105678,0.451965,0.167243,-0.033004,-0.045309,-0.016256,-0.057831,-0.247441
-0.050000,-0.050000,0.000000,0.000000,0.000000,0.000000,0.000000,0.000000,0.000000,0.100000,0.100000,-0.299994,-0.621728,-0.050000,-0.050000,0.446399,-0.584333,0.000000,0.000000,-0.524434,0.471145,1.090525,0.459600,0.160070,-0.033385,-0.048785,-0.018492,-0.052982,-0.245538
-0.050000,-0.050000,0.000000,0.000000,0.000000,0.000000,0.000000,0.000000,0.000000,0.100000,0.100000,-0.312899,-0.614398,-0.050000,-0.050000,0.447598,-0.582073,0.000000,0.000000,-0.526599,0.473926,1.072195,0.466203,0.152230,-0.031323,-0.053147,-0.021488,-0.047680,-0.244284
-0.050000,-0.050000,0.000000,0.000000,0.000000,0.000000,0.000000,0.000000,0.000000,0.100000,0.100000,-0.325285,-0.605797,-0.050000,-0.050000,0.448197,-0.580036,0.000000,0.000000,-0.529181,0.475780,1.051934,0.472107,0.144148,-0.028018,-0.057900,-0.024854,-0.042176,-0.243208
-0.050000,-0.050000,0.000000,0.000000,0.000000,0.000000,0.000000,0.000000,0.000000,0.100000,0.100000,-0.336793,-0.595914,-0.050000,-0.050000,0.447306,-0.577849,0.000000,0.000000,-0.532397,0.476655,1.028261,0.477324,0.136076,-0.022959,-0.063688,-0.028738,-0.036479,-0.242035
-0.050000,-0.050000,0.000000,0.000000,0.000000,0.000000,0.000000,0.000000,0.000000,0.100000,0.100000,-0.347426,-0.585440,-0.050000,-0.050000,0.445714,-0.575665,0.000000,0.000000,-0.536030,0.477247,1.002737,0.482220,0.128413,-0.017181,-0.069850,-0.032756,-0.030855,-0.240455
-0.050000,-0.050000,0.000000,0.000000,0.000000,0.000000,0.000000,0.000000,0.000000,0.100000,0.100000,-0.357096,-0.574594,-0.050000,-0.050000,0.443161,-0.573227,0.000000,0.000000,-0.540033,0.477688,0.975146,0.486941,0.121385,-0.010656,-0.076561,-0.036864,-0.025426,-0.238305
-0.050000,-0.050000,0.000000,0.000000,0.000000,0.000000,0.000000,0.000000,0.000000,0.100000,0.100000,-0.365386,-0.563773,-0.050000,-0.050000,0.439621,-0.570305,0.000000,0.000000,-0.544418,0.478300,0.945708,0.491753,0.115566,-0.003533,-0.083731,-0.040853,-0.020496,-0.235181
-0.050000,-0.050000,0.000000,0.000000,0.000000,0.000000,0.000000,0.000000,0.000000,0.100000,0.100000,-0.372716,-0.553020,-0.050000,-0.050000,0.435606,-0.567084,0.000000,0.000000,-0.548721,0.479075,0.915279,0.496731,0.110624,0.003915,-0.091061,-0.044710,-0.015968,-0.231399
-0.050000,-0.050000,0.000000,0.000000,0.000000,0.000000,0.000000,0.000000,0.000000,0.100000,0.100000,-0.378205,-0.542746,-0.050000,-0.050000,0.430755,-0.563082,0.000000,0.000000,-0.553109,0.480302,0.883877,0.502149,0.107434,0.011797,-0.098566,-0.048167,-0.012363,-0.226276
-0.050000,-0.050000,0.000000,0.000000,0.000000,0.000000,0.000000,0.000000,0.000000,0.100000,0.100000,-0.382453,-0.532803,-0.050000,-0.050000,0.425676,-0.558666,0.000000,0.000000,-0.557021,0.481819,0.852402,0.507974,0.105356,0.019881,-0.105944,-0.051320,-0.009390,-0.220328
-0.050000,-0.050000,0.000000,0.000000,0.000000,0.000000,0.000000,0.000000,0.000000,0.100000,0.100000,-0.385231,-0.523310,-0.050000,-0.050000,0.420323,-0.553724,0.000000,0.000000,-0.560454,0.483695,0.821177,0.514246,0.104531,0.028160,-0.113123,-0.054080,-0.007223,-0.213402
-0.050000,-0.050000,0.000000,0.000000,0.000000,0.000000,0.000000,0.000000,0.000000,0.100000,0.100000,-0.386207,-0.514319,-0.050000,-0.050000,0.414966,-0.548403,0.000000,0.000000,-0.563070,0.485856,0.791320,0.521021,0.104904,0.036551,-0.119729,-0.056375,-0.005951,-0.205411
-0.050000,-0.050000,0.000000,0.000000,0.000000,0.000000,0.000000,0.000000,0.000000,0.100000,0.100000,-0.386136,-0.505649,-0.050000,-0.050000,0.409625,-0.542877,0.000000,0.000000,-0.564935,0.488258,0.762512,0.528110,0.105969,0.044984,-0.126004,-0.058360,-0.005240,-0.196784
-0.050000,-0.050000,0.000000,0.000000,0.000000,0.000000,0.000000,0.000000,0.000000,0.100000,0.100000,-0.383942,-0.497508,-0.050000,-0.050000,0.404714,-0.537482,0.000000,0.000000,-0.565609,0.490754,0.737017,0.535579,0.107798,0.053325,-0.131106,-0.059859,-0.005407,-0.187162
-0.050000,-0.050000,0.000000,0.000000,0.000000,0.000000,0.000000,0.000000,0.000000,0.100000,0.100000,-0.380716,-0.489677,-0.050000,-0.050000,0.400050,-0.532367,0.000000,0.000000,-0.565370,0.493363,0.713988,0.543164,0.109877,0.061530,-0.135575,-0.061076,-0.005995,-0.177066
-0.050000,-0.050000,0.000000,0.000000,0.000000,0.000000,0.000000,0.000000,0.000000,0.100000,0.100000,-0.376139,-0.482233,-0.050000,-0.050000,0.395848,-0.527837,0.000000,0.000000,-0.564151,0.495955,0.694446,0.550792,0.112065,0.069502,-0.139042,-0.061982,-0.007038,-0.166500
-0.050000,-0.050000,0.000000,0.000000,0.000000,0.000000,0.000000,0.000000,0.000000,0.100000,0.100000,-0.370114,-0.475304,-0.050000,-0.050000,0.392384,-0.524487,0.000000,0.000000,-0.561873,0.498383,0.679728,0.558225,0.114034,0.077038,-0.141144,-0.062627,-0.008449,-0.155674
-0.050000,-0.050000,0.000000,0.000000,0.000000,0.000000,0.000000,0.000000,0.000000,0.100000,0.100000,-0.363472,-0.468700,-0.050000,-0.050000,0.389149,-0.521926,0.000000,0.000000,-0.559001,0.500786,0.668202,0.565409,0.115826,0.084278,-0.142639,-0.063061,-0.010010,-0.144741
-0.050000,-0.050000,0.000000,0.000000,0.000000,0.000000,0.000000,0.000000,0.000000,0.100000,0.100000,-0.355201,-0.462993,-0.050000,-0.050000,0.387100,-0.521551,0.000000,0.000000,-0.555152,0.502762,0.663348,0.571933,0.117010,0.090709,-0.142245,-0.063349,-0.011835,-0.134036
-0.050000,-0.050000,0.000000,0.000000,0.000000,0.000000,0.000000,0.000000,0.000000,0.100000,0.100000,-0.346541,-0.457857,-0.050000,-0.050000,0.385299,-0.522499,0.000000,0.000000,-0.550925,0.504619,0.662429,0.577799,0.117845,0.096601,-0.141251,-0.063507,-0.013697,-0.123614
-0.050000,-0.050000,0.000000,0.000000,0.000000,0.000000,0.000000,0.000000,0.000000,0.100000,0.100000,-0.337059,-0.453611,-0.050000,-0.050000,0.384188,-0.525359,0.000000,0.000000,-0.546247,0.506143,0.666558,0.582813,0.118224,0.101708,-0.139164,-0.063608,-0.015653,-0.113726
-0.050000,-0.050000,0.000000,0.000000,0.000000,0.000000,0.000000,0.000000,0.000000,0.100000,0.100000,-0.326750,-0.450658,-0.050000,-0.050000,0.383837,-0.530502,0.000000,0.000000,-0.541263,0.507289,0.676082,0.586594,0.118197,0.105719,-0.135997,-0.063772,-0.017749,-0.104748
-0.050000,-0.050000,0.000000,0.000000,0.000000,0.000000,0.000000,0.000000,0.000000,0.100000,0.100000,-0.316271,-0.448487,-0.050000,-0.050000,0.383627,-0.537032,0.000000,0.000000,-0.536108,0.508245,0.688974,0.589470,0.117962,0.109019,-0.132494,-0.063901,-0.019890,-0.096399
-0.050000,-0.050000,0.000000,0.000000,0.000000,0.000000,0.000000,0.000000,0.000000,0.100000,0.100000,-0.304641,-0.448428,-0.050000,-0.050000,0.384411,-0.546372,0.000000,0.000000,-0.530810,0.508675,0.707493,0.590534,0.117568,0.110626,-0.127866,-0.064347,-0.022376,-0.089637
-0.050000,-0.050000,0.000000,0.000000,0.000000,0.000000,0.000000,0.000000,0.000000,0.100000,0.100000,-0.292914,-0.449489,-0.050000,-0.050000,0.385178,-0.557020,0.000000,0.000000,-0.525429,0.508905,0.728724,0.590415,0.117233,0.111248,-0.123206,-0.064862,-0.025045,-0.083868
-0.050000,-0.050000,0.000000,0.000000,0.000000,0.000000,0.000000,0.000000,0.000000,0.100000,0.100000,-0.280560,-0.452279,-0.050000,-0.050000,0.386311,-0.569428,0.000000,0.000000,-0.519988,0.508771,0.753111,0.588807,0.117073,0.110487,-0.118202,-0.065639,-0.028087,-0.079501
-0.050000,-0.050000,0.000000,0.000000,0.000000,0.000000,0.000000,0.000000,0.000000,0.100000,0.100000,-0.267554,-0.457100,-0.050000,-0.050000,0.387641,-0.583396,0.000000,0.000000,-0.514577,0.508198,0.779961,0.585541,0.117328,0.108149,-0.113091,-0.066754,-0.031651,-0.076852
-0.050000,-0.050000,0.000000,0.000000,0.000000,0.000000,0.000000,0.000000,0.000000,0.100000,0.100000,-0.254326,-0.463102,-0.050000,-0.050000,0.388893,-0.598194,0.000000,0.000000,-0.509024,0.507386,0.808142,0.581231,0.117910,0.104826,-0.108089,-0.067983,-0.035590,-0.075333
-0.050000,-0.050000,0.000000,0.000000,0.000000,0.000000,0.000000,0.000000,0.000000,0.100000,0.100000,-0.240140,-0.471765,-0.050000,-0.050000,0.390223,-0.614277,0.000000,0.000000,-0.503682,0.505822,0.837676,0.575055,0.119282,0.099656,-0.103148,-0.069693,-0.040355,-0.076148
-0.050000,-0.050000,0.000000,0.000000,0.000000,0.000000,0.000000,0.000000,0.000000,0.100000,0.100000,-0.225777,-0.481549,-0.050000,-0.050000,0.391291,-0.630654,0.000000,0.000000,-0.498233,0.503867,0.867343,0.568006,0.121165,0.093604,-0.098487,-0.071439,-0.045609,-0.078275
-0.050000,-0.050000,0.000000,0.000000,0.000000,0.000000,0.000000,0.000000,0.000000,0.100000,0.100000,-0.210916,-0.493014,-0.050000,-0.050000,0.392141,-0.647384,0.000000,0.000000,-0.492889,0.501245,0.896864,0.559860,0.123733,0.086461,-0.094069,-0.073361,-0.051525,-0.082149
-0.050000,-0.050000,0.000000,0.000000,0.000000,0.000000,0.000000,0.000000,0.000000,0.100000,0.100000,-0.195750,-0.505944,-0.050000,-0.050000,0.392589,-0.664050,0.000000,0.000000,-0.487747,0.497740,0.925391,0.550823,0.127043,0.078465,-0.090025,-0.075334,-0.058099,-0.087870
-0.050000,-0.050000,0.000000,0.000000,0.000000,0.000000,0.000000,0.000000,0.000000,0.100000,0.100000,-0.180463,-0.519622,-0.050000,-0.050000,0.392789,-0.680539,0.000000,0.000000,-0.482619,0.493708,0.953047,0.541295,0.130848,0.069960,-0.086190,-0.077207,-0.065102,-0.094753
-0.050000,-0.050000,0.000000,0.000000,0.000000,0.000000,0.000000,0.000000,0.000000,0.100000,0.100000,-0.165202,-0.534504,-0.050000,-0.050000,0.392332,-0.696382,0.000000,0.000000,-0.478034,0.488290,0.978343,0.531138,0.135466,0.061065,-0.082923,-0.078977,-0.072676,-0.103693
-0.050000,-0.050000,0.000000,0.000000,0.000000,0.000000,0.000000,0.000000,0.000000,0.100000,0.100000,-0.150179,-0.549502,-0.050000,-0.050000,0.391638,-0.711672,0.000000,0.000000,-0.473620,0.482183,1.001980,0.520819,0.140476,0.052133,-0.079867,-0.080473,-0.080456,-0.113581
-0.050000,-0.050000,0.000000,0.000000,0.000000,0.000000,0.000000,0.000000,0.000000,0.100000,0.100000,-0.135602,-0.564641,-0.050000,-0.050000,0.390496,-0.726162,0.000000,0.000000,-0.469650,0.475018,1.023257,0.510349,0.145932,0.043410,-0.077220,-0.081696,-0.088380,-0.124627
-0.050000,-0.050000,0.000000,0.000000,0.000000,0.000000,0.000000,0.000000,0.000000,0.100000,0.100000,-0.121925,-0.579304,-0.050000,-0.050000,0.388958,-0.739636,0.000000,0.000000,-0.466183,0.466757,1.041672,0.499933,0.151684,0.035384,-0.075039,-0.082583,-0.096131,-0.136561
-0.050000,-0.050000,0.000000,0.000000,0.000000,0.000000,0.000000,0.000000,0.000000,0.100000,0.100000,-0.108839,-0.593446,-0.050000,-0.050000,0.387318,-0.752442,0.000000,0.000000,-0.463071,0.457739,1.058118,0.489536,0.157562,0.027880,-0.073043,-0.083205,-0.103716,-0.148976
-0.050000,-0.050000,0.000000,0.000000,0.000000,0.000000,0.000000,0.000000,0.000000,0.100000,0.100000,-0.097670,-0.606054,-0.050000,-0.050000,0.385253,-0.763751,0.000000,0.000000,-0.460620,0.447413,1.070505,0.479448,0.163420,0.022201,-0.071817,-0.083536,-0.110430,-0.161892
-0.050000,-0.050000,0.000000,0.000000,0.000000,0.000000,0.000000,0.000000,0.000000,0.100000,0.100000,-0.087503,-0.617437,-0.050000,-0.050000,0.383348,-0.774334,0.000000,0.000000,-0.458541,0.436297,1.080641,0.469436,0.169070,0.017711,-0.070742,-0.083755,-0.116540,-0.174862
-0.050000,-0.050000,0.000000,0.000000,0.000000,0.000000,0.000000,0.000000,0.000000,0.100000,0.100000,-0.079072,-0.627013,-0.050000,-0.050000,0.381425,-0.783774,0.000000,0.000000,-0.456886,0.424224,1.087621,0.459643,0.174359,0.015146,-0.070161,-0.083939,-0.121619,-0.187789
-0.050000,-0.050000,0.000000,0.000000,0.000000,0.000000,0.000000,0.000000,0.000000,0.100000,0.100000,-0.072639,-0.634311,-0.050000,-0.050000,0.379682,-0.792014,0.000000,0.000000,-0.455522,0.411195,1.091305,0.450056,0.179013,0.015046,-0.070064,-0.084298,-0.125347,-0.200427
-0.050000,-0.050000,0.000000,0.000000,0.000000,0.000000,0.000000,0.000000,0.000000,0.100000,0.100000,-0.067404,-0.639950,-0.050000,-0.050000,0.378257,-0.799517,0.000000,0.000000,-0.454428,0.397347,1.092807,0.440504,0.183152,0.016644,-0.070132,-0.084893,-0.128187,-0.212813
-0.050000,-0.050000,0.000000,0.000000,0.000000,0.000000,0.000000,0.000000,0.000000,0.100000,0.100000,-0.065081,-0.642123,-0.050000,-0.050000,0.377089,-0.805289,0.000000,0.000000,-0.453306,0.382422,1.090162,0.431284,0.186138,0.022116,-0.070956,-0.086131,-0.128919,-0.224556
-0.050000,-0.050000,0.000000,0.000000,0.000000,0.000000,0.000000,0.000000,0.000000,0.100000,0.100000,-0.063874,-0.642280,-0.050000,-0.050000,0.376458,-0.810303,0.000000,0.000000,-0.452301,0.366540,1.085513,0.422046,0.188392,0.029696,-0.071832,-0.087987,-0.128655,-0.235879
-0.050000,-0.050000,0.000000,0.000000,0.000000,0.000000,0.000000,0.000000,0.000000,0.100000,0.100000,-0.064581,-0.639548,-0.050000,-0.050000,0.376213,-0.813993,0.000000,0.000000,-0.451166,0.349674,1.078091,0.413020,0.189656,0.040319,-0.073098,-0.090676,-0.126880,-0.246614
-0.050000,-0.050000,0.000000,0.000000,0.000000,0.000000,0.000000,0.000000,0.000000,0.100000,0.100000,-0.066956,-0.633790,-0.050000,-0.050000,0.376432,-0.816314,0.000000,0.000000,-0.449826,0.331734,1.068228,0.404299,0.189918,0.054115,-0.074640,-0.094398,-0.123694,-0.256726
-0.050000,-0.050000,0.000000,0.000000,0.000000,0.000000,0.000000,0.000000,0.000000,0.100000,0.100000,-0.070242,-0.625882,-0.050000,-0.050000,0.377117,-0.817705,0.000000,0.000000,-0.448458,0.312875,1.056816,0.395738,0.189524,0.069975,-0.076256,-0.099007,-0.119661,-0.266367
-0.050000,-0.050000,0.000000,0.000000,0.000000,0.000000,0.000000,0.000000,0.000000,0.100000,0.100000,-0.075393,-0.614049,-0.050000,-0.050000,0.378159,-0.817073,0.000000,0.000000,-0.446666,0.292886,1.043006,0.388154,0.188051,0.089841,-0.078250,-0.104956,-0.114121,-0.275233
-0.050000,-0.050000,0.000000,0.000000,0.000000,0.000000,0.000000,0.000000,0.000000,0.100000,0.100000,-0.080985,-0.600146,-0.050000,-0.050000,0.379719,-0.815457,0.000000,0.000000,-0.444973,0.272017,1.028299,0.381086,0.186131,0.111559,-0.080204,-0.111900,-0.108081,-0.283590
-0.050000,-0.050000,0.000000,0.000000,0.000000,0.000000,0.000000,0.000000,0.000000,0.100000,0.100000,-0.087442,-0.583484,-0.050000,-0.050000,0.381623,-0.812265,0.000000,0.000000,-0.443210,0.250369,1.012491,0.375164,0.183671,0.135818,-0.082299,-0.119871,-0.101366,-0.291326
-0.050000,-0.050000,0.000000,0.000000,0.000000,0.000000,0.000000,0.000000,0.000000,0.100000,0.100000,-0.094406,-0.564369,-0.050000,-0.050000,0.383950,-0.807582,0.000000,0.000000,-0.441614,0.228148,0.996120,0.370763,0.180872,0.162240,-0.084436,-0.128708,-0.094307,-0.298425
-0.050000,-0.050000,0.000000,0.000000,0.000000,0.000000,0.000000,0.000000,0.000000,0.100000,0.100000,-0.101592,-0.543715,-0.050000,-0.050000,0.386652,-0.801814,0.000000,0.000000,-0.440272,0.205586,0.979474,0.367470,0.177883,0.189983,-0.086598,-0.138274,-0.087107,-0.304963
-0.050000,-0.050000,0.000000,0.000000,0.000000,0.000000,0.000000,0.000000,0.000000,0.100000,0.100000,-0.109181,-0.520675,-0.050000,-0.050000,0.389854,-0.794316,0.000000,0.000000,-0.439437,0.183119,0.962879,0.366964,0.174723,0.219619,-0.088782,-0.148116,-0.079980,-0.310712
-0.050000,-0.050000,0.000000,0.000000,0.000000,0.000000,0.000000,0.000000,0.000000,0.100000,0.100000,-0.116739,-0.496922,-0.050000,-0.050000,0.393512,-0.786014,0.000000,0.000000,-0.439149,0.160927,0.946529,0.367930,0.171484,0.249774,-0.090967,-0.158258,-0.073073,-0.315795
-0.050000,-0.050000,0.000000,0.000000,0.000000,0.000000,0.000000,0.000000,0.000000,0.100000,0.100000,-0.124376,-0.472311,-0.050000,-0.050000,0.397668,-0.776731,0.000000,0.000000,-0.439520,0.139482,0.930635,0.371159,0.168159,0.280339,-0.093140,-0.168167,-0.066562,-0.320111
-0.050000,-0.050000,0.000000,0.000000,0.000000,0.000000,0.000000,0.000000,0.000000,0.100000,0.100000,-0.131974,-0.447535,-0.050000,-0.050000,0.402401,-0.766885,0.000000,0.000000,-0.440649,0.119270,0.915412,0.376462,0.164678,0.310452,-0.095269,-0.177480,-0.060627,-0.323566
-0.050000,-0.050000,0.000000,0.000000,0.000000,0.000000,0.000000,0.000000,0.000000,0.100000,0.100000,-0.139536,-0.423056,-0.050000,-0.050000,0.407481,-0.756651,0.000000,0.000000,-0.442284,0.100162,0.900695,0.383199,0.161008,0.340027,-0.097403,-0.186337,-0.055137,-0.326331
-0.050000,-0.050000,0.000000,0.000000,0.000000,0.000000,0.000000,0.000000,0.000000,0.100000,0.100000,-0.146964,-0.399292,-0.050000,-0.050000,0.413333,-0.746594,0.000000,0.000000,-0.444807,0.083581,0.887131,0.391849,0.156874,0.367208,-0.099362,-0.193523,-0.050614,-0.327940
-0.050000,-0.050000,0.000000,0.000000,0.000000,0.000000,0.000000,0.000000,0.000000,0.100000,0.100000,-0.154284,-0.376699,-0.050000,-0.050000,0.419373,-0.736676,0.000000,0.000000,-0.447599,0.068685,0.874219,0.401178,0.152261,0.392622,-0.101289,-0.199828,-0.046625,-0.328899
-0.050000,-0.050000,0.000000,0.000000,0.000000,0.000000,0.000000,0.000000,0.000000,0.100000,0.100000,-0.161417,-0.355511,-0.050000,-0.050000,0.425779,-0.727368,0.000000,0.000000,-0.450738,0.056298,0.862321,0.410975,0.146993,0.415018,-0.103039,-0.204640,-0.043382,-0.328989
-0.050000,-0.050000,0.000000,0.000000,0.000000,0.000000,0.000000,0.000000,0.000000,0.100000,0.100000,-0.168266,-0.336121,-0.050000,-0.050000,0.432300,-0.718896,0.000000,0.000000,-0.453926,0.046585,0.851536,0.420407,0.140878,0.433755,-0.104569,-0.208007,-0.040813,-0.328306
-0.050000,-0.050000,0.000000,0.000000,0.000000,0.000000,0.000000,0.000000,0.000000,0.100000,0.100000,-0.174904,-0.318248,-0.050000,-0.050000,0.438718,-0.710980,0.000000,0.000000,-0.456940,0.038939,0.841607,0.429408,0.134107,0.449669,-0.105962,-0.210256,-0.038698,-0.327260
-0.050000,-0.050000,0.000000,0.000000,0.000000,0.000000,0.000000,0.000000,0.000000,0.100000,0.100000,-0.180895,-0.302874,-0.050000,-0.050000,0.444957,-0.704607,0.000000,0.000000,-0.459614,0.034973,0.833535,0.436360,0.126116,0.459867,-0.106860,-0.210937,-0.037242,-0.325304
-0.050000,-0.050000,0.000000,0.000000,0.000000,0.000000,0.000000,0.000000,0.000000,0.100000,0.100000,-0.186525,-0.289141,-0.050000,-0.050000,0.450646,-0.698753,0.000000,0.000000,-0.461648,0.033055,0.826594,0.442063,0.117479,0.466932,-0.107589,-0.210703,-0.036019,-0.323373
-0.050000,-0.050000,0.000000,0.000000,0.000000,0.000000,0.000000,0.000000,0.000000,0.100000,0.100000,-0.191488,-0.277465,-0.050000,-0.050000,0.455759,-0.693940,0.000000,0.000000,-0.462978,0.033939,0.821420,0.445565,0.108048,0.469605,-0.107915,-0.209572,-0.035046,-0.321114
-0.050000,-0.050000,0.000000,0.000000,0.000000,0.000000,0.000000,0.000000,0.000000,0.100000,0.100000,-0.195733,-0.267707,-0.050000,-0.050000,0.460065,-0.689865,0.000000,0.000000,-0.463420,0.037304,0.818151,0.446913,0.098054,0.468407,-0.107863,-0.207769,-0.034139,-0.318773
-0.050000,-0.050000,0.000000,0.000000,0.000000,0.000000,0.000000,0.000000,0.000000,0.100000,0.100000,-0.199464,-0.259375,-0.050000,-0.050000,0.463668,-0.686234,0.000000,0.000000,-0.463068,0.042530,0.816378,0.446736,0.087778,0.464475,-0.107619,-0.205448,-0.033199,-0.316546
-0.050000,-0.050000,0.000000,0.000000,0.000000,0.000000,0.000000,0.000000,0.000000,0.100000,0.100000,-0.202118,-0.253196,-0.050000,-0.050000,0.466278,-0.683274,0.000000,0.000000,-0.461677,0.050440,0.817381,0.444155,0.077298,0.456656,-0.106763,-0.202733,-0.032113,-0.314053
-0.050000,-0.050000,0.000000,0.000000,0.000000,0.000000,0.000000,0.000000,0.000000,0.100000,0.100000,-0.204359,-0.248166,-0.050000,-0.050000,0.468212,-0.680377,0.000000,0.000000,-0.459489,0.059800,0.819913,0.440810,0.066989,0.447179,-0.105836,-0.199616,-0.030816,-0.311742
-0.050000,-0.050000,0.000000,0.000000,0.000000,0.000000,0.000000,0.000000,0.000000,0.100000,0.100000,-0.205915,-0.244605,-0.050000,-0.050000,0.469530,-0.677622,0.000000,0.000000,-0.456538,0.070898,0.824539,0.436610,0.056985,0.435867,-0.104563,-0.196190,-0.029278,-0.309234
-0.050000,-0.050000,0.000000,0.000000,0.000000,0.000000,0.000000,0.000000,0.000000,0.100000,0.100000,-0.207066,-0.242258,-0.050000,-0.050000,0.470498,-0.674748,0.000000,0.000000,-0.452972,0.083402,0.830867,0.432511,0.047496,0.423633,-0.103076,-0.192326,-0.027476,-0.306484
-0.050000,-0.050000,0.000000,0.000000,0.000000,0.000000,0.000000,0.000000,0.000000,0.100000,0.100000,-0.208004,-0.240906,-0.050000,-0.050000,0.471311,-0.671750,0.000000,0.000000,-0.448945,0.096970,0.838359,0.428831,0.038445,0.410972,-0.101501,-0.188151,-0.025470,-0.303456
-0.050000,-0.050000,0.000000,0.000000,0.000000,0.000000,0.000000,0.000000,0.000000,0.100000,0.100000,-0.208878,-0.240803,-0.050000,-0.050000,0.472493,-0.668374,0.000000,0.000000,-0.444630,0.111907,0.847135,0.426848,0.030176,0.398447,-0.099616,-0.183097,-0.023193,-0.299652
-0.050000,-0.050000,0.000000,0.000000,0.000000,0.000000,0.000000,0.000000,0.000000,0.100000,0.100000,-0.209974,-0.241664,-0.050000,-0.050000,0.474111,-0.664749,0.000000,0.000000,-0.440121,0.127662,0.856188,0.426413,0.022289,0.386355,-0.097734,-0.177589,-0.020767,-0.295264
-0.050000,-0.050000,0.000000,0.000000,0.000000,0.000000,0.000000,0.000000,0.000000,0.100000,0.100000,-0.211528,-0.243565,-0.050000,-0.050000,0.476665,-0.660778,0.000000,0.000000,-0.435608,0.144379,0.865214,0.428372,0.014862,0.375048,-0.095733,-0.171197,-0.018167,-0.289957
-0.050000,-0.050000,0.000000,0.000000,0.000000,0.000000,0.000000,0.000000,0.000000,0.100000,0.100000,-0.213864,-0.246556,-0.050000,-0.050000,0.480473,-0.656547,0.000000,0.000000,-0.431212,0.161932,0.873441,0.432938,0.007639,0.364668,-0.093726,-0.163916,-0.015399,-0.283654
-0.050000,-0.050000,0.000000,0.000000,0.000000,0.000000,0.000000,0.000000,0.000000,0.100000,0.100000,-0.216859,-0.250556,-0.050000,-0.050000,0.485399,-0.652092,0.000000,0.000000,-0.426916,0.180104,0.880761,0.439630,0.000442,0.355003,-0.091669,-0.156069,-0.012532,-0.276509
-0.050000,-0.050000,0.000000,0.000000,0.000000,0.000000,0.000000,0.000000,0.000000,0.100000,0.100000,-0.221577,-0.255881,-0.050000,-0.050000,0.492531,-0.647642,0.000000,0.000000,-0.423037,0.199185,0.885609,0.449543,-0.006971,0.346348,-0.089836,-0.146895,-0.009295,-0.268106
-0.050000,-0.050000,0.000000,0.000000,0.000000,0.000000,0.000000,0.000000,0.000000,0.100000,0.100000,-0.227247,-0.262419,-0.050000,-0.050000,0.501040,-0.643154,0.000000,0.000000,-0.419341,0.218639,0.888647,0.461119,-0.014795,0.338098,-0.087993,-0.137408,-0.005897,-0.258985
-0.050000,-0.050000,0.000000,0.000000,0.000000,0.000000,0.000000,0.000000,0.000000,0.100000,0.100000,-0.234677,-0.270263,-0.050000,-0.050000,0.511522,-0.638941,0.000000,0.000000,-0.416007,0.238594,0.888777,0.474527,-0.023225,0.330154,-0.086469,-0.127273,-0.002061,-0.249097
-0.050000,-0.050000,0.000000,0.000000,0.000000,0.000000,0.000000,0.000000,0.000000,0.100000,0.100000,-0.243838,-0.279523,-0.050000,-0.050000,0.523780,-0.635172,0.000000,0.000000,-0.412972,0.258721,0.885848,0.488785,-0.032453,0.322133,-0.085297,-0.116998,0.002282,-0.238825
-0.050000,-0.050000,0.000000,0.000000,0.000000,0.000000,0.000000,0.000000,0.000000,0.100000,0.100000,-0.254383,-0.289902,-0.050000,-0.050000,0.537379,-0.631721,0.000000,0.000000,-0.410194,0.278847,0.880399,0.503409,-0.042369,0.313895,-0.084355,-0.106773,0.007041,-0.228389
-0.050000,-0.050000,0.000000,0.000000,0.000000,0.000000,0.000000,0.000000,0.000000,0.100000,0.100000,-0.267636,-0.302130,-0.050000,-0.050000,0.552960,-0.629527,0.000000,0.000000,-0.407721,0.298633,0.870486,0.516997,-0.053438,0.304974,-0.084426,-0.097181,0.012865,-0.218457
-0.050000,-0.050000,0.000000,0.000000,0.000000,0.000000,0.000000,0.000000,0.000000,0.100000,0.100000,-0.282241,-0.315405,-0.050000,-0.050000,0.569403,-0.627859,0.000000,0.000000,-0.405441,0.317841,0.858090,0.529462,-0.065181,0.295585,-0.084793,-0.088245,0.019242,-0.209119
-0.050000,-0.050000,0.000000,0.000000,0.000000,0.000000,0.000000,0.000000,0.000000,0.100000,0.100000,-0.299107,-0.330210,-0.050000,-0.050000,0.586929,-0.627420,0.000000,0.000000,-0.403347,0.336128,0.842019,0.539448,-0.077719,0.285501,-0.086155,-0.080581,0.026664,-0.201092
-0.050000,-0.050000,0.000000,0.000000,0.000000,0.000000,0.000000,0.000000,0.000000,0.100000,0.100000,-0.317885,-0.346333,-0.050000,-0.050000,0.605006,-0.628096,0.000000,0.000000,-0.401375,0.353112,0.822777,0.546341,-0.090751,0.274918,-0.088385,-0.074408,0.035079,-0.194823
-0.050000,-0.050000,0.000000,0.000000,0.000000,0.000000,0.000000,0.000000,0.000000,0.100000,0.100000,-0.338210,-0.363377,-0.050000,-0.050000,0.623276,-0.629643,0.000000,0.000000,-0.399569,0.368934,0.801062,0.550474,-0.103991,0.264005,-0.091319,-0.069404,0.044306,-0.190141
-0.050000,-0.050000,0.000000,0.000000,0.000000,0.000000,0.000000,0.000000,0.000000,0.100000,0.100000,-0.360929,-0.382241,-0.050000,-0.050000,0.641519,-0.632790,0.000000,0.000000,-0.397746,0.382375,0.775407,0.549194,-0.117075,0.252918,-0.095736,-0.066970,0.055012,-0.188842
-0.050000,-0.050000,0.000000,0.000000,0.000000,0.000000,0.000000,0.000000,0.000000,0.100000,0.100000,-0.384846,-0.401623,-0.050000,-0.050000,0.659250,-0.636639,0.000000,0.000000,-0.396064,0.394332,0.747823,0.544749,-0.129622,0.241848,-0.100709,-0.065551,0.066492,-0.189570
-0.050000,-0.050000,0.000000,0.000000,0.000000,0.000000,0.000000,0.000000,0.000000,0.100000,0.100000,-0.410425,-0.422234,-0.050000,-0.050000,0.676164,-0.641508,0.000000,0.000000,-0.394398,0.403964,0.717424,0.535477,-0.141084,0.230966,-0.106789,-0.066114,0.079173,-0.193556
-0.050000,-0.050000,0.000000,0.000000,0.000000,0.000000,0.000000,0.000000,0.000000,0.100000,0.100000,-0.437166,-0.443542,-0.050000,-0.050000,0.691888,-0.647010,0.000000,0.000000,-0.392788,0.411500,0.684953,0.522114,-0.150933,0.220313,-0.113568,-0.068047,0.092870,-0.200473
-0.050000,-0.050000,0.000000,0.000000,0.000000,0.000000,0.000000,0.000000,0.000000,0.100000,0.100000,-0.464768,-0.465256,-0.050000,-0.050000,0.706351,-0.652897,0.000000,0.000000,-0.391215,0.417326,0.650948,0.505479,-0.159130,0.209751,-0.120851,-0.070889,0.107361,-0.209732
-0.050000,-0.050000,0.000000,0.000000,0.000000,0.000000,0.000000,0.000000,0.000000,0.100000,0.100000,-0.493179,-0.487797,-0.050000,-0.050000,0.718750,-0.659013,0.000000,0.000000,-0.389651,0.420569,0.615051,0.484339,-0.164213,0.199361,-0.128646,-0.075287,0.123083,-0.222668
-0.050000,-0.050000,0.000000,0.000000,0.000000,0.000000,0.000000,0.000000,0.000000,0.100000,0.100000,-0.521837,-0.510155,-0.050000,-0.050000,0.729496,-0.665059,0.000000,0.000000,-0.388079,0.422544,0.578505,0.461017,-0.167015,0.188677,-0.136398,-0.079878,0.139436,-0.237351
-0.050000,-0.050000,0.000000,0.000000,0.000000,0.000000,0.000000,0.000000,0.000000,0.100000,0.100000,-0.550515,-0.532687,-0.050000,-0.050000,0.738001,-0.670765,0.000000,0.000000,-0.386513,0.422818,0.541359,0.435084,-0.166553,0.177596,-0.143985,-0.085058,0.156618,-0.254459
-0.050000,-0.050000,0.000000,0.000000,0.000000,0.000000,0.000000,0.000000,0.000000,0.100000,0.100000,-0.578820,-0.554893,-0.050000,-0.050000,0.744336,-0.675950,0.000000,0.000000,-0.384959,0.422064,0.504380,0.407735,-0.163043,0.165739,-0.151018,-0.090202,0.174392,-0.273132
-0.050000,-0.050000,0.000000,0.000000,0.000000,0.000000,0.000000,0.000000,0.000000,0.100000,0.100000,-0.606647,-0.576722,-0.050000,-0.050000,0.748721,-0.680555,0.000000,0.000000,-0.383333,0.420562,0.467777,0.379509,-0.156961,0.153053,-0.157460,-0.095159,0.192563,-0.292877
-0.050000,-0.050000,0.000000,0.000000,0.000000,0.000000,0.000000,0.000000,0.000000,0.100000,0.100000,-0.633236,-0.597910,-0.050000,-0.050000,0.750514,-0.684255,0.000000,0.000000,-0.381946,0.418669,0.432772,0.351263,-0.147456,0.138988,-0.162599,-0.099624,0.211086,-0.313651
-0.050000,-0.050000,0.000000,0.000000,0.000000,0.000000,0.000000,0.000000,0.000000,0.100000,0.100000,-0.658976,-0.618413,-0.050000,-0.050000,0.750570,-0.687277,0.000000,0.000000,-0.380567,0.416782,0.399001,0.323448,-0.136031,0.123869,-0.166890,-0.103498,0.229669,-0.334618
-0.050000,-0.050000,0.000000,0.000000,0.000000,0.000000,0.000000,0.000000,0.000000,0.100000,0.100000,-0.683229,-0.638027,-0.050000,-0.050000,0.748600,-0.689493,0.000000,0.000000,-0.379535,0.415296,0.367571,0.296939,-0.122482,0.107425,-0.169797,-0.106512,0.248081,-0.355549
-0.050000,-0.050000,0.000000,0.000000,0.000000,0.000000,0.000000,0.000000,0.000000,0.100000,0.100000,-0.706114,-0.656708,-0.050000,-0.050000,0.745024,-0.691035,0.000000,0.000000,-0.378910,0.414544,0.338571,0.272203,-0.107672,0.089922,-0.171547,-0.108645,0.266067,-0.375973
-0.050000,-0.050000,0.000000,0.000000,0.000000,0.000000,0.000000,0.000000,0.000000,0.100000,0.100000,-0.727809,-0.674621,-0.050000,-0.050000,0.740161,-0.692009,0.000000,0.000000,-0.378664,0.414538,0.311800,0.249217,-0.092096,0.071651,-0.172381,-0.110037,0.283541,-0.395793
-0.050000,-0.050000,0.000000,0.000000,0.000000,0.000000,0.000000,0.000000,0.000000,0.100000,0.100000,-0.747589,-0.691160,-0.050000,-0.050000,0.734050,-0.692550,0.000000,0.000000,-0.379502,0.416103,0.288811,0.229525,-0.076351,0.052716,-0.171854,-0.110242,0.299828,-0.414196
-0.050000,-0.050000,0.000000,0.000000,0.000000,0.000000,0.000000,0.000000,0.000000,0.100000,0.100000,-0.766452,-0.707069,-0.050000,-0.050000,0.727188,-0.692724,0.000000,0.000000,-0.380963,0.418670,0.268115,0.211972,-0.060901,0.033719,-0.170907,-0.109967,0.315253,-0.431590
-0.050000,-0.050000,0.000000,0.000000,0.000000,0.000000,0.000000,0.000000,0.000000,0.100000,0.100000,-0.783812,-0.721797,-0.050000,-0.050000,0.719772,-0.692766,0.000000,0.000000,-0.383645,0.422804,0.250782,0.197657,-0.046326,0.014968,-0.169223,-0.108870,0.329199,-0.447269
-0.050000,-0.050000,0.000000,0.000000,0.000000,0.000000,0.000000,0.000000,0.000000,0.100000,0.100000,-0.800142,-0.735667,-0.050000,-0.050000,0.712081,-0.692720,0.000000,0.000000,-0.387447,0.428258,0.236200,0.186132,-0.032967,-0.003025,-0.167314,-0.107345,0.341697,-0.461279
-0.050000,-0.050000,0.000000,0.000000,0.000000,0.000000,0.000000,0.000000,0.000000,0.100000,0.100000,-0.815655,-0.748851,-0.050000,-0.050000,0.704265,-0.692651,0.000000,0.000000,-0.392259,0.434830,0.223993,0.177040,-0.020844,-0.020123,-0.165363,-0.105573,0.352863,-0.473750
-0.050000,-0.050000,0.000000,0.000000,0.000000,0.000000,0.000000,0.000000,0.000000,0.100000,0.100000,-0.829937,-0.760786,-0.050000,-0.050000,0.696698,-0.692781,0.000000,0.000000,-0.398727,0.442910,0.214806,0.171229,-0.010718,-0.035419,-0.163342,-0.103426,0.361865,-0.483661
-0.050000,-0.050000,0.000000,0.000000,0.000000,0.000000,0.000000,0.000000,0.000000,0.100000,0.100000,-0.843784,-0.772293,-0.050000,-0.050000,0.689249,-0.692938,0.000000,0.000000,-0.406084,0.451727,0.207416,0.167303,-0.001978,-0.049289,-0.161695,-0.101445,0.369541,-0.491962
-0.050000,-0.050000,0.000000,0.000000,0.000000,0.000000,0.000000,0.000000,0.000000,0.100000,0.100000,-0.856776,-0.782839,-0.050000,-0.050000,0.682242,-0.693304,0.000000,0.000000,-0.414787,0.461499,0.202171,0.165760,0.004996,-0.061084,-0.160285,-0.099472,0.375242,-0.497809
-0.050000,-0.050000,0.000000,0.000000,0.000000,0.000000,0.000000,0.000000,0.000000,0.100000,0.100000,-0.869233,-0.792772,-0.050000,-0.050000,0.675606,-0.693780,0.000000,0.000000,-0.424422,0.471771,0.198476,0.165848,0.010569,-0.070962,-0.159281,-0.097774,0.379316,-0.501544
-0.050000,-0.050000,0.000000,0.000000,0.000000,0.000000,0.000000,0.000000,0.000000,0.100000,0.100000,-0.881217,-0.802160,-0.050000,-0.050000,0.669311,-0.694361,0.000000,0.000000,-0.434796,0.482355,0.196027,0.167194,0.015011,-0.079156,-0.158644,-0.096369,0.381974,-0.503399
-0.050000,-0.050000,0.000000,0.000000,0.000000,0.000000,0.000000,0.000000,0.000000,0.100000,0.100000,-0.892411,-0.810691,-0.050000,-0.050000,0.663606,-0.695048,0.000000,0.000000,-0.445987,0.493085,0.194869,0.169736,0.018337,-0.085137,-0.158326,-0.095338,0.382715,-0.502640
-0.050000,-0.050000,0.000000,0.000000,0.000000,0.000000,0.000000,0.000000,0.000000,0.100000,0.100000,-0.903207,-0.818825,-0.050000,-0.050000,0.658153,-0.695773,0.000000,0.000000,-0.457415,0.503635,0.194426,0.172723,0.021062,-0.089816,-0.158358,-0.094722,0.382393,-0.500350
-0.050000,-0.050000,0.000000,0.000000,0.000000,0.000000,0.000000,0.000000,0.000000,0.100000,0.100000,-0.913263,-0.826280,-0.050000,-0.050000,0.653160,-0.696501,0.000000,0.000000,-0.469051,0.513830,0.194729,0.176016,0.023356,-0.092943,-0.158628,-0.094556,0.380707,-0.496110
-0.050000,-0.050000,0.000000,0.000000,0.000000,0.000000,0.000000,0.000000,0.000000,0.100000,0.100000,-0.922689,-0.833233,-0.050000,-0.050000,0.648456,-0.697190,0.000000,0.000000,-0.480497,0.523439,0.195485,0.179154,0.025521,-0.095041,-0.159127,-0.094843,0.378146,-0.490551
-0.050000,-0.050000,0.000000,0.000000,0.000000,0.000000,0.000000,0.000000,0.000000,0.100000,0.100000,-0.931481,-0.839692,-0.050000,-0.050000,0.643997,-0.697835,0.000000,0.000000,-0.491647,0.532440,0.196541,0.181974,0.027700,-0.096370,-0.159794,-0.095500,0.374928,-0.483980
-0.050000,-0.050000,0.000000,0.000000,0.000000,0.000000,0.000000,0.000000,0.000000,0.100000,0.100000,-0.939334,-0.845565,-0.050000,-0.050000,0.639883,-0.698309,0.000000,0.000000,-0.501987,0.540334,0.197923,0.184045,0.030155,-0.096967,-0.160592,-0.096697,0.371229,-0.476630
-0.050000,-0.050000,0.000000,0.000000,0.000000,0.000000,0.000000,0.000000,0.000000,0.100000,0.100000,-0.946517,-0.850956,-0.050000,-0.050000,0.635918,-0.698716,0.000000,0.000000,-0.511661,0.547464,0.199346,0.185423,0.032825,-0.097263,-0.161509,-0.098164,0.367395,-0.468984
-0.050000,-0.050000,0.000000,0.000000,0.000000,0.000000,0.000000,0.000000,0.000000,0.100000,0.100000,-0.952772,-0.855821,-0.050000,-0.050000,0.632200,-0.698915,0.000000,0.000000,-0.520178,0.553366,0.200906,0.185820,0.035839,-0.097253,-0.162491,-0.100038,0.363684,-0.461414
-0.050000,-0.050000,0.000000,0.000000,0.000000,0.000000,0.000000,0.000000,0.000000,0.100000,0.100000,-0.958223,-0.860172,-0.050000,-0.050000,0.628645,-0.698959,0.000000,0.000000,-0.527607,0.558237,0.202452,0.185307,0.039100,-0.097121,-0.163522,-0.102149,0.360314,-0.454226
-0.050000,-0.050000,0.000000,0.000000,0.000000,0.000000,0.000000,0.000000,0.000000,0.100000,0.100000,-0.962928,-0.864046,-0.050000,-0.050000,0.625242,-0.698850,0.000000,0.000000,-0.534009,0.562169,0.203956,0.183962,0.042562,-0.096918,-0.164561,-0.104424,0.357355,-0.447547
-0.050000,-0.050000,0.000000,0.000000,0.000000,0.000000,0.000000,0.000000,0.000000,0.100000,0.100000,-0.966746,-0.867403,-0.050000,-0.050000,0.622027,-0.698464,0.000000,0.000000,-0.538834,0.564714,0.205518,0.181678,0.046114,-0.096601,-0.165542,-0.106883,0.355263,-0.442005
-0.050000,-0.050000,0.000000,0.000000,0.000000,0.000000,0.000000,0.000000,0.000000,0.100000,0.100000,-0.969957,-0.870286,-0.050000,-0.050000,0.618947,-0.697964,0.000000,0.000000,-0.542802,0.566568,0.206936,0.178766,0.049716,-0.096289,-0.166461,-0.109323,0.353703,-0.437198
-0.050000,-0.050000,0.000000,0.000000,0.000000,0.000000,0.000000,0.000000,0.000000,0.100000,0.100000,-0.972494,-0.872707,-0.050000,-0.050000,0.616029,-0.697213,0.000000,0.000000,-0.545403,0.567282,0.208377,0.175265,0.053219,-0.095884,-0.167223,-0.111740,0.353071,-0.433682
-0.050000,-0.050000,0.000000,0.000000,0.000000,0.000000,0.000000,0.000000,0.000000,0.100000,0.100000,-0.974544,-0.874695,-0.050000,-0.050000,0.613260,-0.696308,0.000000,0.000000,-0.547098,0.567289,0.209723,0.171401,0.056618,-0.095470,-0.167816,-0.114011,0.353143,-0.431212
-0.050000,-0.050000,0.000000,0.000000,0.000000,0.000000,0.000000,0.000000,0.000000,0.100000,0.100000,-0.976202,-0.876325,-0.050000,-0.050000,0.610628,-0.695249,0.000000,0.000000,-0.547993,0.566675,0.211000,0.167308,0.059896,-0.095059,-0.168217,-0.116115,0.353863,-0.429739
-0.050000,-0.050000,0.000000,0.000000,0.000000,0.000000,0.000000,0.000000,0.000000,0.100000,0.100000,-0.977536,-0.877569,-0.050000,-0.050000,0.608177,-0.693998,0.000000,0.000000,-0.547903,0.565301,0.212267,0.163241,0.062982,-0.094690,-0.168334,-0.117904,0.355442,-0.429635
-0.050000,-0.050000,0.000000,0.000000,0.000000,0.000000,0.000000,0.000000,0.000000,0.100000,0.100000,-0.978673,-0.878560,-0.050000,-0.050000,0.605862,-0.692639,0.000000,0.000000,-0.547398,0.563659,0.213406,0.159210,0.066010,-0.094476,-0.168250,-0.119450,0.357474,-0.430352
-0.050000,-0.050000,0.000000,0.000000,0.000000,0.000000,0.000000,0.000000,0.000000,0.100000,0.100000,-0.979678,-0.879282,-0.050000,-0.050000,0.603733,-0.691136,0.000000,0.000000,-0.546246,0.561575,0.214503,0.155504,0.068962,-0.094516,-0.167892,-0.120598,0.360171,-0.432252
-0.050000,-0.050000,0.000000,0.000000,0.000000,0.000000,0.000000,0.000000,0.000000,0.100000,0.100000,-0.980608,-0.879832,-0.050000,-0.050000,0.601763,-0.689524,0.000000,0.000000,-0.544776,0.559353,0.215479,0.152125,0.071952,-0.094939,-0.167334,-0.121405,0.363306,-0.435033
-0.050000,-0.050000,0.000000,0.000000,0.000000,0.000000,0.000000,0.000000,0.000000,0.100000,0.100000,-0.981489,-0.880257,-0.050000,-0.050000,0.599944,-0.687799,0.000000,0.000000,-0.543021,0.557039,0.216356,0.149127,0.075010,-0.095789,-0.166602,-0.121882,0.366837,-0.438628
-0.050000,-0.050000,0.000000,0.000000,0.000000,0.000000,0.000000,0.000000,0.000000,0.100000,0.100000,-0.982333,-0.880542,-0.050000,-0.050000,0.598340,-0.685972,0.000000,0.000000,-0.540962,0.554709,0.217098,0.146751,0.078253,-0.097389,-0.165729,-0.121883,0.370842,-0.443207
-0.050000,-0.050000,0.000000,0.000000,0.000000,0.000000,0.000000,0.000000,0.000000,0.100000,0.100000,-0.983099,-0.880794,-0.050000,-0.050000,0.596858,-0.684014,0.000000,0.000000,-0.538777,0.552502,0.217702,0.144763,0.081650,-0.099577,-0.164785,-0.121618,0.375113,-0.448405
-0.050000,-0.050000,0.000000,0.000000,0.000000,0.000000,0.000000,0.000000,0.000000,0.100000,0.100000,-0.983744,-0.880948,-0.050000,-0.050000,0.595578,-0.681947,0.000000,0.000000,-0.536385,0.550463,0.218140,0.143390,0.085289,-0.102670,-0.163833,-0.120939,0.379747,-0.454375
-0.050000,-0.050000,0.000000,0.000000,0.000000,0.000000,0.000000,0.000000,0.000000,0.100000,0.100000,-0.984187,-0.881056,-0.050000,-0.050000,0.594432,-0.679732,0.000000,0.000000,-0.533866,0.548672,0.218410,0.142460,0.089111,-0.106548,-0.162938,-0.119998,0.384620,-0.460892
-0.050000,-0.050000,0.000000,0.000000,0.000000,0.000000,0.000000,0.000000,0.000000,0.100000,0.100000,-0.984384,-0.881102,-0.050000,-0.050000,0.593422,-0.677376,0.000000,0.000000,-0.531213,0.547139,0.218520,0.141947,0.093086,-0.111171,-0.162137,-0.118825,0.389703,-0.467871
-0.050000,-0.050000,0.000000,0.000000,0.000000,0.000000,0.000000,0.000000,0.000000,0.100000,0.100000,-0.984140,-0.880993,-0.050000,-0.050000,0.592566,-0.674861,0.000000,0.000000,-0.528410,0.545988,0.218427,0.141894,0.097167,-0.116723,-0.161569,-0.117423,0.395002,-0.475277
-0.050000,-0.050000,0.000000,0.000000,0.000000,0.000000,0.000000,0.000000,0.000000,0.100000,0.100000,-0.983497,-0.880794,-0.050000,-0.050000,0.591802,-0.672168,0.000000,0.000000,-0.525496,0.545136,0.218180,0.142109,0.101269,-0.122832,-0.161184,-0.115940,0.400405,-0.482928
-0.050000,-0.050000,0.000000,0.000000,0.000000,0.000000,0.000000,0.000000,0.000000,0.100000,0.100000,-0.982225,-0.880367,-0.050000,-0.050000,0.591150,-0.669297,0.000000,0.000000,-0.522471,0.544713,0.217749,0.142633,0.105289,-0.129615,-0.161129,-0.114397,0.405909,-0.490741
-0.050000,-0.050000,0.000000,0.000000,0.000000,0.000000,0.000000,0.000000,0.000000,0.100000,0.100000,-0.980342,-0.879741,-0.050000,-0.050000,0.590572,-0.666236,0.000000,0.000000,-0.519372,0.544654,0.217166,0.143344,0.109159,-0.136775,-0.161371,-0.112902,0.411433,-0.498584
-0.050000,-0.050000,0.000000,0.000000,0.000000,0.000000,0.000000,0.000000,0.000000,0.100000,0.100000,-0.977829,-0.878889,-0.050000,-0.050000,0.590062,-0.663006,0.000000,0.000000,-0.516226,0.544955,0.216442,0.144209,0.112835,-0.144199,-0.161916,-0.111494,0.416941,-0.506369
-0.050000,-0.050000,0.000000,0.000000,0.000000,0.000000,0.000000,0.000000,0.000000,0.100000,0.100000,-0.974463,-0.877703,-0.050000,-0.050000,0.589599,-0.659582,0.000000,0.000000,-0.513131,0.545738,0.215572,0.145190,0.116158,-0.151709,-0.162867,-0.110298,0.422347,-0.513886
-0.050000,-0.050000,0.000000,0.000000,0.000000,0.000000,0.000000,0.000000,0.000000,0.100000,0.100000,-0.970485,-0.876292,-0.050000,-0.050000,0.589192,-0.656019,0.000000,0.000000,-0.510062,0.546828,0.214580,0.146256,0.119241,-0.159159,-0.164095,-0.109289,0.427645,-0.521173
-0.050000,-0.050000,0.000000,0.000000,0.000000,0.000000,0.000000,0.000000,0.000000,0.100000,0.100000,-0.965674,-0.874548,-0.050000,-0.050000,0.588820,-0.652307,0.000000,0.000000,-0.507182,0.548397,0.213453,0.147370,0.121943,-0.166340,-0.165684,-0.108594,0.432724,-0.527970
-0.050000,-0.050000,0.000000,0.000000,0.000000,0.000000,0.000000,0.000000,0.000000,0.100000,0.100000,-0.960231,-0.872564,-0.050000,-0.050000,0.588505,-0.648508,0.000000,0.000000,-0.504469,0.550304,0.212193,0.148526,0.124379,-0.173161,-0.167531,-0.108183,0.437585,-0.534311
-0.050000,-0.050000,0.000000,0.000000,0.000000,0.000000,0.000000,0.000000,0.000000,0.100000,0.100000,-0.954204,-0.870359,-0.050000,-0.050000,0.588243,-0.644654,0.000000,0.000000,-0.501967,0.552546,0.210799,0.149701,0.126575,-0.179560,-0.169602,-0.108061,0.442203,-0.540150
-0.050000,-0.050000,0.000000,0.000000,0.000000,0.000000,0.000000,0.000000,0.000000,0.100000,0.100000,-0.947566,-0.867929,-0.050000,-0.050000,0.588067,-0.640813,0.000000,0.000000,-0.499840,0.555206,0.209217,0.150847,0.128541,-0.185306,-0.171883,-0.108308,0.446458,-0.545267
-0.050000,-0.050000,0.000000,0.000000,0.000000,0.000000,0.000000,0.000000,0.000000,0.100000,0.100000,-0.940561,-0.865374,-0.050000,-0.050000,0.587972,-0.637026,0.000000,0.000000,-0.497914,0.558066,0.207479,0.151987,0.130389,-0.190571,-0.174273,-0.108806,0.450473,-0.549896
-0.050000,-0.050000,0.000000,0.000000,0.000000,0.000000,0.000000,0.000000,0.000000,0.100000,0.100000,-0.933175,-0.862695,-0.050000,-0.050000,0.588011,-0.633393,0.000000,0.000000,-0.496396,0.561254,0.205503,0.153030,0.132143,-0.195150,-0.176749,-0.109635,0.454114,-0.553803
-0.050000,-0.050000,0.000000,0.000000,0.000000,0.000000,0.000000,0.000000,0.000000,0.100000,0.100000,-0.925603,-0.859963,-0.050000,-0.050000,0.588174,-0.629954,0.000000,0.000000,-0.495120,0.564578,0.203321,0.153991,0.133865,-0.199205,-0.179231,-0.110691,0.457503,-0.557197
-0.050000,-0.050000,0.000000,0.000000,0.000000,0.000000,0.000000,0.000000,0.000000,0.100000,0.100000,-0.917922,-0.857204,-0.050000,-0.050000,0.588465,-0.626749,0.000000,0.000000,-0.494099,0.568023,0.200925,0.154834,0.135580,-0.202775,-0.181679,-0.111945,0.460659,-0.560108
-0.050000,-0.050000,0.000000,0.000000,0.000000,0.000000,0.000000,0.000000,0.000000,0.100000,0.100000,-0.910285,-0.854471,-0.050000,-0.050000,0.588949,-0.623923,0.000000,0.000000,-0.493364,0.571546,0.198277,0.155497,0.137324,-0.205843,-0.184020,-0.113383,0.463598,-0.562534
-0.050000,-0.050000,0.000000,0.000000,0.000000,0.000000,0.000000,0.000000,0.000000,0.100000,0.100000,-0.902744,-0.851762,-0.050000,-0.050000,0.589533,-0.621379,0.000000,0.000000,-0.492759,0.575036,0.195476,0.156037,0.139066,-0.208595,-0.186233,-0.114905,0.466447,-0.564686
-0.050000,-0.050000,0.000000,0.000000,0.000000,0.000000,0.000000,0.000000,0.000000,0.100000,0.100000,-0.895484,-0.849139,-0.050000,-0.050000,0.590300,-0.619283,0.000000,0.000000,-0.492344,0.578477,0.192504,0.156406,0.140823,-0.211025,-0.188237,-0.116488,0.469246,-0.566566
-0.050000,-0.050000,0.000000,0.000000,0.000000,0.000000,0.000000,0.000000,0.000000,0.100000,0.100000,-0.888536,-0.846593,-0.050000,-0.050000,0.591158,-0.617526,0.000000,0.000000,-0.492011,0.581801,0.189479,0.156680,0.142545,-0.213260,-0.190018,-0.118051,0.472094,-0.568328
-0.050000,-0.050000,0.000000,0.000000,0.000000,0.000000,0.000000,0.000000,0.000000,0.100000,0.100000,-0.881971,-0.844144,-0.050000,-0.050000,0.592104,-0.616108,0.000000,0.000000,-0.491762,0.585003,0.186457,0.156889,0.144219,-0.215350,-0.191560,-0.119558,0.475034,-0.570025
-0.050000,-0.050000,0.000000,0.000000,0.000000,0.000000,0.000000,0.000000,0.000000,0.100000,0.100000,-0.875970,-0.841836,-0.050000,-0.050000,0.593139,-0.615063,0.000000,0.000000,-0.491564,0.588030,0.183574,0.157138,0.145787,-0.217336,-0.192765,-0.120916,0.478170,-0.571736
-0.050000,-0.050000,0.000000,0.000000,0.000000,0.000000,0.000000,0.000000,0.000000,0.100000,0.100000,-0.870428,-0.839650,-0.050000,-0.050000,0.594187,-0.614231,0.000000,0.000000,-0.491431,0.590928,0.180878,0.157452,0.147241,-0.219251,-0.193718,-0.122142,0.481454,-0.573463
-0.050000,-0.050000,0.000000,0.000000,0.000000,0.000000,0.000000,0.000000,0.000000,0.100000,0.100000,-0.865557,-0.837639,-0.050000,-0.050000,0.595272,-0.613658,0.000000,0.000000,-0.491325,0.593640,0.178557,0.158001,0.148507,-0.221098,-0.194294,-0.123121,0.484973,-0.575243
-0.050000,-0.050000,0.000000,0.000000,0.000000,0.000000,0.000000,0.000000,0.000000,0.100000,0.100000,-0.861255,-0.835802,-0.050000,-0.050000,0.596343,-0.613203,0.000000,0.000000,-0.491287,0.596221,0.176639,0.158793,0.149580,-0.222864,-0.194584,-0.123894,0.488635,-0.577029
-0.050000,-0.050000,0.000000,0.000000,0.000000,0.000000,0.000000,0.000000,0.000000,0.100000,0.100000,-0.857533,-0.834149,-0.050000,-0.050000,0.597406,-0.612837,0.000000,0.000000,-0.491302,0.598661,0.175189,0.159894,0.150437,-0.224533,-0.194593,-0.124442,0.492414,-0.578797
-0.050000,-0.050000,0.000000,0.000000,0.000000,0.000000,0.000000,0.000000,0.000000,0.100000,0.100000,-0.854440,-0.832704,-0.050000,-0.050000,0.598462,-0.612501,0.000000,0.000000,-0.491349,0.600925,0.174377,0.161448,0.150995,-0.226027,-0.194272,-0.124697,0.496233,-0.580461
-0.050000,-0.050000,0.000000,0.000000,0.000000,0.000000,0.000000,0.000000,0.000000,0.100000,0.100000,-0.851832,-0.831468,-0.050000,-0.050000,0.599509,-0.612154,0.000000,0.000000,-0.491463,0.603065,0.174061,0.163319,0.151312,-0.227352,-0.193774,-0.124772,0.500019,-0.582005
-0.050000,-0.050000,0.000000,0.000000,0.000000,0.000000,0.000000,0.000000,0.000000,0.100000,0.100000,-0.849730,-0.830441,-0.050000,-0.050000,0.600573,-0.611766,0.000000,0.000000,-0.491567,0.604980,0.174443,0.165681,0.151276,-0.228369,-0.193020,-0.124565,0.503645,-0.583297
-0.050000,-0.050000,0.000000,0.000000,0.000000,0.000000,0.000000,0.000000,0.000000,0.100000,0.100000,-0.847999,-0.829626,-0.050000,-0.050000,0.601666,-0.611334,0.000000,0.000000,-0.491681,0.606709,0.175345,0.168369,0.150949,-0.229084,-0.192161,-0.124189,0.507059,-0.584336
-0.050000,-0.050000,0.000000,0.000000,0.000000,0.000000,0.000000,0.000000,0.000000,0.100000,0.100000,-0.846558,-0.828996,-0.050000,-0.050000,0.602807,-0.610868,0.000000,0.000000,-0.491753,0.608208,0.176756,0.171379,0.150325,-0.229442,-0.191218,-0.123638,0.510199,-0.585079
-0.050000,-0.050000,0.000000,0.000000,0.000000,0.000000,0.000000,0.000000,0.000000,0.100000,0.100000,-0.845289,-0.828544,-0.050000,-0.050000,0.604034,-0.610391,0.000000,0.000000,-0.491704,0.609375,0.178688,0.174709,0.149377,-0.229291,-0.190238,-0.122905,0.512925,-0.585423
-0.050000,-0.050000,0.000000,0.000000,0.000000,0.000000,0.000000,0.000000,0.000000,0.100000,0.100000,-0.844141,-0.828252,-0.050000,-0.050000,0.605346,-0.609946,0.000000,0.000000,-0.491555,0.610296,0.180936,0.178204,0.148212,-0.228733,-0.189303,-0.122070,0.515330,-0.585452
-0.050000,-0.050000,0.000000,0.000000,0.000000,0.000000,0.000000,0.000000,0.000000,0.100000,0.100000,-0.842953,-0.828102,-0.050000,-0.050000,0.606798,-0.609601,0.000000,0.000000,-0.491171,0.610783,0.183553,0.181916,0.146816,-0.227526,-0.188443,-0.121089,0.517252,-0.585041
-0.050000,-0.050000,0.000000,0.000000,0.000000,0.000000,0.000000,0.000000,0.000000,0.100000,0.100000,-0.841720,-0.828080,-0.050000,-0.050000,0.608383,-0.609411,0.000000,0.000000,-0.490581,0.610942,0.186345,0.185712,0.145310,-0.225779,-0.187714,-0.120027,0.518815,-0.584274
-0.050000,-0.050000,0.000000,0.000000,0.000000,0.000000,0.000000,0.000000,0.000000,0.100000,0.100000,-0.840364,-0.828165,-0.050000,-0.050000,0.610121,-0.609434,0.000000,0.000000,-0.489737,0.610723,0.189271,0.189587,0.143751,-0.223436,-0.187122,-0.118880,0.520020,-0.583145
-0.050000,-0.050000,0.000000,0.000000,0.000000,0.000000,0.000000,0.000000,0.000000,0.100000,0.100000,-0.838806,-0.828359,-0.050000,-0.050000,0.612083,-0.609825,0.000000,0.000000,-0.488550,0.610014,0.192261,0.193538,0.142256,-0.220341,-0.186717,-0.117640,0.520858,-0.581615
-0.050000,-0.050000,0.000000,0.000000,0.000000,0.000000,0.000000,0.000000,0.000000,0.100000,0.100000,-0.837095,-0.828632,-0.050000,-0.050000,0.614209,-0.610545,0.000000,0.000000,-0.487100,0.608969,0.195217,0.197493,0.140852,-0.216677,-0.186454,-0.116340,0.521445,-0.579766
-0.050000,-0.050000,0.000000,0.000000,0.000000,0.000000,0.000000,0.000000,0.000000,0.100000,0.100000,-0.835135,-0.828997,-0.050000,-0.050000,0.616654,-0.611860,0.000000,0.000000,-0.485240,0.607345,0.198101,0.201514,0.139686,-0.212179,-0.186368,-0.114931,0.521737,-0.577526
-0.050000,-0.050000,0.000000,0.000000,0.000000,0.000000,0.000000,0.000000,0.000000,0.100000,0.100000,-0.832982,-0.829417,-0.050000,-0.050000,0.619347,-0.613706,0.000000,0.000000,-0.483070,0.605302,0.200830,0.205515,0.138728,-0.207047,-0.186389,-0.113437,0.521816,-0.574961
-0.050000,-0.050000,0.000000,0.000000,0.000000,0.000000,0.000000,0.000000,0.000000,0.100000,0.100000,-0.830613,-0.829879,-0.050000,-0.050000,0.622354,-0.616190,0.000000,0.000000,-0.480556,0.602759,0.203378,0.209509,0.138008,-0.201256,-0.186487,-0.111830,0.521677,-0.572078
-0.050000,-0.050000,0.000000,0.000000,0.000000,0.000000,0.000000,0.000000,0.000000,0.100000,0.100000,-0.827982,-0.830360,-0.050000,-0.050000,0.625823,-0.619548,0.000000,0.000000,-0.477642,0.599566,0.205667,0.213479,0.137554,-0.194749,-0.186613,-0.110054,0.521267,-0.568853
-0.050000,-0.050000,0.000000,0.000000,0.000000,0.000000,0.000000,0.000000,0.000000,0.100000,0.100000,-0.825112,-0.830812,-0.050000,-0.050000,0.629613,-0.623573,0.000000,0.000000,-0.474436,0.595897,0.207680,0.217328,0.137243,-0.187744,-0.186707,-0.108140,0.520606,-0.565344
-0.050000,-0.050000,0.000000,0.000000,0.000000,0.000000,0.000000,0.000000,0.000000,0.100000,0.100000,-0.821869,-0.831212,-0.050000,-0.050000,0.634051,-0.628725,0.000000,0.000000,-0.470800,0.591410,0.209342,0.221056,0.137092,-0.180145,-0.186697,-0.105971,0.519527,-0.561517
-0.050000,-0.050000,0.000000,0.000000,0.000000,0.000000,0.000000,0.000000,0.000000,0.100000,0.100000,-0.818245,-0.831495,-0.050000,-0.050000,0.638946,-0.634715,0.000000,0.000000,-0.466852,0.586313,0.210625,0.224520,0.136948,-0.172186,-0.186540,-0.103593,0.518019,-0.557423
-0.050000,-0.050000,0.000000,0.000000,0.000000,0.000000,0.000000,0.000000,0.000000,0.100000,0.100000,-0.814144,-0.831631,-0.050000,-0.050000,0.644415,-0.641676,0.000000,0.000000,-0.462559,0.580496,0.211523,0.227689,0.136768,-0.163944,-0.186186,-0.100958,0.515984,-0.553097
-0.050000,-0.050000,0.000000,0.000000,0.000000,0.000000,0.000000,0.000000,0.000000,0.100000,0.100000,-0.809329,-0.831581,-0.050000,-0.050000,0.650621,-0.649797,0.000000,0.000000,-0.457890,0.573800,0.212003,0.230433,0.136446,-0.155558,-0.185566,-0.098024,0.513198,-0.548582
-0.050000,-0.050000,0.000000,0.000000,0.000000,0.000000,0.000000,0.000000,0.000000,0.100000,0.100000,-0.803862,-0.831287,-0.050000,-0.050000,0.657319,-0.658703,0.000000,0.000000,-0.452913,0.566458,0.212079,0.232711,0.135957,-0.147138,-0.184713,-0.094857,0.509760,-0.543931
-0.050000,-0.050000,0.000000,0.000000,0.000000,0.000000,0.000000,0.000000,0.000000,0.100000,0.100000,-0.797224,-0.830770,-0.050000,-0.050000,0.664872,-0.668837,0.000000,0.000000,-0.447557,0.558098,0.211820,0.234388,0.135213,-0.138875,-0.183531,-0.091401,0.505278,-0.539282
-0.050000,-0.050000,0.000000,0.000000,0.000000,0.000000,0.000000,0.000000,0.000000,0.100000,0.100000,-0.789523,-0.829950,-0.050000,-0.050000,0.672940,-0.679690,0.000000,0.000000,-0.441871,0.549018,0.211244,0.235461,0.134234,-0.130804,-0.182105,-0.087758,0.499932,-0.534697
-0.050000,-0.050000,0.000000,0.000000,0.000000,0.000000,0.000000,0.000000,0.000000,0.100000,0.100000,-0.780468,-0.828862,-0.050000,-0.050000,0.681591,-0.691315,0.000000,0.000000,-0.435845,0.539113,0.210505,0.235930,0.133022,-0.123029,-0.180420,-0.083957,0.493616,-0.530328
-0.050000,-0.050000,0.000000,0.000000,0.000000,0.000000,0.000000,0.000000,0.000000,0.100000,0.100000,-0.769552,-0.827542,-0.050000,-0.050000,0.690816,-0.703641,0.000000,0.000000,-0.429473,0.528247,0.209852,0.235757,0.131557,-0.115646,-0.178483,-0.080098,0.486161,-0.526448
-0.050000,-0.050000,0.000000,0.000000,0.000000,0.000000,0.000000,0.000000,0.000000,0.100000,0.100000,-0.757084,-0.825893,-0.050000,-0.050000,0.700329,-0.716291,0.000000,0.000000,-0.422729,0.516710,0.209274,0.235104,0.129900,-0.108541,-0.176406,-0.076232,0.477868,-0.523018
-0.050000,-0.050000,0.000000,0.000000,0.000000,0.000000,0.000000,0.000000,0.000000,0.100000,0.100000,-0.741924,-0.824094,-0.050000,-0.050000,0.710181,-0.729309,0.000000,0.000000,-0.415621,0.504051,0.209426,0.233983,0.127965,-0.101796,-0.174113,-0.072526,0.468371,-0.520596
-0.050000,-0.050000,0.000000,0.000000,0.000000,0.000000,0.000000,0.000000,0.000000,0.100000,0.100000,-0.724634,-0.821958,-0.050000,-0.050000,0.720017,-0.742282,0.000000,0.000000,-0.408067,0.490688,0.210184,0.232638,0.125795,-0.095199,-0.171780,-0.069005,0.458084,-0.519018
-0.050000,-0.050000,0.000000,0.000000,0.000000,0.000000,0.000000,0.000000,0.000000,0.100000,0.100000,-0.704713,-0.819593,-0.050000,-0.050000,0.729691,-0.755118,0.000000,0.000000,-0.400063,0.476456,0.211988,0.231229,0.123317,-0.088659,-0.169378,-0.065776,0.446972,-0.518538
-0.050000,-0.050000,0.000000,0.000000,0.000000,0.000000,0.000000,0.000000,0.000000,0.100000,0.100000,-0.681584,-0.816977,-0.050000,-0.050000,0.738864,-0.767535,0.000000,0.000000,-0.391523,0.461213,0.215415,0.230064,0.120328,-0.081918,-0.166926,-0.062969,0.435066,-0.519458
-0.050000,-0.050000,0.000000,0.000000,0.000000,0.000000,0.000000,0.000000,0.000000,0.100000,0.100000,-0.656011,-0.813998,-0.050000,-0.050000,0.747391,-0.779501,0.000000,0.000000,-0.382408,0.445396,0.220093,0.229253,0.116897,-0.074906,-0.164583,-0.060555,0.422681,-0.521416
-0.050000,-0.050000,0.000000,0.000000,0.000000,0.000000,0.000000,0.000000,0.000000,0.100000,0.100000,-0.626570,-0.810683,-0.050000,-0.050000,0.754663,-0.790646,0.000000,0.000000,-0.372569,0.428402,0.227302,0.229339,0.112451,-0.067114,-0.162184,-0.058725,0.409714,-0.525010
-0.050000,-0.050000,0.000000,0.000000,0.000000,0.000000,0.000000,0.000000,0.000000,0.100000,0.100000,-0.594568,-0.806858,-0.050000,-0.050000,0.760674,-0.801119,0.000000,0.000000,-0.362004,0.410948,0.236239,0.230290,0.107162,-0.058599,-0.160003,-0.057426,0.396531,-0.529611
-0.050000,-0.050000,0.000000,0.000000,0.000000,0.000000,0.000000,0.000000,0.000000,0.100000,0.100000,-0.559646,-0.802520,-0.050000,-0.050000,0.765000,-0.810789,0.000000,0.000000,-0.350641,0.392803,0.247408,0.232413,0.100687,-0.049061,-0.157915,-0.056713,0.383198,-0.535294
-0.050000,-0.050000,0.000000,0.000000,0.000000,0.000000,0.000000,0.000000,0.000000,0.100000,0.100000,-0.521883,-0.797425,-0.050000,-0.050000,0.767194,-0.819545,0.000000,0.000000,-0.338331,0.374004,0.261118,0.236090,0.092576,-0.038130,-0.155945,-0.056643,0.369934,-0.541898
-0.050000,-0.050000,0.000000,0.000000,0.000000,0.000000,0.000000,0.000000,0.000000,0.100000,0.100000,-0.482337,-0.791675,-0.050000,-0.050000,0.767495,-0.827689,0.000000,0.000000,-0.325310,0.355008,0.276608,0.241009,0.083214,-0.026092,-0.154209,-0.057202,0.356829,-0.548987
-0.050000,-0.050000,0.000000,0.000000,0.000000,0.000000,0.000000,0.000000,0.000000,0.100000,0.100000,-0.440662,-0.784741,-0.050000,-0.050000,0.765031,-0.834843,0.000000,0.000000,-0.311193,0.335445,0.294915,0.248013,0.071558,-0.012155,-0.152509,-0.058441,0.344214,-0.556476
-0.050000,-0.050000,0.000000,0.000000,0.000000,0.000000,0.000000,0.000000,0.000000,0.100000,0.100000,-0.398282,-0.776898,-0.050000,-0.050000,0.760494,-0.841491,0.000000,0.000000,-0.296499,0.315940,0.314892,0.256455,0.058416,0.003098,-0.151034,-0.060373,0.332049,-0.563881
-0.050000,-0.050000,0.000000,0.000000,0.000000,0.000000,0.000000,0.000000,0.000000,0.100000,0.100000,-0.355545,-0.767894,-0.050000,-0.050000,0.753637,-0.847493,0.000000,0.000000,-0.281146,0.296345,0.336815,0.266652,0.043476,0.019921,-0.149596,-0.062937,0.320510,-0.570987
-0.050000,-0.050000,0.000000,0.000000,0.000000,0.000000,0.000000,0.000000,0.000000,0.100000,0.100000,-0.313393,-0.757430,-0.050000,-0.050000,0.744637,-0.852865,0.000000,0.000000,-0.265216,0.276851,0.360609,0.278744,0.026729,0.038411,-0.148135,-0.066113,0.309804,-0.577366
-0.050000,-0.050000,0.000000,0.000000,0.000000,0.000000,0.000000,0.000000,0.000000,0.100000,0.100000,-0.272330,-0.745934,-0.050000,-0.050000,0.734047,-0.857842,0.000000,0.000000,-0.249218,0.257497,0.385735,0.292221,0.008842,0.058112,-0.146638,-0.069859,0.299694,-0.582967
-0.050000,-0.050000,0.000000,0.000000,0.000000,0.000000,0.000000,0.000000,0.000000,0.100000,0.100000,-0.233622,-0.732493,-0.050000,-0.050000,0.722006,-0.862102,0.000000,0.000000,-0.232818,0.238468,0.412598,0.307823,-0.010489,0.079521,-0.144859,-0.074011,0.290689,-0.587138
-0.050000,-0.050000,0.000000,0.000000,0.000000,0.000000,0.000000,0.000000,0.000000,0.100000,0.100000,-0.197316,-0.717944,-0.050000,-0.050000,0.709238,-0.865986,0.000000,0.000000,-0.216754,0.219631,0.440570,0.324725,-0.030353,0.101984,-0.142850,-0.078573,0.282325,-0.590079
-0.050000,-0.050000,0.000000,0.000000,0.000000,0.000000,0.000000,0.000000,0.000000,0.100000,0.100000,-0.164131,-0.701898,-0.050000,-0.050000,0.696137,-0.869313,0.000000,0.000000,-0.200867,0.201073,0.469659,0.343163,-0.050586,0.125582,-0.140461,-0.083322,0.274780,-0.591496
-0.050000,-0.050000,0.000000,0.000000,0.000000,0.000000,0.000000,0.000000,0.000000,0.100000,0.100000,-0.134745,-0.684321,-0.050000,-0.050000,0.683433,-0.872037,0.000000,0.000000,-0.185306,0.182903,0.499651,0.363063,-0.070647,0.150218,-0.137584,-0.088103,0.268092,-0.591160
-0.050000,-0.050000,0.000000,0.000000,0.000000,0.000000,0.000000,0.000000,0.000000,0.100000,0.100000,-0.108547,-0.665756,-0.050000,-0.050000,0.671225,-0.874289,0.000000,0.000000,-0.170257,0.164781,0.530305,0.383951,-0.090372,0.175574,-0.134288,-0.092879,0.261972,-0.589389
-0.050000,-0.050000,0.000000,0.000000,0.000000,0.000000,0.000000,0.000000,0.000000,0.100000,0.100000,-0.087097,-0.645571,-0.050000,-0.050000,0.660766,-0.875793,0.000000,0.000000,-0.155547,0.147303,0.561253,0.406121,-0.109047,0.201802,-0.130415,-0.097300,0.256851,-0.585557
-0.050000,-0.050000,0.000000,0.000000,0.000000,0.000000,0.000000,0.000000,0.000000,0.100000,0.100000,-0.068945,-0.624691,-0.050000,-0.050000,0.651608,-0.876799,0.000000,0.000000,-0.141392,0.129801,0.592309,0.428879,-0.126922,0.228530,-0.126118,-0.101476,0.252293,-0.580286
-0.050000,-0.050000,0.000000,0.000000,0.000000,0.000000,0.000000,0.000000,0.000000,0.100000,0.100000,-0.054565,-0.602911,-0.050000,-0.050000,0.644419,-0.877226,0.000000,0.000000,-0.127639,0.112641,0.622986,0.452164,-0.143711,0.255723,-0.121454,-0.105185,0.248488,-0.573395
-0.050000,-0.050000,0.000000,0.000000,0.000000,0.000000,0.000000,0.000000,0.000000,0.100000,0.100000,-0.043905,-0.580495,-0.050000,-0.050000,0.639571,-0.877139,0.000000,0.000000,-0.114326,0.095882,0.652712,0.475605,-0.159358,0.283254,-0.116545,-0.108366,0.245536,-0.564928
-0.050000,-0.050000,0.000000,0.000000,0.000000,0.000000,0.000000,0.000000,0.000000,0.100000,0.100000,-0.035910,-0.557790,-0.050000,-0.050000,0.636514,-0.876652,0.000000,0.000000,-0.101371,0.079220,0.681521,0.498965,-0.174307,0.310954,-0.111454,-0.111048,0.243202,-0.555280
-0.050000,-0.050000,0.000000,0.000000,0.000000,0.000000,0.000000,0.000000,0.000000,0.100000,0.100000,-0.031626,-0.534829,-0.050000,-0.050000,0.636502,-0.875905,0.000000,0.000000,-0.088910,0.063410,0.707996,0.521707,-0.188269,0.338664,-0.106563,-0.113124,0.242061,-0.544138
-0.050000,-0.050000,0.000000,0.000000,0.000000,0.000000,0.000000,0.000000,0.000000,0.100000,0.100000,-0.029356,-0.512030,-0.050000,-0.050000,0.638265,-0.874991,0.000000,0.000000,-0.076816,0.047801,0.732785,0.543798,-0.201968,0.366214,-0.101744,-0.114701,0.241649,-0.532133
-0.050000,-0.050000,0.000000,0.000000,0.000000,0.000000,0.000000,0.000000,0.000000,0.100000,0.100000,-0.029382,-0.489496,-0.050000,-0.050000,0.642286,-0.874120,0.000000,0.000000,-0.065197,0.032904,0.755063,0.564825,-0.215430,0.393357,-0.097354,-0.115800,0.242222,-0.519253
-0.050000,-0.050000,0.000000,0.000000,0.000000,0.000000,0.000000,0.000000,0.000000,0.100000,0.100000,-0.031358,-0.467560,-0.050000,-0.050000,0.648444,-0.873532,0.000000,0.000000,-0.054169,0.018862,0.774431,0.584410,-0.228954,0.419740,-0.093614,-0.116536,0.243852,-0.505743
-0.050000,-0.050000,0.000000,0.000000,0.000000,0.000000,0.000000,0.000000,0.000000,0.100000,0.100000,-0.034519,-0.446235,-0.050000,-0.050000,0.656061,-0.873151,0.000000,0.000000,-0.043595,0.005452,0.791534,0.602818,-0.242682,0.445324,-0.090346,-0.116910,0.246248,-0.491929
-0.050000,-0.050000,0.000000,0.000000,0.000000,0.000000,0.000000,0.000000,0.000000,0.100000,0.100000,-0.039394,-0.426166,-0.050000,-0.050000,0.665857,-0.873633,0.000000,0.000000,-0.033996,-0.006436,0.804850,0.618941,-0.256756,0.469186,-0.088355,-0.117250,0.249842,-0.477926
-0.050000,-0.050000,0.000000,0.000000,0.000000,0.000000,0.000000,0.000000,0.000000,0.100000,0.100000,-0.044874,-0.407130,-0.050000,-0.050000,0.676642,-0.874512,0.000000,0.000000,-0.024967,-0.017451,0.815985,0.633684,-0.271153,0.491631,-0.087000,-0.117417,0.254089,-0.464143
-0.050000,-0.050000,0.000000,0.000000,0.000000,0.000000,0.000000,0.000000,0.000000,0.100000,0.100000,-0.051185,-0.389541,-0.050000,-0.050000,0.688668,-0.876174,0.000000,0.000000,-0.016828,-0.027056,0.824375,0.646461,-0.285802,0.512064,-0.086741,-0.117678,0.259045,-0.450710
-0.050000,-0.050000,0.000000,0.000000,0.000000,0.000000,0.000000,0.000000,0.000000,0.100000,0.100000,-0.058097,-0.373738,-0.050000,-0.050000,0.701643,-0.878652,0.000000,0.000000,-0.009682,-0.035110,0.830281,0.657194,-0.300563,0.530081,-0.087605,-0.118158,0.264536,-0.437935
-0.050000,-0.050000,0.000000,0.000000,0.000000,0.000000,0.000000,0.000000,0.000000,0.100000,0.100000,-0.065336,-0.359499,-0.050000,-0.050000,0.715117,-0.881635,0.000000,0.000000,-0.003237,-0.041906,0.834493,0.666438,-0.315306,0.546096,-0.089274,-0.118757,0.270336,-0.425892
-0.050000,-0.050000,0.000000,0.000000,0.000000,0.000000,0.000000,0.000000,0.000000,0.100000,0.100000,-0.073202,-0.348031,-0.050000,-0.050000,0.729310,-0.885676,0.000000,0.000000,0.001755,-0.046563,0.836295,0.673036,-0.329663,0.558767,-0.092315,-0.119947,0.276304,-0.414988
