RRGGZZ/g1_deploy_sonic/data/example_scalelab/qwen_50fps/case_test08/joint_pos.csv
joint_0,joint_1,joint_2,joint_3,joint_4,joint_5,joint_6,joint_7,joint_8,joint_9,joint_10,joint_11,joint_12,joint_13,joint_14,joint_15,joint_16,joint_17,joint_18,joint_19,joint_20,joint_21,joint_22,joint_23,joint_24,joint_25,joint_26,joint_27,joint_28
-0.050000,-0.050000,0.000000,0.000000,0.000000,0.000000,0.000000,0.000000,0.000000,0.100000,0.100000,-0.094402,-0.598132,-0.050000,-0.050000,0.431347,-0.772280,0.000000,0.000000,-0.479551,0.300100,1.020262,-0.015127,0.131092,-0.443455,-0.099113,-0.005131,0.062716,-0.610335
-0.050000,-0.050000,0.000000,0.000000,0.000000,0.000000,0.000000,0.000000,0.000000,0.100000,0.100000,-0.110350,-0.613377,-0.050000,-0.050000,0.412969,-0.778229,0.000000,0.000000,-0.478412,0.305388,1.046166,0.002243,0.132096,-0.437857,-0.112998,-0.006057,0.070375,-0.627164
-0.050000,-0.050000,0.000000,0.000000,0.000000,0.000000,0.000000,0.000000,0.000000,0.100000,0.100000,-0.119037,-0.619020,-0.050000,-0.050000,0.401669,-0.781360,0.000000,0.000000,-0.476514,0.303587,1.060416,0.012011,0.134175,-0.432439,-0.118936,-0.006017,0.074700,-0.639053
-0.050000,-0.050000,0.000000,0.000000,0.000000,0.000000,0.000000,0.000000,0.000000,0.100000,0.100000,-0.123864,-0.618722,-0.050000,-0.050000,0.393851,-0.783060,0.000000,0.000000,-0.474979,0.298105,1.069659,0.017570,0.137075,-0.427581,-0.120813,-0.005246,0.077216,-0.648207
-0.050000,-0.050000,0.000000,0.000000,0.000000,0.000000,0.000000,0.000000,0.000000,0.100000,0.100000,-0.126796,-0.614908,-0.050000,-0.050000,0.387721,-0.784028,0.000000,0.000000,-0.473931,0.290431,1.076634,0.020754,0.140426,-0.423156,-0.120749,-0.004022,0.078865,-0.655922
-0.050000,-0.050000,0.000000,0.000000,0.000000,0.000000,0.000000,0.000000,0.000000,0.100000,0.100000,-0.128180,-0.608544,-0.050000,-0.050000,0.382477,-0.784878,0.000000,0.000000,-0.473317,0.282183,1.083691,0.022510,0.145017,-0.419112,-0.119261,-0.003096,0.079617,-0.661851
-0.050000,-0.050000,0.000000,0.000000,0.000000,0.000000,0.000000,0.000000,0.000000,0.100000,0.100000,-0.128818,-0.600843,-0.050000,-0.050000,0.377619,-0.785662,0.000000,0.000000,-0.472856,0.273525,1.090764,0.023430,0.150198,-0.415337,-0.117224,-0.002390,0.080016,-0.666837
-0.050000,-0.050000,0.000000,0.000000,0.000000,0.000000,0.000000,0.000000,0.000000,0.100000,0.100000,-0.128617,-0.592194,-0.050000,-0.050000,0.373073,-0.786624,0.000000,0.000000,-0.472421,0.265197,1.098516,0.023787,0.156211,-0.411859,-0.114664,-0.002213,0.079990,-0.670672
-0.050000,-0.050000,0.000000,0.000000,0.000000,0.000000,0.000000,0.000000,0.000000,0.100000,0.100000,-0.127617,-0.583047,-0.050000,-0.050000,0.368825,-0.787875,0.000000,0.000000,-0.471730,0.257455,1.106910,0.023760,0.162842,-0.408693,-0.111788,-0.002675,0.079680,-0.673555
-0.050000,-0.050000,0.000000,0.000000,0.000000,0.000000,0.000000,0.000000,0.000000,0.100000,0.100000,-0.126105,-0.573675,-0.050000,-0.050000,0.364696,-0.789243,0.000000,0.000000,-0.470813,0.250112,1.115656,0.023583,0.169859,-0.405706,-0.108781,-0.003559,0.079204,-0.675884
-0.050000,-0.050000,0.000000,0.000000,0.000000,0.000000,0.000000,0.000000,0.000000,0.100000,0.100000,-0.123632,-0.564262,-0.050000,-0.050000,0.361130,-0.791182,0.000000,0.000000,-0.469189,0.243722,1.124854,0.023173,0.177086,-0.403078,-0.105612,-0.005260,0.078600,-0.677540
-0.050000,-0.050000,0.000000,0.000000,0.000000,0.000000,0.000000,0.000000,0.000000,0.100000,0.100000,-0.120703,-0.554971,-0.050000,-0.050000,0.357777,-0.793245,0.000000,0.000000,-0.467102,0.237699,1.133913,0.022859,0.184250,-0.400531,-0.102516,-0.007328,0.077987,-0.679106
-0.050000,-0.050000,0.000000,0.000000,0.000000,0.000000,0.000000,0.000000,0.000000,0.100000,0.100000,-0.117194,-0.545874,-0.050000,-0.050000,0.354917,-0.795657,0.000000,0.000000,-0.464343,0.232154,1.142692,0.022624,0.191089,-0.398097,-0.099516,-0.009845,0.077444,-0.680693
-0.050000,-0.050000,0.000000,0.000000,0.000000,0.000000,0.000000,0.000000,0.000000,0.100000,0.100000,-0.113311,-0.537035,-0.050000,-0.050000,0.352583,-0.798310,0.000000,0.000000,-0.460915,0.226794,1.150631,0.022721,0.197221,-0.395583,-0.096814,-0.012614,0.077099,-0.682661
-0.050000,-0.050000,0.000000,0.000000,0.000000,0.000000,0.000000,0.000000,0.000000,0.100000,0.100000,-0.109139,-0.528432,-0.050000,-0.050000,0.350652,-0.801070,0.000000,0.000000,-0.457093,0.221592,1.157902,0.023117,0.202845,-0.392976,-0.094260,-0.015568,0.076831,-0.684941
-0.050000,-0.050000,0.000000,0.000000,0.000000,0.000000,0.000000,0.000000,0.000000,0.100000,0.100000,-0.104984,-0.520103,-0.050000,-0.050000,0.349502,-0.804030,0.000000,0.000000,-0.452570,0.216167,1.163244,0.024363,0.206986,-0.389902,-0.092406,-0.018447,0.077066,-0.688065
-0.050000,-0.050000,0.000000,0.000000,0.000000,0.000000,0.000000,0.000000,0.000000,0.100000,0.100000,-0.100827,-0.512028,-0.050000,-0.050000,0.348894,-0.806961,0.000000,0.000000,-0.447920,0.210686,1.167275,0.026282,0.210254,-0.386422,-0.090835,-0.021291,0.077470,-0.691664
-0.050000,-0.050000,0.000000,0.000000,0.000000,0.000000,0.000000,0.000000,0.000000,0.100000,0.100000,-0.096980,-0.504171,-0.050000,-0.050000,0.348958,-0.809855,0.000000,0.000000,-0.443065,0.204947,1.169314,0.029252,0.212196,-0.382281,-0.089864,-0.023896,0.078305,-0.695881
-0.050000,-0.050000,0.000000,0.000000,0.000000,0.000000,0.000000,0.000000,0.000000,0.100000,0.100000,-0.093702,-0.496534,-0.050000,-0.050000,0.349734,-0.812589,0.000000,0.000000,-0.438352,0.199053,1.169090,0.033530,0.212810,-0.377258,-0.089526,-0.026166,0.079642,-0.700475
-0.050000,-0.050000,0.000000,0.000000,0.000000,0.000000,0.000000,0.000000,0.000000,0.100000,0.100000,-0.090707,-0.489162,-0.050000,-0.050000,0.351084,-0.815220,0.000000,0.000000,-0.433809,0.193065,1.167312,0.038757,0.212491,-0.371598,-0.089487,-0.028283,0.081242,-0.705322
-0.050000,-0.050000,0.000000,0.000000,0.000000,0.000000,0.000000,0.000000,0.000000,0.100000,0.100000,-0.089087,-0.481978,-0.050000,-0.050000,0.353263,-0.817479,0.000000,0.000000,-0.429933,0.187218,1.162309,0.046009,0.210679,-0.364511,-0.090443,-0.029808,0.083823,-0.709966
-0.050000,-0.050000,0.000000,0.000000,0.000000,0.000000,0.000000,0.000000,0.000000,0.100000,0.100000,-0.087985,-0.475213,-0.050000,-0.050000,0.356058,-0.819592,0.000000,0.000000,-0.426631,0.181585,1.155633,0.054422,0.208112,-0.356599,-0.091637,-0.031218,0.086836,-0.714363
-0.050000,-0.050000,0.000000,0.000000,0.000000,0.000000,0.000000,0.000000,0.000000,0.100000,0.100000,-0.088094,-0.468768,-0.050000,-0.050000,0.359500,-0.821385,0.000000,0.000000,-0.424188,0.176471,1.146510,0.064472,0.204731,-0.347531,-0.093451,-0.032330,0.090739,-0.718078
-0.050000,-0.050000,0.000000,0.000000,0.000000,0.000000,0.000000,0.000000,0.000000,0.100000,0.100000,-0.089429,-0.462792,-0.050000,-0.050000,0.363570,-0.822897,0.000000,0.000000,-0.422815,0.172185,1.135145,0.075967,0.200915,-0.337439,-0.095762,-0.033327,0.095677,-0.720773
-0.050000,-0.050000,0.000000,0.000000,0.000000,0.000000,0.000000,0.000000,0.000000,0.100000,0.100000,-0.091487,-0.457314,-0.050000,-0.050000,0.368048,-0.824251,0.000000,0.000000,-0.422115,0.168448,1.122302,0.088534,0.196820,-0.326631,-0.098310,-0.034321,0.101303,-0.722752
-0.050000,-0.050000,0.000000,0.000000,0.000000,0.000000,0.000000,0.000000,0.000000,0.100000,0.100000,-0.095471,-0.452354,-0.050000,-0.050000,0.373146,-0.825195,0.000000,0.000000,-0.423042,0.166361,1.106765,0.102347,0.193021,-0.314981,-0.101607,-0.035411,0.108729,-0.722920
-0.050000,-0.050000,0.000000,0.000000,0.000000,0.000000,0.000000,0.000000,0.000000,0.100000,0.100000,-0.100126,-0.448033,-0.050000,-0.050000,0.378497,-0.826017,0.000000,0.000000,-0.424654,0.165022,1.090029,0.116794,0.189514,-0.303033,-0.105073,-0.036726,0.117118,-0.722198
-0.050000,-0.050000,0.000000,0.000000,0.000000,0.000000,0.000000,0.000000,0.000000,0.100000,0.100000,-0.106128,-0.444236,-0.050000,-0.050000,0.384158,-0.826540,0.000000,0.000000,-0.427406,0.165073,1.071514,0.131639,0.186817,-0.290971,-0.109035,-0.038393,0.127079,-0.720108
-0.050000,-0.050000,0.000000,0.000000,0.000000,0.000000,0.000000,0.000000,0.000000,0.100000,0.100000,-0.113188,-0.440991,-0.050000,-0.050000,0.389987,-0.826776,0.000000,0.000000,-0.431069,0.166322,1.051560,0.146353,0.185262,-0.279289,-0.113395,-0.040569,0.138619,-0.716967
-0.050000,-0.050000,0.000000,0.000000,0.000000,0.000000,0.000000,0.000000,0.000000,0.100000,0.100000,-0.120891,-0.438132,-0.050000,-0.050000,0.395825,-0.826791,0.000000,0.000000,-0.435190,0.168330,1.030683,0.160955,0.184605,-0.267960,-0.117991,-0.043065,0.151267,-0.713124
-0.050000,-0.050000,0.000000,0.000000,0.000000,0.000000,0.000000,0.000000,0.000000,0.100000,0.100000,-0.129852,-0.435701,-0.050000,-0.050000,0.401734,-0.826265,0.000000,0.000000,-0.440269,0.171724,1.008225,0.174288,0.185984,-0.257982,-0.123131,-0.046419,0.165914,-0.708573
-0.050000,-0.050000,0.000000,0.000000,0.000000,0.000000,0.000000,0.000000,0.000000,0.100000,0.100000,-0.139139,-0.433444,-0.050000,-0.050000,0.407444,-0.825371,0.000000,0.000000,-0.445407,0.175506,0.985180,0.186903,0.188565,-0.248924,-0.128372,-0.050082,0.181527,-0.703874
-0.050000,-0.050000,0.000000,0.000000,0.000000,0.000000,0.000000,0.000000,0.000000,0.100000,0.100000,-0.149070,-0.431337,-0.050000,-0.050000,0.412995,-0.823880,0.000000,0.000000,-0.450813,0.179942,0.961269,0.198065,0.192896,-0.241329,-0.133831,-0.054330,0.198355,-0.699225
-0.050000,-0.050000,0.000000,0.000000,0.000000,0.000000,0.000000,0.000000,0.000000,0.100000,0.100000,-0.159300,-0.429254,-0.050000,-0.050000,0.418218,-0.821666,0.000000,0.000000,-0.456102,0.184604,0.936919,0.207801,0.198761,-0.235184,-0.139230,-0.058917,0.215874,-0.695018
-0.050000,-0.050000,0.000000,0.000000,0.000000,0.000000,0.000000,0.000000,0.000000,0.100000,0.100000,-0.169695,-0.427051,-0.050000,-0.050000,0.423173,-0.818896,0.000000,0.000000,-0.461160,0.189369,0.912292,0.216449,0.205769,-0.230123,-0.144512,-0.063633,0.233802,-0.691163
-0.050000,-0.050000,0.000000,0.000000,0.000000,0.000000,0.000000,0.000000,0.000000,0.100000,0.100000,-0.180191,-0.424866,-0.050000,-0.050000,0.427534,-0.814954,0.000000,0.000000,-0.465795,0.194012,0.887792,0.223466,0.214140,-0.226542,-0.149238,-0.068419,0.251472,-0.688300
-0.050000,-0.050000,0.000000,0.000000,0.000000,0.000000,0.000000,0.000000,0.000000,0.100000,0.100000,-0.190603,-0.422465,-0.050000,-0.050000,0.431483,-0.810309,0.000000,0.000000,-0.469908,0.198480,0.863583,0.229684,0.223131,-0.223690,-0.153432,-0.072884,0.268646,-0.685940
-0.050000,-0.050000,0.000000,0.000000,0.000000,0.000000,0.000000,0.000000,0.000000,0.100000,0.100000,-0.200836,-0.420038,-0.050000,-0.050000,0.434781,-0.804622,0.000000,0.000000,-0.473406,0.202600,0.840126,0.235076,0.232557,-0.221453,-0.156729,-0.076870,0.284600,-0.684305
-0.050000,-0.050000,0.000000,0.000000,0.000000,0.000000,0.000000,0.000000,0.000000,0.100000,0.100000,-0.210738,-0.417587,-0.050000,-0.050000,0.437352,-0.797977,0.000000,0.000000,-0.476214,0.206320,0.817882,0.240119,0.241862,-0.219320,-0.158905,-0.080033,0.298713,-0.683113
-0.050000,-0.050000,0.000000,0.000000,0.000000,0.000000,0.000000,0.000000,0.000000,0.100000,0.100000,-0.220476,-0.415133,-0.050000,-0.050000,0.439431,-0.790675,0.000000,0.000000,-0.478488,0.209816,0.796540,0.244905,0.250965,-0.217195,-0.160261,-0.082514,0.311351,-0.682178
-0.050000,-0.050000,0.000000,0.000000,0.000000,0.000000,0.000000,0.000000,0.000000,0.100000,0.100000,-0.229438,-0.412911,-0.050000,-0.050000,0.440354,-0.782310,0.000000,0.000000,-0.479957,0.212653,0.777701,0.249984,0.258934,-0.214309,-0.159871,-0.083608,0.320617,-0.681303
-0.050000,-0.050000,0.000000,0.000000,0.000000,0.000000,0.000000,0.000000,0.000000,0.100000,0.100000,-0.238205,-0.410819,-0.050000,-0.050000,0.440754,-0.773557,0.000000,0.000000,-0.480970,0.215346,0.760254,0.255100,0.266091,-0.210955,-0.158627,-0.083860,0.327895,-0.680295
-0.050000,-0.050000,0.000000,0.000000,0.000000,0.000000,0.000000,0.000000,0.000000,0.100000,0.100000,-0.246264,-0.409006,-0.050000,-0.050000,0.440221,-0.764293,0.000000,0.000000,-0.481421,0.217565,0.745215,0.260534,0.271864,-0.206697,-0.156063,-0.082976,0.332202,-0.679006
-0.050000,-0.050000,0.000000,0.000000,0.000000,0.000000,0.000000,0.000000,0.000000,0.100000,0.100000,-0.253708,-0.407447,-0.050000,-0.050000,0.438926,-0.754890,0.000000,0.000000,-0.481461,0.219452,0.732470,0.266003,0.276230,-0.201684,-0.152521,-0.081260,0.333935,-0.677405
-0.050000,-0.050000,0.000000,0.000000,0.000000,0.000000,0.000000,0.000000,0.000000,0.100000,0.100000,-0.260807,-0.406062,-0.050000,-0.050000,0.437077,-0.745458,0.000000,0.000000,-0.481215,0.221130,0.721429,0.271434,0.279526,-0.196118,-0.148379,-0.078949,0.333826,-0.675548
-0.050000,-0.050000,0.000000,0.000000,0.000000,0.000000,0.000000,0.000000,0.000000,0.100000,0.100000,-0.266748,-0.404943,-0.050000,-0.050000,0.434363,-0.736355,0.000000,0.000000,-0.480696,0.222281,0.713400,0.276319,0.281076,-0.190045,-0.143434,-0.076283,0.331148,-0.673604
-0.050000,-0.050000,0.000000,0.000000,0.000000,0.000000,0.000000,0.000000,0.000000,0.100000,0.100000,-0.272410,-0.403828,-0.050000,-0.050000,0.431247,-0.727595,0.000000,0.000000,-0.480100,0.223309,0.706938,0.280628,0.281703,-0.183873,-0.138431,-0.073562,0.327366,-0.671686
-0.050000,-0.050000,0.000000,0.000000,0.000000,0.000000,0.000000,0.000000,0.000000,0.100000,0.100000,-0.277195,-0.402781,-0.050000,-0.050000,0.427619,-0.719468,0.000000,0.000000,-0.479515,0.224017,0.702715,0.283902,0.281127,-0.177855,-0.133365,-0.071154,0.322334,-0.670106
-0.050000,-0.050000,0.000000,0.000000,0.000000,0.000000,0.000000,0.000000,0.000000,0.100000,0.100000,-0.281366,-0.401664,-0.050000,-0.050000,0.423659,-0.712068,0.000000,0.000000,-0.479131,0.224643,0.700337,0.286030,0.279611,-0.172315,-0.128650,-0.069356,0.316686,-0.669056
-0.050000,-0.050000,0.000000,0.000000,0.000000,0.000000,0.000000,0.000000,0.000000,0.100000,0.100000,-0.285132,-0.400399,-0.050000,-0.050000,0.419414,-0.705219,0.000000,0.000000,-0.478940,0.225212,0.699387,0.287290,0.277429,-0.167201,-0.124345,-0.068071,0.310731,-0.668462
-0.050000,-0.050000,0.000000,0.000000,0.000000,0.000000,0.000000,0.000000,0.000000,0.100000,0.100000,-0.288086,-0.399136,-0.050000,-0.050000,0.414998,-0.699445,0.000000,0.000000,-0.479429,0.226087,0.700523,0.287303,0.274274,-0.163056,-0.120785,-0.067948,0.304522,-0.668700
-0.050000,-0.050000,0.000000,0.000000,0.000000,0.000000,0.000000,0.000000,0.000000,0.100000,0.100000,-0.290855,-0.397712,-0.050000,-0.050000,0.410368,-0.694183,0.000000,0.000000,-0.480375,0.227309,0.702946,0.286980,0.270586,-0.159398,-0.117907,-0.068420,0.298322,-0.669298
-0.050000,-0.050000,0.000000,0.000000,0.000000,0.000000,0.000000,0.000000,0.000000,0.100000,0.100000,-0.293224,-0.396360,-0.050000,-0.050000,0.405637,-0.689731,0.000000,0.000000,-0.482194,0.229299,0.707041,0.286511,0.266188,-0.156395,-0.115798,-0.069713,0.291997,-0.670187
-0.050000,-0.050000,0.000000,0.000000,0.000000,0.000000,0.000000,0.000000,0.000000,0.100000,0.100000,-0.295478,-0.395127,-0.050000,-0.050000,0.400758,-0.685848,0.000000,0.000000,-0.484939,0.232392,0.712648,0.286861,0.261157,-0.153653,-0.114380,-0.071434,0.285418,-0.670759
-0.050000,-0.050000,0.000000,0.000000,0.000000,0.000000,0.000000,0.000000,0.000000,0.100000,0.100000,-0.297698,-0.394165,-0.050000,-0.050000,0.395716,-0.682393,0.000000,0.000000,-0.488388,0.236426,0.719478,0.288140,0.255625,-0.150987,-0.113513,-0.073506,0.278637,-0.671003
-0.050000,-0.050000,0.000000,0.000000,0.000000,0.000000,0.000000,0.000000,0.000000,0.100000,0.100000,-0.299973,-0.393577,-0.050000,-0.050000,0.390533,-0.679410,0.000000,0.000000,-0.493244,0.242619,0.728003,0.292168,0.249363,-0.147944,-0.113108,-0.075323,0.270939,-0.669365
-0.050000,-0.050000,0.000000,0.000000,0.000000,0.000000,0.000000,0.000000,0.000000,0.100000,0.100000,-0.302401,-0.393606,-0.050000,-0.050000,0.385111,-0.676621,0.000000,0.000000,-0.498753,0.250165,0.737575,0.298400,0.242630,-0.144366,-0.113016,-0.077041,0.262704,-0.666407
-0.050000,-0.050000,0.000000,0.000000,0.000000,0.000000,0.000000,0.000000,0.000000,0.100000,0.100000,-0.305032,-0.394179,-0.050000,-0.050000,0.379473,-0.673949,0.000000,0.000000,-0.505316,0.259904,0.748323,0.308143,0.235370,-0.139896,-0.113062,-0.078047,0.253377,-0.660764
-0.050000,-0.050000,0.000000,0.000000,0.000000,0.000000,0.000000,0.000000,0.000000,0.100000,0.100000,-0.307873,-0.395393,-0.050000,-0.050000,0.373581,-0.671190,0.000000,0.000000,-0.512587,0.271595,0.759817,0.321397,0.227735,-0.134398,-0.113145,-0.078269,0.243030,-0.652238
-0.050000,-0.050000,0.000000,0.000000,0.000000,0.000000,0.000000,0.000000,0.000000,0.100000,0.100000,-0.310835,-0.397287,-0.050000,-0.050000,0.367489,-0.668305,0.000000,0.000000,-0.520292,0.284804,0.771797,0.337511,0.219838,-0.128054,-0.113186,-0.077894,0.231866,-0.641359
-0.050000,-0.050000,0.000000,0.000000,0.000000,0.000000,0.000000,0.000000,0.000000,0.100000,0.100000,-0.313977,-0.399378,-0.050000,-0.050000,0.361199,-0.664903,0.000000,0.000000,-0.528543,0.300171,0.783730,0.357621,0.211901,-0.120601,-0.113134,-0.076097,0.219512,-0.626257
-0.050000,-0.050000,0.000000,0.000000,0.000000,0.000000,0.000000,0.000000,0.000000,0.100000,0.100000,-0.317052,-0.401964,-0.050000,-0.050000,0.354847,-0.661135,0.000000,0.000000,-0.536819,0.316471,0.795349,0.379796,0.204031,-0.112608,-0.112984,-0.073721,0.206609,-0.608912
-0.050000,-0.050000,0.000000,0.000000,0.000000,0.000000,0.000000,0.000000,0.000000,0.100000,0.100000,-0.320077,-0.404392,-0.050000,-0.050000,0.348527,-0.656700,0.000000,0.000000,-0.545083,0.333863,0.805971,0.404118,0.196551,-0.104228,-0.112821,-0.070300,0.193160,-0.588471
-0.050000,-0.050000,0.000000,0.000000,0.000000,0.000000,0.000000,0.000000,0.000000,0.100000,0.100000,-0.322861,-0.406584,-0.050000,-0.050000,0.342449,-0.651672,0.000000,0.000000,-0.553038,0.351528,0.815076,0.429105,0.189703,-0.095990,-0.112751,-0.066286,0.179670,-0.566101
-0.050000,-0.050000,0.000000,0.000000,0.000000,0.000000,0.000000,0.000000,0.000000,0.100000,0.100000,-0.325327,-0.408335,-0.050000,-0.050000,0.336668,-0.646105,0.000000,0.000000,-0.560701,0.369178,0.822752,0.454213,0.183451,-0.088122,-0.112699,-0.061750,0.166227,-0.542383
-0.050000,-0.050000,0.000000,0.000000,0.000000,0.000000,0.000000,0.000000,0.000000,0.100000,0.100000,-0.327426,-0.409215,-0.050000,-0.050000,0.331615,-0.640007,0.000000,0.000000,-0.567630,0.386099,0.827422,0.477516,0.178542,-0.081382,-0.113219,-0.057106,0.153742,-0.518182
-0.050000,-0.050000,0.000000,0.000000,0.000000,0.000000,0.000000,0.000000,0.000000,0.100000,0.100000,-0.328990,-0.409278,-0.050000,-0.050000,0.327230,-0.633622,0.000000,0.000000,-0.574095,0.402154,0.830012,0.498980,0.174542,-0.075712,-0.113903,-0.052356,0.141945,-0.494196
-0.050000,-0.050000,0.000000,0.000000,0.000000,0.000000,0.000000,0.000000,0.000000,0.100000,0.100000,-0.330085,-0.408432,-0.050000,-0.050000,0.323869,-0.627136,0.000000,0.000000,-0.579741,0.416803,0.829386,0.516852,0.171976,-0.071705,-0.115260,-0.048049,0.131703,-0.471575
-0.050000,-0.050000,0.000000,0.000000,0.000000,0.000000,0.000000,0.000000,0.000000,0.100000,0.100000,-0.330639,-0.406802,-0.050000,-0.050000,0.321637,-0.620845,0.000000,0.000000,-0.584623,0.429908,0.825779,0.530620,0.170740,-0.069487,-0.117162,-0.044306,0.123143,-0.451085
-0.050000,-0.050000,0.000000,0.000000,0.000000,0.000000,0.000000,0.000000,0.000000,0.100000,0.100000,-0.330706,-0.404372,-0.050000,-0.050000,0.320376,-0.614764,0.000000,0.000000,-0.588911,0.441700,0.819688,0.540783,0.170582,-0.068789,-0.119460,-0.040963,0.115983,-0.432523
-0.050000,-0.050000,0.000000,0.000000,0.000000,0.000000,0.000000,0.000000,0.000000,0.100000,0.100000,-0.330397,-0.401946,-0.050000,-0.050000,0.320678,-0.609621,0.000000,0.000000,-0.592081,0.451521,0.810042,0.544815,0.172022,-0.070499,-0.122619,-0.038980,0.111585,-0.418123
-0.050000,-0.050000,0.000000,0.000000,0.000000,0.000000,0.000000,0.000000,0.000000,0.100000,0.100000,-0.329699,-0.399088,-0.050000,-0.050000,0.321974,-0.605057,0.000000,0.000000,-0.594657,0.460170,0.798281,0.545074,0.174375,-0.073716,-0.126009,-0.037378,0.108700,-0.406171
-0.050000,-0.050000,0.000000,0.000000,0.000000,0.000000,0.000000,0.000000,0.000000,0.100000,0.100000,-0.328836,-0.396817,-0.050000,-0.050000,0.324628,-0.601716,0.000000,0.000000,-0.596261,0.467281,0.783911,0.540037,0.177885,-0.078998,-0.129914,-0.036882,0.108293,-0.398185
-0.050000,-0.050000,0.000000,0.000000,0.000000,0.000000,0.000000,0.000000,0.000000,0.100000,0.100000,-0.327927,-0.395166,-0.050000,-0.050000,0.328377,-0.599560,0.000000,0.000000,-0.597058,0.473234,0.767678,0.530876,0.182213,-0.085939,-0.133996,-0.036997,0.109878,-0.393410
-0.050000,-0.050000,0.000000,0.000000,0.000000,0.000000,0.000000,0.000000,0.000000,0.100000,0.100000,-0.327049,-0.394126,-0.050000,-0.050000,0.332954,-0.598395,0.000000,0.000000,-0.597177,0.478296,0.750047,0.518486,0.187151,-0.094161,-0.138157,-0.037522,0.113032,-0.391157
-0.050000,-0.050000,0.000000,0.000000,0.000000,0.000000,0.000000,0.000000,0.000000,0.100000,0.100000,-0.326611,-0.394928,-0.050000,-0.050000,0.338640,-0.599056,0.000000,0.000000,-0.596296,0.482142,0.731126,0.502309,0.192648,-0.103978,-0.142302,-0.038712,0.118506,-0.392452
-0.050000,-0.050000,0.000000,0.000000,0.000000,0.000000,0.000000,0.000000,0.000000,0.100000,0.100000,-0.326530,-0.396617,-0.050000,-0.050000,0.344823,-0.600678,0.000000,0.000000,-0.594791,0.485334,0.711567,0.484245,0.198396,-0.114548,-0.146262,-0.039925,0.125160,-0.395485
-0.050000,-0.050000,0.000000,0.000000,0.000000,0.000000,0.000000,0.000000,0.000000,0.100000,0.100000,-0.327162,-0.400166,-0.050000,-0.050000,0.351676,-0.603892,0.000000,0.000000,-0.592423,0.487510,0.691614,0.464243,0.204230,-0.125913,-0.149930,-0.041317,0.133467,-0.400843
-0.050000,-0.050000,0.000000,0.000000,0.000000,0.000000,0.000000,0.000000,0.000000,0.100000,0.100000,-0.328581,-0.405169,-0.050000,-0.050000,0.358874,-0.608300,0.000000,0.000000,-0.589295,0.488801,0.671637,0.443409,0.209886,-0.137512,-0.153207,-0.042574,0.142920,-0.407662
-0.050000,-0.050000,0.000000,0.000000,0.000000,0.000000,0.000000,0.000000,0.000000,0.100000,0.100000,-0.330738,-0.411452,-0.050000,-0.050000,0.366274,-0.613650,0.000000,0.000000,-0.585545,0.489359,0.651770,0.422139,0.215326,-0.149175,-0.156130,-0.043686,0.153236,-0.415523
-0.050000,-0.050000,0.000000,0.000000,0.000000,0.000000,0.000000,0.000000,0.000000,0.100000,0.100000,-0.333975,-0.419383,-0.050000,-0.050000,0.373875,-0.620279,0.000000,0.000000,-0.580748,0.488502,0.632408,0.401252,0.219960,-0.160349,-0.158455,-0.044437,0.164612,-0.424530
-0.050000,-0.050000,0.000000,0.000000,0.000000,0.000000,0.000000,0.000000,0.000000,0.100000,0.100000,-0.338000,-0.428274,-0.050000,-0.050000,0.381441,-0.627474,0.000000,0.000000,-0.575368,0.486871,0.613405,0.380833,0.224015,-0.171047,-0.160392,-0.044920,0.176465,-0.433958
-0.050000,-0.050000,0.000000,0.000000,0.000000,0.000000,0.000000,0.000000,0.000000,0.100000,0.100000,-0.342912,-0.438193,-0.050000,-0.050000,0.388970,-0.635392,0.000000,0.000000,-0.568941,0.483798,0.595029,0.361587,0.226911,-0.180792,-0.161761,-0.044929,0.188899,-0.443848
-0.050000,-0.050000,0.000000,0.000000,0.000000,0.000000,0.000000,0.000000,0.000000,0.100000,0.100000,-0.348490,-0.448712,-0.050000,-0.050000,0.396360,-0.643604,0.000000,0.000000,-0.561644,0.479537,0.577165,0.343583,0.228616,-0.189545,-0.162668,-0.044525,0.201585,-0.453816
-0.050000,-0.050000,0.000000,0.000000,0.000000,0.000000,0.000000,0.000000,0.000000,0.100000,0.100000,-0.354564,-0.459652,-0.050000,-0.050000,0.403627,-0.651971,0.000000,0.000000,-0.553628,0.474271,0.559716,0.326701,0.229257,-0.197434,-0.163203,-0.043785,0.214399,-0.463763
-0.050000,-0.050000,0.000000,0.000000,0.000000,0.000000,0.000000,0.000000,0.000000,0.100000,0.100000,-0.360873,-0.470557,-0.050000,-0.050000,0.410651,-0.660175,0.000000,0.000000,-0.544340,0.467428,0.542819,0.311662,0.228050,-0.203951,-0.163250,-0.042476,0.227168,-0.473428
-0.050000,-0.050000,0.000000,0.000000,0.000000,0.000000,0.000000,0.000000,0.000000,0.100000,0.100000,-0.367273,-0.481418,-0.050000,-0.050000,0.417574,-0.668136,0.000000,0.000000,-0.534504,0.459807,0.526160,0.297672,0.225721,-0.209684,-0.163054,-0.040943,0.239724,-0.482795
-0.050000,-0.050000,0.000000,0.000000,0.000000,0.000000,0.000000,0.000000,0.000000,0.100000,0.100000,-0.373399,-0.491746,-0.050000,-0.050000,0.424258,-0.675495,0.000000,0.000000,-0.523653,0.451004,0.509875,0.285270,0.221694,-0.214293,-0.162562,-0.039002,0.251881,-0.491653
-0.050000,-0.050000,0.000000,0.000000,0.000000,0.000000,0.000000,0.000000,0.000000,0.100000,0.100000,-0.379081,-0.501475,-0.050000,-0.050000,0.430796,-0.682147,0.000000,0.000000,-0.512265,0.441512,0.493841,0.274030,0.216387,-0.218097,-0.161923,-0.036879,0.263449,-0.499986
-0.050000,-0.050000,0.000000,0.000000,0.000000,0.000000,0.000000,0.000000,0.000000,0.100000,0.100000,-0.384258,-0.510591,-0.050000,-0.050000,0.437213,-0.688121,0.000000,0.000000,-0.500458,0.431491,0.478007,0.263748,0.210045,-0.221274,-0.161219,-0.034640,0.274460,-0.507868
-0.050000,-0.050000,0.000000,0.000000,0.000000,0.000000,0.000000,0.000000,0.000000,0.100000,0.100000,-0.388493,-0.518627,-0.050000,-0.050000,0.443353,-0.692905,0.000000,0.000000,-0.488427,0.421120,0.462689,0.254725,0.202581,-0.223640,-0.160475,-0.032337,0.284384,-0.515067
-0.050000,-0.050000,0.000000,0.000000,0.000000,0.000000,0.000000,0.000000,0.000000,0.100000,0.100000,-0.392071,-0.525985,-0.050000,-0.050000,0.449387,-0.696942,0.000000,0.000000,-0.476481,0.410698,0.447702,0.246410,0.194592,-0.225604,-0.159815,-0.030136,0.293525,-0.521873
-0.050000,-0.050000,0.000000,0.000000,0.000000,0.000000,0.000000,0.000000,0.000000,0.100000,0.100000,-0.394690,-0.532336,-0.050000,-0.050000,0.455115,-0.699817,0.000000,0.000000,-0.465002,0.400512,0.433498,0.239104,0.186201,-0.226974,-0.159222,-0.028099,0.301332,-0.528100
-0.050000,-0.050000,0.000000,0.000000,0.000000,0.000000,0.000000,0.000000,0.000000,0.100000,0.100000,-0.396557,-0.537930,-0.050000,-0.050000,0.460563,-0.701801,0.000000,0.000000,-0.454326,0.390822,0.420184,0.232616,0.177842,-0.227905,-0.158749,-0.026342,0.307828,-0.533875
-0.050000,-0.050000,0.000000,0.000000,0.000000,0.000000,0.000000,0.000000,0.000000,0.100000,0.100000,-0.397819,-0.542909,-0.050000,-0.050000,0.465705,-0.703038,0.000000,0.000000,-0.444455,0.381661,0.407785,0.226869,0.169645,-0.228458,-0.158418,-0.024876,0.313167,-0.539289
-0.050000,-0.050000,0.000000,0.000000,0.000000,0.000000,0.000000,0.000000,0.000000,0.100000,0.100000,-0.398392,-0.547200,-0.050000,-0.050000,0.470318,-0.703386,0.000000,0.000000,-0.436452,0.373649,0.397035,0.222189,0.162161,-0.228400,-0.158103,-0.023835,0.316403,-0.544047
-0.050000,-0.050000,0.000000,0.000000,0.000000,0.000000,0.000000,0.000000,0.000000,0.100000,0.100000,-0.398676,-0.551153,-0.050000,-0.050000,0.474471,-0.703289,0.000000,0.000000,-0.429622,0.366396,0.387567,0.218308,0.155199,-0.227939,-0.157938,-0.023163,0.318371,-0.548453
-0.050000,-0.050000,0.000000,0.000000,0.000000,0.000000,0.000000,0.000000,0.000000,0.100000,0.100000,-0.398597,-0.554730,-0.050000,-0.050000,0.477945,-0.702680,0.000000,0.000000,-0.425069,0.360441,0.380016,0.215536,0.149248,-0.226809,-0.157725,-0.022938,0.318087,-0.552140
-0.050000,-0.050000,0.000000,0.000000,0.000000,0.000000,0.000000,0.000000,0.000000,0.100000,0.100000,-0.398405,-0.558115,-0.050000,-0.050000,0.480680,-0.701839,0.000000,0.000000,-0.422444,0.355508,0.374264,0.213792,0.144169,-0.225039,-0.157534,-0.023124,0.315921,-0.555219
-0.050000,-0.050000,0.000000,0.000000,0.000000,0.000000,0.000000,0.000000,0.000000,0.100000,0.100000,-0.398204,-0.561384,-0.050000,-0.050000,0.482706,-0.700882,0.000000,0.000000,-0.421572,0.351455,0.370165,0.212975,0.139868,-0.222665,-0.157368,-0.023685,0.312092,-0.557745
-0.050000,-0.050000,0.000000,0.000000,0.000000,0.000000,0.000000,0.000000,0.000000,0.100000,0.100000,-0.397865,-0.564472,-0.050000,-0.050000,0.483696,-0.699863,0.000000,0.000000,-0.423329,0.348395,0.368161,0.213311,0.136633,-0.219357,-0.157054,-0.024636,0.305728,-0.559401
-0.050000,-0.050000,0.000000,0.000000,0.000000,0.000000,0.000000,0.000000,0.000000,0.100000,0.100000,-0.397633,-0.567447,-0.050000,-0.050000,0.483874,-0.698920,0.000000,0.000000,-0.426547,0.345787,0.367674,0.214441,0.134001,-0.215389,-0.156802,-0.025912,0.297957,-0.560591
-0.050000,-0.050000,0.000000,0.000000,0.000000,0.000000,0.000000,0.000000,0.000000,0.100000,0.100000,-0.397213,-0.570142,-0.050000,-0.050000,0.482965,-0.698023,0.000000,0.000000,-0.431959,0.343535,0.368971,0.216454,0.132189,-0.210464,-0.156436,-0.027499,0.288040,-0.561130
-0.050000,-0.050000,0.000000,0.000000,0.000000,0.000000,0.000000,0.000000,0.000000,0.100000,0.100000,-0.396660,-0.572465,-0.050000,-0.050000,0.481101,-0.697201,0.000000,0.000000,-0.438791,0.341171,0.371720,0.219060,0.130936,-0.204748,-0.156084,-0.029358,0.276699,-0.561351
-0.050000,-0.050000,0.000000,0.000000,0.000000,0.000000,0.000000,0.000000,0.000000,0.100000,0.100000,-0.395934,-0.574354,-0.050000,-0.050000,0.478409,-0.696442,0.000000,0.000000,-0.446816,0.338533,0.375668,0.222063,0.130156,-0.198362,-0.155761,-0.031438,0.264205,-0.561359
-0.050000,-0.050000,0.000000,0.000000,0.000000,0.000000,0.000000,0.000000,0.000000,0.100000,0.100000,-0.394597,-0.575460,-0.050000,-0.050000,0.474725,-0.695594,0.000000,0.000000,-0.455923,0.335005,0.380989,0.225318,0.129930,-0.191217,-0.155394,-0.033716,0.250551,-0.561507
-0.050000,-0.050000,0.000000,0.000000,0.000000,0.000000,0.000000,0.000000,0.000000,0.100000,0.100000,-0.392941,-0.575846,-0.050000,-0.050000,0.470440,-0.694724,0.000000,0.000000,-0.465594,0.330741,0.387229,0.228559,0.130092,-0.183698,-0.155117,-0.036143,0.236410,-0.561841
-0.050000,-0.050000,0.000000,0.000000,0.000000,0.000000,0.000000,0.000000,0.000000,0.100000,0.100000,-0.390458,-0.575188,-0.050000,-0.050000,0.465459,-0.693647,0.000000,0.000000,-0.475586,0.325148,0.394651,0.231649,0.130767,-0.175875,-0.154828,-0.038683,0.221924,-0.562835
-0.050000,-0.050000,0.000000,0.000000,0.000000,0.000000,0.000000,0.000000,0.000000,0.100000,0.100000,-0.387303,-0.573485,-0.050000,-0.050000,0.460077,-0.692384,0.000000,0.000000,-0.485571,0.318397,0.403092,0.234413,0.131944,-0.168142,-0.154597,-0.041291,0.207582,-0.564562
-0.050000,-0.050000,0.000000,0.000000,0.000000,0.000000,0.000000,0.000000,0.000000,0.100000,0.100000,-0.383483,-0.570793,-0.050000,-0.050000,0.454396,-0.690903,0.000000,0.000000,-0.495446,0.310572,0.412446,0.236802,0.133604,-0.160654,-0.154434,-0.043928,0.193545,-0.567039
-0.050000,-0.050000,0.000000,0.000000,0.000000,0.000000,0.000000,0.000000,0.000000,0.100000,0.100000,-0.378682,-0.566918,-0.050000,-0.050000,0.448583,-0.689175,0.000000,0.000000,-0.504664,0.301496,0.423266,0.238780,0.135945,-0.153990,-0.154221,-0.046518,0.180414,-0.570758
-0.050000,-0.050000,0.000000,0.000000,0.000000,0.000000,0.000000,0.000000,0.000000,0.100000,0.100000,-0.373311,-0.562175,-0.050000,-0.050000,0.442700,-0.687207,0.000000,0.000000,-0.513554,0.291728,0.435090,0.240377,0.138846,-0.148089,-0.154106,-0.049051,0.168046,-0.575271
-0.050000,-0.050000,0.000000,0.000000,0.000000,0.000000,0.000000,0.000000,0.000000,0.100000,0.100000,-0.367089,-0.556491,-0.050000,-0.050000,0.436933,-0.685091,0.000000,0.000000,-0.521559,0.281283,0.448677,0.241747,0.142474,-0.143581,-0.153893,-0.051406,0.157058,-0.580946
-0.050000,-0.050000,0.000000,0.000000,0.000000,0.000000,0.000000,0.000000,0.000000,0.100000,0.100000,-0.360320,-0.550163,-0.050000,-0.050000,0.431276,-0.682835,0.000000,0.000000,-0.528942,0.270690,0.463882,0.243050,0.146746,-0.140433,-0.153666,-0.053548,0.147378,-0.587408
-0.050000,-0.050000,0.000000,0.000000,0.000000,0.000000,0.000000,0.000000,0.000000,0.100000,0.100000,-0.353098,-0.543399,-0.050000,-0.050000,0.425705,-0.680482,0.000000,0.000000,-0.535720,0.260154,0.480683,0.244431,0.151587,-0.138576,-0.153428,-0.055457,0.138958,-0.594511
-0.050000,-0.050000,0.000000,0.000000,0.000000,0.000000,0.000000,0.000000,0.000000,0.100000,0.100000,-0.345464,-0.536350,-0.050000,-0.050000,0.420434,-0.678265,0.000000,0.000000,-0.541682,0.250300,0.499901,0.246383,0.156983,-0.138417,-0.152923,-0.056916,0.132257,-0.601987
-0.050000,-0.050000,0.000000,0.000000,0.000000,0.000000,0.000000,0.000000,0.000000,0.100000,0.100000,-0.337674,-0.529355,-0.050000,-0.050000,0.415145,-0.676014,0.000000,0.000000,-0.547206,0.241144,0.520804,0.248874,0.162758,-0.139311,-0.152411,-0.058072,0.126735,-0.609599
-0.050000,-0.050000,0.000000,0.000000,0.000000,0.000000,0.000000,0.000000,0.000000,0.100000,0.100000,-0.329805,-0.522541,-0.050000,-0.050000,0.410125,-0.674053,0.000000,0.000000,-0.552097,0.233428,0.544264,0.252535,0.168785,-0.141483,-0.151525,-0.058648,0.122755,-0.616804
-0.050000,-0.050000,0.000000,0.000000,0.000000,0.000000,0.000000,0.000000,0.000000,0.100000,0.100000,-0.322069,-0.516224,-0.050000,-0.050000,0.405132,-0.672263,0.000000,0.000000,-0.556605,0.227239,0.569786,0.257464,0.174878,-0.144361,-0.150422,-0.058738,0.119918,-0.623279
-0.050000,-0.050000,0.000000,0.000000,0.000000,0.000000,0.000000,0.000000,0.000000,0.100000,0.100000,-0.314529,-0.510529,-0.050000,-0.050000,0.400149,-0.670698,0.000000,0.000000,-0.560732,0.222619,0.597189,0.263742,0.180927,-0.147688,-0.149087,-0.058379,0.118020,-0.628858
-0.050000,-0.050000,0.000000,0.000000,0.000000,0.000000,0.000000,0.000000,0.000000,0.100000,0.100000,-0.307484,-0.505636,-0.050000,-0.050000,0.395371,-0.669519,0.000000,0.000000,-0.564573,0.220408,0.626701,0.271995,0.186639,-0.151169,-0.147273,-0.057312,0.117001,-0.632450
-0.050000,-0.050000,0.000000,0.000000,0.000000,0.000000,0.000000,0.000000,0.000000,0.100000,0.100000,-0.300834,-0.501718,-0.050000,-0.050000,0.390520,-0.668558,0.000000,0.000000,-0.568109,0.219916,0.657520,0.281787,0.192049,-0.154519,-0.145257,-0.055873,0.116470,-0.634598
-0.050000,-0.050000,0.000000,0.000000,0.000000,0.000000,0.000000,0.000000,0.000000,0.100000,0.100000,-0.294960,-0.498823,-0.050000,-0.050000,0.385928,-0.667987,0.000000,0.000000,-0.571455,0.222095,0.689649,0.293675,0.196875,-0.157524,-0.142791,-0.053752,0.116312,-0.633981
-0.050000,-0.050000,0.000000,0.000000,0.000000,0.000000,0.000000,0.000000,0.000000,0.100000,0.100000,-0.289800,-0.497117,-0.050000,-0.050000,0.381457,-0.667695,0.000000,0.000000,-0.574562,0.226450,0.722334,0.307284,0.201140,-0.160098,-0.140071,-0.051186,0.116251,-0.630936
-0.050000,-0.050000,0.000000,0.000000,0.000000,0.000000,0.000000,0.000000,0.000000,0.100000,0.100000,-0.285336,-0.496530,-0.050000,-0.050000,0.377173,-0.667649,0.000000,0.000000,-0.577395,0.232832,0.755210,0.322420,0.204860,-0.162277,-0.137109,-0.048231,0.116132,-0.625524
-0.050000,-0.050000,0.000000,0.000000,0.000000,0.000000,0.000000,0.000000,0.000000,0.100000,0.100000,-0.281998,-0.497147,-0.050000,-0.050000,0.373305,-0.667886,0.000000,0.000000,-0.580100,0.241730,0.787377,0.338972,0.207898,-0.164206,-0.134000,-0.044804,0.115823,-0.616924
-0.050000,-0.050000,0.000000,0.000000,0.000000,0.000000,0.000000,0.000000,0.000000,0.100000,0.100000,-0.279306,-0.498890,-0.050000,-0.050000,0.369710,-0.668267,0.000000,0.000000,-0.582471,0.252176,0.818730,0.356427,0.210423,-0.166031,-0.130753,-0.041157,0.115244,-0.606300
-0.050000,-0.050000,0.000000,0.000000,0.000000,0.000000,0.000000,0.000000,0.000000,0.100000,0.100000,-0.277855,-0.501779,-0.050000,-0.050000,0.366638,-0.668815,0.000000,0.000000,-0.584722,0.264682,0.848080,0.374358,0.212339,-0.168173,-0.127605,-0.037277,0.114412,-0.593002
-0.050000,-0.050000,0.000000,0.000000,0.000000,0.000000,0.000000,0.000000,0.000000,0.100000,0.100000,-0.277282,-0.505749,-0.050000,-0.050000,0.364001,-0.669419,0.000000,0.000000,-0.586704,0.278424,0.875256,0.392198,0.213741,-0.170849,-0.124545,-0.033373,0.113344,-0.578093
-0.050000,-0.050000,0.000000,0.000000,0.000000,0.000000,0.000000,0.000000,0.000000,0.100000,0.100000,-0.277545,-0.510603,-0.050000,-0.050000,0.361808,-0.670010,0.000000,0.000000,-0.588461,0.293137,0.900094,0.409592,0.214704,-0.174243,-0.121608,-0.029523,0.112095,-0.561999
-0.050000,-0.050000,0.000000,0.000000,0.000000,0.000000,0.000000,0.000000,0.000000,0.100000,0.100000,-0.279024,-0.516488,-0.050000,-0.050000,0.360036,-0.670515,0.000000,0.000000,-0.590062,0.308492,0.921364,0.425423,0.215170,-0.178873,-0.119164,-0.026071,0.110955,-0.545482
-0.050000,-0.050000,0.000000,0.000000,0.000000,0.000000,0.000000,0.000000,0.000000,0.100000,0.100000,-0.281133,-0.522981,-0.050000,-0.050000,0.358648,-0.670888,0.000000,0.000000,-0.591442,0.323978,0.940028,0.439956,0.215264,-0.184454,-0.116855,-0.022873,0.109814,-0.529030
-0.050000,-0.050000,0.000000,0.000000,0.000000,0.000000,0.000000,0.000000,0.000000,0.100000,0.100000,-0.284429,-0.530369,-0.050000,-0.050000,0.357485,-0.670988,0.000000,0.000000,-0.592689,0.339143,0.954629,0.451760,0.214916,-0.191406,-0.115226,-0.020441,0.109160,-0.513820
-0.050000,-0.050000,0.000000,0.000000,0.000000,0.000000,0.000000,0.000000,0.000000,0.100000,0.100000,-0.288491,-0.538274,-0.050000,-0.050000,0.356523,-0.670783,0.000000,0.000000,-0.593769,0.353571,0.965885,0.461027,0.214231,-0.199371,-0.113981,-0.018602,0.108952,-0.500253
-0.050000,-0.050000,0.000000,0.000000,0.000000,0.000000,0.000000,0.000000,0.000000,0.100000,0.100000,-0.293276,-0.546577,-0.050000,-0.050000,0.355677,-0.670239,0.000000,0.000000,-0.594747,0.367077,0.973976,0.467680,0.213272,-0.208181,-0.113138,-0.017367,0.109279,-0.488606
-0.050000,-0.050000,0.000000,0.000000,0.000000,0.000000,0.000000,0.000000,0.000000,0.100000,0.100000,-0.299025,-0.555436,-0.050000,-0.050000,0.354709,-0.669069,0.000000,0.000000,-0.595619,0.378970,0.978041,0.470765,0.212129,-0.217573,-0.113030,-0.017030,0.110624,-0.480182
-0.050000,-0.050000,0.000000,0.000000,0.000000,0.000000,0.000000,0.000000,0.000000,0.100000,0.100000,-0.305275,-0.564309,-0.050000,-0.050000,0.353809,-0.667508,0.000000,0.000000,-0.596464,0.389626,0.979398,0.471387,0.210927,-0.227285,-0.113190,-0.017085,0.112619,-0.473978
-0.050000,-0.050000,0.000000,0.000000,0.000000,0.000000,0.000000,0.000000,0.000000,0.100000,0.100000,-0.312391,-0.573485,-0.050000,-0.050000,0.352653,-0.665071,0.000000,0.000000,-0.597304,0.398299,0.976817,0.468551,0.209895,-0.236821,-0.114125,-0.017878,0.115905,-0.471391
-0.050000,-0.050000,0.000000,0.000000,0.000000,0.000000,0.000000,0.000000,0.000000,0.100000,0.100000,-0.320011,-0.582465,-0.050000,-0.050000,0.351478,-0.661963,0.000000,0.000000,-0.598237,0.405410,0.971199,0.463229,0.209232,-0.245976,-0.115473,-0.018961,0.120212,-0.471445
-0.050000,-0.050000,0.000000,0.000000,0.000000,0.000000,0.000000,0.000000,0.000000,0.100000,0.100000,-0.328062,-0.591196,-0.050000,-0.050000,0.350254,-0.658135,0.000000,0.000000,-0.599297,0.411048,0.962751,0.455748,0.209065,-0.254560,-0.117236,-0.020259,0.125526,-0.473864
-0.050000,-0.050000,0.000000,0.000000,0.000000,0.000000,0.000000,0.000000,0.000000,0.100000,0.100000,-0.336639,-0.599475,-0.050000,-0.050000,0.348998,-0.653278,0.000000,0.000000,-0.600656,0.415154,0.950831,0.446253,0.209919,-0.261978,-0.119642,-0.021713,0.132198,-0.478754
-0.050000,-0.050000,0.000000,0.000000,0.000000,0.000000,0.000000,0.000000,0.000000,0.100000,0.100000,-0.345352,-0.607150,-0.050000,-0.050000,0.347896,-0.647817,0.000000,0.000000,-0.602244,0.418262,0.936575,0.435545,0.211613,-0.268596,-0.122288,-0.023113,0.139729,-0.485060
-0.050000,-0.050000,0.000000,0.000000,0.000000,0.000000,0.000000,0.000000,0.000000,0.100000,0.100000,-0.354403,-0.613917,-0.050000,-0.050000,0.346977,-0.641343,0.000000,0.000000,-0.604329,0.420412,0.919047,0.423897,0.214856,-0.273688,-0.125539,-0.024432,0.148541,-0.492808
-0.050000,-0.050000,0.000000,0.000000,0.000000,0.000000,0.000000,0.000000,0.000000,0.100000,0.100000,-0.363434,-0.619662,-0.050000,-0.050000,0.346417,-0.634270,0.000000,0.000000,-0.606838,0.422042,0.899112,0.411938,0.219492,-0.277589,-0.129055,-0.025567,0.158214,-0.501203
-0.050000,-0.050000,0.000000,0.000000,0.000000,0.000000,0.000000,0.000000,0.000000,0.100000,0.100000,-0.372407,-0.624350,-0.050000,-0.050000,0.346222,-0.626660,0.000000,0.000000,-0.609756,0.423372,0.877008,0.400010,0.225527,-0.280326,-0.132812,-0.026526,0.168607,-0.509904
-0.050000,-0.050000,0.000000,0.000000,0.000000,0.000000,0.000000,0.000000,0.000000,0.100000,0.100000,-0.381274,-0.627497,-0.050000,-0.050000,0.346566,-0.618639,0.000000,0.000000,-0.613273,0.424764,0.852713,0.388835,0.233323,-0.281626,-0.136835,-0.027204,0.179656,-0.518390
-0.050000,-0.050000,0.000000,0.000000,0.000000,0.000000,0.000000,0.000000,0.000000,0.100000,0.100000,-0.389849,-0.629548,-0.050000,-0.050000,0.347313,-0.610450,0.000000,0.000000,-0.617096,0.426212,0.827023,0.378309,0.242319,-0.281961,-0.140885,-0.027757,0.191008,-0.526608
-0.050000,-0.050000,0.000000,0.000000,0.000000,0.000000,0.000000,0.000000,0.000000,0.100000,0.100000,-0.398152,-0.629755,-0.050000,-0.050000,0.348647,-0.602318,0.000000,0.000000,-0.621457,0.428107,0.800065,0.369403,0.252854,-0.280960,-0.144971,-0.028009,0.202499,-0.533952
-0.050000,-0.050000,0.000000,0.000000,0.000000,0.000000,0.000000,0.000000,0.000000,0.100000,0.100000,-0.406039,-0.628531,-0.050000,-0.050000,0.350373,-0.594440,0.000000,0.000000,-0.626104,0.430319,0.772601,0.362012,0.264368,-0.278935,-0.148896,-0.028133,0.213818,-0.540481
-0.050000,-0.050000,0.000000,0.000000,0.000000,0.000000,0.000000,0.000000,0.000000,0.100000,0.100000,-0.413567,-0.625901,-0.050000,-0.050000,0.352411,-0.586940,0.000000,0.000000,-0.630974,0.432883,0.745047,0.356281,0.276617,-0.275972,-0.152618,-0.028150,0.224784,-0.546117
-0.050000,-0.050000,0.000000,0.000000,0.000000,0.000000,0.000000,0.000000,0.000000,0.100000,0.100000,-0.420618,-0.621472,-0.050000,-0.050000,0.354710,-0.580174,0.000000,0.000000,-0.636015,0.435810,0.718410,0.353028,0.289287,-0.271879,-0.155878,-0.027961,0.234931,-0.550435
-0.050000,-0.050000,0.000000,0.000000,0.000000,0.000000,0.000000,0.000000,0.000000,0.100000,0.100000,-0.427378,-0.615945,-0.050000,-0.050000,0.357014,-0.573946,0.000000,0.000000,-0.641133,0.438926,0.692681,0.351564,0.302058,-0.266947,-0.158834,-0.027810,0.244383,-0.553848
-0.050000,-0.050000,0.000000,0.000000,0.000000,0.000000,0.000000,0.000000,0.000000,0.100000,0.100000,-0.433633,-0.608658,-0.050000,-0.050000,0.359289,-0.568710,0.000000,0.000000,-0.646228,0.442169,0.669382,0.353177,0.314470,-0.260806,-0.161045,-0.027442,0.252456,-0.555679
-0.050000,-0.050000,0.000000,0.000000,0.000000,0.000000,0.000000,0.000000,0.000000,0.100000,0.100000,-0.439606,-0.600241,-0.050000,-0.050000,0.361260,-0.564219,0.000000,0.000000,-0.651290,0.445391,0.648542,0.357334,0.326267,-0.253620,-0.162707,-0.027092,0.259278,-0.556204
-0.050000,-0.050000,0.000000,0.000000,0.000000,0.000000,0.000000,0.000000,0.000000,0.100000,0.100000,-0.445348,-0.590798,-0.050000,-0.050000,0.362858,-0.560454,0.000000,0.000000,-0.656278,0.448509,0.630489,0.364077,0.337257,-0.245426,-0.163805,-0.026731,0.264798,-0.555395
-0.050000,-0.050000,0.000000,0.000000,0.000000,0.000000,0.000000,0.000000,0.000000,0.100000,0.100000,-0.450687,-0.580209,-0.050000,-0.050000,0.363922,-0.557486,0.000000,0.000000,-0.661041,0.451378,0.616482,0.374153,0.346904,-0.236008,-0.164057,-0.026226,0.268509,-0.552720
-0.050000,-0.050000,0.000000,0.000000,0.000000,0.000000,0.000000,0.000000,0.000000,0.100000,0.100000,-0.456007,-0.569070,-0.050000,-0.050000,0.364391,-0.554984,0.000000,0.000000,-0.665746,0.454065,0.605535,0.386586,0.355485,-0.225717,-0.163929,-0.025810,0.270987,-0.548678
-0.050000,-0.050000,0.000000,0.000000,0.000000,0.000000,0.000000,0.000000,0.000000,0.100000,0.100000,-0.460842,-0.557088,-0.050000,-0.050000,0.364177,-0.553051,0.000000,0.000000,-0.670075,0.456443,0.599394,0.402495,0.362262,-0.214330,-0.162946,-0.025184,0.271469,-0.542357
-0.050000,-0.050000,0.000000,0.000000,0.000000,0.000000,0.000000,0.000000,0.000000,0.100000,0.100000,-0.465527,-0.544796,-0.050000,-0.050000,0.363245,-0.551385,0.000000,0.000000,-0.674170,0.458671,0.597125,0.420999,0.367496,-0.202233,-0.161575,-0.024572,0.270484,-0.534105
-0.050000,-0.050000,0.000000,0.000000,0.000000,0.000000,0.000000,0.000000,0.000000,0.100000,0.100000,-0.469976,-0.532296,-0.050000,-0.050000,0.361668,-0.549880,0.000000,0.000000,-0.677943,0.460789,0.598588,0.441891,0.371194,-0.189636,-0.159863,-0.023905,0.268133,-0.523898
-0.050000,-0.050000,0.000000,0.000000,0.000000,0.000000,0.000000,0.000000,0.000000,0.100000,0.100000,-0.473851,-0.519717,-0.050000,-0.050000,0.359493,-0.548459,0.000000,0.000000,-0.681120,0.463002,0.604280,0.465205,0.372951,-0.176890,-0.157755,-0.023095,0.264231,-0.511202
-0.050000,-0.050000,0.000000,0.000000,0.000000,0.000000,0.000000,0.000000,0.000000,0.100000,0.100000,-0.477484,-0.507277,-0.050000,-0.050000,0.356819,-0.546961,0.000000,0.000000,-0.683873,0.465345,0.612889,0.490097,0.373333,-0.164227,-0.155614,-0.022249,0.259380,-0.496692
-0.050000,-0.050000,0.000000,0.000000,0.000000,0.000000,0.000000,0.000000,0.000000,0.100000,0.100000,-0.480200,-0.495101,-0.050000,-0.050000,0.353814,-0.545418,0.000000,0.000000,-0.685693,0.468192,0.625219,0.516562,0.371659,-0.152271,-0.153248,-0.021232,0.253296,-0.479583
-0.050000,-0.050000,0.000000,0.000000,0.000000,0.000000,0.000000,0.000000,0.000000,0.100000,0.100000,-0.482254,-0.483344,-0.050000,-0.050000,0.350596,-0.543745,0.000000,0.000000,-0.686682,0.471590,0.640114,0.543847,0.368405,-0.141241,-0.150952,-0.020133,0.246508,-0.460517
-0.050000,-0.050000,0.000000,0.000000,0.000000,0.000000,0.000000,0.000000,0.000000,0.100000,0.100000,-0.483515,-0.472043,-0.050000,-0.050000,0.347330,-0.541954,0.000000,0.000000,-0.686727,0.475635,0.657159,0.571540,0.363661,-0.131402,-0.148729,-0.018924,0.239198,-0.439698
-0.050000,-0.050000,0.000000,0.000000,0.000000,0.000000,0.000000,0.000000,0.000000,0.100000,0.100000,-0.483618,-0.461439,-0.050000,-0.050000,0.344267,-0.540192,0.000000,0.000000,-0.685502,0.480623,0.676215,0.599008,0.357196,-0.123377,-0.146554,-0.017660,0.231601,-0.417181
-0.050000,-0.050000,0.000000,0.000000,0.000000,0.000000,0.000000,0.000000,0.000000,0.100000,0.100000,-0.482898,-0.451310,-0.050000,-0.050000,0.341397,-0.538351,0.000000,0.000000,-0.683260,0.486309,0.696435,0.626132,0.349564,-0.116799,-0.144514,-0.016296,0.223900,-0.393599
-0.050000,-0.050000,0.000000,0.000000,0.000000,0.000000,0.000000,0.000000,0.000000,0.100000,0.100000,-0.480803,-0.442102,-0.050000,-0.050000,0.339065,-0.536781,0.000000,0.000000,-0.679533,0.493043,0.717912,0.652076,0.340310,-0.112491,-0.142494,-0.015004,0.216428,-0.369124
-0.050000,-0.050000,0.000000,0.000000,0.000000,0.000000,0.000000,0.000000,0.000000,0.100000,0.100000,-0.477646,-0.433561,-0.050000,-0.050000,0.337215,-0.535396,0.000000,0.000000,-0.674587,0.500532,0.739991,0.676891,0.329911,-0.109972,-0.140545,-0.013728,0.209280,-0.344362
-0.050000,-0.050000,0.000000,0.000000,0.000000,0.000000,0.000000,0.000000,0.000000,0.100000,0.100000,-0.473463,-0.425698,-0.050000,-0.050000,0.335892,-0.534283,0.000000,0.000000,-0.668478,0.508666,0.762434,0.700433,0.318497,-0.109136,-0.138616,-0.012529,0.202564,-0.319710
-0.050000,-0.050000,0.000000,0.000000,0.000000,0.000000,0.000000,0.000000,0.000000,0.100000,0.100000,-0.468150,-0.418749,-0.050000,-0.050000,0.335211,-0.533679,0.000000,0.000000,-0.661200,0.517265,0.785055,0.722404,0.306069,-0.109995,-0.136656,-0.011526,0.196531,-0.295881
-0.050000,-0.050000,0.000000,0.000000,0.000000,0.000000,0.000000,0.000000,0.000000,0.100000,0.100000,-0.462065,-0.412294,-0.050000,-0.050000,0.334970,-0.533352,0.000000,0.000000,-0.653077,0.526141,0.807604,0.743281,0.293006,-0.111967,-0.134682,-0.010606,0.190953,-0.272845
-0.050000,-0.050000,0.000000,0.000000,0.000000,0.000000,0.000000,0.000000,0.000000,0.100000,0.100000,-0.455023,-0.406836,-0.050000,-0.050000,0.335304,-0.533666,0.000000,0.000000,-0.644175,0.534888,0.829976,0.762813,0.279292,-0.115014,-0.132638,-0.009938,0.186135,-0.251706
-0.050000,-0.050000,0.000000,0.000000,0.000000,0.000000,0.000000,0.000000,0.000000,0.100000,0.100000,-0.447355,-0.401955,-0.050000,-0.050000,0.335981,-0.534334,0.000000,0.000000,-0.634845,0.543345,0.852014,0.781599,0.265289,-0.118572,-0.130546,-0.009372,0.181788,-0.232311
-0.050000,-0.050000,0.000000,0.000000,0.000000,0.000000,0.000000,0.000000,0.000000,0.100000,0.100000,-0.439193,-0.397642,-0.050000,-0.050000,0.336910,-0.535316,0.000000,0.000000,-0.625327,0.551255,0.873681,0.799946,0.251190,-0.122330,-0.128399,-0.008896,0.177809,-0.214841
-0.050000,-0.050000,0.000000,0.000000,0.000000,0.000000,0.000000,0.000000,0.000000,0.100000,0.100000,-0.430621,-0.393971,-0.050000,-0.050000,0.337959,-0.536539,0.000000,0.000000,-0.616057,0.558079,0.894850,0.818398,0.237377,-0.125767,-0.126187,-0.008410,0.174053,-0.199853
-0.050000,-0.050000,0.000000,0.000000,0.000000,0.000000,0.000000,0.000000,0.000000,0.100000,0.100000,-0.421861,-0.390622,-0.050000,-0.050000,0.339025,-0.537780,0.000000,0.000000,-0.607057,0.564062,0.915615,0.837151,0.223879,-0.128855,-0.123907,-0.007908,0.170355,-0.186649
-0.050000,-0.050000,0.000000,0.000000,0.000000,0.000000,0.000000,0.000000,0.000000,0.100000,0.100000,-0.412941,-0.387777,-0.050000,-0.050000,0.339902,-0.538885,0.000000,0.000000,-0.599031,0.568279,0.935768,0.857070,0.211372,-0.130784,-0.121534,-0.007142,0.166435,-0.176062
-0.050000,-0.050000,0.000000,0.000000,0.000000,0.000000,0.000000,0.000000,0.000000,0.100000,0.100000,-0.404049,-0.385156,-0.050000,-0.050000,0.340528,-0.539609,0.000000,0.000000,-0.591938,0.571046,0.955416,0.878233,0.199845,-0.131635,-0.119037,-0.006150,0.162189,-0.167337
-0.050000,-0.050000,0.000000,0.000000,0.000000,0.000000,0.000000,0.000000,0.000000,0.100000,0.100000,-0.395246,-0.382701,-0.050000,-0.050000,0.340821,-0.539811,0.000000,0.000000,-0.585930,0.572244,0.974562,0.900865,0.189468,-0.131246,-0.116398,-0.004856,0.157477,-0.160241
-0.050000,-0.050000,0.000000,0.000000,0.000000,0.000000,0.000000,0.000000,0.000000,0.100000,0.100000,-0.386622,-0.380339,-0.050000,-0.050000,0.340594,-0.539158,0.000000,0.000000,-0.581378,0.571542,0.993048,0.925378,0.180685,-0.129168,-0.113575,-0.003092,0.152045,-0.154655
-0.050000,-0.050000,0.000000,0.000000,0.000000,0.000000,0.000000,0.000000,0.000000,0.100000,0.100000,-0.378200,-0.378011,-0.050000,-0.050000,0.340014,-0.537771,0.000000,0.000000,-0.577879,0.569475,1.011064,0.951276,0.173068,-0.125920,-0.110566,-0.001057,0.146085,-0.149988
-0.050000,-0.050000,0.000000,0.000000,0.000000,0.000000,0.000000,0.000000,0.000000,0.100000,0.100000,-0.370061,-0.375637,-0.050000,-0.050000,0.338753,-0.535113,0.000000,0.000000,-0.575981,0.565564,1.028177,0.978933,0.167284,-0.120795,-0.107347,0.001521,0.139224,-0.146118
-0.050000,-0.050000,0.000000,0.000000,0.000000,0.000000,0.000000,0.000000,0.000000,0.100000,0.100000,-0.362198,-0.373214,-0.050000,-0.050000,0.337066,-0.531375,0.000000,0.000000,-0.575214,0.560417,1.044503,1.007641,0.162815,-0.114414,-0.103930,0.004388,0.131731,-0.142573
-0.050000,-0.050000,0.000000,0.000000,0.000000,0.000000,0.000000,0.000000,0.000000,0.100000,0.100000,-0.354584,-0.370720,-0.050000,-0.050000,0.334977,-0.526550,0.000000,0.000000,-0.575440,0.554272,1.059921,1.036989,0.159525,-0.106948,-0.100358,0.007501,0.123657,-0.139049
-0.050000,-0.050000,0.000000,0.000000,0.000000,0.000000,0.000000,0.000000,0.000000,0.100000,0.100000,-0.347254,-0.368127,-0.050000,-0.050000,0.332486,-0.520448,0.000000,0.000000,-0.576583,0.547501,1.073996,1.066228,0.157332,-0.098579,-0.096734,0.010737,0.115049,-0.135212
-0.050000,-0.050000,0.000000,0.000000,0.000000,0.000000,0.000000,0.000000,0.000000,0.100000,0.100000,-0.340067,-0.365469,-0.050000,-0.050000,0.329869,-0.513493,0.000000,0.000000,-0.578263,0.540382,1.087020,1.095100,0.155815,-0.089749,-0.093039,0.014043,0.106119,-0.131029
-0.050000,-0.050000,0.000000,0.000000,0.000000,0.000000,0.000000,0.000000,0.000000,0.100000,0.100000,-0.333162,-0.362704,-0.050000,-0.050000,0.327069,-0.505269,0.000000,0.000000,-0.580458,0.533621,1.098060,1.122192,0.154875,-0.080799,-0.089562,0.017081,0.096981,-0.126115
-0.050000,-0.050000,0.000000,0.000000,0.000000,0.000000,0.000000,0.000000,0.000000,0.100000,0.100000,-0.326366,-0.359832,-0.050000,-0.050000,0.324417,-0.496227,0.000000,0.000000,-0.582843,0.527386,1.107390,1.147329,0.154159,-0.072094,-0.086264,0.019869,0.087825,-0.120598
-0.050000,-0.050000,0.000000,0.000000,0.000000,0.000000,0.000000,0.000000,0.000000,0.100000,0.100000,-0.319678,-0.356853,-0.050000,-0.050000,0.322001,-0.486457,0.000000,0.000000,-0.585273,0.522023,1.114876,1.170000,0.153450,-0.063936,-0.083262,0.022262,0.078807,-0.114489
-0.050000,-0.050000,0.000000,0.000000,0.000000,0.000000,0.000000,0.000000,0.000000,0.100000,0.100000,-0.313194,-0.353779,-0.050000,-0.050000,0.320004,-0.475977,0.000000,0.000000,-0.587621,0.518101,1.120069,1.189157,0.152496,-0.056778,-0.080796,0.023941,0.070218,-0.107832
-0.050000,-0.050000,0.000000,0.000000,0.000000,0.000000,0.000000,0.000000,0.000000,0.100000,0.100000,-0.306725,-0.350552,-0.050000,-0.050000,0.318484,-0.465107,0.000000,0.000000,-0.589806,0.515225,1.123558,1.205595,0.151292,-0.050413,-0.078661,0.025232,0.061969,-0.100836
-0.050000,-0.050000,0.000000,0.000000,0.000000,0.000000,0.000000,0.000000,0.000000,0.100000,0.100000,-0.300653,-0.347292,-0.050000,-0.050000,0.317671,-0.453748,0.000000,0.000000,-0.591781,0.514320,1.124526,1.217587,0.149532,-0.045497,-0.077316,0.025476,0.054612,-0.093659
-0.050000,-0.050000,0.000000,0.000000,0.000000,0.000000,0.000000,0.000000,0.000000,0.100000,0.100000,-0.294795,-0.343912,-0.050000,-0.050000,0.317591,-0.442199,0.000000,0.000000,-0.593519,0.514795,1.123642,1.226157,0.147307,-0.041643,-0.076484,0.025133,0.047991,-0.086517
-0.050000,-0.050000,0.000000,0.000000,0.000000,0.000000,0.000000,0.000000,0.000000,0.100000,0.100000,-0.289278,-0.340485,-0.050000,-0.050000,0.318231,-0.430551,0.000000,0.000000,-0.595071,0.516598,1.121092,1.231490,0.144624,-0.038786,-0.076170,0.024193,0.042194,-0.079593
-0.050000,-0.050000,0.000000,0.000000,0.000000,0.000000,0.000000,0.000000,0.000000,0.100000,0.100000,-0.284379,-0.337130,-0.050000,-0.050000,0.319679,-0.418944,0.000000,0.000000,-0.596496,0.519732,1.116974,1.233529,0.141492,-0.036914,-0.076419,0.022612,0.037444,-0.073161
-0.050000,-0.050000,0.000000,0.000000,0.000000,0.000000,0.000000,0.000000,0.000000,0.100000,0.100000,-0.279901,-0.333776,-0.050000,-0.050000,0.321728,-0.407443,0.000000,0.000000,-0.597824,0.523667,1.111862,1.233353,0.138057,-0.035640,-0.076985,0.020754,0.033413,-0.067142
-0.050000,-0.050000,0.000000,0.000000,0.000000,0.000000,0.000000,0.000000,0.000000,0.100000,0.100000,-0.276422,-0.330691,-0.050000,-0.050000,0.324553,-0.396280,0.000000,0.000000,-0.599189,0.528490,1.105827,1.230737,0.134401,-0.035021,-0.077953,0.018510,0.030483,-0.061929
-0.050000,-0.050000,0.000000,0.000000,0.000000,0.000000,0.000000,0.000000,0.000000,0.100000,0.100000,-0.273736,-0.327791,-0.050000,-0.050000,0.327902,-0.385485,0.000000,0.000000,-0.600608,0.533704,1.099390,1.226666,0.130685,-0.034732,-0.079088,0.016233,0.028266,-0.057326
-0.050000,-0.050000,0.000000,0.000000,0.000000,0.000000,0.000000,0.000000,0.000000,0.100000,0.100000,-0.271918,-0.325139,-0.050000,-0.050000,0.331667,-0.375147,0.000000,0.000000,-0.602148,0.539083,1.092873,1.221673,0.127061,-0.034635,-0.080289,0.014051,0.026632,-0.053289
-0.050000,-0.050000,0.000000,0.000000,0.000000,0.000000,0.000000,0.000000,0.000000,0.100000,0.100000,-0.271139,-0.322822,-0.050000,-0.050000,0.335779,-0.365464,0.000000,0.000000,-0.603881,0.544385,1.086639,1.216218,0.123766,-0.034644,-0.081433,0.012124,0.025444,-0.049767
-0.050000,-0.050000,0.000000,0.000000,0.000000,0.000000,0.000000,0.000000,0.000000,0.100000,0.100000,-0.271146,-0.320753,-0.050000,-0.050000,0.340021,-0.356293,0.000000,0.000000,-0.605775,0.549507,1.080764,1.210604,0.120767,-0.034689,-0.082499,0.010456,0.024483,-0.046530
-0.050000,-0.050000,0.000000,0.000000,0.000000,0.000000,0.000000,0.000000,0.000000,0.100000,0.100000,-0.272187,-0.319032,-0.050000,-0.050000,0.344393,-0.348058,0.000000,0.000000,-0.607899,0.554146,1.075738,1.205300,0.118488,-0.034749,-0.083296,0.009291,0.023531,-0.043468
-0.050000,-0.050000,0.000000,0.000000,0.000000,0.000000,0.000000,0.000000,0.000000,0.100000,0.100000,-0.273995,-0.317563,-0.050000,-0.050000,0.348670,-0.340598,0.000000,0.000000,-0.610190,0.558299,1.071502,1.200330,0.116838,-0.034834,-0.083868,0.008533,0.022437,-0.040361
-0.050000,-0.050000,0.000000,0.000000,0.000000,0.000000,0.000000,0.000000,0.000000,0.100000,0.100000,-0.276425,-0.316289,-0.050000,-0.050000,0.352782,-0.333956,0.000000,0.000000,-0.612606,0.561918,1.068114,1.195782,0.115871,-0.034964,-0.084193,0.008179,0.021061,-0.037060
-0.050000,-0.050000,0.000000,0.000000,0.000000,0.000000,0.000000,0.000000,0.000000,0.100000,0.100000,-0.279340,-0.315161,-0.050000,-0.050000,0.356641,-0.328282,0.000000,0.000000,-0.615080,0.564902,1.065689,1.191705,0.115709,-0.035191,-0.084226,0.008236,0.019241,-0.033411
-0.050000,-0.050000,0.000000,0.000000,0.000000,0.000000,0.000000,0.000000,0.000000,0.100000,0.100000,-0.282580,-0.314115,-0.050000,-0.050000,0.360192,-0.323349,0.000000,0.000000,-0.617572,0.567421,1.063969,1.187912,0.116132,-0.035516,-0.084081,0.008557,0.017078,-0.029438
-0.050000,-0.050000,0.000000,0.000000,0.000000,0.000000,0.000000,0.000000,0.000000,0.100000,0.100000,-0.285920,-0.313093,-0.050000,-0.050000,0.363365,-0.319462,0.000000,0.000000,-0.619950,0.569273,1.063164,1.184459,0.117325,-0.036017,-0.083668,0.009175,0.014375,-0.025013
-0.050000,-0.050000,0.000000,0.000000,0.000000,0.000000,0.000000,0.000000,0.000000,0.100000,0.100000,-0.289267,-0.312055,-0.050000,-0.050000,0.366114,-0.316395,0.000000,0.000000,-0.622185,0.570658,1.062984,1.181147,0.119042,-0.036677,-0.083114,0.009948,0.011317,-0.020252
-0.050000,-0.050000,0.000000,0.000000,0.000000,0.000000,0.000000,0.000000,0.000000,0.100000,0.100000,-0.292478,-0.310971,-0.050000,-0.050000,0.368461,-0.314066,0.000000,0.000000,-0.624225,0.571636,1.063303,1.177899,0.121152,-0.037486,-0.082462,0.010804,0.007995,-0.015256
-0.050000,-0.050000,0.000000,0.000000,0.000000,0.000000,0.000000,0.000000,0.000000,0.100000,0.100000,-0.295396,-0.309830,-0.050000,-0.050000,0.370394,-0.312459,0.000000,0.000000,-0.625991,0.572221,1.064027,1.174689,0.123532,-0.038429,-0.081746,0.011681,0.004516,-0.010174
-0.050000,-0.050000,0.000000,0.000000,0.000000,0.000000,0.000000,0.000000,0.000000,0.100000,0.100000,-0.298081,-0.308638,-0.050000,-0.050000,0.371980,-0.311368,0.000000,0.000000,-0.627543,0.572578,1.064988,1.171474,0.126063,-0.039464,-0.081018,0.012541,0.000992,-0.005078
