RRGGZZ/g1_deploy_sonic/data/example_scalelab/qwen_50fps_waist/case_test04_waist/joint_pos.csv
joint_0,joint_1,joint_2,joint_3,joint_4,joint_5,joint_6,joint_7,joint_8,joint_9,joint_10,joint_11,joint_12,joint_13,joint_14,joint_15,joint_16,joint_17,joint_18,joint_19,joint_20,joint_21,joint_22,joint_23,joint_24,joint_25,joint_26,joint_27,joint_28
-0.050000,-0.050000,-0.064321,0.000000,0.000000,-0.021139,0.000000,0.000000,0.239876,0.100000,0.100000,-0.150298,-0.467425,-0.050000,-0.050000,0.386781,-0.710646,0.000000,0.000000,-0.534949,0.272617,1.101143,0.030857,0.183229,-0.281590,-0.051770,-0.045326,0.017928,-0.500597
-0.050000,-0.050000,-0.064394,0.000000,0.000000,-0.014435,0.000000,0.000000,0.248235,0.100000,0.100000,-0.163742,-0.478203,-0.050000,-0.050000,0.373601,-0.711735,0.000000,0.000000,-0.535984,0.273246,1.120911,0.040537,0.183691,-0.272287,-0.062369,-0.049616,0.025005,-0.507422
-0.050000,-0.050000,-0.065352,0.000000,0.000000,-0.009655,0.000000,0.000000,0.253511,0.100000,0.100000,-0.171381,-0.483829,-0.050000,-0.050000,0.365886,-0.710104,0.000000,0.000000,-0.536077,0.270786,1.131121,0.046217,0.184242,-0.262290,-0.066468,-0.051796,0.029265,-0.511316
-0.050000,-0.050000,-0.066426,0.000000,0.000000,-0.005739,0.000000,0.000000,0.257402,0.100000,0.100000,-0.175900,-0.486312,-0.050000,-0.050000,0.360662,-0.707320,0.000000,0.000000,-0.535853,0.266799,1.137323,0.050670,0.184688,-0.251478,-0.067366,-0.052627,0.032266,-0.513707
-0.050000,-0.050000,-0.067436,0.000000,0.000000,-0.002215,0.000000,0.000000,0.260569,0.100000,0.100000,-0.178895,-0.487164,-0.050000,-0.050000,0.356551,-0.704051,0.000000,0.000000,-0.535630,0.262033,1.141739,0.054608,0.185058,-0.240137,-0.066779,-0.052839,0.034724,-0.515380
-0.050000,-0.050000,-0.068366,0.000000,0.000000,0.001332,0.000000,0.000000,0.263773,0.100000,0.100000,-0.180479,-0.486280,-0.050000,-0.050000,0.353041,-0.701183,0.000000,0.000000,-0.534924,0.256970,1.145958,0.059957,0.185241,-0.227554,-0.065119,-0.052362,0.036816,-0.515850
-0.050000,-0.050000,-0.069220,0.000000,0.000000,0.004889,0.000000,0.000000,0.266849,0.100000,0.100000,-0.181371,-0.484708,-0.050000,-0.050000,0.349796,-0.698736,0.000000,0.000000,-0.534119,0.251960,1.149962,0.065982,0.185319,-0.214459,-0.063082,-0.051800,0.038716,-0.515662
-0.050000,-0.050000,-0.070018,0.000000,0.000000,0.008564,0.000000,0.000000,0.270094,0.100000,0.100000,-0.181455,-0.482226,-0.050000,-0.050000,0.346822,-0.697101,0.000000,0.000000,-0.532937,0.247252,1.154142,0.073455,0.185189,-0.200783,-0.060739,-0.051044,0.040394,-0.514508
-0.050000,-0.050000,-0.070763,0.000000,0.000000,0.012354,0.000000,0.000000,0.273514,0.100000,0.100000,-0.180788,-0.478916,-0.050000,-0.050000,0.344188,-0.696598,0.000000,0.000000,-0.531420,0.243193,1.158392,0.082539,0.184765,-0.186958,-0.058360,-0.050242,0.041804,-0.512264
-0.050000,-0.050000,-0.071512,0.000000,0.000000,0.016269,0.000000,0.000000,0.276975,0.100000,0.100000,-0.179629,-0.475271,-0.050000,-0.050000,0.341685,-0.696739,0.000000,0.000000,-0.529730,0.239565,1.162620,0.092665,0.184155,-0.173005,-0.055997,-0.049557,0.043038,-0.509401
-0.050000,-0.050000,-0.072206,0.000000,0.000000,0.020271,0.000000,0.000000,0.280767,0.100000,0.100000,-0.177709,-0.470479,-0.050000,-0.050000,0.339841,-0.698648,0.000000,0.000000,-0.527696,0.237212,1.166668,0.105031,0.183025,-0.159829,-0.053984,-0.048795,0.043894,-0.505046
-0.050000,-0.050000,-0.072947,0.000000,0.000000,0.024405,0.000000,0.000000,0.284553,0.100000,0.100000,-0.175416,-0.465482,-0.050000,-0.050000,0.338188,-0.701214,0.000000,0.000000,-0.525667,0.235539,1.170378,0.118540,0.181624,-0.147138,-0.052259,-0.048278,0.044538,-0.500123
-0.050000,-0.050000,-0.073711,0.000000,0.000000,0.028597,0.000000,0.000000,0.288500,0.100000,0.100000,-0.172775,-0.459869,-0.050000,-0.050000,0.337006,-0.704863,0.000000,0.000000,-0.523616,0.234933,1.173625,0.133645,0.179825,-0.135518,-0.050991,-0.047823,0.044936,-0.494315
-0.050000,-0.050000,-0.074549,0.000000,0.000000,0.032837,0.000000,0.000000,0.292534,0.100000,0.100000,-0.170039,-0.453787,-0.050000,-0.050000,0.336244,-0.709305,0.000000,0.000000,-0.521820,0.235471,1.176150,0.150336,0.177666,-0.125304,-0.050307,-0.047448,0.045149,-0.487803
-0.050000,-0.050000,-0.075452,0.000000,0.000000,0.037134,0.000000,0.000000,0.296594,0.100000,0.100000,-0.167175,-0.447556,-0.050000,-0.050000,0.335712,-0.714077,0.000000,0.000000,-0.520169,0.236675,1.178212,0.168075,0.175259,-0.115960,-0.049951,-0.047225,0.045228,-0.480924
-0.050000,-0.050000,-0.076513,0.000000,0.000000,0.041372,0.000000,0.000000,0.300739,0.100000,0.100000,-0.164823,-0.440716,-0.050000,-0.050000,0.335663,-0.719290,0.000000,0.000000,-0.519302,0.239480,1.179073,0.187858,0.172582,-0.108747,-0.050401,-0.046852,0.045287,-0.473367
-0.050000,-0.050000,-0.077675,0.000000,0.000000,0.045620,0.000000,0.000000,0.304840,0.100000,0.100000,-0.162685,-0.433923,-0.050000,-0.050000,0.335744,-0.724220,0.000000,0.000000,-0.518884,0.242956,1.179344,0.208820,0.169780,-0.102446,-0.051109,-0.046574,0.045338,-0.465647
-0.050000,-0.050000,-0.079003,0.000000,0.000000,0.049782,0.000000,0.000000,0.308917,0.100000,0.100000,-0.161225,-0.426931,-0.050000,-0.050000,0.336023,-0.728751,0.000000,0.000000,-0.519267,0.247536,1.178714,0.231396,0.166951,-0.097446,-0.052226,-0.046159,0.045500,-0.457597
-0.050000,-0.050000,-0.080507,0.000000,0.000000,0.053839,0.000000,0.000000,0.312869,0.100000,0.100000,-0.160715,-0.419892,-0.050000,-0.050000,0.336343,-0.732295,0.000000,0.000000,-0.520662,0.253194,1.177214,0.255840,0.164263,-0.093325,-0.053565,-0.045515,0.045851,-0.449200
-0.050000,-0.050000,-0.082103,0.000000,0.000000,0.057798,0.000000,0.000000,0.316760,0.100000,0.100000,-0.160725,-0.412995,-0.050000,-0.050000,0.336729,-0.735104,0.000000,0.000000,-0.522617,0.259468,1.175239,0.281522,0.161627,-0.089768,-0.054966,-0.044834,0.046316,-0.440609
-0.050000,-0.050000,-0.083941,0.000000,0.000000,0.061571,0.000000,0.000000,0.320321,0.100000,0.100000,-0.162563,-0.405994,-0.050000,-0.050000,0.336905,-0.735854,0.000000,0.000000,-0.526218,0.267245,1.172202,0.310118,0.159517,-0.086425,-0.056395,-0.043513,0.047128,-0.431157
-0.050000,-0.050000,-0.085808,0.000000,0.000000,0.065187,0.000000,0.000000,0.323712,0.100000,0.100000,-0.165167,-0.399340,-0.050000,-0.050000,0.337038,-0.735362,0.000000,0.000000,-0.530489,0.275646,1.168844,0.340450,0.157600,-0.083021,-0.057637,-0.042063,0.048075,-0.421194
-0.050000,-0.050000,-0.087794,0.000000,0.000000,0.068630,0.000000,0.000000,0.326778,0.100000,0.100000,-0.169207,-0.392803,-0.050000,-0.050000,0.336932,-0.732962,0.000000,0.000000,-0.535907,0.285094,1.164898,0.373308,0.156127,-0.079230,-0.058694,-0.040139,0.049228,-0.410212
-0.050000,-0.050000,-0.089801,0.000000,0.000000,0.071890,0.000000,0.000000,0.329428,0.100000,0.100000,-0.174709,-0.386446,-0.050000,-0.050000,0.336532,-0.728529,0.000000,0.000000,-0.542409,0.295577,1.160499,0.408980,0.155074,-0.074727,-0.059479,-0.037713,0.050506,-0.397827
-0.050000,-0.050000,-0.091811,0.000000,0.000000,0.074998,0.000000,0.000000,0.331853,0.100000,0.100000,-0.181046,-0.380405,-0.050000,-0.050000,0.335995,-0.722751,0.000000,0.000000,-0.549490,0.306605,1.155887,0.446490,0.154234,-0.069899,-0.060054,-0.035118,0.051847,-0.384514
-0.050000,-0.050000,-0.093764,0.000000,0.000000,0.077928,0.000000,0.000000,0.333567,0.100000,0.100000,-0.189381,-0.374204,-0.050000,-0.050000,0.334894,-0.714371,0.000000,0.000000,-0.557838,0.319026,1.150701,0.487684,0.153830,-0.064006,-0.060419,-0.031721,0.053171,-0.368698
-0.050000,-0.050000,-0.095623,0.000000,0.000000,0.080705,0.000000,0.000000,0.334975,0.100000,0.100000,-0.198415,-0.368263,-0.050000,-0.050000,0.333630,-0.704790,0.000000,0.000000,-0.566550,0.331867,1.145398,0.530631,0.153442,-0.057992,-0.060674,-0.028282,0.054414,-0.351616
-0.050000,-0.050000,-0.097385,0.000000,0.000000,0.083357,0.000000,0.000000,0.335854,0.100000,0.100000,-0.208631,-0.362089,-0.050000,-0.050000,0.331959,-0.693534,0.000000,0.000000,-0.575813,0.345452,1.139756,0.575817,0.153099,-0.051794,-0.060950,-0.024506,0.055496,-0.332556
-0.050000,-0.050000,-0.099001,0.000000,0.000000,0.085863,0.000000,0.000000,0.336191,0.100000,0.100000,-0.219704,-0.355554,-0.050000,-0.050000,0.329918,-0.681001,0.000000,0.000000,-0.585302,0.359542,1.133831,0.622510,0.152531,-0.046017,-0.061430,-0.020680,0.056303,-0.311689
-0.050000,-0.050000,-0.100542,0.000000,0.000000,0.088293,0.000000,0.000000,0.336207,0.100000,0.100000,-0.231219,-0.348701,-0.050000,-0.050000,0.327652,-0.667544,0.000000,0.000000,-0.594878,0.373676,1.127768,0.670046,0.151796,-0.040814,-0.062050,-0.016872,0.056917,-0.289668
-0.050000,-0.050000,-0.101894,0.000000,0.000000,0.090520,0.000000,0.000000,0.335498,0.100000,0.100000,-0.243367,-0.340809,-0.050000,-0.050000,0.324887,-0.653146,0.000000,0.000000,-0.604191,0.388111,1.121306,0.717788,0.150384,-0.037092,-0.063302,-0.013387,0.057013,-0.266008
-0.050000,-0.050000,-0.103198,0.000000,0.000000,0.092659,0.000000,0.000000,0.334472,0.100000,0.100000,-0.255467,-0.332212,-0.050000,-0.050000,0.321951,-0.638288,0.000000,0.000000,-0.613204,0.402089,1.114773,0.765012,0.148561,-0.034639,-0.064885,-0.010237,0.056798,-0.241877
-0.050000,-0.050000,-0.104404,0.000000,0.000000,0.094626,0.000000,0.000000,0.332971,0.100000,0.100000,-0.267504,-0.322530,-0.050000,-0.050000,0.318722,-0.623072,0.000000,0.000000,-0.621636,0.415629,1.108051,0.811006,0.146076,-0.033899,-0.067031,-0.007636,0.056128,-0.217393
-0.050000,-0.050000,-0.105575,0.000000,0.000000,0.096382,0.000000,0.000000,0.331058,0.100000,0.100000,-0.279017,-0.311756,-0.050000,-0.050000,0.315291,-0.607776,0.000000,0.000000,-0.629198,0.428235,1.101294,0.854804,0.142870,-0.034880,-0.069692,-0.005767,0.054956,-0.193374
-0.050000,-0.050000,-0.106713,0.000000,0.000000,0.098037,0.000000,0.000000,0.328866,0.100000,0.100000,-0.290172,-0.299967,-0.050000,-0.050000,0.311747,-0.592350,0.000000,0.000000,-0.636259,0.440089,1.094505,0.897011,0.139255,-0.037127,-0.072686,-0.004251,0.053460,-0.169703
-0.050000,-0.050000,-0.107850,0.000000,0.000000,0.099294,0.000000,0.000000,0.326243,0.100000,0.100000,-0.300029,-0.287237,-0.050000,-0.050000,0.308071,-0.577210,0.000000,0.000000,-0.641750,0.450189,1.087954,0.935269,0.134728,-0.040807,-0.076085,-0.003807,0.051304,-0.147954
-0.050000,-0.050000,-0.108991,0.000000,0.000000,0.100410,0.000000,0.000000,0.323411,0.100000,0.100000,-0.309165,-0.273645,-0.050000,-0.050000,0.304412,-0.562126,0.000000,0.000000,-0.646569,0.459191,1.081565,0.971297,0.129922,-0.045127,-0.079591,-0.003515,0.048834,-0.127321
-0.050000,-0.050000,-0.110121,0.000000,0.000000,0.101219,0.000000,0.000000,0.320323,0.100000,0.100000,-0.317076,-0.259596,-0.050000,-0.050000,0.300776,-0.547266,0.000000,0.000000,-0.650199,0.466560,1.075553,1.004177,0.124661,-0.049810,-0.083092,-0.003657,0.045942,-0.108608
-0.050000,-0.050000,-0.111222,0.000000,0.000000,0.101722,0.000000,0.000000,0.317051,0.100000,0.100000,-0.323663,-0.245462,-0.050000,-0.050000,0.297271,-0.532661,0.000000,0.000000,-0.652667,0.472193,1.070096,1.034065,0.119163,-0.054223,-0.086322,-0.003868,0.042722,-0.091960
-0.050000,-0.050000,-0.112296,0.000000,0.000000,0.102052,0.000000,0.000000,0.313665,0.100000,0.100000,-0.329505,-0.231123,-0.050000,-0.050000,0.293852,-0.518170,0.000000,0.000000,-0.654476,0.476871,1.064928,1.062007,0.113574,-0.058503,-0.089385,-0.003937,0.039308,-0.076565
-0.050000,-0.050000,-0.113221,0.000000,0.000000,0.101939,0.000000,0.000000,0.310142,0.100000,0.100000,-0.333488,-0.217914,-0.050000,-0.050000,0.290749,-0.504199,0.000000,0.000000,-0.654767,0.479256,1.060831,1.086654,0.107948,-0.061470,-0.091660,-0.003779,0.035688,-0.063826
-0.050000,-0.050000,-0.114059,0.000000,0.000000,0.101670,0.000000,0.000000,0.306616,0.100000,0.100000,-0.336884,-0.205085,-0.050000,-0.050000,0.287814,-0.490488,0.000000,0.000000,-0.654509,0.480984,1.057124,1.109729,0.102479,-0.063899,-0.093575,-0.003115,0.032062,-0.052118
-0.050000,-0.050000,-0.114709,0.000000,0.000000,0.101132,0.000000,0.000000,0.303074,0.100000,0.100000,-0.339167,-0.193543,-0.050000,-0.050000,0.285171,-0.477323,0.000000,0.000000,-0.653338,0.481459,1.054233,1.130786,0.097198,-0.065287,-0.094816,-0.001992,0.028482,-0.041959
-0.050000,-0.050000,-0.115101,0.000000,0.000000,0.100384,0.000000,0.000000,0.299599,0.100000,0.100000,-0.340647,-0.183562,-0.050000,-0.050000,0.282866,-0.464954,0.000000,0.000000,-0.651461,0.481180,1.052102,1.150010,0.092243,-0.065851,-0.095439,-0.000376,0.025121,-0.033033
-0.050000,-0.050000,-0.115391,0.000000,0.000000,0.099537,0.000000,0.000000,0.296232,0.100000,0.100000,-0.341744,-0.174527,-0.050000,-0.050000,0.280715,-0.453075,0.000000,0.000000,-0.649113,0.480544,1.050406,1.168092,0.087520,-0.065929,-0.095704,0.001662,0.021917,-0.024786
-0.050000,-0.050000,-0.115198,0.000000,0.000000,0.098497,0.000000,0.000000,0.293021,0.100000,0.100000,-0.342018,-0.168197,-0.050000,-0.050000,0.279120,-0.442865,0.000000,0.000000,-0.646121,0.479447,1.049733,1.183813,0.083305,-0.065417,-0.095314,0.003904,0.019247,-0.017976
-0.050000,-0.050000,-0.114917,0.000000,0.000000,0.097476,0.000000,0.000000,0.290064,0.100000,0.100000,-0.342248,-0.163012,-0.050000,-0.050000,0.277650,-0.433538,0.000000,0.000000,-0.642818,0.478470,1.049415,1.198320,0.079392,-0.064796,-0.094773,0.006365,0.016896,-0.011703
-0.050000,-0.050000,-0.114330,0.000000,0.000000,0.096447,0.000000,0.000000,0.287351,0.100000,0.100000,-0.342196,-0.159850,-0.050000,-0.050000,0.276536,-0.425768,0.000000,0.000000,-0.639228,0.477621,1.049736,1.210968,0.075888,-0.064157,-0.094007,0.008739,0.015042,-0.006429
-0.050000,-0.050000,-0.113515,0.000000,0.000000,0.095522,0.000000,0.000000,0.284982,0.100000,0.100000,-0.342080,-0.158618,-0.050000,-0.050000,0.275719,-0.419728,0.000000,0.000000,-0.635528,0.477170,1.050595,1.221633,0.072809,-0.063702,-0.093227,0.010817,0.013716,-0.002261
-0.050000,-0.050000,-0.112634,0.000000,0.000000,0.094719,0.000000,0.000000,0.282906,0.100000,0.100000,-0.342016,-0.158504,-0.050000,-0.050000,0.274986,-0.414789,0.000000,0.000000,-0.631667,0.476972,1.051810,1.231047,0.069997,-0.063338,-0.092484,0.012792,0.012726,0.001276
-0.050000,-0.050000,-0.111459,0.000000,0.000000,0.094164,0.000000,0.000000,0.281281,0.100000,0.100000,-0.341869,-0.160997,-0.050000,-0.050000,0.274715,-0.412364,0.000000,0.000000,-0.628094,0.477474,1.053743,1.237639,0.067774,-0.063305,-0.091913,0.013893,0.012365,0.002879
-0.050000,-0.050000,-0.110335,0.000000,0.000000,0.093865,0.000000,0.000000,0.280044,0.100000,0.100000,-0.341896,-0.164440,-0.050000,-0.050000,0.274416,-0.411071,0.000000,0.000000,-0.624504,0.478272,1.056058,1.242928,0.065838,-0.063251,-0.091518,0.014780,0.012260,0.003666
-0.050000,-0.050000,-0.109134,0.000000,0.000000,0.093869,0.000000,0.000000,0.279211,0.100000,0.100000,-0.341949,-0.169577,-0.050000,-0.050000,0.274323,-0.411503,0.000000,0.000000,-0.621251,0.479545,1.058960,1.246217,0.064363,-0.063205,-0.091321,0.015033,0.012463,0.002953
-0.050000,-0.050000,-0.107972,0.000000,0.000000,0.094233,0.000000,0.000000,0.278814,0.100000,0.100000,-0.342073,-0.176165,-0.050000,-0.050000,0.274336,-0.413382,0.000000,0.000000,-0.618391,0.481147,1.062486,1.247685,0.063371,-0.062840,-0.091288,0.014767,0.012779,0.000851
-0.050000,-0.050000,-0.106852,0.000000,0.000000,0.094858,0.000000,0.000000,0.278737,0.100000,0.100000,-0.342328,-0.183589,-0.050000,-0.050000,0.274326,-0.416154,0.000000,0.000000,-0.615708,0.482969,1.066445,1.248022,0.062677,-0.062220,-0.091390,0.014258,0.013161,-0.002073
-0.050000,-0.050000,-0.105825,0.000000,0.000000,0.095928,0.000000,0.000000,0.279117,0.100000,0.100000,-0.342521,-0.192843,-0.050000,-0.050000,0.274538,-0.420326,0.000000,0.000000,-0.613822,0.484958,1.071276,1.246121,0.062716,-0.060619,-0.091488,0.013101,0.013274,-0.006576
-0.050000,-0.050000,-0.104873,0.000000,0.000000,0.097237,0.000000,0.000000,0.279787,0.100000,0.100000,-0.342885,-0.202701,-0.050000,-0.050000,0.274686,-0.424976,0.000000,0.000000,-0.612123,0.486978,1.076535,1.243198,0.063084,-0.058305,-0.091598,0.011870,0.013171,-0.011530
-0.050000,-0.050000,-0.104015,0.000000,0.000000,0.098832,0.000000,0.000000,0.280746,0.100000,0.100000,-0.343237,-0.213636,-0.050000,-0.050000,0.274942,-0.430191,0.000000,0.000000,-0.610952,0.488925,1.082387,1.238702,0.064003,-0.054826,-0.091577,0.010359,0.012591,-0.017128
-0.050000,-0.050000,-0.103230,0.000000,0.000000,0.100627,0.000000,0.000000,0.281923,0.100000,0.100000,-0.343606,-0.225347,-0.050000,-0.050000,0.275288,-0.435584,0.000000,0.000000,-0.610155,0.490622,1.088645,1.232561,0.065429,-0.049813,-0.091355,0.008679,0.011357,-0.022872
-0.050000,-0.050000,-0.102469,0.000000,0.000000,0.102528,0.000000,0.000000,0.283251,0.100000,0.100000,-0.344035,-0.237478,-0.050000,-0.050000,0.275703,-0.441084,0.000000,0.000000,-0.609564,0.492203,1.095126,1.225338,0.067162,-0.043804,-0.091000,0.006977,0.009688,-0.028650
-0.050000,-0.050000,-0.101742,0.000000,0.000000,0.104506,0.000000,0.000000,0.284652,0.100000,0.100000,-0.344279,-0.250323,-0.050000,-0.050000,0.276334,-0.446251,0.000000,0.000000,-0.609265,0.493080,1.101678,1.215397,0.069456,-0.035108,-0.090290,0.004924,0.006931,-0.033944
-0.050000,-0.050000,-0.100948,0.000000,0.000000,0.106421,0.000000,0.000000,0.286086,0.100000,0.100000,-0.344498,-0.263198,-0.050000,-0.050000,0.277136,-0.451260,0.000000,0.000000,-0.608934,0.493658,1.108010,1.203879,0.071903,-0.024956,-0.089430,0.002869,0.003648,-0.038830
-0.050000,-0.050000,-0.100085,0.000000,0.000000,0.108235,0.000000,0.000000,0.287459,0.100000,0.100000,-0.344473,-0.276194,-0.050000,-0.050000,0.278157,-0.455800,0.000000,0.000000,-0.608508,0.493556,1.113902,1.189792,0.074528,-0.012439,-0.088361,0.000524,-0.000422,-0.043014
-0.050000,-0.050000,-0.099057,0.000000,0.000000,0.109815,0.000000,0.000000,0.288703,0.100000,0.100000,-0.344095,-0.288987,-0.050000,-0.050000,0.279425,-0.459835,0.000000,0.000000,-0.607660,0.492675,1.118941,1.172717,0.077023,0.002697,-0.087207,-0.002184,-0.005121,-0.046390
-0.050000,-0.050000,-0.097914,0.000000,0.000000,0.111223,0.000000,0.000000,0.289849,0.100000,0.100000,-0.343437,-0.301467,-0.050000,-0.050000,0.280952,-0.463606,0.000000,0.000000,-0.606577,0.491336,1.123321,1.153596,0.079418,0.019486,-0.085951,-0.005006,-0.010244,-0.049250
-0.050000,-0.050000,-0.096448,0.000000,0.000000,0.112181,0.000000,0.000000,0.290715,0.100000,0.100000,-0.341972,-0.313414,-0.050000,-0.050000,0.282661,-0.466570,0.000000,0.000000,-0.604307,0.488634,1.126016,1.129869,0.080974,0.040198,-0.084866,-0.008725,-0.015794,-0.051056
-0.050000,-0.050000,-0.094801,0.000000,0.000000,0.112862,0.000000,0.000000,0.291439,0.100000,0.100000,-0.339961,-0.324676,-0.050000,-0.050000,0.284661,-0.469381,0.000000,0.000000,-0.601480,0.485395,1.127661,1.103715,0.081953,0.062753,-0.083798,-0.012602,-0.021488,-0.052447
-0.050000,-0.050000,-0.092865,0.000000,0.000000,0.113147,0.000000,0.000000,0.291929,0.100000,0.100000,-0.337089,-0.335222,-0.050000,-0.050000,0.286752,-0.471689,0.000000,0.000000,-0.597471,0.481083,1.127787,1.074010,0.081814,0.088195,-0.082955,-0.017161,-0.027181,-0.053255
-0.050000,-0.050000,-0.090647,0.000000,0.000000,0.113018,0.000000,0.000000,0.292233,0.100000,0.100000,-0.333228,-0.344929,-0.050000,-0.050000,0.288881,-0.473675,0.000000,0.000000,-0.592176,0.475770,1.126451,1.041159,0.080244,0.116311,-0.082365,-0.022289,-0.032632,-0.053714
-0.050000,-0.050000,-0.088269,0.000000,0.000000,0.112644,0.000000,0.000000,0.292390,0.100000,0.100000,-0.328660,-0.353921,-0.050000,-0.050000,0.291083,-0.475437,0.000000,0.000000,-0.586147,0.469853,1.124124,1.006229,0.077756,0.146017,-0.081885,-0.027737,-0.037929,-0.053987
-0.050000,-0.050000,-0.085550,0.000000,0.000000,0.111739,0.000000,0.000000,0.292393,0.100000,0.100000,-0.322691,-0.362060,-0.050000,-0.050000,0.292918,-0.476769,0.000000,0.000000,-0.578171,0.462532,1.120339,0.968357,0.072952,0.178878,-0.081807,-0.033959,-0.042535,-0.054186
-0.050000,-0.050000,-0.082758,0.000000,0.000000,0.110636,0.000000,0.000000,0.292306,0.100000,0.100000,-0.315995,-0.369542,-0.050000,-0.050000,0.294671,-0.477955,0.000000,0.000000,-0.569609,0.454756,1.115981,0.929427,0.067169,0.212853,-0.081780,-0.040346,-0.046831,-0.054497
-0.050000,-0.050000,-0.079814,0.000000,0.000000,0.109210,0.000000,0.000000,0.292144,0.100000,0.100000,-0.308306,-0.376449,-0.050000,-0.050000,0.295992,-0.478818,0.000000,0.000000,-0.559903,0.446089,1.111082,0.889558,0.059827,0.248478,-0.081913,-0.047106,-0.050569,-0.055071
-0.050000,-0.050000,-0.076843,0.000000,0.000000,0.107533,0.000000,0.000000,0.291935,0.100000,0.100000,-0.299831,-0.382919,-0.050000,-0.050000,0.296888,-0.479466,0.000000,0.000000,-0.549567,0.436770,1.106208,0.849948,0.051438,0.285114,-0.082036,-0.053949,-0.053875,-0.056162
-0.050000,-0.050000,-0.073848,0.000000,0.000000,0.105726,0.000000,0.000000,0.291682,0.100000,0.100000,-0.290895,-0.389112,-0.050000,-0.050000,0.297441,-0.479801,0.000000,0.000000,-0.538904,0.427090,1.101420,0.810620,0.042435,0.322205,-0.082171,-0.061040,-0.056887,-0.057567
-0.050000,-0.050000,-0.070962,0.000000,0.000000,0.103629,0.000000,0.000000,0.291395,0.100000,0.100000,-0.281349,-0.395113,-0.050000,-0.050000,0.297437,-0.480043,0.000000,0.000000,-0.528158,0.416692,1.097643,0.773648,0.033154,0.359756,-0.082021,-0.067814,-0.059665,-0.060125
-0.050000,-0.050000,-0.068114,0.000000,0.000000,0.101466,0.000000,0.000000,0.291042,0.100000,0.100000,-0.271738,-0.401119,-0.050000,-0.050000,0.297148,-0.480018,0.000000,0.000000,-0.517736,0.406147,1.094592,0.738218,0.024187,0.397043,-0.081746,-0.074728,-0.062405,-0.063214
-0.050000,-0.050000,-0.065398,0.000000,0.000000,0.099143,0.000000,0.000000,0.290627,0.100000,0.100000,-0.262067,-0.407151,-0.050000,-0.050000,0.296593,-0.479932,0.000000,0.000000,-0.507931,0.395262,1.092829,0.705575,0.016055,0.433880,-0.081118,-0.081423,-0.065272,-0.067338
-0.050000,-0.050000,-0.062796,0.000000,0.000000,0.096707,0.000000,0.000000,0.290099,0.100000,0.100000,-0.252614,-0.413294,-0.050000,-0.050000,0.296005,-0.479881,0.000000,0.000000,-0.499188,0.384182,1.092529,0.676055,0.009527,0.469748,-0.080087,-0.087903,-0.068478,-0.072510
-0.050000,-0.050000,-0.060201,0.000000,0.000000,0.094206,0.000000,0.000000,0.289495,0.100000,0.100000,-0.243386,-0.419589,-0.050000,-0.050000,0.295324,-0.479673,0.000000,0.000000,-0.491127,0.372977,1.093233,0.648628,0.004089,0.504861,-0.078852,-0.094543,-0.071893,-0.078254
-0.050000,-0.050000,-0.057769,0.000000,0.000000,0.091543,0.000000,0.000000,0.288704,0.100000,0.100000,-0.234634,-0.425909,-0.050000,-0.050000,0.295185,-0.480008,0.000000,0.000000,-0.484952,0.361566,1.095918,0.625568,0.001804,0.538029,-0.076954,-0.100591,-0.076049,-0.085505
-0.050000,-0.050000,-0.055207,0.000000,0.000000,0.088834,0.000000,0.000000,0.287803,0.100000,0.100000,-0.226237,-0.432374,-0.050000,-0.050000,0.295206,-0.480293,0.000000,0.000000,-0.479574,0.350018,1.099502,0.604510,0.001045,0.569996,-0.074909,-0.106884,-0.080482,-0.093171
-0.050000,-0.050000,-0.052631,0.000000,0.000000,0.086019,0.000000,0.000000,0.286764,0.100000,0.100000,-0.218236,-0.438774,-0.050000,-0.050000,0.295862,-0.481028,0.000000,0.000000,-0.475537,0.338322,1.104320,0.586368,0.002762,0.600086,-0.072496,-0.112994,-0.085411,-0.101689
-0.050000,-0.050000,-0.049892,0.000000,0.000000,0.083130,0.000000,0.000000,0.285607,0.100000,0.100000,-0.210533,-0.445018,-0.050000,-0.050000,0.297184,-0.482168,0.000000,0.000000,-0.472475,0.326444,1.109972,0.570542,0.006504,0.628157,-0.069888,-0.119087,-0.090611,-0.110747
-0.050000,-0.050000,-0.047003,0.000000,0.000000,0.080189,0.000000,0.000000,0.284368,0.100000,0.100000,-0.203006,-0.451170,-0.050000,-0.050000,0.298901,-0.483458,0.000000,0.000000,-0.470012,0.314409,1.116117,0.556163,0.011522,0.654853,-0.067198,-0.125347,-0.095972,-0.120041
-0.050000,-0.050000,-0.043878,0.000000,0.000000,0.077173,0.000000,0.000000,0.283066,0.100000,0.100000,-0.195559,-0.456715,-0.050000,-0.050000,0.301674,-0.485551,0.000000,0.000000,-0.468196,0.302163,1.122695,0.543984,0.018182,0.678678,-0.064417,-0.131425,-0.101224,-0.129808
-0.050000,-0.050000,-0.040538,0.000000,0.000000,0.074132,0.000000,0.000000,0.281720,0.100000,0.100000,-0.188044,-0.461947,-0.050000,-0.050000,0.304767,-0.487720,0.000000,0.000000,-0.466469,0.289707,1.129247,0.532574,0.025211,0.701035,-0.061697,-0.137721,-0.106277,-0.139541
-0.050000,-0.050000,-0.036987,0.000000,0.000000,0.071058,0.000000,0.000000,0.280373,0.100000,0.100000,-0.180365,-0.466496,-0.050000,-0.050000,0.308486,-0.490345,0.000000,0.000000,-0.464663,0.277071,1.135638,0.522157,0.032425,0.721201,-0.059053,-0.144035,-0.110857,-0.149332
-0.050000,-0.050000,-0.033257,0.000000,0.000000,0.067973,0.000000,0.000000,0.279031,0.100000,0.100000,-0.172418,-0.470223,-0.050000,-0.050000,0.312561,-0.493228,0.000000,0.000000,-0.462425,0.264244,1.141567,0.512263,0.039054,0.739305,-0.056539,-0.150428,-0.114743,-0.159003
-0.050000,-0.050000,-0.029429,0.000000,0.000000,0.064881,0.000000,0.000000,0.277670,0.100000,0.100000,-0.164213,-0.473361,-0.050000,-0.050000,0.316850,-0.496205,0.000000,0.000000,-0.459924,0.251290,1.147126,0.502599,0.045228,0.756008,-0.054089,-0.156932,-0.118163,-0.168562
-0.050000,-0.050000,-0.025538,0.000000,0.000000,0.061783,0.000000,0.000000,0.276324,0.100000,0.100000,-0.155710,-0.475038,-0.050000,-0.050000,0.321270,-0.499494,0.000000,0.000000,-0.456419,0.238187,1.151792,0.493172,0.049693,0.770114,-0.051821,-0.163377,-0.120404,-0.177811
-0.050000,-0.050000,-0.021702,0.000000,0.000000,0.058689,0.000000,0.000000,0.274901,0.100000,0.100000,-0.146962,-0.475882,-0.050000,-0.050000,0.325626,-0.502727,0.000000,0.000000,-0.452584,0.225014,1.155923,0.483586,0.053266,0.782887,-0.049563,-0.169860,-0.122118,-0.186821
-0.050000,-0.050000,-0.017979,0.000000,0.000000,0.055582,0.000000,0.000000,0.273401,0.100000,0.100000,-0.138102,-0.475373,-0.050000,-0.050000,0.329803,-0.506033,0.000000,0.000000,-0.448049,0.211793,1.159295,0.473860,0.055378,0.793780,-0.047373,-0.176248,-0.123012,-0.195431
-0.050000,-0.050000,-0.014510,0.000000,0.000000,0.052454,0.000000,0.000000,0.271746,0.100000,0.100000,-0.129317,-0.473447,-0.050000,-0.050000,0.333638,-0.509311,0.000000,0.000000,-0.443095,0.198604,1.161970,0.463811,0.056277,0.802949,-0.045188,-0.182471,-0.123305,-0.203469
-0.050000,-0.050000,-0.011204,0.000000,0.000000,0.049326,0.000000,0.000000,0.269953,0.100000,0.100000,-0.120530,-0.470497,-0.050000,-0.050000,0.337219,-0.512526,0.000000,0.000000,-0.437922,0.185392,1.164194,0.453435,0.056391,0.810930,-0.042970,-0.188583,-0.123221,-0.211131
-0.050000,-0.050000,-0.008433,0.000000,0.000000,0.046116,0.000000,0.000000,0.267885,0.100000,0.100000,-0.112440,-0.465540,-0.050000,-0.050000,0.340171,-0.515708,0.000000,0.000000,-0.432576,0.172395,1.165629,0.442578,0.055465,0.816872,-0.040769,-0.194265,-0.122719,-0.217625
-0.050000,-0.050000,-0.005911,0.000000,0.000000,0.042912,0.000000,0.000000,0.265618,0.100000,0.100000,-0.104643,-0.459492,-0.050000,-0.050000,0.342778,-0.518787,0.000000,0.000000,-0.427386,0.159399,1.166762,0.431235,0.054209,0.821803,-0.038509,-0.199734,-0.122120,-0.223467
-0.050000,-0.050000,-0.003851,0.000000,0.000000,0.039643,0.000000,0.000000,0.263100,0.100000,0.100000,-0.097657,-0.451897,-0.050000,-0.050000,0.344873,-0.521768,0.000000,0.000000,-0.422470,0.146584,1.167427,0.419370,0.052665,0.825410,-0.036268,-0.204810,-0.121475,-0.228168
-0.050000,-0.050000,-0.002230,0.000000,0.000000,0.036331,0.000000,0.000000,0.260370,0.100000,0.100000,-0.091579,-0.442956,-0.050000,-0.050000,0.346507,-0.524587,0.000000,0.000000,-0.418076,0.133920,1.167749,0.406905,0.051155,0.828043,-0.034075,-0.209548,-0.120922,-0.231652
-0.050000,-0.050000,-0.000850,0.000000,0.000000,0.033009,0.000000,0.000000,0.257495,0.100000,0.100000,-0.086108,-0.433058,-0.050000,-0.050000,0.347827,-0.527266,0.000000,0.000000,-0.414061,0.121255,1.167907,0.393987,0.049692,0.830039,-0.031912,-0.214055,-0.120444,-0.234306
-0.050000,-0.050000,-0.000083,0.000000,0.000000,0.029608,0.000000,0.000000,0.254497,0.100000,0.100000,-0.082137,-0.421830,-0.050000,-0.050000,0.348647,-0.529579,0.000000,0.000000,-0.411028,0.108908,1.167638,0.380329,0.048644,0.831466,-0.029995,-0.218282,-0.120152,-0.235321
-0.050000,-0.050000,0.000520,0.000000,0.000000,0.026218,0.000000,0.000000,0.251491,0.100000,0.100000,-0.078840,-0.409983,-0.050000,-0.050000,0.349237,-0.531625,0.000000,0.000000,-0.408502,0.096471,1.167335,0.366212,0.047809,0.832795,-0.028202,-0.222466,-0.119917,-0.235597
-0.050000,-0.050000,0.000754,0.000000,0.000000,0.022798,0.000000,0.000000,0.248538,0.100000,0.100000,-0.076674,-0.397498,-0.050000,-0.050000,0.349532,-0.533190,0.000000,0.000000,-0.406826,0.084167,1.166811,0.351524,0.047386,0.834244,-0.026701,-0.226678,-0.119728,-0.234869
-0.050000,-0.050000,0.000730,0.000000,0.000000,0.019378,0.000000,0.000000,0.245754,0.100000,0.100000,-0.075458,-0.384753,-0.050000,-0.050000,0.349612,-0.534153,0.000000,0.000000,-0.405936,0.071883,1.166187,0.336327,0.047370,0.836192,-0.025515,-0.231156,-0.119450,-0.233531
-0.050000,-0.050000,0.000566,0.000000,0.000000,0.015947,0.000000,0.000000,0.243122,0.100000,0.100000,-0.074907,-0.371868,-0.050000,-0.050000,0.349562,-0.534664,0.000000,0.000000,-0.405555,0.059583,1.165562,0.320802,0.047621,0.838491,-0.024562,-0.235837,-0.119085,-0.231799
-0.050000,-0.050000,0.000072,0.000000,0.000000,0.012540,0.000000,0.000000,0.240849,0.100000,0.100000,-0.075385,-0.359310,-0.050000,-0.050000,0.349321,-0.534118,0.000000,0.000000,-0.406212,0.047407,1.164812,0.304773,0.048514,0.841890,-0.024079,-0.241250,-0.118367,-0.229982
-0.050000,-0.050000,-0.000499,0.000000,0.000000,0.009117,0.000000,0.000000,0.238830,0.100000,0.100000,-0.076350,-0.347042,-0.050000,-0.050000,0.349033,-0.532996,0.000000,0.000000,-0.407266,0.035256,1.164189,0.288576,0.049726,0.845767,-0.023829,-0.247099,-0.117390,-0.228288
-0.050000,-0.050000,-0.001264,0.000000,0.000000,0.005720,0.000000,0.000000,0.237147,0.100000,0.100000,-0.077901,-0.335409,-0.050000,-0.050000,0.348666,-0.530940,0.000000,0.000000,-0.409003,0.023268,1.163612,0.272182,0.051503,0.850404,-0.023909,-0.253667,-0.116005,-0.227013
-0.050000,-0.050000,-0.002164,0.000000,0.000000,0.002344,0.000000,0.000000,0.235780,0.100000,0.100000,-0.079853,-0.324556,-0.050000,-0.050000,0.348293,-0.528035,0.000000,0.000000,-0.411265,0.011549,1.163188,0.255819,0.053867,0.855464,-0.024234,-0.260903,-0.114172,-0.226441
-0.050000,-0.050000,-0.003171,0.000000,0.000000,-0.001040,0.000000,0.000000,0.234650,0.100000,0.100000,-0.082084,-0.314328,-0.050000,-0.050000,0.347914,-0.524502,0.000000,0.000000,-0.413811,0.000091,1.162906,0.239514,0.056638,0.860695,-0.024733,-0.268608,-0.112017,-0.226387
-0.050000,-0.050000,-0.004336,0.000000,0.000000,-0.004337,0.000000,0.000000,0.233825,0.100000,0.100000,-0.084544,-0.305300,-0.050000,-0.050000,0.347630,-0.520066,0.000000,0.000000,-0.416977,-0.010685,1.162835,0.223722,0.060254,0.865809,-0.025404,-0.276901,-0.109294,-0.227604
-0.050000,-0.050000,-0.005594,0.000000,0.000000,-0.007636,0.000000,0.000000,0.233176,0.100000,0.100000,-0.087121,-0.297033,-0.050000,-0.050000,0.347411,-0.515221,0.000000,0.000000,-0.420254,-0.020890,1.162933,0.208401,0.064263,0.870471,-0.026153,-0.285375,-0.106268,-0.229541
-0.050000,-0.050000,-0.006965,0.000000,0.000000,-0.010855,0.000000,0.000000,0.232710,0.100000,0.100000,-0.089746,-0.289780,-0.050000,-0.050000,0.347344,-0.509971,0.000000,0.000000,-0.423828,-0.030208,1.163209,0.193952,0.068837,0.874367,-0.026946,-0.293873,-0.102866,-0.232516
-0.050000,-0.050000,-0.008410,0.000000,0.000000,-0.013991,0.000000,0.000000,0.232388,0.100000,0.100000,-0.092356,-0.283494,-0.050000,-0.050000,0.347490,-0.504690,0.000000,0.000000,-0.427553,-0.038408,1.163617,0.180743,0.073780,0.877100,-0.027736,-0.301942,-0.099183,-0.236393
-0.050000,-0.050000,-0.009971,0.000000,0.000000,-0.017054,0.000000,0.000000,0.232164,0.100000,0.100000,-0.094925,-0.278039,-0.050000,-0.050000,0.347744,-0.499401,0.000000,0.000000,-0.431296,-0.045757,1.164093,0.168494,0.078950,0.878942,-0.028514,-0.309686,-0.095321,-0.240913
-0.050000,-0.050000,-0.011517,0.000000,0.000000,-0.019938,0.000000,0.000000,0.232107,0.100000,0.100000,-0.097391,-0.273670,-0.050000,-0.050000,0.348464,-0.494889,0.000000,0.000000,-0.435220,-0.051266,1.164608,0.158568,0.084230,0.878860,-0.029237,-0.315920,-0.091297,-0.246171
-0.050000,-0.050000,-0.013180,0.000000,0.000000,-0.022679,0.000000,0.000000,0.232142,0.100000,0.100000,-0.099730,-0.270281,-0.050000,-0.050000,0.349326,-0.490942,0.000000,0.000000,-0.439054,-0.055677,1.165057,0.150135,0.089419,0.877711,-0.029931,-0.321235,-0.087268,-0.251703
-0.050000,-0.050000,-0.014848,0.000000,0.000000,-0.025217,0.000000,0.000000,0.232349,0.100000,0.100000,-0.101934,-0.267915,-0.050000,-0.050000,0.350592,-0.488192,0.000000,0.000000,-0.442905,-0.058410,1.165406,0.143977,0.094373,0.875016,-0.030588,-0.324833,-0.083309,-0.257301
-0.050000,-0.050000,-0.016536,0.000000,0.000000,-0.027514,0.000000,0.000000,0.232745,0.100000,0.100000,-0.103948,-0.266729,-0.050000,-0.050000,0.352235,-0.486957,0.000000,0.000000,-0.446723,-0.059492,1.165578,0.140142,0.098893,0.870984,-0.031243,-0.326562,-0.079592,-0.262482
-0.050000,-0.050000,-0.018323,0.000000,0.000000,-0.029583,0.000000,0.000000,0.233288,0.100000,0.100000,-0.105808,-0.266614,-0.050000,-0.050000,0.354070,-0.486866,0.000000,0.000000,-0.450435,-0.059413,1.165571,0.138141,0.103061,0.866175,-0.031884,-0.327001,-0.076094,-0.267231
-0.050000,-0.050000,-0.020002,0.000000,0.000000,-0.031329,0.000000,0.000000,0.234174,0.100000,0.100000,-0.107394,-0.267993,-0.050000,-0.050000,0.356577,-0.489356,0.000000,0.000000,-0.454206,-0.057145,1.165328,0.139000,0.106472,0.859945,-0.032600,-0.324780,-0.073201,-0.270457
-0.050000,-0.050000,-0.021828,0.000000,0.000000,-0.032759,0.000000,0.000000,0.235247,0.100000,0.100000,-0.108760,-0.270778,-0.050000,-0.050000,0.359234,-0.493281,0.000000,0.000000,-0.457843,-0.053823,1.164867,0.141681,0.109402,0.853432,-0.033354,-0.321385,-0.070762,-0.272524
-0.050000,-0.050000,-0.023643,0.000000,0.000000,-0.033863,0.000000,0.000000,0.236647,0.100000,0.100000,-0.109856,-0.275130,-0.050000,-0.050000,0.362369,-0.499391,0.000000,0.000000,-0.461472,-0.048912,1.164227,0.146450,0.111706,0.846381,-0.034199,-0.316280,-0.068993,-0.272721
-0.050000,-0.050000,-0.025529,0.000000,0.000000,-0.034594,0.000000,0.000000,0.238349,0.100000,0.100000,-0.110646,-0.281240,-0.050000,-0.050000,0.365870,-0.507423,0.000000,0.000000,-0.465066,-0.042741,1.163464,0.152909,0.113454,0.839302,-0.035145,-0.310053,-0.067944,-0.270912
-0.050000,-0.050000,-0.027527,0.000000,0.000000,-0.035023,0.000000,0.000000,0.240298,0.100000,0.100000,-0.111260,-0.288779,-0.050000,-0.050000,0.369571,-0.516813,0.000000,0.000000,-0.468555,-0.035655,1.162593,0.160757,0.114805,0.832417,-0.036166,-0.303197,-0.067429,-0.267504
-0.050000,-0.050000,-0.029556,0.000000,0.000000,-0.035011,0.000000,0.000000,0.242620,0.100000,0.100000,-0.111461,-0.298492,-0.050000,-0.050000,0.373822,-0.528153,0.000000,0.000000,-0.472132,-0.027340,1.161808,0.169708,0.115634,0.826013,-0.037319,-0.295837,-0.067773,-0.261686
-0.050000,-0.050000,-0.031759,0.000000,0.000000,-0.034676,0.000000,0.000000,0.245175,0.100000,0.100000,-0.111554,-0.309688,-0.050000,-0.050000,0.378187,-0.540298,0.000000,0.000000,-0.475576,-0.018456,1.161023,0.179582,0.116181,0.820375,-0.038547,-0.288655,-0.068554,-0.254535
-0.050000,-0.050000,-0.034070,0.000000,0.000000,-0.033960,0.000000,0.000000,0.248006,0.100000,0.100000,-0.111433,-0.322678,-0.050000,-0.050000,0.382861,-0.553275,0.000000,0.000000,-0.479038,-0.008963,1.160409,0.189944,0.116444,0.815750,-0.039848,-0.281970,-0.069821,-0.245974
-0.050000,-0.050000,-0.036550,0.000000,0.000000,-0.032861,0.000000,0.000000,0.251051,0.100000,0.100000,-0.111261,-0.337242,-0.050000,-0.050000,0.387673,-0.566394,0.000000,0.000000,-0.482462,0.000749,1.159958,0.200606,0.116495,0.812513,-0.041200,-0.276298,-0.071320,-0.236751
-0.050000,-0.050000,-0.039150,0.000000,0.000000,-0.031526,0.000000,0.000000,0.254282,0.100000,0.100000,-0.111128,-0.352957,-0.050000,-0.050000,0.392585,-0.579515,0.000000,0.000000,-0.485843,0.010713,1.159643,0.211508,0.116409,0.810302,-0.042590,-0.271442,-0.072938,-0.227127
-0.050000,-0.050000,-0.041957,0.000000,0.000000,-0.029671,0.000000,0.000000,0.257622,0.100000,0.100000,-0.111147,-0.370116,-0.050000,-0.050000,0.397451,-0.591635,0.000000,0.000000,-0.489248,0.020190,1.159509,0.222256,0.116144,0.810315,-0.043994,-0.268536,-0.074336,-0.218239
-0.050000,-0.050000,-0.044859,0.000000,0.000000,-0.027639,0.000000,0.000000,0.261065,0.100000,0.100000,-0.111465,-0.387911,-0.050000,-0.050000,0.402246,-0.603024,0.000000,0.000000,-0.492630,0.029541,1.159424,0.233066,0.115780,0.811522,-0.045416,-0.266750,-0.075461,-0.210039
-0.050000,-0.050000,-0.047909,0.000000,0.000000,-0.025228,0.000000,0.000000,0.264495,0.100000,0.100000,-0.112195,-0.406330,-0.050000,-0.050000,0.406766,-0.612928,0.000000,0.000000,-0.496027,0.038188,1.159312,0.243791,0.115281,0.814551,-0.046850,-0.266669,-0.076022,-0.203436
-0.050000,-0.050000,-0.051051,0.000000,0.000000,-0.022521,0.000000,0.000000,0.267841,0.100000,0.100000,-0.113532,-0.424822,-0.050000,-0.050000,0.410850,-0.621190,0.000000,0.000000,-0.499426,0.046078,1.158957,0.254583,0.114634,0.819056,-0.048324,-0.268080,-0.075798,-0.198868
-0.050000,-0.050000,-0.054207,0.000000,0.000000,-0.019653,0.000000,0.000000,0.271127,0.100000,0.100000,-0.115309,-0.443260,-0.050000,-0.050000,0.414649,-0.628250,0.000000,0.000000,-0.502901,0.053468,1.158446,0.265304,0.113886,0.824471,-0.049805,-0.270509,-0.074966,-0.195852
-0.050000,-0.050000,-0.057446,0.000000,0.000000,-0.016353,0.000000,0.000000,0.274057,0.100000,0.100000,-0.118123,-0.460829,-0.050000,-0.050000,0.417426,-0.632944,0.000000,0.000000,-0.506290,0.059594,1.157061,0.276525,0.112868,0.831127,-0.051461,-0.274416,-0.072798,-0.196059
-0.050000,-0.050000,-0.060576,0.000000,0.000000,-0.012962,0.000000,0.000000,0.276804,0.100000,0.100000,-0.121460,-0.477607,-0.050000,-0.050000,0.419739,-0.636571,0.000000,0.000000,-0.509802,0.065284,1.155195,0.287770,0.111716,0.837837,-0.053167,-0.278872,-0.069844,-0.197999
-0.050000,-0.050000,-0.063650,0.000000,0.000000,-0.009303,0.000000,0.000000,0.279153,0.100000,0.100000,-0.125676,-0.492948,-0.050000,-0.050000,0.421062,-0.638595,0.000000,0.000000,-0.513251,0.070196,1.152269,0.299562,0.110304,0.844451,-0.055102,-0.283850,-0.065748,-0.202412
-0.050000,-0.050000,-0.066553,0.000000,0.000000,-0.005493,0.000000,0.000000,0.281107,0.100000,0.100000,-0.130649,-0.506476,-0.050000,-0.050000,0.421438,-0.639546,0.000000,0.000000,-0.516656,0.074764,1.148143,0.311896,0.108652,0.849981,-0.057301,-0.288748,-0.060634,-0.208780
-0.050000,-0.050000,-0.069294,0.000000,0.000000,-0.001549,0.000000,0.000000,0.282727,0.100000,0.100000,-0.136039,-0.518590,-0.050000,-0.050000,0.421137,-0.639769,0.000000,0.000000,-0.520108,0.079049,1.143147,0.324430,0.106840,0.854487,-0.059651,-0.293471,-0.054802,-0.216575
-0.050000,-0.050000,-0.071754,0.000000,0.000000,0.002496,0.000000,0.000000,0.283830,0.100000,0.100000,-0.142378,-0.527629,-0.050000,-0.050000,0.419461,-0.639265,0.000000,0.000000,-0.523217,0.083602,1.136111,0.338172,0.104716,0.856016,-0.062585,-0.296968,-0.047955,-0.225954
-0.050000,-0.050000,-0.073961,0.000000,0.000000,0.006636,0.000000,0.000000,0.284590,0.100000,0.100000,-0.148813,-0.534882,-0.050000,-0.050000,0.417150,-0.638524,0.000000,0.000000,-0.526334,0.088343,1.128051,0.352053,0.102509,0.855296,-0.065696,-0.299521,-0.040690,-0.236087
-0.050000,-0.050000,-0.075842,0.000000,0.000000,0.010779,0.000000,0.000000,0.284976,0.100000,0.100000,-0.155668,-0.539302,-0.050000,-0.050000,0.413859,-0.637633,0.000000,0.000000,-0.529118,0.093819,1.118277,0.366768,0.100164,0.851001,-0.069290,-0.300293,-0.033000,-0.246731
-0.050000,-0.050000,-0.077358,0.000000,0.000000,0.014891,0.000000,0.000000,0.285084,0.100000,0.100000,-0.162554,-0.541036,-0.050000,-0.050000,0.409826,-0.636777,0.000000,0.000000,-0.531600,0.100280,1.107042,0.382100,0.097812,0.842748,-0.073251,-0.299006,-0.025269,-0.257285
-0.050000,-0.050000,-0.078622,0.000000,0.000000,0.019022,0.000000,0.000000,0.284915,0.100000,0.100000,-0.169301,-0.540801,-0.050000,-0.050000,0.405282,-0.635859,0.000000,0.000000,-0.533842,0.107386,1.094736,0.397666,0.095500,0.831480,-0.077437,-0.296122,-0.017583,-0.267759
-0.050000,-0.050000,-0.079339,0.000000,0.000000,0.022901,0.000000,0.000000,0.284703,0.100000,0.100000,-0.175910,-0.537048,-0.050000,-0.050000,0.400103,-0.635087,0.000000,0.000000,-0.535467,0.116508,1.080878,0.414410,0.093325,0.814567,-0.082041,-0.290041,-0.010483,-0.276858
-0.050000,-0.050000,-0.079817,0.000000,0.000000,0.026763,0.000000,0.000000,0.284299,0.100000,0.100000,-0.181993,-0.531581,-0.050000,-0.050000,0.394698,-0.634079,0.000000,0.000000,-0.536770,0.126454,1.066349,0.431340,0.091313,0.794504,-0.086682,-0.282219,-0.003901,-0.285135
-0.050000,-0.050000,-0.079847,0.000000,0.000000,0.030375,0.000000,0.000000,0.283956,0.100000,0.100000,-0.187611,-0.523589,-0.050000,-0.050000,0.389121,-0.632853,0.000000,0.000000,-0.537514,0.138169,1.051111,0.449148,0.089507,0.769994,-0.091392,-0.271814,0.001776,-0.291579
-0.050000,-0.050000,-0.079492,0.000000,0.000000,0.033783,0.000000,0.000000,0.283683,0.100000,0.100000,-0.192544,-0.513704,-0.050000,-0.050000,0.383605,-0.631103,0.000000,0.000000,-0.537744,0.151440,1.035771,0.467805,0.087887,0.741737,-0.095897,-0.259196,0.006384,-0.295945
-0.050000,-0.050000,-0.078913,0.000000,0.000000,0.037022,0.000000,0.000000,0.283408,0.100000,0.100000,-0.196942,-0.502569,-0.050000,-0.050000,0.378196,-0.628754,0.000000,0.000000,-0.537544,0.165830,1.020386,0.487023,0.086403,0.710782,-0.100244,-0.245173,0.010165,-0.298547
-0.050000,-0.050000,-0.077746,0.000000,0.000000,0.039928,0.000000,0.000000,0.283522,0.100000,0.100000,-0.200484,-0.489713,-0.050000,-0.050000,0.373237,-0.625413,0.000000,0.000000,-0.536758,0.182501,1.006076,0.508024,0.084986,0.675945,-0.103860,-0.228703,0.012392,-0.297724
-0.050000,-0.050000,-0.076433,0.000000,0.000000,0.042665,0.000000,0.000000,0.283668,0.100000,0.100000,-0.203496,-0.476433,-0.050000,-0.050000,0.368599,-0.621107,0.000000,0.000000,-0.535589,0.200207,0.992535,0.529953,0.083547,0.639244,-0.107048,-0.211486,0.013760,-0.294717
-0.050000,-0.050000,-0.074706,0.000000,0.000000,0.045165,0.000000,0.000000,0.284159,0.100000,0.100000,-0.205855,-0.462607,-0.050000,-0.050000,0.364523,-0.615597,0.000000,0.000000,-0.534024,0.219681,0.980708,0.553637,0.081981,0.600255,-0.109356,-0.193107,0.013947,-0.288570
-0.050000,-0.050000,-0.072679,0.000000,0.000000,0.047492,0.000000,0.000000,0.284924,0.100000,0.100000,-0.207689,-0.448915,-0.050000,-0.050000,0.361024,-0.608823,0.000000,0.000000,-0.532167,0.240578,0.970980,0.579070,0.080179,0.559801,-0.110735,-0.174240,0.013199,-0.279554
-0.050000,-0.050000,-0.070487,0.000000,0.000000,0.049675,0.000000,0.000000,0.285903,0.100000,0.100000,-0.209252,-0.435529,-0.050000,-0.050000,0.357925,-0.600931,0.000000,0.000000,-0.530084,0.262578,0.962850,0.605883,0.078178,0.518216,-0.111512,-0.155567,0.011820,-0.268216
-0.050000,-0.050000,-0.067822,0.000000,0.000000,0.051774,0.000000,0.000000,0.287379,0.100000,0.100000,-0.210240,-0.422950,-0.050000,-0.050000,0.355640,-0.591617,0.000000,0.000000,-0.527877,0.286103,0.958356,0.634946,0.075763,0.475872,-0.110818,-0.136837,0.009616,-0.253847
-0.050000,-0.050000,-0.065063,0.000000,0.000000,0.053777,0.000000,0.000000,0.289079,0.100000,0.100000,-0.211182,-0.411218,-0.050000,-0.050000,0.353676,-0.581262,0.000000,0.000000,-0.525560,0.310353,0.955838,0.665229,0.073119,0.433123,-0.109625,-0.119118,0.007128,-0.237750
-0.050000,-0.050000,-0.061991,0.000000,0.000000,0.055769,0.000000,0.000000,0.291191,0.100000,0.100000,-0.211805,-0.400568,-0.050000,-0.050000,0.352288,-0.569824,0.000000,0.000000,-0.523211,0.335370,0.956498,0.696897,0.070178,0.390380,-0.107419,-0.102378,0.004332,-0.219891
-0.050000,-0.050000,-0.058716,0.000000,0.000000,0.057740,0.000000,0.000000,0.293626,0.100000,0.100000,-0.212207,-0.391093,-0.050000,-0.050000,0.351319,-0.557549,0.000000,0.000000,-0.520812,0.360602,0.959977,0.729249,0.067042,0.348143,-0.104563,-0.087128,0.001485,-0.201113
-0.050000,-0.050000,-0.055300,0.000000,0.000000,0.059705,0.000000,0.000000,0.296327,0.100000,0.100000,-0.212553,-0.382386,-0.050000,-0.050000,0.350589,-0.544553,0.000000,0.000000,-0.518376,0.385958,0.965515,0.762038,0.063792,0.306161,-0.101360,-0.073356,-0.001335,-0.181750
-0.050000,-0.050000,-0.051624,0.000000,0.000000,0.061674,0.000000,0.000000,0.299315,0.100000,0.100000,-0.212173,-0.375148,-0.050000,-0.050000,0.350392,-0.531225,0.000000,0.000000,-0.515755,0.410436,0.974379,0.794150,0.060456,0.266112,-0.097555,-0.061577,-0.003956,-0.162883
-0.050000,-0.050000,-0.047857,0.000000,0.000000,0.063611,0.000000,0.000000,0.302443,0.100000,0.100000,-0.211621,-0.368443,-0.050000,-0.050000,0.350308,-0.517628,0.000000,0.000000,-0.512984,0.434325,0.984808,0.825612,0.057133,0.227050,-0.093821,-0.051398,-0.006367,-0.144507
-0.050000,-0.050000,-0.043955,0.000000,0.000000,0.065519,0.000000,0.000000,0.305634,0.100000,0.100000,-0.210232,-0.362694,-0.050000,-0.050000,0.350538,-0.504180,0.000000,0.000000,-0.509852,0.456710,0.997340,0.855397,0.053844,0.190208,-0.090050,-0.043084,-0.008487,-0.127524
-0.050000,-0.050000,-0.039995,0.000000,0.000000,0.067357,0.000000,0.000000,0.308726,0.100000,0.100000,-0.207923,-0.357594,-0.050000,-0.050000,0.350955,-0.491173,0.000000,0.000000,-0.506231,0.477311,1.011262,0.883032,0.050628,0.155781,-0.086587,-0.036458,-0.010314,-0.112241
-0.050000,-0.050000,-0.035969,0.000000,0.000000,0.069164,0.000000,0.000000,0.311720,0.100000,0.100000,-0.204939,-0.352732,-0.050000,-0.050000,0.351482,-0.478542,0.000000,0.000000,-0.502264,0.496614,1.026096,0.908933,0.047493,0.123123,-0.083417,-0.031020,-0.011931,-0.098265
-0.050000,-0.050000,-0.032023,0.000000,0.000000,0.070823,0.000000,0.000000,0.314187,0.100000,0.100000,-0.200015,-0.348808,-0.050000,-0.050000,0.352242,-0.467247,0.000000,0.000000,-0.497313,0.512701,1.041857,0.931277,0.044470,0.094428,-0.080891,-0.027304,-0.013282,-0.086998
-0.050000,-0.050000,-0.028073,0.000000,0.000000,0.072452,0.000000,0.000000,0.316322,0.100000,0.100000,-0.194159,-0.344816,-0.050000,-0.050000,0.353041,-0.456788,0.000000,0.000000,-0.491941,0.527338,1.057810,0.951602,0.041602,0.067725,-0.078872,-0.024292,-0.014542,-0.077011
-0.050000,-0.050000,-0.024273,0.000000,0.000000,0.073975,0.000000,0.000000,0.317765,0.100000,0.100000,-0.186478,-0.341327,-0.050000,-0.050000,0.353923,-0.447802,0.000000,0.000000,-0.485731,0.539230,1.073857,0.969033,0.038929,0.044259,-0.077535,-0.022288,-0.015755,-0.069019
-0.050000,-0.050000,-0.020644,0.000000,0.000000,0.075441,0.000000,0.000000,0.318467,0.100000,0.100000,-0.177164,-0.338017,-0.050000,-0.050000,0.354815,-0.440347,0.000000,0.000000,-0.478915,0.548841,1.089576,0.984151,0.036618,0.023508,-0.076865,-0.020892,-0.017078,-0.062464
-0.050000,-0.050000,-0.017115,0.000000,0.000000,0.076901,0.000000,0.000000,0.318579,0.100000,0.100000,-0.166621,-0.334706,-0.050000,-0.050000,0.355658,-0.434071,0.000000,0.000000,-0.471671,0.556859,1.104950,0.997555,0.034610,0.004695,-0.076657,-0.019853,-0.018511,-0.056863
-0.050000,-0.050000,-0.014012,0.000000,0.000000,0.078277,0.000000,0.000000,0.317532,0.100000,0.100000,-0.153975,-0.331850,-0.050000,-0.050000,0.356427,-0.429970,0.000000,0.000000,-0.463923,0.561881,1.119460,1.008999,0.033461,-0.011002,-0.077189,-0.019322,-0.020378,-0.052616
-0.050000,-0.050000,-0.011031,0.000000,0.000000,0.079719,0.000000,0.000000,0.315864,0.100000,0.100000,-0.140361,-0.328813,-0.050000,-0.050000,0.357052,-0.427067,0.000000,0.000000,-0.456104,0.565709,1.133288,1.019498,0.032947,-0.025274,-0.078022,-0.018868,-0.022532,-0.048792
-0.050000,-0.050000,-0.008435,0.000000,0.000000,0.081150,0.000000,0.000000,0.313238,0.100000,0.100000,-0.125419,-0.325966,-0.050000,-0.050000,0.357496,-0.425878,0.000000,0.000000,-0.448305,0.567476,1.146151,1.029234,0.033521,-0.037557,-0.079245,-0.018570,-0.025208,-0.045615
-0.050000,-0.050000,-0.006160,0.000000,0.000000,0.082623,0.000000,0.000000,0.309834,0.100000,0.100000,-0.109719,-0.323091,-0.050000,-0.050000,0.357730,-0.426087,0.000000,0.000000,-0.440864,0.567732,1.157994,1.038764,0.035319,-0.048361,-0.080643,-0.018264,-0.028410,-0.042791
-0.050000,-0.050000,-0.004069,0.000000,0.000000,0.084148,0.000000,0.000000,0.305863,0.100000,0.100000,-0.093507,-0.320162,-0.050000,-0.050000,0.357740,-0.427294,0.000000,0.000000,-0.433720,0.566895,1.169055,1.048207,0.038039,-0.058142,-0.082100,-0.017959,-0.031998,-0.040181
-0.050000,-0.050000,-0.002550,0.000000,0.000000,0.085639,0.000000,0.000000,0.301075,0.100000,0.100000,-0.077225,-0.317261,-0.050000,-0.050000,0.357507,-0.429891,0.000000,0.000000,-0.427559,0.564271,1.178756,1.058227,0.042576,-0.066265,-0.083535,-0.017490,-0.036269,-0.038017
-0.050000,-0.050000,-0.001136,0.000000,0.000000,0.087175,0.000000,0.000000,0.295947,0.100000,0.100000,-0.061125,-0.314223,-0.050000,-0.050000,0.357049,-0.433089,0.000000,0.000000,-0.421981,0.560805,1.187660,1.068533,0.048007,-0.073558,-0.084788,-0.016959,-0.040844,-0.036031
-0.050000,-0.050000,-0.000145,0.000000,0.000000,0.088635,0.000000,0.000000,0.290380,0.100000,0.100000,-0.045721,-0.311087,-0.050000,-0.050000,0.356371,-0.436989,0.000000,0.000000,-0.417443,0.556070,1.195434,1.079501,0.054762,-0.079552,-0.085807,-0.016228,-0.045827,-0.034455
-0.050000,-0.050000,0.000563,0.000000,0.000000,0.089990,0.000000,0.000000,0.284601,0.100000,0.100000,-0.031431,-0.307759,-0.050000,-0.050000,0.355478,-0.441204,0.000000,0.000000,-0.413879,0.550311,1.202179,1.090950,0.062411,-0.084318,-0.086486,-0.015336,-0.051007,-0.033304
-0.050000,-0.050000,0.001128,0.000000,0.000000,0.091257,0.000000,0.000000,0.278721,0.100000,0.100000,-0.018057,-0.304302,-0.050000,-0.050000,0.354434,-0.445612,0.000000,0.000000,-0.411070,0.543768,1.208195,1.102737,0.070646,-0.088178,-0.086863,-0.014326,-0.056314,-0.032478
-0.050000,-0.050000,0.001172,0.000000,0.000000,0.092180,0.000000,0.000000,0.272796,0.100000,0.100000,-0.006985,-0.300447,-0.050000,-0.050000,0.353147,-0.449903,0.000000,0.000000,-0.409523,0.536090,1.212848,1.114752,0.079410,-0.090211,-0.086810,-0.013124,-0.061512,-0.032372
-0.050000,-0.050000,0.001161,0.000000,0.000000,0.092912,0.000000,0.000000,0.266995,0.100000,0.100000,0.002718,-0.296392,-0.050000,-0.050000,0.351761,-0.454069,0.000000,0.000000,-0.408656,0.527799,1.216847,1.126671,0.088202,-0.091282,-0.086408,-0.011869,-0.066582,-0.032648
-0.050000,-0.050000,0.000774,0.000000,0.000000,0.093240,0.000000,0.000000,0.261341,0.100000,0.100000,0.010102,-0.291900,-0.050000,-0.050000,0.350190,-0.457843,0.000000,0.000000,-0.408722,0.518774,1.219738,1.138206,0.096830,-0.090817,-0.085678,-0.010574,-0.071267,-0.033532
-0.050000,-0.050000,0.000142,0.000000,0.000000,0.093141,0.000000,0.000000,0.255938,0.100000,0.100000,0.015248,-0.286989,-0.050000,-0.050000,0.348493,-0.461147,0.000000,0.000000,-0.409545,0.509279,1.221652,1.148942,0.104946,-0.089040,-0.084690,-0.009362,-0.075419,-0.034939
-0.050000,-0.050000,-0.000641,0.000000,0.000000,0.092711,0.000000,0.000000,0.250773,0.100000,0.100000,0.018704,-0.281763,-0.050000,-0.050000,0.346740,-0.464113,0.000000,0.000000,-0.410937,0.499427,1.222887,1.158988,0.112605,-0.086295,-0.083495,-0.008182,-0.079161,-0.036726
-0.050000,-0.050000,-0.001883,0.000000,0.000000,0.091602,0.000000,0.000000,0.245945,0.100000,0.100000,0.019046,-0.275927,-0.050000,-0.050000,0.344845,-0.466242,0.000000,0.000000,-0.413139,0.489491,1.222641,1.167242,0.119151,-0.082033,-0.082298,-0.007378,-0.081807,-0.039122
-0.050000,-0.050000,-0.003229,0.000000,0.000000,0.090127,0.000000,0.000000,0.241433,0.100000,0.100000,0.017790,-0.269849,-0.050000,-0.050000,0.343012,-0.468012,0.000000,0.000000,-0.415789,0.479511,1.221755,1.174352,0.124977,-0.077027,-0.081030,-0.006690,-0.083864,-0.041834
-0.050000,-0.050000,-0.004909,0.000000,0.000000,0.088078,0.000000,0.000000,0.237249,0.100000,0.100000,0.014073,-0.263418,-0.050000,-0.050000,0.341196,-0.469085,0.000000,0.000000,-0.419020,0.469810,1.219616,1.179578,0.129693,-0.071035,-0.079947,-0.006399,-0.084831,-0.044974
-0.050000,-0.050000,-0.006806,0.000000,0.000000,0.085541,0.000000,0.000000,0.233419,0.100000,0.100000,0.008353,-0.256912,-0.050000,-0.050000,0.339564,-0.469608,0.000000,0.000000,-0.422729,0.460537,1.216416,1.183003,0.133354,-0.064319,-0.079092,-0.006426,-0.084761,-0.048486
-0.050000,-0.050000,-0.008868,0.000000,0.000000,0.082632,0.000000,0.000000,0.229889,0.100000,0.100000,0.001181,-0.250388,-0.050000,-0.050000,0.338090,-0.469722,0.000000,0.000000,-0.426757,0.451597,1.212445,1.185061,0.136207,-0.057079,-0.078406,-0.006640,-0.083923,-0.052270
-0.050000,-0.050000,-0.011184,0.000000,0.000000,0.079176,0.000000,0.000000,0.226756,0.100000,0.100000,-0.008299,-0.244343,-0.050000,-0.050000,0.337051,-0.469151,0.000000,0.000000,-0.431346,0.443651,1.206958,1.184830,0.137724,-0.049141,-0.078275,-0.007311,-0.081589,-0.056543
-0.050000,-0.050000,-0.013595,0.000000,0.000000,0.075418,0.000000,0.000000,0.223981,0.100000,0.100000,-0.018824,-0.238756,-0.050000,-0.050000,0.336350,-0.468274,0.000000,0.000000,-0.436139,0.436179,1.200816,1.183470,0.138491,-0.040806,-0.078340,-0.008015,-0.078554,-0.061100
-0.050000,-0.050000,-0.016113,0.000000,0.000000,0.071293,0.000000,0.000000,0.221595,0.100000,0.100000,-0.030855,-0.234136,-0.050000,-0.050000,0.336185,-0.466952,0.000000,0.000000,-0.441306,0.429650,1.193549,1.180523,0.138234,-0.031981,-0.078868,-0.008912,-0.074393,-0.066090
-0.050000,-0.050000,-0.018650,0.000000,0.000000,0.066890,0.000000,0.000000,0.219649,0.100000,0.100000,-0.043895,-0.230765,-0.050000,-0.050000,0.336603,-0.465345,0.000000,0.000000,-0.446714,0.423942,1.185468,1.176443,0.137125,-0.022715,-0.079720,-0.009793,-0.069409,-0.071483
-0.050000,-0.050000,-0.021223,0.000000,0.000000,0.062270,0.000000,0.000000,0.218080,0.100000,0.100000,-0.057664,-0.228430,-0.050000,-0.050000,0.337440,-0.463503,0.000000,0.000000,-0.452243,0.418864,1.176788,1.171602,0.135388,-0.013113,-0.080800,-0.010628,-0.063857,-0.077176
-0.050000,-0.050000,-0.023638,0.000000,0.000000,0.057439,0.000000,0.000000,0.217061,0.100000,0.100000,-0.072215,-0.228292,-0.050000,-0.050000,0.339090,-0.461529,0.000000,0.000000,-0.458065,0.414899,1.167313,1.165638,0.132758,-0.003008,-0.082240,-0.011365,-0.057567,-0.083370
-0.050000,-0.050000,-0.026039,0.000000,0.000000,0.052463,0.000000,0.000000,0.216488,0.100000,0.100000,-0.087086,-0.229457,-0.050000,-0.050000,0.341118,-0.459458,0.000000,0.000000,-0.463866,0.411487,1.157516,1.159239,0.129672,0.007410,-0.083780,-0.011944,-0.051067,-0.089797
-0.050000,-0.050000,-0.028254,0.000000,0.000000,0.047385,0.000000,0.000000,0.216430,0.100000,0.100000,-0.102168,-0.232634,-0.050000,-0.050000,0.343711,-0.457434,0.000000,0.000000,-0.469773,0.408904,1.147384,1.152094,0.126048,0.018199,-0.085476,-0.012396,-0.044374,-0.096548
-0.050000,-0.050000,-0.030333,0.000000,0.000000,0.042254,0.000000,0.000000,0.216869,0.100000,0.100000,-0.117154,-0.237519,-0.050000,-0.050000,0.346669,-0.455545,0.000000,0.000000,-0.475631,0.406936,1.137186,1.144292,0.122095,0.029296,-0.087203,-0.012749,-0.037816,-0.103490
-0.050000,-0.050000,-0.032342,0.000000,0.000000,0.037097,0.000000,0.000000,0.217695,0.100000,0.100000,-0.132053,-0.243660,-0.050000,-0.050000,0.349834,-0.453750,0.000000,0.000000,-0.481408,0.405431,1.126963,1.136000,0.117937,0.040615,-0.088954,-0.013040,-0.031413,-0.110559
-0.050000,-0.050000,-0.034126,0.000000,0.000000,0.032014,0.000000,0.000000,0.219015,0.100000,0.100000,-0.146184,-0.251575,-0.050000,-0.050000,0.353233,-0.452408,0.000000,0.000000,-0.487057,0.404435,1.117117,1.126451,0.113717,0.052232,-0.090601,-0.013459,-0.025655,-0.117750
-0.050000,-0.050000,-0.035921,0.000000,0.000000,0.027003,0.000000,0.000000,0.220610,0.100000,0.100000,-0.159893,-0.260172,-0.050000,-0.050000,0.356598,-0.451296,0.000000,0.000000,-0.492478,0.403654,1.107508,1.116177,0.109563,0.064032,-0.092198,-0.013951,-0.020341,-0.124972
-0.050000,-0.050000,-0.037633,0.000000,0.000000,0.022153,0.000000,0.000000,0.222491,0.100000,0.100000,-0.172572,-0.269571,-0.050000,-0.050000,0.359899,-0.450674,0.000000,0.000000,-0.497635,0.402977,1.098498,1.104514,0.105663,0.076064,-0.093621,-0.014760,-0.015843,-0.132244
-0.050000,-0.050000,-0.039383,0.000000,0.000000,0.017517,0.000000,0.000000,0.224517,0.100000,0.100000,-0.184156,-0.279082,-0.050000,-0.050000,0.362996,-0.450525,0.000000,0.000000,-0.502414,0.402151,1.090141,1.091466,0.102179,0.088337,-0.094863,-0.015939,-0.012164,-0.139562
-0.050000,-0.050000,-0.041168,0.000000,0.000000,0.013073,0.000000,0.000000,0.226587,0.100000,0.100000,-0.194863,-0.288477,-0.050000,-0.050000,0.365879,-0.450749,0.000000,0.000000,-0.506907,0.401182,1.082287,1.077269,0.099066,0.100759,-0.095983,-0.017425,-0.009111,-0.146925
-0.050000,-0.050000,-0.043061,0.000000,0.000000,0.009003,0.000000,0.000000,0.228647,0.100000,0.100000,-0.203660,-0.297101,-0.050000,-0.050000,0.368451,-0.451621,0.000000,0.000000,-0.510763,0.399467,1.075563,1.061164,0.096781,0.113533,-0.096737,-0.019598,-0.007231,-0.154391
-0.050000,-0.050000,-0.045033,0.000000,0.000000,0.005192,0.000000,0.000000,0.230542,0.100000,0.100000,-0.211415,-0.304806,-0.050000,-0.050000,0.370763,-0.452840,0.000000,0.000000,-0.514246,0.397346,1.069376,1.043996,0.095036,0.126396,-0.097369,-0.022081,-0.005923,-0.161903
-0.050000,-0.050000,-0.047121,0.000000,0.000000,0.001762,0.000000,0.000000,0.232249,0.100000,0.100000,-0.217393,-0.311086,-0.050000,-0.050000,0.372824,-0.454502,0.000000,0.000000,-0.517085,0.394326,1.064177,1.025534,0.094110,0.139424,-0.097674,-0.025088,-0.005517,-0.169459
-0.050000,-0.050000,-0.049279,0.000000,0.000000,-0.001303,0.000000,0.000000,0.233670,0.100000,0.100000,-0.221795,-0.315640,-0.050000,-0.050000,0.374710,-0.456435,0.000000,0.000000,-0.519304,0.390501,1.059787,1.006402,0.093926,0.152351,-0.097728,-0.028369,-0.005790,-0.176904
-0.050000,-0.050000,-0.051473,0.000000,0.000000,-0.004088,0.000000,0.000000,0.234791,0.100000,0.100000,-0.224943,-0.318762,-0.050000,-0.050000,0.376467,-0.458535,0.000000,0.000000,-0.521085,0.386047,1.055979,0.986796,0.094321,0.165105,-0.097607,-0.031878,-0.006550,-0.184237
-0.050000,-0.050000,-0.053654,0.000000,0.000000,-0.006394,0.000000,0.000000,0.235595,0.100000,0.100000,-0.226049,-0.319367,-0.050000,-0.050000,0.378265,-0.460642,0.000000,0.000000,-0.521908,0.380598,1.053267,0.967825,0.095522,0.177144,-0.097097,-0.035237,-0.008025,-0.190928
-0.050000,-0.050000,-0.055770,0.000000,0.000000,-0.008462,0.000000,0.000000,0.236029,0.100000,0.100000,-0.226015,-0.318457,-0.050000,-0.050000,0.380086,-0.462636,0.000000,0.000000,-0.522328,0.374764,1.050997,0.949427,0.097162,0.188451,-0.096476,-0.038469,-0.009791,-0.197082
-0.050000,-0.050000,-0.057742,0.000000,0.000000,-0.010151,0.000000,0.000000,0.236178,0.100000,0.100000,-0.224404,-0.315394,-0.050000,-0.050000,0.382114,-0.464311,0.000000,0.000000,-0.521960,0.368461,1.049551,0.932865,0.099278,0.198426,-0.095583,-0.041078,-0.011951,-0.202133
-0.050000,-0.050000,-0.059504,0.000000,0.000000,-0.011549,0.000000,0.000000,0.236041,0.100000,0.100000,-0.221538,-0.310569,-0.050000,-0.050000,0.384394,-0.465479,0.000000,0.000000,-0.520988,0.362119,1.048731,0.918706,0.101673,0.206679,-0.094532,-0.042860,-0.014317,-0.205795
-0.050000,-0.050000,-0.061115,0.000000,0.000000,-0.012751,0.000000,0.000000,0.235653,0.100000,0.100000,-0.217692,-0.304522,-0.050000,-0.050000,0.386892,-0.466171,0.000000,0.000000,-0.519566,0.355793,1.048363,0.906588,0.104252,0.213524,-0.093382,-0.044030,-0.016810,-0.208306
-0.050000,-0.050000,-0.062318,0.000000,0.000000,-0.013577,0.000000,0.000000,0.235186,0.100000,0.100000,-0.212625,-0.296531,-0.050000,-0.050000,0.389853,-0.465867,0.000000,0.000000,-0.517357,0.350139,1.048896,0.899087,0.106849,0.217343,-0.092041,-0.043435,-0.019361,-0.208339
-0.050000,-0.050000,-0.063371,0.000000,0.000000,-0.014290,0.000000,0.000000,0.234539,0.100000,0.100000,-0.206846,-0.287891,-0.050000,-0.050000,0.393049,-0.464829,0.000000,0.000000,-0.514816,0.344938,1.049834,0.894258,0.109427,0.219382,-0.090694,-0.042146,-0.021879,-0.206914
-0.050000,-0.050000,-0.064080,0.000000,0.000000,-0.014744,0.000000,0.000000,0.233941,0.100000,0.100000,-0.200319,-0.278106,-0.050000,-0.050000,0.396619,-0.462687,0.000000,0.000000,-0.511717,0.340784,1.051536,0.893821,0.111821,0.218555,-0.089260,-0.039339,-0.024283,-0.203163
-0.050000,-0.050000,-0.064569,0.000000,0.000000,-0.015036,0.000000,0.000000,0.233395,0.100000,0.100000,-0.193261,-0.267766,-0.050000,-0.050000,0.400429,-0.459425,0.000000,0.000000,-0.508233,0.337688,1.053903,0.897113,0.113970,0.215267,-0.087813,-0.035498,-0.026502,-0.197444
-0.050000,-0.050000,-0.064929,0.000000,0.000000,-0.015229,0.000000,0.000000,0.232909,0.100000,0.100000,-0.185825,-0.257160,-0.050000,-0.050000,0.404410,-0.455230,0.000000,0.000000,-0.504431,0.335458,1.056801,0.903321,0.115913,0.210077,-0.086384,-0.030997,-0.028558,-0.190223
-0.050000,-0.050000,-0.065039,0.000000,0.000000,-0.015193,0.000000,0.000000,0.232739,0.100000,0.100000,-0.178067,-0.246047,-0.050000,-0.050000,0.408483,-0.449557,0.000000,0.000000,-0.500238,0.334830,1.060660,0.913612,0.117388,0.202157,-0.084898,-0.025421,-0.030278,-0.180890
-0.050000,-0.050000,-0.065163,0.000000,0.000000,-0.015122,0.000000,0.000000,0.232680,0.100000,0.100000,-0.170117,-0.235113,-0.050000,-0.050000,0.412522,-0.442982,0.000000,0.000000,-0.495821,0.334989,1.065057,0.925910,0.118612,0.192934,-0.083462,-0.019766,-0.031789,-0.170608
-0.050000,-0.050000,-0.065224,0.000000,0.000000,-0.014908,0.000000,0.000000,0.232941,0.100000,0.100000,-0.162040,-0.224135,-0.050000,-0.050000,0.416385,-0.435223,0.000000,0.000000,-0.491153,0.336378,1.070258,0.940534,0.119410,0.182187,-0.081984,-0.013850,-0.033001,-0.159218
-0.050000,-0.050000,-0.065358,0.000000,0.000000,-0.014629,0.000000,0.000000,0.233437,0.100000,0.100000,-0.153871,-0.213439,-0.050000,-0.050000,0.419910,-0.426582,0.000000,0.000000,-0.486319,0.338607,1.076108,0.956309,0.119851,0.170760,-0.080485,-0.008175,-0.033985,-0.147385
-0.050000,-0.050000,-0.065571,0.000000,0.000000,-0.014292,0.000000,0.000000,0.234131,0.100000,0.100000,-0.145669,-0.202972,-0.050000,-0.050000,0.423124,-0.417293,0.000000,0.000000,-0.481348,0.341496,1.082469,0.972801,0.120025,0.158918,-0.078978,-0.002775,-0.034793,-0.135331
-0.050000,-0.050000,-0.065939,0.000000,0.000000,-0.013889,0.000000,0.000000,0.235092,0.100000,0.100000,-0.137363,-0.192995,-0.050000,-0.050000,0.425579,-0.407410,0.000000,0.000000,-0.476344,0.345029,1.089419,0.988980,0.119778,0.147496,-0.077356,0.001974,-0.035480,-0.123597
-0.050000,-0.050000,-0.066454,0.000000,0.000000,-0.013449,0.000000,0.000000,0.236170,0.100000,0.100000,-0.129043,-0.183354,-0.050000,-0.050000,0.427535,-0.397377,0.000000,0.000000,-0.471312,0.348872,1.096658,1.004664,0.119345,0.136528,-0.075716,0.006242,-0.036128,-0.112255
-0.050000,-0.050000,-0.067158,0.000000,0.000000,-0.012990,0.000000,0.000000,0.237367,0.100000,0.100000,-0.120604,-0.174285,-0.050000,-0.050000,0.428657,-0.387395,0.000000,0.000000,-0.466384,0.352874,1.104085,1.018855,0.118661,0.126750,-0.073989,0.009753,-0.036872,-0.101760
-0.050000,-0.050000,-0.068038,0.000000,0.000000,-0.012534,0.000000,0.000000,0.238584,0.100000,0.100000,-0.112068,-0.165756,-0.050000,-0.050000,0.429000,-0.377865,0.000000,0.000000,-0.461632,0.356809,1.111413,1.031132,0.117856,0.118338,-0.072237,0.012583,-0.037839,-0.092255
-0.050000,-0.050000,-0.069039,0.000000,0.000000,-0.012046,0.000000,0.000000,0.239813,0.100000,0.100000,-0.103463,-0.157570,-0.050000,-0.050000,0.428706,-0.368803,0.000000,0.000000,-0.457039,0.360669,1.118602,1.041746,0.116976,0.111071,-0.070449,0.014960,-0.039011,-0.083563
-0.050000,-0.050000,-0.070220,0.000000,0.000000,-0.011693,0.000000,0.000000,0.240884,0.100000,0.100000,-0.094642,-0.150293,-0.050000,-0.050000,0.427441,-0.360971,0.000000,0.000000,-0.452923,0.363950,1.124989,1.048928,0.116130,0.105861,-0.068769,0.016382,-0.040790,-0.076449
-0.050000,-0.050000,-0.071443,0.000000,0.000000,-0.011312,0.000000,0.000000,0.241887,0.100000,0.100000,-0.085784,-0.143251,-0.050000,-0.050000,0.425655,-0.354043,0.000000,0.000000,-0.449087,0.366964,1.130784,1.054053,0.115344,0.101727,-0.067143,0.017520,-0.042937,-0.070200
-0.050000,-0.050000,-0.072734,0.000000,0.000000,-0.011091,0.000000,0.000000,0.242655,0.100000,0.100000,-0.076786,-0.136963,-0.050000,-0.050000,0.423196,-0.348574,0.000000,0.000000,-0.445802,0.369306,1.135360,1.055919,0.114739,0.099054,-0.065778,0.017946,-0.045754,-0.065331
-0.050000,-0.050000,-0.073996,0.000000,0.000000,-0.010985,0.000000,0.000000,0.243210,0.100000,0.100000,-0.067780,-0.131185,-0.050000,-0.050000,0.420325,-0.344552,0.000000,0.000000,-0.443040,0.371105,1.138562,1.055003,0.114350,0.097199,-0.064751,0.017914,-0.049164,-0.061577
-0.050000,-0.050000,-0.075209,0.000000,0.000000,-0.010950,0.000000,0.000000,0.243600,0.100000,0.100000,-0.058765,-0.125750,-0.050000,-0.050000,0.417162,-0.341686,0.000000,0.000000,-0.440706,0.372445,1.140610,1.051887,0.114133,0.095882,-0.063974,0.017587,-0.053056,-0.058657
-0.050000,-0.050000,-0.076294,0.000000,0.000000,-0.011227,0.000000,0.000000,0.243611,0.100000,0.100000,-0.049965,-0.121220,-0.050000,-0.050000,0.413866,-0.340744,0.000000,0.000000,-0.439139,0.373183,1.140363,1.045684,0.114255,0.094443,-0.064005,0.016566,-0.057592,-0.056988
-0.050000,-0.050000,-0.077239,0.000000,0.000000,-0.011550,0.000000,0.000000,0.243491,0.100000,0.100000,-0.041341,-0.116930,-0.050000,-0.050000,0.410596,-0.340836,0.000000,0.000000,-0.437963,0.373622,1.138771,1.037951,0.114496,0.092632,-0.064385,0.015410,-0.062446,-0.055839
-0.050000,-0.050000,-0.077991,0.000000,0.000000,-0.012124,0.000000,0.000000,0.243056,0.100000,0.100000,-0.033187,-0.113374,-0.050000,-0.050000,0.407547,-0.342426,0.000000,0.000000,-0.437414,0.373820,1.135044,1.028429,0.114925,0.089644,-0.065583,0.013821,-0.067576,-0.055399
-0.050000,-0.050000,-0.078539,0.000000,0.000000,-0.012823,0.000000,0.000000,0.242417,0.100000,0.100000,-0.025648,-0.110330,-0.050000,-0.050000,0.404890,-0.345102,0.000000,0.000000,-0.437324,0.373996,1.129527,1.018112,0.115367,0.085075,-0.067433,0.012062,-0.072712,-0.055268
-0.050000,-0.050000,-0.078924,0.000000,0.000000,-0.013624,0.000000,0.000000,0.241635,0.100000,0.100000,-0.018615,-0.107737,-0.050000,-0.050000,0.402585,-0.348550,0.000000,0.000000,-0.437584,0.374143,1.122614,1.007369,0.115769,0.079129,-0.069769,0.010162,-0.077817,-0.055306
-0.050000,-0.050000,-0.079076,0.000000,0.000000,-0.014545,0.000000,0.000000,0.240567,0.100000,0.100000,-0.012926,-0.105875,-0.050000,-0.050000,0.401093,-0.352996,0.000000,0.000000,-0.438327,0.374755,1.113717,0.997233,0.115935,0.070426,-0.072950,0.008239,-0.082334,-0.055312
-0.050000,-0.050000,-0.079115,0.000000,0.000000,-0.015475,0.000000,0.000000,0.239459,0.100000,0.100000,-0.007980,-0.104465,-0.050000,-0.050000,0.400084,-0.357726,0.000000,0.000000,-0.439274,0.375471,1.103894,0.987890,0.115831,0.060227,-0.076384,0.006335,-0.086488,-0.055169
-0.050000,-0.050000,-0.079028,0.000000,0.000000,-0.016391,0.000000,0.000000,0.238186,0.100000,0.100000,-0.004520,-0.103626,-0.050000,-0.050000,0.399889,-0.362809,0.000000,0.000000,-0.440510,0.376713,1.092941,0.980385,0.115291,0.047811,-0.080235,0.004646,-0.089760,-0.054734
-0.050000,-0.050000,-0.078914,0.000000,0.000000,-0.017212,0.000000,0.000000,0.236877,0.100000,0.100000,-0.002425,-0.103267,-0.050000,-0.050000,0.400365,-0.367787,0.000000,0.000000,-0.441922,0.378261,1.081520,0.975173,0.114254,0.033992,-0.084125,0.003245,-0.092142,-0.054005
-0.050000,-0.050000,-0.078780,0.000000,0.000000,-0.017969,0.000000,0.000000,0.235573,0.100000,0.100000,-0.001476,-0.103384,-0.050000,-0.050000,0.401357,-0.372572,0.000000,0.000000,-0.443473,0.380049,1.069859,0.971986,0.112805,0.019183,-0.087997,0.002012,-0.093789,-0.053055
-0.050000,-0.050000,-0.078800,0.000000,0.000000,-0.018451,0.000000,0.000000,0.234267,0.100000,0.100000,-0.002517,-0.103767,-0.050000,-0.050000,0.403090,-0.376713,0.000000,0.000000,-0.445182,0.382106,1.058594,0.972612,0.110731,0.003929,-0.091457,0.001512,-0.094052,-0.051875
-0.050000,-0.050000,-0.078895,0.000000,0.000000,-0.018834,0.000000,0.000000,0.233081,0.100000,0.100000,-0.004663,-0.104603,-0.050000,-0.050000,0.405108,-0.380234,0.000000,0.000000,-0.447028,0.384145,1.047860,0.975573,0.108316,-0.011193,-0.094563,0.001185,-0.093599,-0.050686
-0.050000,-0.050000,-0.079250,0.000000,0.000000,-0.018932,0.000000,0.000000,0.232021,0.100000,0.100000,-0.008447,-0.105551,-0.050000,-0.050000,0.407500,-0.382791,0.000000,0.000000,-0.449006,0.386064,1.038310,0.981982,0.105514,-0.025396,-0.096960,0.001523,-0.092037,-0.049570
-0.050000,-0.050000,-0.079859,0.000000,0.000000,-0.018817,0.000000,0.000000,0.231165,0.100000,0.100000,-0.013468,-0.106670,-0.050000,-0.050000,0.409972,-0.384335,0.000000,0.000000,-0.451150,0.387654,1.030249,0.991133,0.102536,-0.038121,-0.098615,0.002283,-0.089682,-0.048716
-0.050000,-0.050000,-0.080662,0.000000,0.000000,-0.018539,0.000000,0.000000,0.230497,0.100000,0.100000,-0.019507,-0.107939,-0.050000,-0.050000,0.412435,-0.385057,0.000000,0.000000,-0.453445,0.388970,1.023515,1.002426,0.099472,-0.049517,-0.099704,0.003344,-0.086710,-0.048124
-0.050000,-0.050000,-0.081950,0.000000,0.000000,-0.017934,0.000000,0.000000,0.230148,0.100000,0.100000,-0.026598,-0.109006,-0.050000,-0.050000,0.414659,-0.384495,0.000000,0.000000,-0.455886,0.389537,1.019305,1.016253,0.096542,-0.058067,-0.099689,0.004967,-0.083085,-0.048031
-0.050000,-0.050000,-0.083413,0.000000,0.000000,-0.017213,0.000000,0.000000,0.230015,0.100000,0.100000,-0.034331,-0.110170,-0.050000,-0.050000,0.416568,-0.383272,0.000000,0.000000,-0.458485,0.389778,1.016686,1.031261,0.093778,-0.064993,-0.099224,0.006672,-0.079139,-0.048287
-0.050000,-0.050000,-0.085296,0.000000,0.000000,-0.016245,0.000000,0.000000,0.230200,0.100000,0.100000,-0.042509,-0.111122,-0.050000,-0.050000,0.417977,-0.381169,0.000000,0.000000,-0.461148,0.389339,1.016458,1.047362,0.091358,-0.069359,-0.097961,0.008568,-0.074965,-0.048979
-0.050000,-0.050000,-0.087460,0.000000,0.000000,-0.015118,0.000000,0.000000,0.230639,0.100000,0.100000,-0.050850,-0.111974,-0.050000,-0.050000,0.418803,-0.378561,0.000000,0.000000,-0.463815,0.388483,1.018228,1.063676,0.089289,-0.071785,-0.096244,0.010369,-0.070758,-0.049991
-0.050000,-0.050000,-0.089860,0.000000,0.000000,-0.013852,0.000000,0.000000,0.231273,0.100000,0.100000,-0.059266,-0.112699,-0.050000,-0.050000,0.419110,-0.375652,0.000000,0.000000,-0.466445,0.387325,1.021595,1.079961,0.087516,-0.072722,-0.094246,0.012082,-0.066558,-0.051224
-0.050000,-0.050000,-0.092586,0.000000,0.000000,-0.012401,0.000000,0.000000,0.232175,0.100000,0.100000,-0.067197,-0.113286,-0.050000,-0.050000,0.418647,-0.372538,0.000000,0.000000,-0.468762,0.385787,1.027032,1.095204,0.086031,-0.071836,-0.091890,0.013345,-0.062654,-0.052643
-0.050000,-0.050000,-0.095468,0.000000,0.000000,-0.010844,0.000000,0.000000,0.233171,0.100000,0.100000,-0.074897,-0.113762,-0.050000,-0.050000,0.417681,-0.369539,0.000000,0.000000,-0.470825,0.384220,1.033521,1.109608,0.084638,-0.070106,-0.089571,0.014360,-0.058892,-0.054118
-0.050000,-0.050000,-0.098520,0.000000,0.000000,-0.009161,0.000000,0.000000,0.234302,0.100000,0.100000,-0.081883,-0.114227,-0.050000,-0.050000,0.416111,-0.366761,0.000000,0.000000,-0.472341,0.382562,1.041160,1.122351,0.083111,-0.067432,-0.087255,0.014817,-0.055482,-0.055608
-0.050000,-0.050000,-0.101637,0.000000,0.000000,-0.007396,0.000000,0.000000,0.235472,0.100000,0.100000,-0.088227,-0.114724,-0.050000,-0.050000,0.414118,-0.364411,0.000000,0.000000,-0.473211,0.380969,1.049286,1.133405,0.081103,-0.064216,-0.085154,0.014821,-0.052332,-0.057060
-0.050000,-0.050000,-0.104820,0.000000,0.000000,-0.005559,0.000000,0.000000,0.236659,0.100000,0.100000,-0.094000,-0.115233,-0.050000,-0.050000,0.411835,-0.362467,0.000000,0.000000,-0.473517,0.379462,1.057649,1.143016,0.078611,-0.060625,-0.083241,0.014501,-0.049406,-0.058452
-0.050000,-0.050000,-0.107834,0.000000,0.000000,-0.003713,0.000000,0.000000,0.237815,0.100000,0.100000,-0.098860,-0.116095,-0.050000,-0.050000,0.409337,-0.361246,0.000000,0.000000,-0.472671,0.377989,1.065556,1.150198,0.074543,-0.056545,-0.081752,0.013569,-0.046714,-0.059803
-0.050000,-0.050000,-0.110814,0.000000,0.000000,-0.001850,0.000000,0.000000,0.238943,0.100000,0.100000,-0.103212,-0.117049,-0.050000,-0.050000,0.406842,-0.360557,0.000000,0.000000,-0.471133,0.376614,1.072889,1.155936,0.069358,-0.052130,-0.080519,0.012482,-0.044143,-0.061080
-0.050000,-0.050000,-0.113492,0.000000,0.000000,-0.000052,0.000000,0.000000,0.240001,0.100000,0.100000,-0.106880,-0.118437,-0.050000,-0.050000,0.404455,-0.360616,0.000000,0.000000,-0.468407,0.375196,1.078928,1.159525,0.061967,-0.047132,-0.079735,0.011023,-0.041620,-0.062328
-0.050000,-0.050000,-0.115880,0.000000,0.000000,0.001657,0.000000,0.000000,0.241011,0.100000,0.100000,-0.110080,-0.120179,-0.050000,-0.050000,0.402361,-0.361380,0.000000,0.000000,-0.464625,0.373710,1.083312,1.161269,0.052202,-0.041420,-0.079329,0.009404,-0.039054,-0.063518
-0.050000,-0.050000,-0.118024,0.000000,0.000000,0.003278,0.000000,0.000000,0.241995,0.100000,0.100000,-0.112891,-0.122209,-0.050000,-0.050000,0.400593,-0.362718,0.000000,0.000000,-0.460011,0.372168,1.086179,1.161500,0.040392,-0.035078,-0.079177,0.007709,-0.036465,-0.064646
-0.050000,-0.050000,-0.119548,0.000000,0.000000,0.004667,0.000000,0.000000,0.242906,0.100000,0.100000,-0.115421,-0.124843,-0.050000,-0.050000,0.399384,-0.364967,0.000000,0.000000,-0.453889,0.370310,1.086066,1.159286,0.024637,-0.027386,-0.079629,0.005753,-0.033565,-0.065703
-0.050000,-0.050000,-0.120801,0.000000,0.000000,0.005928,0.000000,0.000000,0.243851,0.100000,0.100000,-0.117726,-0.127704,-0.050000,-0.050000,0.398691,-0.367777,0.000000,0.000000,-0.447070,0.368354,1.083945,1.155565,0.006527,-0.018835,-0.080250,0.003814,-0.030576,-0.066636
-0.050000,-0.050000,-0.121456,0.000000,0.000000,0.006932,0.000000,0.000000,0.244755,0.100000,0.100000,-0.119969,-0.131017,-0.050000,-0.050000,0.398616,-0.371397,0.000000,0.000000,-0.439006,0.366067,1.078660,1.149524,-0.015362,-0.008848,-0.081411,0.001635,-0.027220,-0.067445
-0.050000,-0.050000,-0.121652,0.000000,0.000000,0.007717,0.000000,0.000000,0.245674,0.100000,0.100000,-0.122198,-0.134591,-0.050000,-0.050000,0.399160,-0.375722,0.000000,0.000000,-0.430089,0.363544,1.070473,1.141354,-0.040359,0.002420,-0.082963,-0.000731,-0.023561,-0.068108
-0.050000,-0.050000,-0.121471,0.000000,0.000000,0.008317,0.000000,0.000000,0.246610,0.100000,0.100000,-0.124388,-0.138321,-0.050000,-0.050000,0.400198,-0.380606,0.000000,0.000000,-0.420522,0.360824,1.059872,1.131401,-0.067828,0.014730,-0.084831,-0.003235,-0.019649,-0.068650
-0.050000,-0.050000,-0.120663,0.000000,0.000000,0.008611,0.000000,0.000000,0.247468,0.100000,0.100000,-0.126841,-0.142309,-0.050000,-0.050000,0.401829,-0.386328,0.000000,0.000000,-0.410067,0.357750,1.045670,1.118544,-0.098547,0.028637,-0.087492,-0.006316,-0.015172,-0.069141
-0.050000,-0.050000,-0.119565,0.000000,0.000000,0.008756,0.000000,0.000000,0.248342,0.100000,0.100000,-0.129284,-0.146268,-0.050000,-0.050000,0.403834,-0.392507,0.000000,0.000000,-0.399356,0.354518,1.029474,1.103987,-0.130709,0.043379,-0.090470,-0.009581,-0.010421,-0.069618
-0.050000,-0.050000,-0.117998,0.000000,0.000000,0.008656,0.000000,0.000000,0.249089,0.100000,0.100000,-0.132008,-0.150304,-0.050000,-0.050000,0.406183,-0.399278,0.000000,0.000000,-0.388319,0.351011,1.010698,1.086990,-0.164296,0.059248,-0.094225,-0.013455,-0.005141,-0.070252
-0.050000,-0.050000,-0.116121,0.000000,0.000000,0.008391,0.000000,0.000000,0.249731,0.100000,0.100000,-0.134912,-0.154290,-0.050000,-0.050000,0.408734,-0.406416,0.000000,0.000000,-0.377412,0.347313,0.990407,1.068254,-0.197854,0.075797,-0.098544,-0.017761,0.000565,-0.071183
-0.050000,-0.050000,-0.113984,0.000000,0.000000,0.007998,0.000000,0.000000,0.250259,0.100000,0.100000,-0.137976,-0.158195,-0.050000,-0.050000,0.411328,-0.413770,0.000000,0.000000,-0.366661,0.343439,0.969103,1.048199,-0.231030,0.092793,-0.103424,-0.022448,0.006631,-0.072411
-0.050000,-0.050000,-0.111592,0.000000,0.000000,0.007439,0.000000,0.000000,0.250524,0.100000,0.100000,-0.141423,-0.162151,-0.050000,-0.050000,0.413950,-0.421223,0.000000,0.000000,-0.356784,0.339425,0.947661,1.027112,-0.261489,0.109979,-0.108870,-0.027648,0.013171,-0.074391
-0.050000,-0.050000,-0.109037,0.000000,0.000000,0.006813,0.000000,0.000000,0.250650,0.100000,0.100000,-0.145065,-0.166037,-0.050000,-0.050000,0.416377,-0.428536,0.000000,0.000000,-0.347516,0.335301,0.926721,1.005874,-0.289736,0.127004,-0.114669,-0.033043,0.019958,-0.076854
-0.050000,-0.050000,-0.106383,0.000000,0.000000,0.006107,0.000000,0.000000,0.250519,0.100000,0.100000,-0.149051,-0.170044,-0.050000,-0.050000,0.418625,-0.435509,0.000000,0.000000,-0.339607,0.331196,0.907522,0.985307,-0.313438,0.143417,-0.120563,-0.038547,0.026968,-0.080149
-0.050000,-0.050000,-0.103691,0.000000,0.000000,0.005375,0.000000,0.000000,0.250193,0.100000,0.100000,-0.153318,-0.174188,-0.050000,-0.050000,0.420531,-0.441877,0.000000,0.000000,-0.333100,0.327211,0.890982,0.966517,-0.332283,0.158746,-0.126217,-0.043816,0.033994,-0.084124
-0.050000,-0.050000,-0.100971,0.000000,0.000000,0.004624,0.000000,0.000000,0.249697,0.100000,0.100000,-0.157899,-0.178541,-0.050000,-0.050000,0.422090,-0.447644,0.000000,0.000000,-0.327771,0.323348,0.876964,0.949534,-0.346916,0.173033,-0.131661,-0.048915,0.040988,-0.088647
-0.050000,-0.050000,-0.098432,0.000000,0.000000,0.003923,0.000000,0.000000,0.249050,0.100000,0.100000,-0.162618,-0.183227,-0.050000,-0.050000,0.423228,-0.452231,0.000000,0.000000,-0.324876,0.320106,0.868362,0.937274,-0.353905,0.184822,-0.135643,-0.052753,0.047445,-0.093758
-0.050000,-0.050000,-0.095938,0.000000,0.000000,0.003229,0.000000,0.000000,0.248296,0.100000,0.100000,-0.167646,-0.188299,-0.050000,-0.050000,0.423860,-0.455900,0.000000,0.000000,-0.323218,0.317213,0.863280,0.928295,-0.356501,0.194907,-0.138944,-0.055999,0.053517,-0.099073
-0.050000,-0.050000,-0.093726,0.000000,0.000000,0.002623,0.000000,0.000000,0.247538,0.100000,0.100000,-0.172617,-0.193736,-0.050000,-0.050000,0.423997,-0.458219,0.000000,0.000000,-0.323893,0.315228,0.864032,0.925183,-0.352183,0.201907,-0.140290,-0.057462,0.058570,-0.104391
-0.050000,-0.050000,-0.091762,0.000000,0.000000,0.002073,0.000000,0.000000,0.246823,0.100000,0.100000,-0.177520,-0.199535,-0.050000,-0.050000,0.423535,-0.459205,0.000000,0.000000,-0.326383,0.314134,0.869838,0.927602,-0.342403,0.205865,-0.139954,-0.057292,0.062460,-0.109297
-0.050000,-0.050000,-0.090030,0.000000,0.000000,0.001565,0.000000,0.000000,0.246159,0.100000,0.100000,-0.182353,-0.205697,-0.050000,-0.050000,0.422562,-0.459063,0.000000,0.000000,-0.330324,0.313802,0.879820,0.934727,-0.328264,0.207237,-0.138235,-0.055770,0.065293,-0.113739
-0.050000,-0.050000,-0.088787,0.000000,0.000000,0.001161,0.000000,0.000000,0.245819,0.100000,0.100000,-0.186350,-0.211723,-0.050000,-0.050000,0.420916,-0.457226,0.000000,0.000000,-0.336638,0.314990,0.895699,0.949140,-0.307971,0.203969,-0.133925,-0.051440,0.065891,-0.116757
-0.050000,-0.050000,-0.087795,0.000000,0.000000,0.000747,0.000000,0.000000,0.245572,0.100000,0.100000,-0.190009,-0.217878,-0.050000,-0.050000,0.418725,-0.454292,0.000000,0.000000,-0.343925,0.316884,0.914615,0.967513,-0.284553,0.198038,-0.128639,-0.045960,0.065192,-0.118783
-0.050000,-0.050000,-0.087271,0.000000,0.000000,0.000372,0.000000,0.000000,0.245743,0.100000,0.100000,-0.192498,-0.223403,-0.050000,-0.050000,0.415941,-0.449912,0.000000,0.000000,-0.352872,0.320077,0.937320,0.991226,-0.256895,0.187876,-0.121586,-0.038272,0.062228,-0.118930
-0.050000,-0.050000,-0.087098,0.000000,0.000000,-0.000046,0.000000,0.000000,0.246211,0.100000,0.100000,-0.193878,-0.228172,-0.050000,-0.050000,0.412664,-0.444371,0.000000,0.000000,-0.362671,0.324067,0.961995,1.018145,-0.226565,0.174443,-0.113753,-0.029377,0.057478,-0.117333
-0.050000,-0.050000,-0.087222,0.000000,0.000000,-0.000514,0.000000,0.000000,0.246923,0.100000,0.100000,-0.194173,-0.232118,-0.050000,-0.050000,0.408996,-0.437891,0.000000,0.000000,-0.373078,0.328650,0.987926,1.047302,-0.194223,0.158331,-0.105472,-0.019625,0.051260,-0.114241
-0.050000,-0.050000,-0.087727,0.000000,0.000000,-0.001098,0.000000,0.000000,0.248184,0.100000,0.100000,-0.192561,-0.234084,-0.050000,-0.050000,0.404997,-0.430335,0.000000,0.000000,-0.383899,0.333847,1.013918,1.077574,-0.160237,0.139044,-0.097098,-0.009274,0.043178,-0.108895
-0.050000,-0.050000,-0.088414,0.000000,0.000000,-0.001806,0.000000,0.000000,0.249566,0.100000,0.100000,-0.189663,-0.234722,-0.050000,-0.050000,0.400861,-0.422213,0.000000,0.000000,-0.394624,0.339097,1.039327,1.107616,-0.125706,0.118229,-0.089122,0.000942,0.034258,-0.102390
-0.050000,-0.050000,-0.089301,0.000000,0.000000,-0.002697,0.000000,0.000000,0.251363,0.100000,0.100000,-0.184938,-0.233096,-0.050000,-0.050000,0.396678,-0.413533,0.000000,0.000000,-0.404917,0.344284,1.062928,1.135949,-0.091398,0.096106,-0.082000,0.010494,0.024480,-0.094373
-0.050000,-0.050000,-0.090252,0.000000,0.000000,-0.003785,0.000000,0.000000,0.253334,0.100000,0.100000,-0.178656,-0.229439,-0.050000,-0.050000,0.392638,-0.404691,0.000000,0.000000,-0.414384,0.349022,1.084219,1.161430,-0.058276,0.073959,-0.075981,0.018874,0.014540,-0.085570
-0.050000,-0.050000,-0.091227,0.000000,0.000000,-0.005039,0.000000,0.000000,0.255422,0.100000,0.100000,-0.171032,-0.223965,-0.050000,-0.050000,0.388778,-0.395812,0.000000,0.000000,-0.423137,0.353371,1.103354,1.184121,-0.026407,0.052098,-0.070940,0.026190,0.004606,-0.076264
-0.050000,-0.050000,-0.092060,0.000000,0.000000,-0.006557,0.000000,0.000000,0.257705,0.100000,0.100000,-0.161988,-0.216312,-0.050000,-0.050000,0.385300,-0.387333,0.000000,0.000000,-0.430083,0.356635,1.118830,1.201338,0.001988,0.032512,-0.067598,0.031156,-0.004520,-0.066920
-0.050000,-0.050000,-0.092788,0.000000,0.000000,-0.008214,0.000000,0.000000,0.259972,0.100000,0.100000,-0.151983,-0.207220,-0.050000,-0.050000,0.382190,-0.379309,0.000000,0.000000,-0.436135,0.359402,1.132079,1.215002,0.028139,0.014578,-0.065106,0.034929,-0.013097,-0.057765
-0.050000,-0.050000,-0.093228,0.000000,0.000000,-0.010072,0.000000,0.000000,0.262262,0.100000,0.100000,-0.141227,-0.196864,-0.050000,-0.050000,0.379529,-0.372147,0.000000,0.000000,-0.440326,0.361079,1.142247,1.223212,0.050164,0.000080,-0.063930,0.036500,-0.020427,-0.049284
-0.050000,-0.050000,-0.093385,0.000000,0.000000,-0.012047,0.000000,0.000000,0.264501,0.100000,0.100000,-0.130119,-0.185887,-0.050000,-0.050000,0.377332,-0.366042,0.000000,0.000000,-0.443166,0.362058,1.150235,1.226973,0.068577,-0.011138,-0.063521,0.036550,-0.026680,-0.041613
-0.050000,-0.050000,-0.093298,0.000000,0.000000,-0.014090,0.000000,0.000000,0.266715,0.100000,0.100000,-0.118872,-0.174578,-0.050000,-0.050000,0.375482,-0.360884,0.000000,0.000000,-0.444909,0.362508,1.156554,1.227103,0.083933,-0.019482,-0.063657,0.035446,-0.032030,-0.034663
-0.050000,-0.050000,-0.092749,0.000000,0.000000,-0.016200,0.000000,0.000000,0.268784,0.100000,0.100000,-0.108142,-0.164162,-0.050000,-0.050000,0.374176,-0.357524,0.000000,0.000000,-0.445020,0.362146,1.161262,1.222444,0.094825,-0.023283,-0.064284,0.032721,-0.036016,-0.029039
-0.050000,-0.050000,-0.092002,0.000000,0.000000,-0.018266,0.000000,0.000000,0.270906,0.100000,0.100000,-0.097900,-0.154393,-0.050000,-0.050000,0.373161,-0.355357,0.000000,0.000000,-0.444529,0.361607,1.165252,1.215205,0.103351,-0.024450,-0.064980,0.029489,-0.039402,-0.024104
-0.050000,-0.050000,-0.090890,0.000000,0.000000,-0.020286,0.000000,0.000000,0.272911,0.100000,0.100000,-0.088755,-0.146614,-0.050000,-0.050000,0.372638,-0.355134,0.000000,0.000000,-0.443115,0.360619,1.168727,1.204611,0.108758,-0.021834,-0.065665,0.025418,-0.041924,-0.020331
-0.050000,-0.050000,-0.089589,0.000000,0.000000,-0.022181,0.000000,0.000000,0.274958,0.100000,0.100000,-0.080856,-0.140997,-0.050000,-0.050000,0.372534,-0.356674,0.000000,0.000000,-0.441388,0.359436,1.172138,1.191652,0.112253,-0.016252,-0.066149,0.021059,-0.044016,-0.017442
-0.050000,-0.050000,-0.088142,0.000000,0.000000,-0.023940,0.000000,0.000000,0.277105,0.100000,0.100000,-0.074152,-0.137393,-0.050000,-0.050000,0.372746,-0.359705,0.000000,0.000000,-0.439442,0.358072,1.175633,1.176871,0.114351,-0.008265,-0.066427,0.016554,-0.045819,-0.015259
-0.050000,-0.050000,-0.086615,0.000000,0.000000,-0.025516,0.000000,0.000000,0.279195,0.100000,0.100000,-0.069322,-0.137580,-0.050000,-0.050000,0.373748,-0.365113,0.000000,0.000000,-0.437672,0.356213,1.179424,1.159418,0.115316,0.003252,-0.066381,0.011788,-0.047383,-0.014372
-0.050000,-0.050000,-0.085096,0.000000,0.000000,-0.026898,0.000000,0.000000,0.281564,0.100000,0.100000,-0.065864,-0.140022,-0.050000,-0.050000,0.375102,-0.371850,0.000000,0.000000,-0.436057,0.354036,1.183406,1.140464,0.115804,0.016920,-0.066141,0.007072,-0.048920,-0.014182
-0.050000,-0.050000,-0.083696,0.000000,0.000000,-0.028076,0.000000,0.000000,0.283969,0.100000,0.100000,-0.064180,-0.146139,-0.050000,-0.050000,0.377349,-0.380581,0.000000,0.000000,-0.434970,0.351031,1.187544,1.118934,0.116071,0.033880,-0.065729,0.002076,-0.050400,-0.015398
-0.050000,-0.050000,-0.082474,0.000000,0.000000,-0.029048,0.000000,0.000000,0.286606,0.100000,0.100000,-0.064042,-0.155139,-0.050000,-0.050000,0.380375,-0.390750,0.000000,0.000000,-0.434363,0.347050,1.191577,1.095045,0.116319,0.053843,-0.065303,-0.003204,-0.051854,-0.017965
-0.050000,-0.050000,-0.081393,0.000000,0.000000,-0.029845,0.000000,0.000000,0.289467,0.100000,0.100000,-0.065193,-0.166482,-0.050000,-0.050000,0.384095,-0.402000,0.000000,0.000000,-0.434196,0.342181,1.195445,1.069070,0.116602,0.076311,-0.064895,-0.008818,-0.053295,-0.021750
-0.050000,-0.050000,-0.080723,0.000000,0.000000,-0.030451,0.000000,0.000000,0.292382,0.100000,0.100000,-0.067871,-0.180999,-0.050000,-0.050000,0.389186,-0.414613,0.000000,0.000000,-0.434719,0.335290,1.198511,1.039354,0.116912,0.103084,-0.064843,-0.015499,-0.054499,-0.027950
-0.050000,-0.050000,-0.080166,0.000000,0.000000,-0.030923,0.000000,0.000000,0.295595,0.100000,0.100000,-0.071579,-0.196956,-0.050000,-0.050000,0.395047,-0.427720,0.000000,0.000000,-0.435604,0.327248,1.200944,1.007409,0.117101,0.132269,-0.064984,-0.022831,-0.055611,-0.035621
-0.050000,-0.050000,-0.079991,0.000000,0.000000,-0.031258,0.000000,0.000000,0.298836,0.100000,0.100000,-0.076403,-0.214851,-0.050000,-0.050000,0.402282,-0.441409,0.000000,0.000000,-0.436989,0.316983,1.202077,0.971860,0.116988,0.165256,-0.065672,-0.031684,-0.056356,-0.045853
-0.050000,-0.050000,-0.080002,0.000000,0.000000,-0.031505,0.000000,0.000000,0.302216,0.100000,0.100000,-0.082117,-0.233581,-0.050000,-0.050000,0.410675,-0.455168,0.000000,0.000000,-0.438704,0.304936,1.201823,0.933525,0.116366,0.200952,-0.066829,-0.041915,-0.056800,-0.058257
-0.050000,-0.050000,-0.080139,0.000000,0.000000,-0.031691,0.000000,0.000000,0.305667,0.100000,0.100000,-0.088495,-0.252762,-0.050000,-0.050000,0.420070,-0.468692,0.000000,0.000000,-0.440731,0.291374,1.200291,0.892841,0.115243,0.238553,-0.068372,-0.053641,-0.056988,-0.072470
-0.050000,-0.050000,-0.080536,0.000000,0.000000,-0.031831,0.000000,0.000000,0.309023,0.100000,0.100000,-0.095714,-0.271914,-0.050000,-0.050000,0.430961,-0.481832,0.000000,0.000000,-0.442993,0.275670,1.196504,0.849514,0.113151,0.278408,-0.070641,-0.067315,-0.056719,-0.089278
-0.050000,-0.050000,-0.080885,0.000000,0.000000,-0.031985,0.000000,0.000000,0.312402,0.100000,0.100000,-0.103386,-0.290522,-0.050000,-0.050000,0.442765,-0.494242,0.000000,0.000000,-0.445540,0.258969,1.191221,0.804813,0.110411,0.318615,-0.073162,-0.082439,-0.056327,-0.107355
-0.050000,-0.050000,-0.081321,0.000000,0.000000,-0.032161,0.000000,0.000000,0.315601,0.100000,0.100000,-0.111727,-0.308070,-0.050000,-0.050000,0.455816,-0.505850,0.000000,0.000000,-0.448281,0.241010,1.183592,0.759039,0.106691,0.358956,-0.076211,-0.099110,-0.055702,-0.127069
-0.050000,-0.050000,-0.081653,0.000000,0.000000,-0.032416,0.000000,0.000000,0.318653,0.100000,0.100000,-0.120555,-0.324138,-0.050000,-0.050000,0.469839,-0.516533,0.000000,0.000000,-0.451272,0.222597,1.173843,0.713197,0.102148,0.398096,-0.079498,-0.116759,-0.055093,-0.147517
-0.050000,-0.050000,-0.081884,0.000000,0.000000,-0.032750,0.000000,0.000000,0.321505,0.100000,0.100000,-0.129727,-0.338837,-0.050000,-0.050000,0.484645,-0.526250,0.000000,0.000000,-0.454505,0.203933,1.162230,0.667521,0.096916,0.435686,-0.082919,-0.135320,-0.054550,-0.168291
-0.050000,-0.050000,-0.081925,0.000000,0.000000,-0.033257,0.000000,0.000000,0.324060,0.100000,0.100000,-0.139590,-0.350882,-0.050000,-0.050000,0.500332,-0.535147,0.000000,0.000000,-0.457865,0.185835,1.147751,0.623778,0.090652,0.470314,-0.086551,-0.153487,-0.054236,-0.188840
-0.050000,-0.050000,-0.081760,0.000000,0.000000,-0.033888,0.000000,0.000000,0.326322,0.100000,0.100000,-0.149572,-0.361263,-0.050000,-0.050000,0.516514,-0.543155,0.000000,0.000000,-0.461426,0.168203,1.131404,0.581229,0.083680,0.502463,-0.090059,-0.171682,-0.054182,-0.208726
-0.050000,-0.050000,-0.081301,0.000000,0.000000,-0.034756,0.000000,0.000000,0.328237,0.100000,0.100000,-0.160066,-0.368675,-0.050000,-0.050000,0.533120,-0.550496,0.000000,0.000000,-0.464929,0.151917,1.112310,0.541607,0.075542,0.531048,-0.093552,-0.188449,-0.054465,-0.227304
-0.050000,-0.050000,-0.080521,0.000000,0.000000,-0.035832,0.000000,0.000000,0.329757,0.100000,0.100000,-0.170668,-0.373521,-0.050000,-0.050000,0.549798,-0.557112,0.000000,0.000000,-0.468261,0.136977,1.090877,0.504633,0.066066,0.556480,-0.096823,-0.203836,-0.055041,-0.244142
-0.050000,-0.050000,-0.079490,0.000000,0.000000,-0.037097,0.000000,0.000000,0.330889,0.100000,0.100000,-0.181274,-0.376142,-0.050000,-0.050000,0.566450,-0.563128,0.000000,0.000000,-0.471386,0.123271,1.067420,0.470025,0.055351,0.579268,-0.099849,-0.217928,-0.055842,-0.259305
-0.050000,-0.050000,-0.077946,0.000000,0.000000,-0.038696,0.000000,0.000000,0.331601,0.100000,0.100000,-0.191963,-0.375029,-0.050000,-0.050000,0.582302,-0.568264,0.000000,0.000000,-0.473505,0.111817,1.041235,0.439381,0.041901,0.598767,-0.102613,-0.229346,-0.056689,-0.271565
-0.050000,-0.050000,-0.076185,0.000000,0.000000,-0.040454,0.000000,0.000000,0.331841,0.100000,0.100000,-0.202182,-0.371942,-0.050000,-0.050000,0.597553,-0.572673,0.000000,0.000000,-0.475027,0.101585,1.013393,0.410904,0.026509,0.616475,-0.104982,-0.239509,-0.057504,-0.281777
-0.050000,-0.050000,-0.073919,0.000000,0.000000,-0.042535,0.000000,0.000000,0.331662,0.100000,0.100000,-0.212029,-0.365518,-0.050000,-0.050000,0.611175,-0.575799,0.000000,0.000000,-0.474941,0.093490,0.983480,0.385916,0.007490,0.632098,-0.106987,-0.247373,-0.057955,-0.288981
-0.050000,-0.050000,-0.071318,0.000000,0.000000,-0.044839,0.000000,0.000000,0.331006,0.100000,0.100000,-0.221039,-0.356747,-0.050000,-0.050000,0.622965,-0.577484,0.000000,0.000000,-0.473277,0.087058,0.952233,0.363563,-0.015129,0.646538,-0.108524,-0.253754,-0.057863,-0.293611
-0.050000,-0.050000,-0.068496,0.000000,0.000000,-0.047343,0.000000,0.000000,0.329924,0.100000,0.100000,-0.229200,-0.346059,-0.050000,-0.050000,0.632998,-0.577868,0.000000,0.000000,-0.470097,0.082134,0.919993,0.343455,-0.040969,0.660193,-0.109707,-0.258951,-0.057165,-0.296057
-0.050000,-0.050000,-0.065114,0.000000,0.000000,-0.050159,0.000000,0.000000,0.328438,0.100000,0.100000,-0.236080,-0.332962,-0.050000,-0.050000,0.639371,-0.575540,0.000000,0.000000,-0.464083,0.079377,0.887218,0.326651,-0.072295,0.673228,-0.110347,-0.262548,-0.055291,-0.295790
-0.050000,-0.050000,-0.061722,0.000000,0.000000,-0.053108,0.000000,0.000000,0.326512,0.100000,0.100000,-0.241714,-0.318945,-0.050000,-0.050000,0.643516,-0.571683,0.000000,0.000000,-0.456414,0.078083,0.854364,0.311800,-0.106810,0.686035,-0.110735,-0.265456,-0.052534,-0.293907
-0.050000,-0.050000,-0.057927,0.000000,0.000000,-0.056303,0.000000,0.000000,0.324238,0.100000,0.100000,-0.245770,-0.303802,-0.050000,-0.050000,0.643521,-0.564896,0.000000,0.000000,-0.445891,0.078839,0.822044,0.300037,-0.146260,0.698619,-0.110749,-0.267196,-0.048433,-0.290223
-0.050000,-0.050000,-0.054076,0.000000,0.000000,-0.059625,0.000000,0.000000,0.321589,0.100000,0.100000,-0.248251,-0.288585,-0.050000,-0.050000,0.640082,-0.555853,0.000000,0.000000,-0.433196,0.081402,0.790641,0.290883,-0.189166,0.710929,-0.110636,-0.268111,-0.043169,-0.285411
-0.050000,-0.050000,-0.050249,0.000000,0.000000,-0.063044,0.000000,0.000000,0.318645,0.100000,0.100000,-0.249369,-0.273621,-0.050000,-0.050000,0.633543,-0.544898,0.000000,0.000000,-0.418567,0.085645,0.760206,0.284082,-0.234759,0.722968,-0.110676,-0.268322,-0.036885,-0.279825
-0.050000,-0.050000,-0.046227,0.000000,0.000000,-0.066550,0.000000,0.000000,0.315408,0.100000,0.100000,-0.248706,-0.259656,-0.050000,-0.050000,0.622559,-0.531176,0.000000,0.000000,-0.401620,0.091854,0.731537,0.280739,-0.283151,0.734156,-0.110757,-0.267279,-0.029440,-0.273701
-0.050000,-0.050000,-0.042465,0.000000,0.000000,-0.070032,0.000000,0.000000,0.311924,0.100000,0.100000,-0.246952,-0.246888,-0.050000,-0.050000,0.609116,-0.516241,0.000000,0.000000,-0.383372,0.099547,0.703979,0.279594,-0.332447,0.744618,-0.111436,-0.265572,-0.021323,-0.267374
-0.050000,-0.050000,-0.038692,0.000000,0.000000,-0.073468,0.000000,0.000000,0.308204,0.100000,0.100000,-0.243845,-0.235921,-0.050000,-0.050000,0.592326,-0.499522,0.000000,0.000000,-0.363729,0.108747,0.677981,0.281490,-0.382184,0.753677,-0.112608,-0.262657,-0.012577,-0.261029
-0.050000,-0.050000,-0.035151,0.000000,0.000000,-0.076761,0.000000,0.000000,0.304262,0.100000,0.100000,-0.239888,-0.226859,-0.050000,-0.050000,0.573544,-0.482029,0.000000,0.000000,-0.343398,0.119040,0.652964,0.285652,-0.430887,0.761240,-0.114593,-0.258846,-0.003585,-0.254797
-0.050000,-0.050000,-0.031802,0.000000,0.000000,-0.079924,0.000000,0.000000,0.300168,0.100000,0.100000,-0.235340,-0.219479,-0.050000,-0.050000,0.553178,-0.463992,0.000000,0.000000,-0.322594,0.130123,0.628669,0.291677,-0.478236,0.767418,-0.117417,-0.254271,0.005461,-0.248718
-0.050000,-0.050000,-0.028667,0.000000,0.000000,-0.082778,0.000000,0.000000,0.295785,0.100000,0.100000,-0.230318,-0.214398,-0.050000,-0.050000,0.532085,-0.446022,0.000000,0.000000,-0.302087,0.141611,0.604746,0.299484,-0.522027,0.771356,-0.121132,-0.248742,0.014245,-0.242873
-0.050000,-0.050000,-0.025745,0.000000,0.000000,-0.085442,0.000000,0.000000,0.291279,0.100000,0.100000,-0.225245,-0.210734,-0.050000,-0.050000,0.510684,-0.428262,0.000000,0.000000,-0.281775,0.153223,0.580844,0.308257,-0.563074,0.773889,-0.125694,-0.242740,0.022733,-0.237201
-0.050000,-0.050000,-0.023099,0.000000,0.000000,-0.087730,0.000000,0.000000,0.286472,0.100000,0.100000,-0.220286,-0.208872,-0.050000,-0.050000,0.490176,-0.411479,0.000000,0.000000,-0.262499,0.164576,0.556568,0.317621,-0.599278,0.774373,-0.131057,-0.236232,0.030660,-0.231726
-0.050000,-0.050000,-0.020700,0.000000,0.000000,-0.089710,0.000000,0.000000,0.281447,0.100000,0.100000,-0.215717,-0.208211,-0.050000,-0.050000,0.470957,-0.395792,0.000000,0.000000,-0.244280,0.175454,0.531772,0.327009,-0.630952,0.773307,-0.137060,-0.229508,0.038081,-0.226417
-0.050000,-0.050000,-0.018479,0.000000,0.000000,-0.091435,0.000000,0.000000,0.276240,0.100000,0.100000,-0.211581,-0.208420,-0.050000,-0.050000,0.453039,-0.381134,0.000000,0.000000,-0.227090,0.185792,0.506461,0.336189,-0.658563,0.770960,-0.143536,-0.222663,0.045048,-0.221239
-0.050000,-0.050000,-0.016673,0.000000,0.000000,-0.092699,0.000000,0.000000,0.270675,0.100000,0.100000,-0.208233,-0.209527,-0.050000,-0.050000,0.438352,-0.368639,0.000000,0.000000,-0.211866,0.195326,0.480523,0.344425,-0.680054,0.766996,-0.150270,-0.215920,0.051505,-0.216223
-0.050000,-0.050000,-0.014965,0.000000,0.000000,-0.093791,0.000000,0.000000,0.264996,0.100000,0.100000,-0.205467,-0.210919,-0.050000,-0.050000,0.425296,-0.357201,0.000000,0.000000,-0.197759,0.204231,0.454339,0.352012,-0.697889,0.762133,-0.157092,-0.209218,0.057750,-0.211323
-0.050000,-0.050000,-0.013650,0.000000,0.000000,-0.094492,0.000000,0.000000,0.259049,0.100000,0.100000,-0.203497,-0.212628,-0.050000,-0.050000,0.415748,-0.347930,0.000000,0.000000,-0.185626,0.212457,0.428123,0.358393,-0.710417,0.756003,-0.163711,-0.202732,0.063826,-0.206559
-0.050000,-0.050000,-0.012535,0.000000,0.000000,-0.094983,0.000000,0.000000,0.253013,0.100000,0.100000,-0.202130,-0.214307,-0.050000,-0.050000,0.408767,-0.340154,0.000000,0.000000,-0.175017,0.220163,0.402369,0.363829,-0.719071,0.748891,-0.169963,-0.196367,0.070000,-0.201916
-0.050000,-0.050000,-0.011592,0.000000,0.000000,-0.095303,0.000000,0.000000,0.246905,0.100000,0.100000,-0.201269,-0.215882,-0.050000,-0.050000,0.404035,-0.333658,0.000000,0.000000,-0.165743,0.227470,0.377187,0.368434,-0.724551,0.740921,-0.175826,-0.190110,0.076317,-0.197372
-0.050000,-0.050000,-0.010991,0.000000,0.000000,-0.095346,0.000000,0.000000,0.240851,0.100000,0.100000,-0.200658,-0.217240,-0.050000,-0.050000,0.402660,-0.329042,0.000000,0.000000,-0.158340,0.234543,0.353567,0.372149,-0.726169,0.731550,-0.180824,-0.183956,0.083105,-0.192970
-0.050000,-0.050000,-0.010455,0.000000,0.000000,-0.095337,0.000000,0.000000,0.234879,0.100000,0.100000,-0.200231,-0.218321,-0.050000,-0.050000,0.402850,-0.325193,0.000000,0.000000,-0.151983,0.241419,0.331106,0.375366,-0.725757,0.721284,-0.185318,-0.177827,0.090227,-0.188685
-0.050000,-0.050000,-0.010150,0.000000,0.000000,-0.095148,0.000000,0.000000,0.229183,0.100000,0.100000,-0.199487,-0.219099,-0.050000,-0.050000,0.405577,-0.322683,0.000000,0.000000,-0.147155,0.248265,0.310758,0.378155,-0.722725,0.709457,-0.188853,-0.171722,0.097928,-0.184596
-0.050000,-0.050000,-0.009918,0.000000,0.000000,-0.094910,0.000000,0.000000,0.223810,0.100000,0.100000,-0.198277,-0.219560,-0.050000,-0.050000,0.409805,-0.320854,0.000000,0.000000,-0.143433,0.255060,0.292323,0.380771,-0.717996,0.696233,-0.191648,-0.165644,0.106040,-0.180756
-0.050000,-0.050000,-0.009739,0.000000,0.000000,-0.094629,0.000000,0.000000,0.218746,0.100000,0.100000,-0.196542,-0.219748,-0.050000,-0.050000,0.415254,-0.319552,0.000000,0.000000,-0.140637,0.261832,0.275601,0.383301,-0.711932,0.681722,-0.193804,-0.159613,0.114465,-0.177152
-0.050000,-0.050000,-0.009618,0.000000,0.000000,-0.094292,0.000000,0.000000,0.214363,0.100000,0.100000,-0.193417,-0.219656,-0.050000,-0.050000,0.422095,-0.318887,0.000000,0.000000,-0.139102,0.268523,0.261419,0.386017,-0.704102,0.665263,-0.194944,-0.153728,0.123078,-0.174082
-0.050000,-0.050000,-0.009462,0.000000,0.000000,-0.093976,0.000000,0.000000,0.210330,0.100000,0.100000,-0.189542,-0.219326,-0.050000,-0.050000,0.429531,-0.318357,0.000000,0.000000,-0.138289,0.275107,0.248721,0.388847,-0.695254,0.647606,-0.195592,-0.148016,0.131626,-0.171378
-0.050000,-0.050000,-0.009285,0.000000,0.000000,-0.093659,0.000000,0.000000,0.207051,0.100000,0.100000,-0.184049,-0.218801,-0.050000,-0.050000,0.437771,-0.318154,0.000000,0.000000,-0.138612,0.281434,0.238251,0.392056,-0.684684,0.628251,-0.195335,-0.142623,0.139788,-0.169368
-0.050000,-0.050000,-0.009043,0.000000,0.000000,-0.093387,0.000000,0.000000,0.204331,0.100000,0.100000,-0.177360,-0.218113,-0.050000,-0.050000,0.446408,-0.318035,0.000000,0.000000,-0.139876,0.287446,0.229486,0.395660,-0.672504,0.607711,-0.194438,-0.137609,0.147234,-0.167981
-0.050000,-0.050000,-0.008722,0.000000,0.000000,-0.093156,0.000000,0.000000,0.202116,0.100000,0.100000,-0.169626,-0.217310,-0.050000,-0.050000,0.455329,-0.317981,0.000000,0.000000,-0.141969,0.293144,0.222202,0.399660,-0.658833,0.586225,-0.192996,-0.132972,0.153899,-0.167132
-0.050000,-0.050000,-0.008369,0.000000,0.000000,-0.092994,0.000000,0.000000,0.200683,0.100000,0.100000,-0.160500,-0.216503,-0.050000,-0.050000,0.464552,-0.318118,0.000000,0.000000,-0.145482,0.298279,0.217157,0.404505,-0.642421,0.563899,-0.190643,-0.128882,0.158888,-0.167092
-0.050000,-0.050000,-0.007920,0.000000,0.000000,-0.092884,0.000000,0.000000,0.199635,0.100000,0.100000,-0.150867,-0.215705,-0.050000,-0.050000,0.473797,-0.318290,0.000000,0.000000,-0.149846,0.303062,0.213587,0.409988,-0.624265,0.541212,-0.187908,-0.125190,0.162649,-0.167427
-0.050000,-0.050000,-0.007490,0.000000,0.000000,-0.092841,0.000000,0.000000,0.199237,0.100000,0.100000,-0.140567,-0.215087,-0.050000,-0.050000,0.483112,-0.318706,0.000000,0.000000,-0.155746,0.307323,0.212506,0.416691,-0.603090,0.518416,-0.184380,-0.121954,0.164255,-0.168286
