RRGGZZ/g1_deploy_sonic/data/example_scalelab/qwen_audio/g1_ref_en/case_test6/joint_pos.csv
joint_0,joint_1,joint_2,joint_3,joint_4,joint_5,joint_6,joint_7,joint_8,joint_9,joint_10,joint_11,joint_12,joint_13,joint_14,joint_15,joint_16,joint_17,joint_18,joint_19,joint_20,joint_21,joint_22,joint_23,joint_24,joint_25,joint_26,joint_27,joint_28
-0.050000,-0.050000,0.000000,0.000000,0.000000,0.000000,0.000000,0.000000,0.000000,0.100000,0.100000,-0.164619,-0.529584,-0.050000,-0.050000,0.449113,-0.730656,0.000000,0.000000,-0.478450,0.309223,1.134048,-0.086077,0.143820,-0.398090,-0.058327,-0.033861,0.023437,-0.506776
-0.050000,-0.050000,0.000000,0.000000,0.000000,0.000000,0.000000,0.000000,0.000000,0.100000,0.100000,-0.173749,-0.541249,-0.050000,-0.050000,0.440399,-0.735081,0.000000,0.000000,-0.478206,0.308111,1.152984,-0.080504,0.147693,-0.397557,-0.068515,-0.037846,0.025823,-0.512805
-0.050000,-0.050000,0.000000,0.000000,0.000000,0.000000,0.000000,0.000000,0.000000,0.100000,0.100000,-0.180922,-0.551545,-0.050000,-0.050000,0.432794,-0.739044,0.000000,0.000000,-0.477503,0.305990,1.169261,-0.076264,0.151754,-0.396980,-0.076965,-0.041692,0.027615,-0.518099
-0.050000,-0.050000,0.000000,0.000000,0.000000,0.000000,0.000000,0.000000,0.000000,0.100000,0.100000,-0.184180,-0.559102,-0.050000,-0.050000,0.427408,-0.742081,0.000000,0.000000,-0.475878,0.301852,1.180219,-0.074689,0.156193,-0.396315,-0.081939,-0.045256,0.028219,-0.521926
-0.050000,-0.050000,0.000000,0.000000,0.000000,0.000000,0.000000,0.000000,0.000000,0.100000,0.100000,-0.185320,-0.565133,-0.050000,-0.050000,0.422891,-0.744538,0.000000,0.000000,-0.473820,0.296586,1.188618,-0.074523,0.160501,-0.395581,-0.085151,-0.048421,0.028359,-0.525501
-0.050000,-0.050000,0.000000,0.000000,0.000000,0.000000,0.000000,0.000000,0.000000,0.100000,0.100000,-0.185400,-0.570399,-0.050000,-0.050000,0.418808,-0.746704,0.000000,0.000000,-0.471545,0.290756,1.195738,-0.075061,0.164744,-0.394811,-0.087481,-0.051387,0.028266,-0.528949
-0.050000,-0.050000,0.000000,0.000000,0.000000,0.000000,0.000000,0.000000,0.000000,0.100000,0.100000,-0.183705,-0.574291,-0.050000,-0.050000,0.415058,-0.748340,0.000000,0.000000,-0.468877,0.283970,1.200821,-0.076750,0.168346,-0.393724,-0.088463,-0.053917,0.028053,-0.532976
-0.050000,-0.050000,0.000000,0.000000,0.000000,0.000000,0.000000,0.000000,0.000000,0.100000,0.100000,-0.181664,-0.577868,-0.050000,-0.050000,0.411278,-0.749867,0.000000,0.000000,-0.466124,0.277040,1.205457,-0.078672,0.171636,-0.392469,-0.089228,-0.056368,0.027904,-0.537402
-0.050000,-0.050000,0.000000,0.000000,0.000000,0.000000,0.000000,0.000000,0.000000,0.100000,0.100000,-0.178933,-0.580819,-0.050000,-0.050000,0.407436,-0.751176,0.000000,0.000000,-0.463203,0.269820,1.209199,-0.081058,0.174300,-0.390878,-0.089557,-0.058665,0.027884,-0.542628
-0.050000,-0.050000,0.000000,0.000000,0.000000,0.000000,0.000000,0.000000,0.000000,0.100000,0.100000,-0.175797,-0.583274,-0.050000,-0.050000,0.403451,-0.752358,0.000000,0.000000,-0.460203,0.262566,1.212167,-0.083797,0.176232,-0.388886,-0.089738,-0.060931,0.028100,-0.548929
-0.050000,-0.050000,0.000000,0.000000,0.000000,0.000000,0.000000,0.000000,0.000000,0.100000,0.100000,-0.172459,-0.585482,-0.050000,-0.050000,0.399395,-0.753476,0.000000,0.000000,-0.457164,0.255295,1.214749,-0.086711,0.177797,-0.386693,-0.089843,-0.063182,0.028434,-0.555769
-0.050000,-0.050000,0.000000,0.000000,0.000000,0.000000,0.000000,0.000000,0.000000,0.100000,0.100000,-0.168827,-0.587052,-0.050000,-0.050000,0.395167,-0.754504,0.000000,0.000000,-0.454170,0.248218,1.216133,-0.090131,0.178259,-0.383911,-0.090028,-0.065547,0.029187,-0.564436
-0.050000,-0.050000,0.000000,0.000000,0.000000,0.000000,0.000000,0.000000,0.000000,0.100000,0.100000,-0.165196,-0.588437,-0.050000,-0.050000,0.390924,-0.755527,0.000000,0.000000,-0.451255,0.241242,1.217087,-0.093725,0.178399,-0.380969,-0.090310,-0.067986,0.030081,-0.573717
-0.050000,-0.050000,0.000000,0.000000,0.000000,0.000000,0.000000,0.000000,0.000000,0.100000,0.100000,-0.161563,-0.589453,-0.050000,-0.050000,0.386649,-0.756541,0.000000,0.000000,-0.448502,0.234467,1.217180,-0.097665,0.177896,-0.377706,-0.090786,-0.070571,0.031258,-0.584227
-0.050000,-0.050000,0.000000,0.000000,0.000000,0.000000,0.000000,0.000000,0.000000,0.100000,0.100000,-0.158140,-0.590166,-0.050000,-0.050000,0.382440,-0.757574,0.000000,0.000000,-0.446062,0.227884,1.216374,-0.101924,0.176919,-0.374242,-0.091539,-0.073324,0.032706,-0.595862
-0.050000,-0.050000,0.000000,0.000000,0.000000,0.000000,0.000000,0.000000,0.000000,0.100000,0.100000,-0.154822,-0.590728,-0.050000,-0.050000,0.378264,-0.758617,0.000000,0.000000,-0.443777,0.221399,1.215117,-0.106342,0.175705,-0.370678,-0.092430,-0.076160,0.034291,-0.608059
-0.050000,-0.050000,0.000000,0.000000,0.000000,0.000000,0.000000,0.000000,0.000000,0.100000,0.100000,-0.152159,-0.590962,-0.050000,-0.050000,0.374316,-0.759695,0.000000,0.000000,-0.442201,0.215103,1.212529,-0.111068,0.174097,-0.367025,-0.093756,-0.079185,0.036285,-0.621666
-0.050000,-0.050000,0.000000,0.000000,0.000000,0.000000,0.000000,0.000000,0.000000,0.100000,0.100000,-0.149826,-0.591135,-0.050000,-0.050000,0.370477,-0.760776,0.000000,0.000000,-0.440933,0.208825,1.209527,-0.115789,0.172466,-0.363407,-0.095203,-0.082217,0.038434,-0.635628
-0.050000,-0.050000,0.000000,0.000000,0.000000,0.000000,0.000000,0.000000,0.000000,0.100000,0.100000,-0.148154,-0.591188,-0.050000,-0.050000,0.366854,-0.761861,0.000000,0.000000,-0.440282,0.202581,1.205701,-0.120501,0.170787,-0.359861,-0.096891,-0.085266,0.040894,-0.650297
-0.050000,-0.050000,0.000000,0.000000,0.000000,0.000000,0.000000,0.000000,0.000000,0.100000,0.100000,-0.147330,-0.591223,-0.050000,-0.050000,0.363488,-0.762924,0.000000,0.000000,-0.440348,0.196287,1.201142,-0.124902,0.169239,-0.356481,-0.098726,-0.088166,0.043754,-0.665421
-0.050000,-0.050000,0.000000,0.000000,0.000000,0.000000,0.000000,0.000000,0.000000,0.100000,0.100000,-0.146931,-0.591249,-0.050000,-0.050000,0.360251,-0.763974,0.000000,0.000000,-0.440773,0.189968,1.196217,-0.129147,0.167756,-0.353184,-0.100635,-0.090992,0.046815,-0.680771
-0.050000,-0.050000,0.000000,0.000000,0.000000,0.000000,0.000000,0.000000,0.000000,0.100000,0.100000,-0.147979,-0.591389,-0.050000,-0.050000,0.357432,-0.764955,0.000000,0.000000,-0.442308,0.183498,1.190321,-0.132432,0.166639,-0.350199,-0.102607,-0.093306,0.050705,-0.696411
-0.050000,-0.050000,0.000000,0.000000,0.000000,0.000000,0.000000,0.000000,0.000000,0.100000,0.100000,-0.149521,-0.591602,-0.050000,-0.050000,0.354755,-0.765909,0.000000,0.000000,-0.444176,0.176979,1.184124,-0.135253,0.165660,-0.347311,-0.104561,-0.095363,0.054970,-0.712016
-0.050000,-0.050000,0.000000,0.000000,0.000000,0.000000,0.000000,0.000000,0.000000,0.100000,0.100000,-0.152049,-0.591961,-0.050000,-0.050000,0.352365,-0.766809,0.000000,0.000000,-0.446712,0.170360,1.177325,-0.137147,0.164956,-0.344619,-0.106478,-0.096905,0.059988,-0.727554
-0.050000,-0.050000,0.000000,0.000000,0.000000,0.000000,0.000000,0.000000,0.000000,0.100000,0.100000,-0.155478,-0.592492,-0.050000,-0.050000,0.350262,-0.767666,0.000000,0.000000,-0.449747,0.163697,1.169914,-0.137937,0.164486,-0.342066,-0.108340,-0.097835,0.065975,-0.742774
-0.050000,-0.050000,0.000000,0.000000,0.000000,0.000000,0.000000,0.000000,0.000000,0.100000,0.100000,-0.159358,-0.593109,-0.050000,-0.050000,0.348302,-0.768500,0.000000,0.000000,-0.453032,0.157012,1.162197,-0.138176,0.164132,-0.339584,-0.110175,-0.098458,0.072447,-0.757835
-0.050000,-0.050000,0.000000,0.000000,0.000000,0.000000,0.000000,0.000000,0.000000,0.100000,0.100000,-0.164329,-0.593936,-0.050000,-0.050000,0.346766,-0.769289,0.000000,0.000000,-0.456710,0.150414,1.153482,-0.136706,0.163984,-0.337186,-0.112002,-0.098189,0.080638,-0.772067
-0.050000,-0.050000,0.000000,0.000000,0.000000,0.000000,0.000000,0.000000,0.000000,0.100000,0.100000,-0.169546,-0.594780,-0.050000,-0.050000,0.345367,-0.770060,0.000000,0.000000,-0.460385,0.143913,1.144408,-0.134706,0.163850,-0.334761,-0.113876,-0.097699,0.089435,-0.785913
-0.050000,-0.050000,0.000000,0.000000,0.000000,0.000000,0.000000,0.000000,0.000000,0.100000,0.100000,-0.175254,-0.595659,-0.050000,-0.050000,0.344241,-0.770796,0.000000,0.000000,-0.464057,0.137609,1.134617,-0.131648,0.163740,-0.332281,-0.115846,-0.096766,0.099443,-0.798987
-0.050000,-0.050000,0.000000,0.000000,0.000000,0.000000,0.000000,0.000000,0.000000,0.100000,0.100000,-0.181197,-0.596398,-0.050000,-0.050000,0.343368,-0.771450,0.000000,0.000000,-0.467479,0.131664,1.124122,-0.127659,0.163555,-0.329586,-0.118011,-0.095652,0.110546,-0.811065
-0.050000,-0.050000,0.000000,0.000000,0.000000,0.000000,0.000000,0.000000,0.000000,0.100000,0.100000,-0.187257,-0.597068,-0.050000,-0.050000,0.342622,-0.772062,0.000000,0.000000,-0.470777,0.125898,1.113276,-0.123203,0.163331,-0.326784,-0.120274,-0.094447,0.122196,-0.822647
-0.050000,-0.050000,0.000000,0.000000,0.000000,0.000000,0.000000,0.000000,0.000000,0.100000,0.100000,-0.193300,-0.597190,-0.050000,-0.050000,0.342199,-0.772388,0.000000,0.000000,-0.473428,0.120943,1.101594,-0.117464,0.162884,-0.323272,-0.122882,-0.093435,0.134961,-0.832361
-0.050000,-0.050000,0.000000,0.000000,0.000000,0.000000,0.000000,0.000000,0.000000,0.100000,0.100000,-0.199235,-0.597010,-0.050000,-0.050000,0.341852,-0.772531,0.000000,0.000000,-0.475815,0.116354,1.089797,-0.111271,0.162336,-0.319318,-0.125557,-0.092624,0.147803,-0.841297
-0.050000,-0.050000,0.000000,0.000000,0.000000,0.000000,0.000000,0.000000,0.000000,0.100000,0.100000,-0.204954,-0.596226,-0.050000,-0.050000,0.341658,-0.772306,0.000000,0.000000,-0.477677,0.112500,1.077768,-0.104169,0.161588,-0.314481,-0.128366,-0.092217,0.160797,-0.848679
-0.050000,-0.050000,0.000000,0.000000,0.000000,0.000000,0.000000,0.000000,0.000000,0.100000,0.100000,-0.210308,-0.594640,-0.050000,-0.050000,0.341525,-0.771479,0.000000,0.000000,-0.479017,0.109576,1.066017,-0.095955,0.160599,-0.308162,-0.131053,-0.092381,0.173161,-0.854118
-0.050000,-0.050000,0.000000,0.000000,0.000000,0.000000,0.000000,0.000000,0.000000,0.100000,0.100000,-0.215479,-0.592652,-0.050000,-0.050000,0.341422,-0.770350,0.000000,0.000000,-0.480095,0.107118,1.054404,-0.087184,0.159491,-0.301101,-0.133678,-0.092831,0.185210,-0.858585
-0.050000,-0.050000,0.000000,0.000000,0.000000,0.000000,0.000000,0.000000,0.000000,0.100000,0.100000,-0.219969,-0.589293,-0.050000,-0.050000,0.341236,-0.767914,0.000000,0.000000,-0.480524,0.106330,1.044181,-0.076302,0.157972,-0.290676,-0.135512,-0.094164,0.195019,-0.859458
-0.050000,-0.050000,0.000000,0.000000,0.000000,0.000000,0.000000,0.000000,0.000000,0.100000,0.100000,-0.224213,-0.585480,-0.050000,-0.050000,0.340959,-0.764915,0.000000,0.000000,-0.480811,0.106162,1.034767,-0.064595,0.156312,-0.278731,-0.136842,-0.095729,0.203685,-0.858905
-0.050000,-0.050000,0.000000,0.000000,0.000000,0.000000,0.000000,0.000000,0.000000,0.100000,0.100000,-0.227968,-0.580760,-0.050000,-0.050000,0.340500,-0.760786,0.000000,0.000000,-0.480814,0.107235,1.026974,-0.051241,0.154373,-0.263744,-0.137166,-0.097757,0.210069,-0.855499
-0.050000,-0.050000,0.000000,0.000000,0.000000,0.000000,0.000000,0.000000,0.000000,0.100000,0.100000,-0.231234,-0.575251,-0.050000,-0.050000,0.339747,-0.755331,0.000000,0.000000,-0.480689,0.109568,1.021416,-0.036247,0.152220,-0.245091,-0.136043,-0.100034,0.213630,-0.848895
-0.050000,-0.050000,0.000000,0.000000,0.000000,0.000000,0.000000,0.000000,0.000000,0.100000,0.100000,-0.234256,-0.569349,-0.050000,-0.050000,0.338847,-0.749214,0.000000,0.000000,-0.480501,0.112531,1.016975,-0.020435,0.149959,-0.224605,-0.134197,-0.102436,0.215779,-0.840693
-0.050000,-0.050000,0.000000,0.000000,0.000000,0.000000,0.000000,0.000000,0.000000,0.100000,0.100000,-0.236560,-0.562555,-0.050000,-0.050000,0.337388,-0.740983,0.000000,0.000000,-0.480294,0.117160,1.016491,-0.002807,0.147645,-0.198320,-0.129788,-0.104899,0.213479,-0.827570
-0.050000,-0.050000,0.000000,0.000000,0.000000,0.000000,0.000000,0.000000,0.000000,0.100000,0.100000,-0.239944,-0.556916,-0.050000,-0.050000,0.335926,-0.732523,0.000000,0.000000,-0.479854,0.121988,1.017572,0.015989,0.145257,-0.168736,-0.124080,-0.107865,0.209361,-0.812089
-0.050000,-0.050000,0.000000,0.000000,0.000000,0.000000,0.000000,0.000000,0.000000,0.100000,0.100000,-0.245489,-0.553590,-0.050000,-0.050000,0.334456,-0.723606,0.000000,0.000000,-0.478949,0.127213,1.021784,0.037121,0.142720,-0.132554,-0.115776,-0.111836,0.201608,-0.791893
-0.050000,-0.050000,0.000000,0.000000,0.000000,0.000000,0.000000,0.000000,0.000000,0.100000,0.100000,-0.248692,-0.548384,-0.050000,-0.050000,0.332152,-0.713016,0.000000,0.000000,-0.478076,0.133100,1.028541,0.055876,0.141126,-0.096208,-0.106858,-0.115089,0.192448,-0.770557
-0.050000,-0.050000,0.000000,0.000000,0.000000,0.000000,0.000000,0.000000,0.000000,0.100000,0.100000,-0.250724,-0.542238,-0.050000,-0.050000,0.329430,-0.701590,0.000000,0.000000,-0.477219,0.139318,1.036571,0.073444,0.140003,-0.059781,-0.097635,-0.117984,0.182583,-0.748650
-0.050000,-0.050000,0.000000,0.000000,0.000000,0.000000,0.000000,0.000000,0.000000,0.100000,0.100000,-0.250944,-0.534650,-0.050000,-0.050000,0.326240,-0.688566,0.000000,0.000000,-0.476142,0.144848,1.047380,0.086375,0.140226,-0.022948,-0.087732,-0.121003,0.171652,-0.725834
-0.050000,-0.050000,0.000000,0.000000,0.000000,0.000000,0.000000,0.000000,0.000000,0.100000,0.100000,-0.250655,-0.526831,-0.050000,-0.050000,0.322981,-0.675283,0.000000,0.000000,-0.474893,0.149847,1.058743,0.097380,0.140805,0.013380,-0.077913,-0.124396,0.160764,-0.703367
-0.050000,-0.050000,0.000000,0.000000,0.000000,0.000000,0.000000,0.000000,0.000000,0.100000,0.100000,-0.249350,-0.518552,-0.050000,-0.050000,0.319585,-0.661483,0.000000,0.000000,-0.473299,0.153786,1.071210,0.104534,0.142096,0.048701,-0.068259,-0.128534,0.149961,-0.681596
-0.050000,-0.050000,0.000000,0.000000,0.000000,0.000000,0.000000,0.000000,0.000000,0.100000,0.100000,-0.247023,-0.510181,-0.050000,-0.050000,0.316192,-0.647600,0.000000,0.000000,-0.471202,0.156377,1.084015,0.107644,0.143706,0.081901,-0.059365,-0.133878,0.139854,-0.661766
-0.050000,-0.050000,0.000000,0.000000,0.000000,0.000000,0.000000,0.000000,0.000000,0.100000,0.100000,-0.244186,-0.501762,-0.050000,-0.050000,0.312800,-0.633675,0.000000,0.000000,-0.468853,0.158292,1.096989,0.108733,0.145475,0.114040,-0.050850,-0.139823,0.130094,-0.642905
-0.050000,-0.050000,0.000000,0.000000,0.000000,0.000000,0.000000,0.000000,0.000000,0.100000,0.100000,-0.236536,-0.492540,-0.050000,-0.050000,0.309325,-0.619562,0.000000,0.000000,-0.466829,0.159269,1.108142,0.105082,0.146690,0.138987,-0.044511,-0.146885,0.122872,-0.630489
-0.050000,-0.050000,0.000000,0.000000,0.000000,0.000000,0.000000,0.000000,0.000000,0.100000,0.100000,-0.229183,-0.483833,-0.050000,-0.050000,0.306048,-0.605824,0.000000,0.000000,-0.464294,0.159454,1.119199,0.100334,0.147680,0.163540,-0.038527,-0.154550,0.115800,-0.618912
-0.050000,-0.050000,0.000000,0.000000,0.000000,0.000000,0.000000,0.000000,0.000000,0.100000,0.100000,-0.222427,-0.476158,-0.050000,-0.050000,0.303165,-0.592837,0.000000,0.000000,-0.460736,0.158057,1.130064,0.093396,0.148221,0.187302,-0.033251,-0.163420,0.109029,-0.609014
-0.050000,-0.050000,0.000000,0.000000,0.000000,0.000000,0.000000,0.000000,0.000000,0.100000,0.100000,-0.215743,-0.469604,-0.050000,-0.050000,0.300514,-0.580837,0.000000,0.000000,-0.456710,0.155710,1.140141,0.086066,0.148009,0.209168,-0.028945,-0.172303,0.102721,-0.601574
-0.050000,-0.050000,0.000000,0.000000,0.000000,0.000000,0.000000,0.000000,0.000000,0.100000,0.100000,-0.209096,-0.463611,-0.050000,-0.050000,0.297979,-0.569330,0.000000,0.000000,-0.452449,0.152888,1.149824,0.078541,0.147420,0.230087,-0.025125,-0.181193,0.096644,-0.595364
-0.050000,-0.050000,0.000000,0.000000,0.000000,0.000000,0.000000,0.000000,0.000000,0.100000,0.100000,-0.202693,-0.459195,-0.050000,-0.050000,0.295739,-0.559439,0.000000,0.000000,-0.448074,0.149575,1.158005,0.072907,0.145692,0.248274,-0.022496,-0.188506,0.091004,-0.592516
-0.050000,-0.050000,0.000000,0.000000,0.000000,0.000000,0.000000,0.000000,0.000000,0.100000,0.100000,-0.196528,-0.455242,-0.050000,-0.050000,0.293588,-0.550141,0.000000,0.000000,-0.443812,0.146345,1.165660,0.068503,0.143688,0.265664,-0.020141,-0.194879,0.085416,-0.590458
-0.050000,-0.050000,0.000000,0.000000,0.000000,0.000000,0.000000,0.000000,0.000000,0.100000,0.100000,-0.190836,-0.452212,-0.050000,-0.050000,0.291611,-0.542028,0.000000,0.000000,-0.439778,0.143283,1.172262,0.066557,0.141133,0.281457,-0.018331,-0.199370,0.079933,-0.589981
-0.050000,-0.050000,0.000000,0.000000,0.000000,0.000000,0.000000,0.000000,0.000000,0.100000,0.100000,-0.185937,-0.449869,-0.050000,-0.050000,0.289776,-0.535163,0.000000,0.000000,-0.436169,0.140718,1.177817,0.067531,0.138329,0.295704,-0.016887,-0.201594,0.074500,-0.590254
-0.050000,-0.050000,0.000000,0.000000,0.000000,0.000000,0.000000,0.000000,0.000000,0.100000,0.100000,-0.181434,-0.447869,-0.050000,-0.050000,0.288011,-0.528923,0.000000,0.000000,-0.432772,0.138404,1.182849,0.069966,0.135401,0.309178,-0.015627,-0.202685,0.069091,-0.590902
-0.050000,-0.050000,0.000000,0.000000,0.000000,0.000000,0.000000,0.000000,0.000000,0.100000,0.100000,-0.178453,-0.446401,-0.050000,-0.050000,0.286401,-0.524513,0.000000,0.000000,-0.430124,0.137084,1.186336,0.076270,0.132509,0.320032,-0.014817,-0.200602,0.063911,-0.591465
-0.050000,-0.050000,0.000000,0.000000,0.000000,0.000000,0.000000,0.000000,0.000000,0.100000,0.100000,-0.176015,-0.444936,-0.050000,-0.050000,0.284828,-0.520641,0.000000,0.000000,-0.427707,0.136117,1.189314,0.083372,0.129713,0.329834,-0.014170,-0.197766,0.058912,-0.591684
-0.050000,-0.050000,0.000000,0.000000,0.000000,0.000000,0.000000,0.000000,0.000000,0.100000,0.100000,-0.174667,-0.443475,-0.050000,-0.050000,0.283330,-0.517848,0.000000,0.000000,-0.425756,0.135854,1.191275,0.092072,0.127109,0.337531,-0.013852,-0.193423,0.054275,-0.591213
-0.050000,-0.050000,0.000000,0.000000,0.000000,0.000000,0.000000,0.000000,0.000000,0.100000,0.100000,-0.174340,-0.441741,-0.050000,-0.050000,0.281898,-0.515887,0.000000,0.000000,-0.424175,0.136282,1.192236,0.101080,0.124740,0.342803,-0.013927,-0.188437,0.050240,-0.589684
-0.050000,-0.050000,0.000000,0.000000,0.000000,0.000000,0.000000,0.000000,0.000000,0.100000,0.100000,-0.174524,-0.439870,-0.050000,-0.050000,0.280498,-0.514343,0.000000,0.000000,-0.422779,0.137054,1.192698,0.110242,0.122490,0.346861,-0.014199,-0.183130,0.046505,-0.587626
-0.050000,-0.050000,0.000000,0.000000,0.000000,0.000000,0.000000,0.000000,0.000000,0.100000,0.100000,-0.175982,-0.437405,-0.050000,-0.050000,0.279210,-0.513585,0.000000,0.000000,-0.421790,0.138828,1.191730,0.118036,0.120512,0.347184,-0.015129,-0.178154,0.043961,-0.583850
-0.050000,-0.050000,0.000000,0.000000,0.000000,0.000000,0.000000,0.000000,0.000000,0.100000,0.100000,-0.177754,-0.434774,-0.050000,-0.050000,0.277968,-0.512931,0.000000,0.000000,-0.420905,0.140931,1.190333,0.124950,0.118576,0.346430,-0.016270,-0.173608,0.041860,-0.579570
-0.050000,-0.050000,0.000000,0.000000,0.000000,0.000000,0.000000,0.000000,0.000000,0.100000,0.100000,-0.180154,-0.431812,-0.050000,-0.050000,0.276818,-0.512486,0.000000,0.000000,-0.420229,0.143692,1.188076,0.130104,0.116721,0.343524,-0.017832,-0.169922,0.040646,-0.574279
-0.050000,-0.050000,0.000000,0.000000,0.000000,0.000000,0.000000,0.000000,0.000000,0.100000,0.100000,-0.182973,-0.428748,-0.050000,-0.050000,0.275778,-0.511994,0.000000,0.000000,-0.419756,0.147099,1.185113,0.133173,0.114850,0.339194,-0.019722,-0.167388,0.040288,-0.568237
-0.050000,-0.050000,0.000000,0.000000,0.000000,0.000000,0.000000,0.000000,0.000000,0.100000,0.100000,-0.186001,-0.425633,-0.050000,-0.050000,0.274794,-0.511478,0.000000,0.000000,-0.419384,0.150829,1.181796,0.135199,0.112970,0.334154,-0.021776,-0.165429,0.040358,-0.561819
-0.050000,-0.050000,0.000000,0.000000,0.000000,0.000000,0.000000,0.000000,0.000000,0.100000,0.100000,-0.189420,-0.422837,-0.050000,-0.050000,0.273990,-0.510670,0.000000,0.000000,-0.419377,0.155464,1.177732,0.134361,0.110970,0.328439,-0.024103,-0.165125,0.041488,-0.554701
-0.050000,-0.050000,0.000000,0.000000,0.000000,0.000000,0.000000,0.000000,0.000000,0.100000,0.100000,-0.192926,-0.420294,-0.050000,-0.050000,0.273247,-0.509747,0.000000,0.000000,-0.419522,0.160347,1.173543,0.132830,0.108924,0.322993,-0.026438,-0.165236,0.042853,-0.547474
-0.050000,-0.050000,0.000000,0.000000,0.000000,0.000000,0.000000,0.000000,0.000000,0.100000,0.100000,-0.196604,-0.418257,-0.050000,-0.050000,0.272628,-0.508596,0.000000,0.000000,-0.419968,0.165725,1.169106,0.129915,0.106788,0.318083,-0.028788,-0.166177,0.044688,-0.540029
-0.050000,-0.050000,0.000000,0.000000,0.000000,0.000000,0.000000,0.000000,0.000000,0.100000,0.100000,-0.200431,-0.416898,-0.050000,-0.050000,0.272130,-0.507274,0.000000,0.000000,-0.420763,0.171409,1.164683,0.126289,0.104606,0.314513,-0.031006,-0.167612,0.046715,-0.532549
-0.050000,-0.050000,0.000000,0.000000,0.000000,0.000000,0.000000,0.000000,0.000000,0.100000,0.100000,-0.204332,-0.415879,-0.050000,-0.050000,0.271694,-0.505866,0.000000,0.000000,-0.421733,0.177245,1.160267,0.122307,0.102400,0.311613,-0.033158,-0.169294,0.048838,-0.525052
-0.050000,-0.050000,0.000000,0.000000,0.000000,0.000000,0.000000,0.000000,0.000000,0.100000,0.100000,-0.208473,-0.415869,-0.050000,-0.050000,0.271445,-0.504345,0.000000,0.000000,-0.423238,0.183134,1.156234,0.118226,0.100250,0.311489,-0.034966,-0.171311,0.050871,-0.517684
-0.050000,-0.050000,0.000000,0.000000,0.000000,0.000000,0.000000,0.000000,0.000000,0.100000,0.100000,-0.212704,-0.416101,-0.050000,-0.050000,0.271260,-0.502831,0.000000,0.000000,-0.424898,0.188884,1.152419,0.114369,0.098163,0.312402,-0.036640,-0.173368,0.052788,-0.510390
-0.050000,-0.050000,0.000000,0.000000,0.000000,0.000000,0.000000,0.000000,0.000000,0.100000,0.100000,-0.217113,-0.416818,-0.050000,-0.050000,0.271204,-0.501330,0.000000,0.000000,-0.426871,0.194352,1.149040,0.110959,0.096205,0.315386,-0.038048,-0.175504,0.054472,-0.503244
-0.050000,-0.050000,0.000000,0.000000,0.000000,0.000000,0.000000,0.000000,0.000000,0.100000,0.100000,-0.221700,-0.417696,-0.050000,-0.050000,0.271276,-0.499892,0.000000,0.000000,-0.429055,0.199226,1.146190,0.108338,0.094437,0.320446,-0.039211,-0.177692,0.055869,-0.496258
-0.050000,-0.050000,0.000000,0.000000,0.000000,0.000000,0.000000,0.000000,0.000000,0.100000,0.100000,-0.226376,-0.418655,-0.050000,-0.050000,0.271411,-0.498487,0.000000,0.000000,-0.431345,0.203801,1.143605,0.106111,0.092763,0.326543,-0.040251,-0.179906,0.057122,-0.489352
-0.050000,-0.050000,0.000000,0.000000,0.000000,0.000000,0.000000,0.000000,0.000000,0.100000,0.100000,-0.231261,-0.419285,-0.050000,-0.050000,0.271710,-0.497190,0.000000,0.000000,-0.433737,0.207086,1.141804,0.105325,0.091371,0.335551,-0.041020,-0.182258,0.058043,-0.482648
-0.050000,-0.050000,0.000000,0.000000,0.000000,0.000000,0.000000,0.000000,0.000000,0.100000,0.100000,-0.236178,-0.419627,-0.050000,-0.050000,0.272039,-0.495921,0.000000,0.000000,-0.436077,0.209847,1.140217,0.105026,0.090037,0.345419,-0.041741,-0.184683,0.058927,-0.475988
-0.050000,-0.050000,0.000000,0.000000,0.000000,0.000000,0.000000,0.000000,0.000000,0.100000,0.100000,-0.241158,-0.419390,-0.050000,-0.050000,0.272429,-0.494706,0.000000,0.000000,-0.438316,0.211563,1.139057,0.105703,0.088818,0.357007,-0.042367,-0.187256,0.059735,-0.469419
-0.050000,-0.050000,0.000000,0.000000,0.000000,0.000000,0.000000,0.000000,0.000000,0.100000,0.100000,-0.246092,-0.418297,-0.050000,-0.050000,0.272807,-0.493530,0.000000,0.000000,-0.440293,0.212143,1.138176,0.107214,0.087593,0.370018,-0.042981,-0.190008,0.060625,-0.462906
-0.050000,-0.050000,0.000000,0.000000,0.000000,0.000000,0.000000,0.000000,0.000000,0.100000,0.100000,-0.251003,-0.416775,-0.050000,-0.050000,0.273178,-0.492372,0.000000,0.000000,-0.442138,0.212155,1.137434,0.109144,0.086364,0.383739,-0.043589,-0.192849,0.061555,-0.456421
-0.050000,-0.050000,0.000000,0.000000,0.000000,0.000000,0.000000,0.000000,0.000000,0.100000,0.100000,-0.255652,-0.413718,-0.050000,-0.050000,0.273398,-0.491280,0.000000,0.000000,-0.443410,0.210463,1.136874,0.111901,0.084944,0.399002,-0.044274,-0.195952,0.062743,-0.450021
-0.050000,-0.050000,0.000000,0.000000,0.000000,0.000000,0.000000,0.000000,0.000000,0.100000,0.100000,-0.260147,-0.410124,-0.050000,-0.050000,0.273525,-0.490232,0.000000,0.000000,-0.444466,0.208244,1.136316,0.114734,0.083427,0.414529,-0.044998,-0.199125,0.064004,-0.443670
-0.050000,-0.050000,0.000000,0.000000,0.000000,0.000000,0.000000,0.000000,0.000000,0.100000,0.100000,-0.264333,-0.405455,-0.050000,-0.050000,0.273470,-0.489273,0.000000,0.000000,-0.445090,0.204970,1.135763,0.117718,0.081718,0.430586,-0.045801,-0.202438,0.065411,-0.437413
-0.050000,-0.050000,0.000000,0.000000,0.000000,0.000000,0.000000,0.000000,0.000000,0.100000,0.100000,-0.268082,-0.399761,-0.050000,-0.050000,0.273174,-0.488480,0.000000,0.000000,-0.445311,0.200786,1.135181,0.120387,0.079849,0.446609,-0.046669,-0.205838,0.066817,-0.431300
-0.050000,-0.050000,0.000000,0.000000,0.000000,0.000000,0.000000,0.000000,0.000000,0.100000,0.100000,-0.271614,-0.393553,-0.050000,-0.050000,0.272759,-0.487770,0.000000,0.000000,-0.445330,0.196146,1.134584,0.122900,0.077900,0.462616,-0.047569,-0.209280,0.068222,-0.425258
-0.050000,-0.050000,0.000000,0.000000,0.000000,0.000000,0.000000,0.000000,0.000000,0.100000,0.100000,-0.274324,-0.386002,-0.050000,-0.050000,0.271956,-0.487447,0.000000,0.000000,-0.444885,0.190422,1.134040,0.124267,0.075908,0.477753,-0.048479,-0.212771,0.069280,-0.419449
-0.050000,-0.050000,0.000000,0.000000,0.000000,0.000000,0.000000,0.000000,0.000000,0.100000,0.100000,-0.276716,-0.378098,-0.050000,-0.050000,0.271033,-0.487288,0.000000,0.000000,-0.444346,0.184435,1.133593,0.125076,0.073998,0.492390,-0.049348,-0.216257,0.070102,-0.413684
-0.050000,-0.050000,0.000000,0.000000,0.000000,0.000000,0.000000,0.000000,0.000000,0.100000,0.100000,-0.278470,-0.369489,-0.050000,-0.050000,0.269869,-0.487457,0.000000,0.000000,-0.443620,0.177924,1.133337,0.124766,0.072250,0.506029,-0.050136,-0.219735,0.070454,-0.408007
-0.050000,-0.050000,0.000000,0.000000,0.000000,0.000000,0.000000,0.000000,0.000000,0.100000,0.100000,-0.279525,-0.360411,-0.050000,-0.050000,0.268510,-0.487975,0.000000,0.000000,-0.442816,0.171074,1.133488,0.123146,0.070857,0.518473,-0.050744,-0.223192,0.070156,-0.402270
-0.050000,-0.050000,0.000000,0.000000,0.000000,0.000000,0.000000,0.000000,0.000000,0.100000,0.100000,-0.280230,-0.351099,-0.050000,-0.050000,0.267052,-0.488666,0.000000,0.000000,-0.441974,0.164055,1.133843,0.120870,0.069642,0.530320,-0.051263,-0.226640,0.069534,-0.396503
-0.050000,-0.050000,0.000000,0.000000,0.000000,0.000000,0.000000,0.000000,0.000000,0.100000,0.100000,-0.279845,-0.341482,-0.050000,-0.050000,0.265386,-0.489798,0.000000,0.000000,-0.441117,0.156743,1.135133,0.116624,0.069173,0.540484,-0.051388,-0.230107,0.067839,-0.390371
-0.050000,-0.050000,0.000000,0.000000,0.000000,0.000000,0.000000,0.000000,0.000000,0.100000,0.100000,-0.279102,-0.331901,-0.050000,-0.050000,0.263681,-0.491011,0.000000,0.000000,-0.440265,0.149381,1.136815,0.111809,0.068983,0.550244,-0.051359,-0.233624,0.065812,-0.384053
-0.050000,-0.050000,0.000000,0.000000,0.000000,0.000000,0.000000,0.000000,0.000000,0.100000,0.100000,-0.277644,-0.322393,-0.050000,-0.050000,0.261898,-0.492385,0.000000,0.000000,-0.439422,0.141919,1.139283,0.105857,0.069353,0.559194,-0.051023,-0.237240,0.063122,-0.377364
-0.050000,-0.050000,0.000000,0.000000,0.000000,0.000000,0.000000,0.000000,0.000000,0.100000,0.100000,-0.275525,-0.313221,-0.050000,-0.050000,0.260097,-0.493724,0.000000,0.000000,-0.438575,0.134404,1.142593,0.099068,0.070275,0.567798,-0.050382,-0.241084,0.059915,-0.370312
-0.050000,-0.050000,0.000000,0.000000,0.000000,0.000000,0.000000,0.000000,0.000000,0.100000,0.100000,-0.273076,-0.304217,-0.050000,-0.050000,0.258289,-0.495046,0.000000,0.000000,-0.437726,0.126863,1.146324,0.091860,0.071473,0.576229,-0.049588,-0.245041,0.056449,-0.363080
-0.050000,-0.050000,0.000000,0.000000,0.000000,0.000000,0.000000,0.000000,0.000000,0.100000,0.100000,-0.269778,-0.296058,-0.050000,-0.050000,0.256552,-0.495975,0.000000,0.000000,-0.436850,0.119272,1.151210,0.083923,0.073424,0.584862,-0.048407,-0.249559,0.052492,-0.355591
-0.050000,-0.050000,0.000000,0.000000,0.000000,0.000000,0.000000,0.000000,0.000000,0.100000,0.100000,-0.266261,-0.288269,-0.050000,-0.050000,0.254876,-0.496665,0.000000,0.000000,-0.435973,0.111670,1.156382,0.075902,0.075597,0.593746,-0.047136,-0.254322,0.048462,-0.348187
-0.050000,-0.050000,0.000000,0.000000,0.000000,0.000000,0.000000,0.000000,0.000000,0.100000,0.100000,-0.262304,-0.281219,-0.050000,-0.050000,0.253322,-0.496876,0.000000,0.000000,-0.435092,0.104047,1.162128,0.067712,0.078213,0.603135,-0.045685,-0.259578,0.044284,-0.340951
-0.050000,-0.050000,0.000000,0.000000,0.000000,0.000000,0.000000,0.000000,0.000000,0.100000,0.100000,-0.258049,-0.275018,-0.050000,-0.050000,0.251971,-0.496445,0.000000,0.000000,-0.434269,0.096426,1.168158,0.059571,0.081224,0.613193,-0.044149,-0.265379,0.040085,-0.334280
-0.050000,-0.050000,0.000000,0.000000,0.000000,0.000000,0.000000,0.000000,0.000000,0.100000,0.100000,-0.253647,-0.269242,-0.050000,-0.050000,0.250721,-0.495693,0.000000,0.000000,-0.433474,0.088806,1.174329,0.051455,0.084433,0.623587,-0.042570,-0.271454,0.035876,-0.327892
-0.050000,-0.050000,0.000000,0.000000,0.000000,0.000000,0.000000,0.000000,0.000000,0.100000,0.100000,-0.249017,-0.264819,-0.050000,-0.050000,0.249901,-0.493861,0.000000,0.000000,-0.432916,0.081261,1.180416,0.043542,0.088170,0.634882,-0.041014,-0.278296,0.031721,-0.322864
-0.050000,-0.050000,0.000000,0.000000,0.000000,0.000000,0.000000,0.000000,0.000000,0.100000,0.100000,-0.244379,-0.260853,-0.050000,-0.050000,0.249263,-0.491679,0.000000,0.000000,-0.432497,0.073778,1.186306,0.035675,0.092057,0.646343,-0.039511,-0.285335,0.027582,-0.318393
-0.050000,-0.050000,0.000000,0.000000,0.000000,0.000000,0.000000,0.000000,0.000000,0.100000,0.100000,-0.239723,-0.257800,-0.050000,-0.050000,0.248986,-0.488801,0.000000,0.000000,-0.432359,0.066418,1.191801,0.027901,0.096243,0.658136,-0.038118,-0.292768,0.023475,-0.315034
-0.050000,-0.050000,0.000000,0.000000,0.000000,0.000000,0.000000,0.000000,0.000000,0.100000,0.100000,-0.235168,-0.255655,-0.050000,-0.050000,0.249128,-0.485344,0.000000,0.000000,-0.432611,0.059273,1.196603,0.020086,0.100643,0.669875,-0.036916,-0.300419,0.019370,-0.312829
-0.050000,-0.050000,0.000000,0.000000,0.000000,0.000000,0.000000,0.000000,0.000000,0.100000,0.100000,-0.230662,-0.253963,-0.050000,-0.050000,0.249479,-0.481598,0.000000,0.000000,-0.433059,0.052236,1.201058,0.012251,0.105150,0.681588,-0.035810,-0.308180,0.015266,-0.311201
-0.050000,-0.050000,0.000000,0.000000,0.000000,0.000000,0.000000,0.000000,0.000000,0.100000,0.100000,-0.226451,-0.253643,-0.050000,-0.050000,0.250506,-0.477271,0.000000,0.000000,-0.434197,0.045675,1.204144,0.004117,0.109778,0.692627,-0.035087,-0.315978,0.011141,-0.311163
-0.050000,-0.050000,0.000000,0.000000,0.000000,0.000000,0.000000,0.000000,0.000000,0.100000,0.100000,-0.222377,-0.253800,-0.050000,-0.050000,0.251761,-0.472867,0.000000,0.000000,-0.435569,0.039324,1.206713,-0.004174,0.114357,0.703287,-0.034510,-0.323700,0.007027,-0.311572
-0.050000,-0.050000,0.000000,0.000000,0.000000,0.000000,0.000000,0.000000,0.000000,0.100000,0.100000,-0.218578,-0.254912,-0.050000,-0.050000,0.253473,-0.468307,0.000000,0.000000,-0.437409,0.033393,1.208250,-0.012776,0.118839,0.713185,-0.034223,-0.331273,0.002933,-0.312874
-0.050000,-0.050000,0.000000,0.000000,0.000000,0.000000,0.000000,0.000000,0.000000,0.100000,0.100000,-0.215118,-0.257058,-0.050000,-0.050000,0.255632,-0.463828,0.000000,0.000000,-0.439651,0.027981,1.208745,-0.021685,0.123013,0.722149,-0.034229,-0.338561,-0.001039,-0.314897
-0.050000,-0.050000,0.000000,0.000000,0.000000,0.000000,0.000000,0.000000,0.000000,0.100000,0.100000,-0.211826,-0.259721,-0.050000,-0.050000,0.258014,-0.459390,0.000000,0.000000,-0.442095,0.022830,1.208719,-0.030748,0.127034,0.730647,-0.034380,-0.345706,-0.004950,-0.317280
-0.050000,-0.050000,0.000000,0.000000,0.000000,0.000000,0.000000,0.000000,0.000000,0.100000,0.100000,-0.209116,-0.264099,-0.050000,-0.050000,0.261037,-0.455394,0.000000,0.000000,-0.444958,0.018603,1.207269,-0.040018,0.130270,0.737713,-0.034920,-0.352284,-0.008440,-0.320552
-0.050000,-0.050000,0.000000,0.000000,0.000000,0.000000,0.000000,0.000000,0.000000,0.100000,0.100000,-0.206619,-0.269102,-0.050000,-0.050000,0.264265,-0.451628,0.000000,0.000000,-0.447882,0.014732,1.205433,-0.049188,0.133147,0.744356,-0.035558,-0.358640,-0.011698,-0.324087
-0.050000,-0.050000,0.000000,0.000000,0.000000,0.000000,0.000000,0.000000,0.000000,0.100000,0.100000,-0.204546,-0.275360,-0.050000,-0.050000,0.267903,-0.448323,0.000000,0.000000,-0.450926,0.011573,1.202821,-0.058156,0.135307,0.750153,-0.036394,-0.364552,-0.014489,-0.328151
-0.050000,-0.050000,0.000000,0.000000,0.000000,0.000000,0.000000,0.000000,0.000000,0.100000,0.100000,-0.202920,-0.282950,-0.050000,-0.050000,0.271932,-0.445577,0.000000,0.000000,-0.453935,0.009216,1.199651,-0.066453,0.136609,0.755295,-0.037354,-0.369970,-0.016644,-0.332728
-0.050000,-0.050000,0.000000,0.000000,0.000000,0.000000,0.000000,0.000000,0.000000,0.100000,0.100000,-0.201518,-0.291206,-0.050000,-0.050000,0.276158,-0.443111,0.000000,0.000000,-0.456925,0.007261,1.196203,-0.074413,0.137481,0.760110,-0.038377,-0.375141,-0.018481,-0.337561
-0.050000,-0.050000,0.000000,0.000000,0.000000,0.000000,0.000000,0.000000,0.000000,0.100000,0.100000,-0.200796,-0.301481,-0.050000,-0.050000,0.280941,-0.441510,0.000000,0.000000,-0.459682,0.006615,1.192253,-0.080593,0.136962,0.764300,-0.039486,-0.379514,-0.019189,-0.343165
-0.050000,-0.050000,0.000000,0.000000,0.000000,0.000000,0.000000,0.000000,0.000000,0.100000,0.100000,-0.200297,-0.312389,-0.050000,-0.050000,0.285893,-0.440159,0.000000,0.000000,-0.462332,0.006420,1.188236,-0.085956,0.135990,0.768410,-0.040597,-0.383617,-0.019506,-0.349012
-0.050000,-0.050000,0.000000,0.000000,0.000000,0.000000,0.000000,0.000000,0.000000,0.100000,0.100000,-0.200244,-0.324561,-0.050000,-0.050000,0.291182,-0.439310,0.000000,0.000000,-0.464768,0.007126,1.184083,-0.089683,0.134112,0.772359,-0.041716,-0.387180,-0.019038,-0.355346
-0.050000,-0.050000,0.000000,0.000000,0.000000,0.000000,0.000000,0.000000,0.000000,0.100000,0.100000,-0.200620,-0.337805,-0.050000,-0.050000,0.296747,-0.438792,0.000000,0.000000,-0.467006,0.008694,1.179953,-0.091495,0.131439,0.776410,-0.042812,-0.390243,-0.017845,-0.362088
-0.050000,-0.050000,0.000000,0.000000,0.000000,0.000000,0.000000,0.000000,0.000000,0.100000,0.100000,-0.201211,-0.351584,-0.050000,-0.050000,0.302451,-0.438439,0.000000,0.000000,-0.469145,0.010694,1.175835,-0.092349,0.128368,0.780511,-0.043897,-0.393055,-0.016288,-0.369035
-0.050000,-0.050000,0.000000,0.000000,0.000000,0.000000,0.000000,0.000000,0.000000,0.100000,0.100000,-0.202423,-0.366515,-0.050000,-0.050000,0.308426,-0.438207,0.000000,0.000000,-0.471107,0.013810,1.171925,-0.090245,0.124389,0.785158,-0.044927,-0.395276,-0.013839,-0.376411
-0.050000,-0.050000,0.000000,0.000000,0.000000,0.000000,0.000000,0.000000,0.000000,0.100000,0.100000,-0.203839,-0.381632,-0.050000,-0.050000,0.314424,-0.437866,0.000000,0.000000,-0.473071,0.017206,1.168121,-0.087236,0.120226,0.790107,-0.045934,-0.397380,-0.011180,-0.383863
-0.050000,-0.050000,0.000000,0.000000,0.000000,0.000000,0.000000,0.000000,0.000000,0.100000,0.100000,-0.205666,-0.397122,-0.050000,-0.050000,0.320468,-0.437308,0.000000,0.000000,-0.475039,0.021159,1.164530,-0.082419,0.115695,0.795661,-0.046896,-0.399251,-0.008097,-0.391465
-0.050000,-0.050000,0.000000,0.000000,0.000000,0.000000,0.000000,0.000000,0.000000,0.100000,0.100000,-0.207921,-0.412540,-0.050000,-0.050000,0.326395,-0.436238,0.000000,0.000000,-0.477143,0.025450,1.161182,-0.076112,0.111042,0.802013,-0.047804,-0.401070,-0.004762,-0.399097
-0.050000,-0.050000,0.000000,0.000000,0.000000,0.000000,0.000000,0.000000,0.000000,0.100000,0.100000,-0.210390,-0.427921,-0.050000,-0.050000,0.332262,-0.434912,0.000000,0.000000,-0.479316,0.029910,1.157955,-0.069061,0.106328,0.808764,-0.048683,-0.402862,-0.001301,-0.406744
-0.050000,-0.050000,0.000000,0.000000,0.000000,0.000000,0.000000,0.000000,0.000000,0.100000,0.100000,-0.213563,-0.442527,-0.050000,-0.050000,0.337680,-0.432468,0.000000,0.000000,-0.481871,0.034573,1.155050,-0.060348,0.101746,0.816853,-0.049472,-0.404794,0.002330,-0.414279
-0.050000,-0.050000,0.000000,0.000000,0.000000,0.000000,0.000000,0.000000,0.000000,0.100000,0.100000,-0.217001,-0.456684,-0.050000,-0.050000,0.342860,-0.429589,0.000000,0.000000,-0.484598,0.039236,1.152195,-0.051257,0.097277,0.825367,-0.050237,-0.406800,0.005970,-0.421710
-0.050000,-0.050000,0.000000,0.000000,0.000000,0.000000,0.000000,0.000000,0.000000,0.100000,0.100000,-0.220966,-0.469943,-0.050000,-0.050000,0.347562,-0.425838,0.000000,0.000000,-0.487667,0.043903,1.149441,-0.041413,0.093032,0.834731,-0.050953,-0.408955,0.009627,-0.428936
-0.050000,-0.050000,0.000000,0.000000,0.000000,0.000000,0.000000,0.000000,0.000000,0.100000,0.100000,-0.225516,-0.482030,-0.050000,-0.050000,0.351640,-0.421231,0.000000,0.000000,-0.491136,0.048540,1.146561,-0.031081,0.089054,0.844744,-0.051673,-0.411198,0.013234,-0.435733
-0.050000,-0.050000,0.000000,0.000000,0.000000,0.000000,0.000000,0.000000,0.000000,0.100000,0.100000,-0.230360,-0.493532,-0.050000,-0.050000,0.355407,-0.416195,0.000000,0.000000,-0.494805,0.053163,1.143620,-0.020506,0.085211,0.855081,-0.052396,-0.413485,0.016816,-0.442316
-0.050000,-0.050000,0.000000,0.000000,0.000000,0.000000,0.000000,0.000000,0.000000,0.100000,0.100000,-0.236134,-0.503077,-0.050000,-0.050000,0.358101,-0.410110,0.000000,0.000000,-0.499133,0.057848,1.139970,-0.009455,0.081688,0.865873,-0.053293,-0.415651,0.020218,-0.447718
-0.050000,-0.050000,0.000000,0.000000,0.000000,0.000000,0.000000,0.000000,0.000000,0.100000,0.100000,-0.242212,-0.511973,-0.050000,-0.050000,0.360430,-0.403815,0.000000,0.000000,-0.503696,0.062624,1.135860,0.001710,0.078206,0.876598,-0.054334,-0.417659,0.023510,-0.452484
-0.050000,-0.050000,0.000000,0.000000,0.000000,0.000000,0.000000,0.000000,0.000000,0.100000,0.100000,-0.248899,-0.519570,-0.050000,-0.050000,0.362028,-0.397100,0.000000,0.000000,-0.508731,0.067583,1.130831,0.013101,0.074805,0.887187,-0.055666,-0.419354,0.026580,-0.455975
-0.050000,-0.050000,0.000000,0.000000,0.000000,0.000000,0.000000,0.000000,0.000000,0.100000,0.100000,-0.256120,-0.525989,-0.050000,-0.050000,0.362963,-0.390326,0.000000,0.000000,-0.514263,0.072883,1.124394,0.024669,0.071303,0.897191,-0.057507,-0.420503,0.029277,-0.457649
-0.050000,-0.050000,0.000000,0.000000,0.000000,0.000000,0.000000,0.000000,0.000000,0.100000,0.100000,-0.263607,-0.531819,-0.050000,-0.050000,0.363566,-0.383522,0.000000,0.000000,-0.520045,0.078354,1.117252,0.036325,0.067752,0.906902,-0.059603,-0.421380,0.031788,-0.458414
-0.050000,-0.050000,0.000000,0.000000,0.000000,0.000000,0.000000,0.000000,0.000000,0.100000,0.100000,-0.271679,-0.536166,-0.050000,-0.050000,0.363391,-0.377209,0.000000,0.000000,-0.526587,0.084521,1.107355,0.048197,0.063760,0.915172,-0.062787,-0.421182,0.033457,-0.455742
-0.050000,-0.050000,0.000000,0.000000,0.000000,0.000000,0.000000,0.000000,0.000000,0.100000,0.100000,-0.279842,-0.540122,-0.050000,-0.050000,0.363055,-0.371240,0.000000,0.000000,-0.533362,0.090944,1.096416,0.060136,0.059540,0.922843,-0.066408,-0.420589,0.034749,-0.451790
-0.050000,-0.050000,0.000000,0.000000,0.000000,0.000000,0.000000,0.000000,0.000000,0.100000,0.100000,-0.288188,-0.543296,-0.050000,-0.050000,0.362395,-0.365960,0.000000,0.000000,-0.540604,0.097877,1.083394,0.072212,0.054862,0.929318,-0.070904,-0.419205,0.035288,-0.445279
-0.050000,-0.050000,0.000000,0.000000,0.000000,0.000000,0.000000,0.000000,0.000000,0.100000,0.100000,-0.296475,-0.545867,-0.050000,-0.050000,0.361621,-0.361661,0.000000,0.000000,-0.548194,0.105280,1.068354,0.084485,0.049627,0.934519,-0.076284,-0.417037,0.034938,-0.436249
-0.050000,-0.050000,0.000000,0.000000,0.000000,0.000000,0.000000,0.000000,0.000000,0.100000,0.100000,-0.304731,-0.548135,-0.050000,-0.050000,0.360792,-0.357853,0.000000,0.000000,-0.555960,0.112917,1.052304,0.096857,0.044113,0.939084,-0.082106,-0.414479,0.034145,-0.425961
-0.050000,-0.050000,0.000000,0.000000,0.000000,0.000000,0.000000,0.000000,0.000000,0.100000,0.100000,-0.312523,-0.549676,-0.050000,-0.050000,0.360064,-0.355822,0.000000,0.000000,-0.563932,0.121093,1.033932,0.109823,0.037759,0.941810,-0.088976,-0.410804,0.031980,-0.412491
-0.050000,-0.050000,0.000000,0.000000,0.000000,0.000000,0.000000,0.000000,0.000000,0.100000,0.100000,-0.320047,-0.551001,-0.050000,-0.050000,0.359429,-0.354435,0.000000,0.000000,-0.571827,0.129382,1.015237,0.123188,0.031181,0.943970,-0.095997,-0.406753,0.029420,-0.398313
-0.050000,-0.050000,0.000000,0.000000,0.000000,0.000000,0.000000,0.000000,0.000000,0.100000,0.100000,-0.327039,-0.551896,-0.050000,-0.050000,0.358977,-0.354340,0.000000,0.000000,-0.579568,0.137897,0.995900,0.137350,0.024156,0.945000,-0.103323,-0.401949,0.026070,-0.382721
-0.050000,-0.050000,0.000000,0.000000,0.000000,0.000000,0.000000,0.000000,0.000000,0.100000,0.100000,-0.333327,-0.552368,-0.050000,-0.050000,0.358731,-0.355553,0.000000,0.000000,-0.586818,0.146538,0.977202,0.152919,0.016920,0.944959,-0.110384,-0.396265,0.022201,-0.366607
-0.050000,-0.050000,0.000000,0.000000,0.000000,0.000000,0.000000,0.000000,0.000000,0.100000,0.100000,-0.339262,-0.552628,-0.050000,-0.050000,0.358588,-0.357421,0.000000,0.000000,-0.593824,0.155241,0.958823,0.169192,0.009579,0.944381,-0.117314,-0.390142,0.018074,-0.350232
-0.050000,-0.050000,0.000000,0.000000,0.000000,0.000000,0.000000,0.000000,0.000000,0.100000,0.100000,-0.343978,-0.552241,-0.050000,-0.050000,0.358642,-0.361158,0.000000,0.000000,-0.599607,0.164091,0.943660,0.188702,0.002430,0.942140,-0.122878,-0.382304,0.013738,-0.334413
-0.050000,-0.050000,0.000000,0.000000,0.000000,0.000000,0.000000,0.000000,0.000000,0.100000,0.100000,-0.348262,-0.551641,-0.050000,-0.050000,0.358682,-0.365452,0.000000,0.000000,-0.604845,0.173017,0.930314,0.209652,-0.004465,0.939271,-0.127690,-0.373716,0.009536,-0.319123
-0.050000,-0.050000,0.000000,0.000000,0.000000,0.000000,0.000000,0.000000,0.000000,0.100000,0.100000,-0.351679,-0.550617,-0.050000,-0.050000,0.358697,-0.370858,0.000000,0.000000,-0.608992,0.182095,0.920603,0.233480,-0.010852,0.935147,-0.130996,-0.363630,0.005601,-0.304892
-0.050000,-0.050000,0.000000,0.000000,0.000000,0.000000,0.000000,0.000000,0.000000,0.100000,0.100000,-0.354205,-0.549207,-0.050000,-0.050000,0.358491,-0.377181,0.000000,0.000000,-0.611835,0.191424,0.915724,0.260651,-0.016411,0.929559,-0.132391,-0.351715,0.002270,-0.292039
-0.050000,-0.050000,0.000000,0.000000,0.000000,0.000000,0.000000,0.000000,0.000000,0.100000,0.100000,-0.356286,-0.547605,-0.050000,-0.050000,0.358175,-0.383961,0.000000,0.000000,-0.614026,0.200878,0.913261,0.289493,-0.021555,0.923238,-0.132830,-0.338886,-0.000758,-0.279876
-0.050000,-0.050000,0.000000,0.000000,0.000000,0.000000,0.000000,0.000000,0.000000,0.100000,0.100000,-0.356983,-0.545526,-0.050000,-0.050000,0.357275,-0.391753,0.000000,0.000000,-0.613991,0.210803,0.919013,0.323330,-0.025244,0.914439,-0.130243,-0.323110,-0.002598,-0.269621
-0.050000,-0.050000,0.000000,0.000000,0.000000,0.000000,0.000000,0.000000,0.000000,0.100000,0.100000,-0.357180,-0.543325,-0.050000,-0.050000,0.356146,-0.399756,0.000000,0.000000,-0.613121,0.220851,0.927469,0.358527,-0.028507,0.904782,-0.126769,-0.306462,-0.004037,-0.259775
-0.050000,-0.050000,0.000000,0.000000,0.000000,0.000000,0.000000,0.000000,0.000000,0.100000,0.100000,-0.356381,-0.540880,-0.050000,-0.050000,0.354562,-0.408181,0.000000,0.000000,-0.610579,0.231146,0.941332,0.396444,-0.030921,0.893411,-0.121522,-0.288068,-0.004676,-0.250749
-0.050000,-0.050000,0.000000,0.000000,0.000000,0.000000,0.000000,0.000000,0.000000,0.100000,0.100000,-0.354452,-0.538245,-0.050000,-0.050000,0.352611,-0.416812,0.000000,0.000000,-0.606137,0.241432,0.959798,0.435915,-0.032888,0.880485,-0.115065,-0.268585,-0.004655,-0.241952
-0.050000,-0.050000,0.000000,0.000000,0.000000,0.000000,0.000000,0.000000,0.000000,0.100000,0.100000,-0.351959,-0.535514,-0.050000,-0.050000,0.350477,-0.425546,0.000000,0.000000,-0.600745,0.251712,0.980565,0.476162,-0.034630,0.866783,-0.108004,-0.248558,-0.004305,-0.233268
-0.050000,-0.050000,0.000000,0.000000,0.000000,0.000000,0.000000,0.000000,0.000000,0.100000,0.100000,-0.347505,-0.532523,-0.050000,-0.050000,0.348196,-0.434376,0.000000,0.000000,-0.592120,0.261299,1.006153,0.516460,-0.036622,0.851438,-0.100301,-0.228431,-0.003285,-0.224215
-0.050000,-0.050000,0.000000,0.000000,0.000000,0.000000,0.000000,0.000000,0.000000,0.100000,0.100000,-0.342309,-0.529438,-0.050000,-0.050000,0.346070,-0.443213,0.000000,0.000000,-0.582304,0.270366,1.032501,0.555998,-0.039052,0.835936,-0.092796,-0.208849,-0.002139,-0.214952
-0.050000,-0.050000,0.000000,0.000000,0.000000,0.000000,0.000000,0.000000,0.000000,0.100000,0.100000,-0.335628,-0.526162,-0.050000,-0.050000,0.344257,-0.452063,0.000000,0.000000,-0.570105,0.278396,1.060367,0.594012,-0.042356,0.820122,-0.085689,-0.190361,-0.000738,-0.205267
-0.050000,-0.050000,0.000000,0.000000,0.000000,0.000000,0.000000,0.000000,0.000000,0.100000,0.100000,-0.327348,-0.522663,-0.050000,-0.050000,0.343232,-0.460948,0.000000,0.000000,-0.555391,0.284799,1.088083,0.629236,-0.047209,0.805035,-0.079668,-0.173953,0.000814,-0.195330
-0.050000,-0.050000,0.000000,0.000000,0.000000,0.000000,0.000000,0.000000,0.000000,0.100000,0.100000,-0.318269,-0.519053,-0.050000,-0.050000,0.342602,-0.469850,0.000000,0.000000,-0.539420,0.290390,1.115724,0.663063,-0.052837,0.790311,-0.074189,-0.158586,0.002440,-0.185265
-0.050000,-0.050000,0.000000,0.000000,0.000000,0.000000,0.000000,0.000000,0.000000,0.100000,0.100000,-0.306831,-0.515071,-0.050000,-0.050000,0.343848,-0.478890,0.000000,0.000000,-0.519690,0.292819,1.141129,0.691587,-0.061613,0.778366,-0.070946,-0.147190,0.004312,-0.175430
-0.050000,-0.050000,0.000000,0.000000,0.000000,0.000000,0.000000,0.000000,0.000000,0.100000,0.100000,-0.294714,-0.510964,-0.050000,-0.050000,0.345917,-0.488011,0.000000,0.000000,-0.498780,0.294049,1.165371,0.718274,-0.071630,0.767833,-0.068479,-0.137146,0.006328,-0.165908
-0.050000,-0.050000,0.000000,0.000000,0.000000,0.000000,0.000000,0.000000,0.000000,0.100000,0.100000,-0.281237,-0.506607,-0.050000,-0.050000,0.349634,-0.497295,0.000000,0.000000,-0.475508,0.292879,1.187287,0.741284,-0.084125,0.760124,-0.067567,-0.129807,0.008630,-0.157008
-0.050000,-0.050000,0.000000,0.000000,0.000000,0.000000,0.000000,0.000000,0.000000,0.100000,0.100000,-0.266811,-0.502021,-0.050000,-0.050000,0.355327,-0.506816,0.000000,0.000000,-0.450113,0.289233,1.206571,0.760994,-0.099306,0.755846,-0.067979,-0.124817,0.011423,-0.149115
-0.050000,-0.050000,0.000000,0.000000,0.000000,0.000000,0.000000,0.000000,0.000000,0.100000,0.100000,-0.251909,-0.497322,-0.050000,-0.050000,0.362009,-0.516456,0.000000,0.000000,-0.423656,0.284349,1.224539,0.779054,-0.115829,0.753284,-0.069052,-0.121002,0.014462,-0.141725
-0.050000,-0.050000,0.000000,0.000000,0.000000,0.000000,0.000000,0.000000,0.000000,0.100000,0.100000,-0.236405,-0.492332,-0.050000,-0.050000,0.372082,-0.526594,0.000000,0.000000,-0.394415,0.275904,1.238716,0.793203,-0.136464,0.756095,-0.071497,-0.119856,0.018606,-0.136180
-0.050000,-0.050000,0.000000,0.000000,0.000000,0.000000,0.000000,0.000000,0.000000,0.100000,0.100000,-0.220995,-0.487264,-0.050000,-0.050000,0.383407,-0.536958,0.000000,0.000000,-0.364372,0.266376,1.251799,0.806439,-0.158436,0.760570,-0.074180,-0.119312,0.023237,-0.131286
-0.050000,-0.050000,0.000000,0.000000,0.000000,0.000000,0.000000,0.000000,0.000000,0.100000,0.100000,-0.205771,-0.482036,-0.050000,-0.050000,0.397238,-0.547774,0.000000,0.000000,-0.332723,0.254681,1.262692,0.817851,-0.183084,0.768369,-0.077338,-0.119974,0.028845,-0.127698
-0.050000,-0.050000,0.000000,0.000000,0.000000,0.000000,0.000000,0.000000,0.000000,0.100000,0.100000,-0.191246,-0.476673,-0.050000,-0.050000,0.413746,-0.559171,0.000000,0.000000,-0.299683,0.241036,1.271790,0.828132,-0.210239,0.778974,-0.080623,-0.121411,0.035602,-0.125397
-0.050000,-0.050000,0.000000,0.000000,0.000000,0.000000,0.000000,0.000000,0.000000,0.100000,0.100000,-0.177071,-0.471242,-0.050000,-0.050000,0.431592,-0.570860,0.000000,0.000000,-0.265949,0.226417,1.279991,0.837846,-0.238648,0.790983,-0.083972,-0.123235,0.042933,-0.123739
-0.050000,-0.050000,0.000000,0.000000,0.000000,0.000000,0.000000,0.000000,0.000000,0.100000,0.100000,-0.164461,-0.465607,-0.050000,-0.050000,0.453495,-0.583583,0.000000,0.000000,-0.230434,0.209115,1.285994,0.846609,-0.270415,0.806293,-0.087244,-0.125889,0.052062,-0.123926
-0.050000,-0.050000,0.000000,0.000000,0.000000,0.000000,0.000000,0.000000,0.000000,0.100000,0.100000,-0.152443,-0.459891,-0.050000,-0.050000,0.476659,-0.596667,0.000000,0.000000,-0.194444,0.190960,1.291370,0.855193,-0.303111,0.822426,-0.090490,-0.128808,0.061733,-0.124693
-0.050000,-0.050000,0.000000,0.000000,0.000000,0.000000,0.000000,0.000000,0.000000,0.100000,0.100000,-0.141606,-0.454014,-0.050000,-0.050000,0.502344,-0.610477,0.000000,0.000000,-0.157505,0.171100,1.295489,0.863420,-0.337665,0.840201,-0.093687,-0.132256,0.072487,-0.126620
-0.050000,-0.050000,0.000000,0.000000,0.000000,0.000000,0.000000,0.000000,0.000000,0.100000,0.100000,-0.131899,-0.447924,-0.050000,-0.050000,0.530121,-0.624941,0.000000,0.000000,-0.119936,0.149574,1.298438,0.871379,-0.373569,0.859163,-0.096978,-0.136342,0.084038,-0.129616
-0.050000,-0.050000,0.000000,0.000000,0.000000,0.000000,0.000000,0.000000,0.000000,0.100000,0.100000,-0.122757,-0.441728,-0.050000,-0.050000,0.558944,-0.639732,0.000000,0.000000,-0.082052,0.127216,1.300802,0.879202,-0.410148,0.878718,-0.100315,-0.140748,0.095987,-0.133146
-0.050000,-0.050000,0.000000,0.000000,0.000000,0.000000,0.000000,0.000000,0.000000,0.100000,0.100000,-0.115041,-0.435118,-0.050000,-0.050000,0.589928,-0.655215,0.000000,0.000000,-0.043882,0.102467,1.301401,0.886567,-0.447806,0.899479,-0.104115,-0.146334,0.108490,-0.138070
-0.050000,-0.050000,0.000000,0.000000,0.000000,0.000000,0.000000,0.000000,0.000000,0.100000,0.100000,-0.107686,-0.428338,-0.050000,-0.050000,0.621234,-0.670781,0.000000,0.000000,-0.005895,0.077020,1.301388,0.893731,-0.485462,0.920456,-0.108173,-0.152362,0.120926,-0.143353
-0.050000,-0.050000,0.000000,0.000000,0.000000,0.000000,0.000000,0.000000,0.000000,0.100000,0.100000,-0.101054,-0.421219,-0.050000,-0.050000,0.653181,-0.686510,0.000000,0.000000,0.031729,0.050176,1.300147,0.900494,-0.523116,0.941862,-0.112745,-0.159273,0.133231,-0.149354
-0.050000,-0.050000,0.000000,0.000000,0.000000,0.000000,0.000000,0.000000,0.000000,0.100000,0.100000,-0.096391,-0.415469,-0.050000,-0.050000,0.686633,-0.701759,0.000000,0.000000,0.069071,0.021197,1.296744,0.906949,-0.562657,0.965076,-0.117713,-0.167282,0.144811,-0.154988
-0.050000,-0.050000,0.000000,0.000000,0.000000,0.000000,0.000000,0.000000,0.000000,0.100000,0.100000,-0.092713,-0.410402,-0.050000,-0.050000,0.720836,-0.716769,0.000000,0.000000,0.106274,-0.008850,1.292259,0.913251,-0.603141,0.989194,-0.122877,-0.175839,0.156029,-0.160438
-0.050000,-0.050000,0.000000,0.000000,0.000000,0.000000,0.000000,0.000000,0.000000,0.100000,0.100000,-0.088081,-0.402614,-0.050000,-0.050000,0.751426,-0.731132,0.000000,0.000000,0.139991,-0.038398,1.287098,0.918725,-0.637867,1.010053,-0.129223,-0.185170,0.165751,-0.166960
-0.050000,-0.050000,0.000000,0.000000,0.000000,0.000000,0.000000,0.000000,0.000000,0.100000,0.100000,-0.083502,-0.394451,-0.050000,-0.050000,0.781040,-0.745087,0.000000,0.000000,0.172539,-0.067766,1.281320,0.923806,-0.671409,1.030237,-0.135910,-0.194642,0.174854,-0.173458
-0.050000,-0.050000,0.000000,0.000000,0.000000,0.000000,0.000000,0.000000,0.000000,0.100000,0.100000,-0.079030,-0.385541,-0.050000,-0.050000,0.808700,-0.758224,0.000000,0.000000,0.202748,-0.096771,1.274309,0.928102,-0.702586,1.049070,-0.143280,-0.204400,0.182720,-0.179908
-0.050000,-0.050000,0.000000,0.000000,0.000000,0.000000,0.000000,0.000000,0.000000,0.100000,0.100000,-0.074877,-0.376269,-0.050000,-0.050000,0.834138,-0.770245,0.000000,0.000000,0.230151,-0.124612,1.266181,0.931797,-0.731177,1.066122,-0.150999,-0.213968,0.189239,-0.185961
-0.050000,-0.050000,0.000000,0.000000,0.000000,0.000000,0.000000,0.000000,0.000000,0.100000,0.100000,-0.070883,-0.366816,-0.050000,-0.050000,0.858464,-0.781708,0.000000,0.000000,0.256152,-0.151871,1.257496,0.935192,-0.758473,1.082282,-0.158891,-0.223441,0.195085,-0.191815
-0.050000,-0.050000,0.000000,0.000000,0.000000,0.000000,0.000000,0.000000,0.000000,0.100000,0.100000,-0.067564,-0.357213,-0.050000,-0.050000,0.879160,-0.791290,0.000000,0.000000,0.277485,-0.176215,1.247472,0.937888,-0.781603,1.095155,-0.166823,-0.231925,0.199027,-0.196810
-0.050000,-0.050000,0.000000,0.000000,0.000000,0.000000,0.000000,0.000000,0.000000,0.100000,0.100000,-0.063850,-0.347208,-0.050000,-0.050000,0.898390,-0.800358,0.000000,0.000000,0.296924,-0.198487,1.237711,0.940554,-0.802597,1.106479,-0.174573,-0.239736,0.202379,-0.201603
-0.050000,-0.050000,0.000000,0.000000,0.000000,0.000000,0.000000,0.000000,0.000000,0.100000,0.100000,-0.059342,-0.336402,-0.050000,-0.050000,0.914691,-0.808399,0.000000,0.000000,0.312574,-0.216614,1.228476,0.943160,-0.819320,1.114704,-0.181962,-0.246203,0.204551,-0.205993
-0.050000,-0.050000,0.000000,0.000000,0.000000,0.000000,0.000000,0.000000,0.000000,0.100000,0.100000,-0.056080,-0.326542,-0.050000,-0.050000,0.929137,-0.815070,0.000000,0.000000,0.325823,-0.233075,1.217858,0.945053,-0.834855,1.121468,-0.189032,-0.251791,0.205850,-0.209564
-0.050000,-0.050000,0.000000,0.000000,0.000000,0.000000,0.000000,0.000000,0.000000,0.100000,0.100000,-0.053441,-0.317154,-0.050000,-0.050000,0.942657,-0.821057,0.000000,0.000000,0.337872,-0.248702,1.206549,0.946588,-0.849796,1.127501,-0.195943,-0.256941,0.206713,-0.212726
-0.050000,-0.050000,0.000000,0.000000,0.000000,0.000000,0.000000,0.000000,0.000000,0.100000,0.100000,-0.052123,-0.308946,-0.050000,-0.050000,0.953045,-0.825338,0.000000,0.000000,0.345888,-0.260543,1.194627,0.947292,-0.861714,1.130562,-0.201811,-0.260322,0.206812,-0.214939
-0.050000,-0.050000,0.000000,0.000000,0.000000,0.000000,0.000000,0.000000,0.000000,0.100000,0.100000,-0.051167,-0.301149,-0.050000,-0.050000,0.962422,-0.829171,0.000000,0.000000,0.352695,-0.271112,1.182657,0.947640,-0.872676,1.132731,-0.207326,-0.263183,0.206809,-0.216947
-0.050000,-0.050000,0.000000,0.000000,0.000000,0.000000,0.000000,0.000000,0.000000,0.100000,0.100000,-0.050935,-0.294172,-0.050000,-0.050000,0.969775,-0.832107,0.000000,0.000000,0.357082,-0.279140,1.170589,0.947275,-0.881726,1.133115,-0.212137,-0.265005,0.206603,-0.218544
-0.050000,-0.050000,0.000000,0.000000,0.000000,0.000000,0.000000,0.000000,0.000000,0.100000,0.100000,-0.051330,-0.288093,-0.050000,-0.050000,0.975201,-0.834339,0.000000,0.000000,0.359457,-0.284918,1.158528,0.945910,-0.889193,1.132057,-0.216327,-0.266097,0.206437,-0.219931
-0.050000,-0.050000,0.000000,0.000000,0.000000,0.000000,0.000000,0.000000,0.000000,0.100000,0.100000,-0.052038,-0.282464,-0.050000,-0.050000,0.979665,-0.836218,0.000000,0.000000,0.360828,-0.289571,1.146470,0.944044,-0.895868,1.130277,-0.220207,-0.266825,0.206293,-0.221213
-0.050000,-0.050000,0.000000,0.000000,0.000000,0.000000,0.000000,0.000000,0.000000,0.100000,0.100000,-0.053541,-0.278206,-0.050000,-0.050000,0.981354,-0.837249,0.000000,0.000000,0.359783,-0.291426,1.134406,0.940185,-0.900697,1.126748,-0.223339,-0.267008,0.206477,-0.222458
-0.050000,-0.050000,0.000000,0.000000,0.000000,0.000000,0.000000,0.000000,0.000000,0.100000,0.100000,-0.055255,-0.274368,-0.050000,-0.050000,0.982135,-0.838034,0.000000,0.000000,0.358086,-0.292523,1.122288,0.935507,-0.905055,1.122690,-0.226281,-0.267172,0.206822,-0.223770
-0.050000,-0.050000,0.000000,0.000000,0.000000,0.000000,0.000000,0.000000,0.000000,0.100000,0.100000,-0.057389,-0.271370,-0.050000,-0.050000,0.981101,-0.838327,0.000000,0.000000,0.355085,-0.292105,1.110063,0.929188,-0.908472,1.117574,-0.228846,-0.267297,0.207489,-0.225215
-0.050000,-0.050000,0.000000,0.000000,0.000000,0.000000,0.000000,0.000000,0.000000,0.100000,0.100000,-0.059832,-0.269053,-0.050000,-0.050000,0.978249,-0.838123,0.000000,0.000000,0.350932,-0.290407,1.097537,0.920984,-0.911126,1.111307,-0.231116,-0.267586,0.208497,-0.226903
-0.050000,-0.050000,0.000000,0.000000,0.000000,0.000000,0.000000,0.000000,0.000000,0.100000,0.100000,-0.062429,-0.267078,-0.050000,-0.050000,0.974487,-0.837671,0.000000,0.000000,0.346203,-0.288069,1.084861,0.911838,-0.913397,1.104465,-0.233240,-0.267955,0.209674,-0.228713
-0.050000,-0.050000,0.000000,0.000000,0.000000,0.000000,0.000000,0.000000,0.000000,0.100000,0.100000,-0.065328,-0.265787,-0.050000,-0.050000,0.967964,-0.836357,0.000000,0.000000,0.339705,-0.283943,1.071322,0.899654,-0.914600,1.095514,-0.234954,-0.268601,0.211244,-0.230930
-0.050000,-0.050000,0.000000,0.000000,0.000000,0.000000,0.000000,0.000000,0.000000,0.100000,0.100000,-0.068282,-0.264593,-0.050000,-0.050000,0.960515,-0.834681,0.000000,0.000000,0.332520,-0.279195,1.057325,0.886447,-0.915418,1.085704,-0.236504,-0.269251,0.212851,-0.233238
-0.050000,-0.050000,0.000000,0.000000,0.000000,0.000000,0.000000,0.000000,0.000000,0.100000,0.100000,-0.071348,-0.263594,-0.050000,-0.050000,0.951217,-0.832286,0.000000,0.000000,0.323964,-0.273202,1.042409,0.871194,-0.915467,1.074176,-0.237726,-0.269908,0.214532,-0.235730
-0.050000,-0.050000,0.000000,0.000000,0.000000,0.000000,0.000000,0.000000,0.000000,0.100000,0.100000,-0.074457,-0.262512,-0.050000,-0.050000,0.940109,-0.828983,0.000000,0.000000,0.313723,-0.265813,1.026183,0.853980,-0.914632,1.060693,-0.238497,-0.270225,0.215978,-0.238164
-0.050000,-0.050000,0.000000,0.000000,0.000000,0.000000,0.000000,0.000000,0.000000,0.100000,0.100000,-0.077587,-0.261389,-0.050000,-0.050000,0.928095,-0.825227,0.000000,0.000000,0.302641,-0.257726,1.009302,0.835786,-0.913355,1.046234,-0.239042,-0.270373,0.217306,-0.240568
-0.050000,-0.050000,0.000000,0.000000,0.000000,0.000000,0.000000,0.000000,0.000000,0.100000,0.100000,-0.080713,-0.259738,-0.050000,-0.050000,0.913556,-0.819828,0.000000,0.000000,0.288497,-0.247256,0.989843,0.814890,-0.910592,1.028807,-0.238658,-0.269349,0.217647,-0.242257
-0.050000,-0.050000,0.000000,0.000000,0.000000,0.000000,0.000000,0.000000,0.000000,0.100000,0.100000,-0.083819,-0.257785,-0.050000,-0.050000,0.898295,-0.813806,0.000000,0.000000,0.273172,-0.235904,0.969329,0.793184,-0.907313,1.010524,-0.237878,-0.267725,0.217404,-0.243407
-0.050000,-0.050000,0.000000,0.000000,0.000000,0.000000,0.000000,0.000000,0.000000,0.100000,0.100000,-0.086885,-0.255228,-0.050000,-0.050000,0.881588,-0.806539,0.000000,0.000000,0.255486,-0.222789,0.946708,0.769858,-0.903002,0.990530,-0.236304,-0.264899,0.215993,-0.243481
-0.050000,-0.050000,0.000000,0.000000,0.000000,0.000000,0.000000,0.000000,0.000000,0.100000,0.100000,-0.091790,-0.252665,-0.050000,-0.050000,0.861863,-0.797325,0.000000,0.000000,0.234950,-0.208904,0.919327,0.742132,-0.896623,0.966352,-0.233335,-0.259913,0.215274,-0.244328
-0.050000,-0.050000,0.000000,0.000000,0.000000,0.000000,0.000000,0.000000,0.000000,0.100000,0.100000,-0.097616,-0.250099,-0.050000,-0.050000,0.840629,-0.787139,0.000000,0.000000,0.212990,-0.194632,0.889565,0.712207,-0.889210,0.940083,-0.229670,-0.253848,0.214901,-0.245562
-0.050000,-0.050000,0.000000,0.000000,0.000000,0.000000,0.000000,0.000000,0.000000,0.100000,0.100000,-0.100575,-0.244011,-0.050000,-0.050000,0.820875,-0.775838,0.000000,0.000000,0.187454,-0.177017,0.858272,0.682985,-0.881434,0.916740,-0.224513,-0.245505,0.208612,-0.240073
-0.050000,-0.050000,0.000000,0.000000,0.000000,0.000000,0.000000,0.000000,0.000000,0.100000,0.100000,-0.103168,-0.237253,-0.050000,-0.050000,0.801292,-0.763993,0.000000,0.000000,0.160727,-0.158448,0.825816,0.653425,-0.873576,0.894107,-0.218954,-0.236682,0.200665,-0.232471
-0.050000,-0.050000,0.000000,0.000000,0.000000,0.000000,0.000000,0.000000,0.000000,0.100000,0.100000,-0.105029,-0.229154,-0.050000,-0.050000,0.782053,-0.751059,0.000000,0.000000,0.131619,-0.137971,0.791035,0.623192,-0.865554,0.872894,-0.212590,-0.226897,0.189401,-0.220643
-0.050000,-0.050000,0.000000,0.000000,0.000000,0.000000,0.000000,0.000000,0.000000,0.100000,0.100000,-0.106328,-0.219895,-0.050000,-0.050000,0.763376,-0.737236,0.000000,0.000000,0.100578,-0.116036,0.753776,0.591918,-0.857376,0.853474,-0.205578,-0.216567,0.175180,-0.204816
-0.050000,-0.050000,0.000000,0.000000,0.000000,0.000000,0.000000,0.000000,0.000000,0.100000,0.100000,-0.107345,-0.210055,-0.050000,-0.050000,0.744982,-0.722969,0.000000,0.000000,0.068572,-0.093371,0.715277,0.560124,-0.849121,0.834950,-0.198242,-0.205963,0.159479,-0.186989
-0.050000,-0.050000,0.000000,0.000000,0.000000,0.000000,0.000000,0.000000,0.000000,0.100000,0.100000,-0.107447,-0.198635,-0.050000,-0.050000,0.727867,-0.707738,0.000000,0.000000,0.034638,-0.069250,0.673285,0.526484,-0.840770,0.819821,-0.190348,-0.195263,0.139945,-0.163723
-0.050000,-0.050000,0.000000,0.000000,0.000000,0.000000,0.000000,0.000000,0.000000,0.100000,0.100000,-0.107201,-0.186782,-0.050000,-0.050000,0.711274,-0.692314,0.000000,0.000000,0.000474,-0.044914,0.630301,0.492203,-0.832434,0.805982,-0.182439,-0.184740,0.119441,-0.138996
-0.050000,-0.050000,0.000000,0.000000,0.000000,0.000000,0.000000,0.000000,0.000000,0.100000,0.100000,-0.106256,-0.174062,-0.050000,-0.050000,0.695721,-0.676508,0.000000,0.000000,-0.034146,-0.020149,0.585330,0.456641,-0.824127,0.794727,-0.174501,-0.174571,0.096996,-0.111348
-0.050000,-0.050000,0.000000,0.000000,0.000000,0.000000,0.000000,0.000000,0.000000,0.100000,0.100000,-0.104533,-0.160752,-0.050000,-0.050000,0.681244,-0.660581,0.000000,0.000000,-0.068278,0.004494,0.538868,0.419916,-0.815919,0.786168,-0.166874,-0.165013,0.073405,-0.081768
-0.050000,-0.050000,0.000000,0.000000,0.000000,0.000000,0.000000,0.000000,0.000000,0.100000,0.100000,-0.102420,-0.147148,-0.050000,-0.050000,0.667306,-0.644594,0.000000,0.000000,-0.102166,0.029075,0.491662,0.382611,-0.807761,0.778957,-0.159404,-0.155761,0.049242,-0.051222
-0.050000,-0.050000,0.000000,0.000000,0.000000,0.000000,0.000000,0.000000,0.000000,0.100000,0.100000,-0.099058,-0.133170,-0.050000,-0.050000,0.654826,-0.628817,0.000000,0.000000,-0.133876,0.052706,0.443144,0.344015,-0.799834,0.775656,-0.152820,-0.147546,0.024633,-0.019466
-0.050000,-0.050000,0.000000,0.000000,0.000000,0.000000,0.000000,0.000000,0.000000,0.100000,0.100000,-0.095271,-0.119247,-0.050000,-0.050000,0.642737,-0.613235,0.000000,0.000000,-0.164433,0.075813,0.394539,0.305215,-0.792014,0.773516,-0.146621,-0.139652,0.000259,0.012153
-0.050000,-0.050000,0.000000,0.000000,0.000000,0.000000,0.000000,0.000000,0.000000,0.100000,0.100000,-0.090635,-0.105436,-0.050000,-0.050000,0.631428,-0.598043,0.000000,0.000000,-0.192681,0.097872,0.345759,0.266009,-0.784406,0.773702,-0.141190,-0.132403,-0.023645,0.043497
-0.050000,-0.050000,0.000000,0.000000,0.000000,0.000000,0.000000,0.000000,0.000000,0.100000,0.100000,-0.085187,-0.092076,-0.050000,-0.050000,0.620693,-0.583484,0.000000,0.000000,-0.217991,0.118593,0.297534,0.226925,-0.777081,0.775770,-0.136586,-0.125695,-0.046499,0.073665
-0.050000,-0.050000,0.000000,0.000000,0.000000,0.000000,0.000000,0.000000,0.000000,0.100000,0.100000,-0.079332,-0.078942,-0.050000,-0.050000,0.610244,-0.569241,0.000000,0.000000,-0.241832,0.138645,0.249586,0.187902,-0.769898,0.778781,-0.132395,-0.119257,-0.068830,0.103245
-0.050000,-0.050000,0.000000,0.000000,0.000000,0.000000,0.000000,0.000000,0.000000,0.100000,0.100000,-0.072416,-0.066913,-0.050000,-0.050000,0.600423,-0.556287,0.000000,0.000000,-0.260792,0.156468,0.203517,0.149842,-0.763282,0.783791,-0.129370,-0.113484,-0.089077,0.130113
-0.050000,-0.050000,0.000000,0.000000,0.000000,0.000000,0.000000,0.000000,0.000000,0.100000,0.100000,-0.065236,-0.055362,-0.050000,-0.050000,0.590781,-0.543864,0.000000,0.000000,-0.278136,0.173539,0.158377,0.112322,-0.756920,0.789174,-0.126675,-0.107903,-0.108571,0.155906
-0.050000,-0.050000,0.000000,0.000000,0.000000,0.000000,0.000000,0.000000,0.000000,0.100000,0.100000,-0.057530,-0.044764,-0.050000,-0.050000,0.581498,-0.532503,0.000000,0.000000,-0.292250,0.189102,0.115096,0.075882,-0.751064,0.795304,-0.124638,-0.102703,-0.126559,0.179552
-0.050000,-0.050000,0.000000,0.000000,0.000000,0.000000,0.000000,0.000000,0.000000,0.100000,0.100000,-0.049901,-0.035573,-0.050000,-0.050000,0.572425,-0.522179,0.000000,0.000000,-0.304526,0.204057,0.076360,0.042936,-0.746372,0.801460,-0.124119,-0.098800,-0.142997,0.200561
-0.050000,-0.050000,0.000000,0.000000,0.000000,0.000000,0.000000,0.000000,0.000000,0.100000,0.100000,-0.042311,-0.027085,-0.050000,-0.050000,0.563456,-0.512372,0.000000,0.000000,-0.315885,0.218706,0.039896,0.011737,-0.742260,0.807630,-0.124359,-0.095546,-0.158659,0.220251
-0.050000,-0.050000,0.000000,0.000000,0.000000,0.000000,0.000000,0.000000,0.000000,0.100000,0.100000,-0.034350,-0.019673,-0.050000,-0.050000,0.555578,-0.504676,0.000000,0.000000,-0.322628,0.230245,0.004768,-0.019597,-0.738647,0.813656,-0.124263,-0.091958,-0.172579,0.237723
-0.050000,-0.050000,0.000000,0.000000,0.000000,0.000000,0.000000,0.000000,0.000000,0.100000,0.100000,-0.026423,-0.012741,-0.050000,-0.050000,0.548085,-0.497695,0.000000,0.000000,-0.328378,0.241125,-0.029235,-0.050313,-0.735457,0.819412,-0.124130,-0.088399,-0.185841,0.254258
-0.050000,-0.050000,0.000000,0.000000,0.000000,0.000000,0.000000,0.000000,0.000000,0.100000,0.100000,-0.018560,-0.006767,-0.050000,-0.050000,0.541361,-0.492145,0.000000,0.000000,-0.332141,0.250687,-0.060991,-0.079789,-0.733111,0.824628,-0.123923,-0.084903,-0.197791,0.268921
-0.050000,-0.050000,0.000000,0.000000,0.000000,0.000000,0.000000,0.000000,0.000000,0.100000,0.100000,-0.011100,-0.001807,-0.050000,-0.050000,0.535531,-0.487941,0.000000,0.000000,-0.334652,0.259267,-0.090140,-0.107660,-0.731777,0.829113,-0.123775,-0.081648,-0.208526,0.281950
-0.050000,-0.050000,0.000000,0.000000,0.000000,0.000000,0.000000,0.000000,0.000000,0.100000,0.100000,-0.003841,0.002646,-0.050000,-0.050000,0.530148,-0.484411,0.000000,0.000000,-0.336537,0.267356,-0.117986,-0.134728,-0.730948,0.833232,-0.123656,-0.078516,-0.218654,0.294162
-0.050000,-0.050000,0.000000,0.000000,0.000000,0.000000,0.000000,0.000000,0.000000,0.100000,0.100000,0.002456,0.005677,-0.050000,-0.050000,0.526239,-0.482672,0.000000,0.000000,-0.337394,0.274255,-0.141829,-0.159162,-0.731696,0.836161,-0.123699,-0.075824,-0.227021,0.304361
-0.050000,-0.050000,0.000000,0.000000,0.000000,0.000000,0.000000,0.000000,0.000000,0.100000,0.100000,0.008368,0.008301,-0.050000,-0.050000,0.522824,-0.481419,0.000000,0.000000,-0.338129,0.280835,-0.164378,-0.182676,-0.732939,0.838700,-0.123801,-0.073272,-0.234800,0.314013
-0.050000,-0.050000,0.000000,0.000000,0.000000,0.000000,0.000000,0.000000,0.000000,0.100000,0.100000,0.013506,0.010112,-0.050000,-0.050000,0.520394,-0.481141,0.000000,0.000000,-0.338616,0.286773,-0.184338,-0.204349,-0.735174,0.840461,-0.124021,-0.070999,-0.241403,0.322568
-0.050000,-0.050000,0.000000,0.000000,0.000000,0.000000,0.000000,0.000000,0.000000,0.100000,0.100000,0.017834,0.011271,-0.050000,-0.050000,0.518862,-0.481571,0.000000,0.000000,-0.339178,0.292214,-0.201880,-0.224122,-0.738261,0.841491,-0.124339,-0.068957,-0.246848,0.330204
-0.050000,-0.050000,0.000000,0.000000,0.000000,0.000000,0.000000,0.000000,0.000000,0.100000,0.100000,0.021757,0.012106,-0.050000,-0.050000,0.517779,-0.482354,0.000000,0.000000,-0.339778,0.297406,-0.218213,-0.242947,-0.741773,0.842156,-0.124706,-0.067029,-0.251714,0.337379
-0.050000,-0.050000,0.000000,0.000000,0.000000,0.000000,0.000000,0.000000,0.000000,0.100000,0.100000,0.024524,0.012211,-0.050000,-0.050000,0.517802,-0.483769,0.000000,0.000000,-0.340821,0.302067,-0.231285,-0.258889,-0.746259,0.841801,-0.125151,-0.065353,-0.254989,0.343342
-0.050000,-0.050000,0.000000,0.000000,0.000000,0.000000,0.000000,0.000000,0.000000,0.100000,0.100000,0.026952,0.012148,-0.050000,-0.050000,0.518094,-0.485258,0.000000,0.000000,-0.342082,0.306618,-0.243424,-0.273889,-0.750950,0.841127,-0.125587,-0.063727,-0.257837,0.348938
-0.050000,-0.050000,0.000000,0.000000,0.000000,0.000000,0.000000,0.000000,0.000000,0.100000,0.100000,0.028702,0.011748,-0.050000,-0.050000,0.518924,-0.486894,0.000000,0.000000,-0.343778,0.310949,-0.253697,-0.287006,-0.756053,0.839814,-0.126006,-0.062203,-0.259828,0.353798
-0.050000,-0.050000,0.000000,0.000000,0.000000,0.000000,0.000000,0.000000,0.000000,0.100000,0.100000,0.029901,0.011142,-0.050000,-0.050000,0.520094,-0.488449,0.000000,0.000000,-0.345981,0.315173,-0.262457,-0.298364,-0.761315,0.837906,-0.126336,-0.060720,-0.261265,0.357994
-0.050000,-0.050000,0.000000,0.000000,0.000000,0.000000,0.000000,0.000000,0.000000,0.100000,0.100000,0.030824,0.010433,-0.050000,-0.050000,0.521433,-0.489964,0.000000,0.000000,-0.348437,0.319342,-0.270461,-0.308843,-0.766657,0.835701,-0.126621,-0.059258,-0.262424,0.361858
-0.050000,-0.050000,0.000000,0.000000,0.000000,0.000000,0.000000,0.000000,0.000000,0.100000,0.100000,0.031129,0.009582,-0.050000,-0.050000,0.523024,-0.491121,0.000000,0.000000,-0.351667,0.323448,-0.276758,-0.317009,-0.771878,0.832709,-0.126686,-0.057782,-0.263272,0.364880
-0.050000,-0.050000,0.000000,0.000000,0.000000,0.000000,0.000000,0.000000,0.000000,0.100000,0.100000,0.031296,0.008733,-0.050000,-0.050000,0.524633,-0.492126,0.000000,0.000000,-0.355131,0.327535,-0.282662,-0.324549,-0.776954,0.829514,-0.126666,-0.056282,-0.264179,0.367696
-0.050000,-0.050000,0.000000,0.000000,0.000000,0.000000,0.000000,0.000000,0.000000,0.100000,0.100000,0.031185,0.007887,-0.050000,-0.050000,0.526278,-0.492824,0.000000,0.000000,-0.359062,0.331585,-0.287778,-0.330835,-0.781740,0.825913,-0.126474,-0.054735,-0.265203,0.370103
-0.050000,-0.050000,0.000000,0.000000,0.000000,0.000000,0.000000,0.000000,0.000000,0.100000,0.100000,0.030913,0.007130,-0.050000,-0.050000,0.527864,-0.493237,0.000000,0.000000,-0.363358,0.335536,-0.292391,-0.336180,-0.786080,0.822078,-0.126127,-0.053116,-0.266573,0.372291
-0.050000,-0.050000,0.000000,0.000000,0.000000,0.000000,0.000000,0.000000,0.000000,0.100000,0.100000,0.030558,0.006417,-0.050000,-0.050000,0.529421,-0.493507,0.000000,0.000000,-0.367837,0.339437,-0.296753,-0.341056,-0.790196,0.818126,-0.125703,-0.051462,-0.268116,0.374370
-0.050000,-0.050000,0.000000,0.000000,0.000000,0.000000,0.000000,0.000000,0.000000,0.100000,0.100000,0.030079,0.005935,-0.050000,-0.050000,0.530794,-0.493496,0.000000,0.000000,-0.372650,0.343015,-0.300636,-0.344944,-0.793500,0.814126,-0.125126,-0.049696,-0.270303,0.376411
-0.050000,-0.050000,0.000000,0.000000,0.000000,0.000000,0.000000,0.000000,0.000000,0.100000,0.100000,0.029575,0.005547,-0.050000,-0.050000,0.532084,-0.493462,0.000000,0.000000,-0.377493,0.346412,-0.304395,-0.348606,-0.796517,0.810209,-0.124535,-0.047904,-0.272667,0.378513
-0.050000,-0.050000,0.000000,0.000000,0.000000,0.000000,0.000000,0.000000,0.000000,0.100000,0.100000,0.029022,0.005348,-0.050000,-0.050000,0.533207,-0.493384,0.000000,0.000000,-0.382394,0.349449,-0.307906,-0.351813,-0.798961,0.806459,-0.123917,-0.046058,-0.275386,0.380737
-0.050000,-0.050000,0.000000,0.000000,0.000000,0.000000,0.000000,0.000000,0.000000,0.100000,0.100000,0.028407,0.005333,-0.050000,-0.050000,0.534138,-0.493411,0.000000,0.000000,-0.387193,0.351988,-0.311135,-0.354674,-0.800852,0.803029,-0.123348,-0.044207,-0.278254,0.383144
-0.050000,-0.050000,0.000000,0.000000,0.000000,0.000000,0.000000,0.000000,0.000000,0.100000,0.100000,0.027762,0.005410,-0.050000,-0.050000,0.534971,-0.493491,0.000000,0.000000,-0.391939,0.354279,-0.314225,-0.357361,-0.802467,0.799760,-0.122802,-0.042353,-0.281197,0.385642
-0.050000,-0.050000,0.000000,0.000000,0.000000,0.000000,0.000000,0.000000,0.000000,0.100000,0.100000,0.026950,0.005696,-0.050000,-0.050000,0.535496,-0.493910,0.000000,0.000000,-0.396321,0.355689,-0.316748,-0.359560,-0.803338,0.797111,-0.122415,-0.040598,-0.283957,0.388347
-0.050000,-0.050000,0.000000,0.000000,0.000000,0.000000,0.000000,0.000000,0.000000,0.100000,0.100000,0.026050,0.006011,-0.050000,-0.050000,0.535919,-0.494472,0.000000,0.000000,-0.400530,0.356797,-0.319023,-0.361585,-0.803999,0.794685,-0.122095,-0.038914,-0.286522,0.391055
-0.050000,-0.050000,0.000000,0.000000,0.000000,0.000000,0.000000,0.000000,0.000000,0.100000,0.100000,0.024972,0.006388,-0.050000,-0.050000,0.536138,-0.495320,0.000000,0.000000,-0.404393,0.357302,-0.320804,-0.363260,-0.804241,0.792707,-0.121909,-0.037376,-0.288700,0.393770
-0.050000,-0.050000,0.000000,0.000000,0.000000,0.000000,0.000000,0.000000,0.000000,0.100000,0.100000,0.023657,0.006731,-0.050000,-0.050000,0.536170,-0.496445,0.000000,0.000000,-0.407850,0.357275,-0.321999,-0.364563,-0.804145,0.791168,-0.121851,-0.036054,-0.290296,0.396318
-0.050000,-0.050000,0.000000,0.000000,0.000000,0.000000,0.000000,0.000000,0.000000,0.100000,0.100000,0.022224,0.007059,-0.050000,-0.050000,0.536108,-0.497708,0.000000,0.000000,-0.411104,0.356982,-0.322901,-0.365678,-0.803881,0.789849,-0.121857,-0.034841,-0.291602,0.398782
-0.050000,-0.050000,0.000000,0.000000,0.000000,0.000000,0.000000,0.000000,0.000000,0.100000,0.100000,0.020395,0.007207,-0.050000,-0.050000,0.535802,-0.499271,0.000000,0.000000,-0.413718,0.356113,-0.322876,-0.366257,-0.803237,0.789150,-0.122005,-0.034012,-0.291920,0.400751
-0.050000,-0.050000,0.000000,0.000000,0.000000,0.000000,0.000000,0.000000,0.000000,0.100000,0.100000,0.018445,0.007264,-0.050000,-0.050000,0.535431,-0.500875,0.000000,0.000000,-0.416121,0.355153,-0.322559,-0.366693,-0.802505,0.788640,-0.122176,-0.033309,-0.291930,0.402504
-0.050000,-0.050000,0.000000,0.000000,0.000000,0.000000,0.000000,0.000000,0.000000,0.100000,0.100000,0.016253,0.007140,-0.050000,-0.050000,0.534927,-0.502560,0.000000,0.000000,-0.418104,0.354010,-0.321661,-0.366843,-0.801599,0.788509,-0.122393,-0.032858,-0.291325,0.403824
-0.050000,-0.050000,0.000000,0.000000,0.000000,0.000000,0.000000,0.000000,0.000000,0.100000,0.100000,0.013892,0.006810,-0.050000,-0.050000,0.534324,-0.504193,0.000000,0.000000,-0.419691,0.352902,-0.320282,-0.366833,-0.800590,0.788709,-0.122600,-0.032608,-0.290249,0.404692
-0.050000,-0.050000,0.000000,0.000000,0.000000,0.000000,0.000000,0.000000,0.000000,0.100000,0.100000,0.011446,0.006376,-0.050000,-0.050000,0.533673,-0.505800,0.000000,0.000000,-0.421079,0.351810,-0.318662,-0.366743,-0.799530,0.789075,-0.122803,-0.032457,-0.288937,0.405335
-0.050000,-0.050000,0.000000,0.000000,0.000000,0.000000,0.000000,0.000000,0.000000,0.100000,0.100000,0.008918,0.005653,-0.050000,-0.050000,0.532933,-0.507150,0.000000,0.000000,-0.421917,0.351062,-0.316538,-0.366647,-0.798403,0.789837,-0.122922,-0.032474,-0.287226,0.405397
-0.050000,-0.050000,0.000000,0.000000,0.000000,0.000000,0.000000,0.000000,0.000000,0.100000,0.100000,0.006430,0.004855,-0.050000,-0.050000,0.532189,-0.508373,0.000000,0.000000,-0.422588,0.350499,-0.314327,-0.366629,-0.797270,0.790683,-0.122996,-0.032498,-0.285492,0.405325
-0.050000,-0.050000,0.000000,0.000000,0.000000,0.000000,0.000000,0.000000,0.000000,0.100000,0.100000,0.004021,0.003908,-0.050000,-0.050000,0.531437,-0.509340,0.000000,0.000000,-0.422923,0.350310,-0.311942,-0.366764,-0.796126,0.791694,-0.122982,-0.032534,-0.283710,0.404985
-0.050000,-0.050000,0.000000,0.000000,0.000000,0.000000,0.000000,0.000000,0.000000,0.100000,0.100000,0.001824,0.002871,-0.050000,-0.050000,0.530743,-0.510010,0.000000,0.000000,-0.422961,0.350568,-0.309537,-0.367179,-0.794975,0.792747,-0.122863,-0.032500,-0.282072,0.404510
-0.050000,-0.050000,0.000000,0.000000,0.000000,0.000000,0.000000,0.000000,0.000000,0.100000,0.100000,-0.000268,0.001789,-0.050000,-0.050000,0.530078,-0.510532,0.000000,0.000000,-0.422850,0.351051,-0.307123,-0.367735,-0.793820,0.793821,-0.122692,-0.032430,-0.280506,0.403968
-0.050000,-0.050000,0.000000,0.000000,0.000000,0.000000,0.000000,0.000000,0.000000,0.100000,0.100000,-0.001887,0.000662,-0.050000,-0.050000,0.529618,-0.510612,0.000000,0.000000,-0.422366,0.352219,-0.304873,-0.368820,-0.792610,0.794738,-0.122361,-0.032179,-0.279362,0.403382
-0.050000,-0.050000,0.000000,0.000000,0.000000,0.000000,0.000000,0.000000,0.000000,0.100000,0.100000,-0.003316,-0.000457,-0.050000,-0.050000,0.529268,-0.510562,0.000000,0.000000,-0.421791,0.353590,-0.302724,-0.370086,-0.791355,0.795526,-0.121982,-0.031864,-0.278392,0.402807
-0.050000,-0.050000,0.000000,0.000000,0.000000,0.000000,0.000000,0.000000,0.000000,0.100000,0.100000,-0.004366,-0.001561,-0.050000,-0.050000,0.529137,-0.510254,0.000000,0.000000,-0.421033,0.355369,-0.300775,-0.371710,-0.790006,0.796058,-0.121505,-0.031421,-0.277770,0.402255
-0.050000,-0.050000,0.000000,0.000000,0.000000,0.000000,0.000000,0.000000,0.000000,0.100000,0.100000,-0.005021,-0.002621,-0.050000,-0.050000,0.529299,-0.509747,0.000000,0.000000,-0.420174,0.357465,-0.299080,-0.373633,-0.788496,0.796182,-0.120946,-0.030880,-0.277493,0.401720
-0.050000,-0.050000,0.000000,0.000000,0.000000,0.000000,0.000000,0.000000,0.000000,0.100000,0.100000,-0.005478,-0.003659,-0.050000,-0.050000,0.529605,-0.509141,0.000000,0.000000,-0.419266,0.359720,-0.297511,-0.375705,-0.786905,0.796102,-0.120344,-0.030289,-0.277389,0.401192
-0.050000,-0.050000,0.000000,0.000000,0.000000,0.000000,0.000000,0.000000,0.000000,0.100000,0.100000,-0.005384,-0.004611,-0.050000,-0.050000,0.530413,-0.508345,0.000000,0.000000,-0.418340,0.362280,-0.296346,-0.378054,-0.784975,0.795205,-0.119646,-0.029622,-0.277707,0.400620
-0.050000,-0.050000,0.000000,0.000000,0.000000,0.000000,0.000000,0.000000,0.000000,0.100000,0.100000,-0.005137,-0.005531,-0.050000,-0.050000,0.531387,-0.507521,0.000000,0.000000,-0.417448,0.364878,-0.295310,-0.380424,-0.782908,0.793979,-0.118928,-0.028957,-0.278111,0.400002
-0.050000,-0.050000,0.000000,0.000000,0.000000,0.000000,0.000000,0.000000,0.000000,0.100000,0.100000,-0.004584,-0.006385,-0.050000,-0.050000,0.532693,-0.506642,0.000000,0.000000,-0.416624,0.367552,-0.294532,-0.382835,-0.780568,0.792092,-0.118169,-0.028294,-0.278689,0.399297
-0.050000,-0.050000,0.000000,0.000000,0.000000,0.000000,0.000000,0.000000,0.000000,0.100000,0.100000,-0.003805,-0.007158,-0.050000,-0.050000,0.534282,-0.505767,0.000000,0.000000,-0.415917,0.370171,-0.293983,-0.385145,-0.777938,0.789476,-0.117401,-0.027677,-0.279312,0.398460
-0.050000,-0.050000,0.000000,0.000000,0.000000,0.000000,0.000000,0.000000,0.000000,0.100000,0.100000,-0.002915,-0.007891,-0.050000,-0.050000,0.536012,-0.504894,0.000000,0.000000,-0.415270,0.372762,-0.293549,-0.387404,-0.775162,0.786494,-0.116629,-0.027083,-0.279956,0.397557
-0.050000,-0.050000,0.000000,0.000000,0.000000,0.000000,0.000000,0.000000,0.000000,0.100000,0.100000,-0.001813,-0.008450,-0.050000,-0.050000,0.538024,-0.504083,0.000000,0.000000,-0.414816,0.375071,-0.293399,-0.389339,-0.771974,0.782414,-0.115899,-0.026609,-0.280477,0.396432
-0.050000,-0.050000,0.000000,0.000000,0.000000,0.000000,0.000000,0.000000,0.000000,0.100000,0.100000,-0.000679,-0.008926,-0.050000,-0.050000,0.540066,-0.503295,0.000000,0.000000,-0.414412,0.377223,-0.293322,-0.391129,-0.768672,0.778017,-0.115205,-0.026189,-0.280906,0.395235
-0.050000,-0.050000,0.000000,0.000000,0.000000,0.000000,0.000000,0.000000,0.000000,0.100000,0.100000,0.000522,-0.009232,-0.050000,-0.050000,0.542171,-0.502556,0.000000,0.000000,-0.414107,0.379062,-0.293390,-0.392631,-0.765144,0.772983,-0.114581,-0.025874,-0.281149,0.393893
-0.050000,-0.050000,0.000000,0.000000,0.000000,0.000000,0.000000,0.000000,0.000000,0.100000,0.100000,0.001737,-0.009303,-0.050000,-0.050000,0.544199,-0.501846,0.000000,0.000000,-0.413845,0.380478,-0.293553,-0.393825,-0.761468,0.767517,-0.114064,-0.025688,-0.281144,0.392412
-0.050000,-0.050000,0.000000,0.000000,0.000000,0.000000,0.000000,0.000000,0.000000,0.100000,0.100000,0.002957,-0.009254,-0.050000,-0.050000,0.546189,-0.501150,0.000000,0.000000,-0.413604,0.381684,-0.293763,-0.394864,-0.757718,0.761834,-0.113601,-0.025566,-0.281014,0.390862
-0.050000,-0.050000,0.000000,0.000000,0.000000,0.000000,0.000000,0.000000,0.000000,0.100000,0.100000,0.004154,-0.008753,-0.050000,-0.050000,0.547870,-0.500442,0.000000,0.000000,-0.413333,0.382141,-0.294037,-0.395473,-0.753901,0.755943,-0.113341,-0.025668,-0.280483,0.389095
-0.050000,-0.050000,0.000000,0.000000,0.000000,0.000000,0.000000,0.000000,0.000000,0.100000,0.100000,0.005341,-0.008080,-0.050000,-0.050000,0.549395,-0.499710,0.000000,0.000000,-0.413029,0.382334,-0.294306,-0.395966,-0.750119,0.750155,-0.113152,-0.025851,-0.279829,0.387246
-0.050000,-0.050000,0.000000,0.000000,0.000000,0.000000,0.000000,0.000000,0.000000,0.100000,0.100000,0.006506,-0.007061,-0.050000,-0.050000,0.550606,-0.498931,0.000000,0.000000,-0.412659,0.381998,-0.294564,-0.396225,-0.746409,0.744570,-0.113109,-0.026196,-0.278933,0.385235
-0.050000,-0.050000,0.000000,0.000000,0.000000,0.000000,0.000000,0.000000,0.000000,0.100000,0.100000,0.007661,-0.005697,-0.050000,-0.050000,0.551432,-0.498083,0.000000,0.000000,-0.412209,0.381162,-0.294766,-0.396315,-0.742892,0.739516,-0.113203,-0.026702,-0.277855,0.383050
-0.050000,-0.050000,0.000000,0.000000,0.000000,0.000000,0.000000,0.000000,0.000000,0.100000,0.100000,0.008811,-0.004159,-0.050000,-0.050000,0.552066,-0.497201,0.000000,0.000000,-0.411719,0.380077,-0.294940,-0.396321,-0.739472,0.734727,-0.113366,-0.027288,-0.276687,0.380780
-0.050000,-0.050000,0.000000,0.000000,0.000000,0.000000,0.000000,0.000000,0.000000,0.100000,0.100000,0.009973,-0.002174,-0.050000,-0.050000,0.552071,-0.496229,0.000000,0.000000,-0.411142,0.378379,-0.294989,-0.396175,-0.736511,0.731119,-0.113695,-0.028079,-0.275382,0.378284
-0.050000,-0.050000,0.000000,0.000000,0.000000,0.000000,0.000000,0.000000,0.000000,0.100000,0.100000,0.011147,-0.000086,-0.050000,-0.050000,0.551870,-0.495247,0.000000,0.000000,-0.410561,0.376548,-0.294997,-0.396009,-0.733750,0.727977,-0.114060,-0.028915,-0.274086,0.375751
-0.050000,-0.050000,0.000000,0.000000,0.000000,0.000000,0.000000,0.000000,0.000000,0.100000,0.100000,0.012347,0.002206,-0.050000,-0.050000,0.551257,-0.494245,0.000000,0.000000,-0.409972,0.374449,-0.294923,-0.395804,-0.731386,0.725768,-0.114495,-0.029842,-0.272808,0.373143
-0.050000,-0.050000,0.000000,0.000000,0.000000,0.000000,0.000000,0.000000,0.000000,0.100000,0.100000,0.013582,0.004582,-0.050000,-0.050000,0.550275,-0.493288,0.000000,0.000000,-0.409435,0.372258,-0.294808,-0.395614,-0.729483,0.724524,-0.114954,-0.030797,-0.271660,0.370589
-0.050000,-0.050000,0.000000,0.000000,0.000000,0.000000,0.000000,0.000000,0.000000,0.100000,0.100000,0.014835,0.006999,-0.050000,-0.050000,0.549109,-0.492353,0.000000,0.000000,-0.408925,0.370019,-0.294673,-0.395432,-0.727809,0.723762,-0.115425,-0.031766,-0.270577,0.368063
-0.050000,-0.050000,0.000000,0.000000,0.000000,0.000000,0.000000,0.000000,0.000000,0.100000,0.100000,0.016138,0.009354,-0.050000,-0.050000,0.547511,-0.491595,0.000000,0.000000,-0.408577,0.367906,-0.294601,-0.395349,-0.726862,0.724358,-0.115861,-0.032676,-0.269844,0.365857
-0.050000,-0.050000,0.000000,0.000000,0.000000,0.000000,0.000000,0.000000,0.000000,0.100000,0.100000,0.017451,0.011634,-0.050000,-0.050000,0.545824,-0.490926,0.000000,0.000000,-0.408303,0.365914,-0.294611,-0.395323,-0.726154,0.725347,-0.116264,-0.033537,-0.269265,0.363836
-0.050000,-0.050000,0.000000,0.000000,0.000000,0.000000,0.000000,0.000000,0.000000,0.100000,0.100000,0.018783,0.013763,-0.050000,-0.050000,0.543961,-0.490435,0.000000,0.000000,-0.408179,0.364162,-0.294784,-0.395413,-0.725921,0.727123,-0.116604,-0.034300,-0.268993,0.362183
-0.050000,-0.050000,0.000000,0.000000,0.000000,0.000000,0.000000,0.000000,0.000000,0.100000,0.100000,0.020109,0.015663,-0.050000,-0.050000,0.542056,-0.490156,0.000000,0.000000,-0.408229,0.362767,-0.295268,-0.395662,-0.726136,0.729549,-0.116856,-0.034927,-0.269064,0.361015
-0.050000,-0.050000,0.000000,0.000000,0.000000,0.000000,0.000000,0.000000,0.000000,0.100000,0.100000,0.021433,0.017449,-0.050000,-0.050000,0.540131,-0.489983,0.000000,0.000000,-0.408367,0.361550,-0.295908,-0.395991,-0.726573,0.732300,-0.117064,-0.035486,-0.269307,0.360089
-0.050000,-0.050000,0.000000,0.000000,0.000000,0.000000,0.000000,0.000000,0.000000,0.100000,0.100000,0.022701,0.018819,-0.050000,-0.050000,0.538366,-0.490129,0.000000,0.000000,-0.408787,0.360969,-0.297247,-0.396610,-0.727627,0.735818,-0.117130,-0.035822,-0.270050,0.359963
-0.050000,-0.050000,0.000000,0.000000,0.000000,0.000000,0.000000,0.000000,0.000000,0.100000,0.100000,0.023932,0.020039,-0.050000,-0.050000,0.536729,-0.490366,0.000000,0.000000,-0.409306,0.360609,-0.298885,-0.397332,-0.728872,0.739527,-0.117151,-0.036089,-0.270935,0.360091
-0.050000,-0.050000,0.000000,0.000000,0.000000,0.000000,0.000000,0.000000,0.000000,0.100000,0.100000,0.025092,0.020959,-0.050000,-0.050000,0.535348,-0.490785,0.000000,0.000000,-0.410024,0.360690,-0.301121,-0.398262,-0.730500,0.743619,-0.117086,-0.036218,-0.272107,0.360729
-0.050000,-0.050000,0.000000,0.000000,0.000000,0.000000,0.000000,0.000000,0.000000,0.100000,0.100000,0.026148,0.021569,-0.050000,-0.050000,0.534353,-0.491337,0.000000,0.000000,-0.410949,0.361187,-0.304040,-0.399379,-0.732489,0.747963,-0.116950,-0.036236,-0.273494,0.361786
-0.050000,-0.050000,0.000000,0.000000,0.000000,0.000000,0.000000,0.000000,0.000000,0.100000,0.100000,0.027151,0.022024,-0.050000,-0.050000,0.533551,-0.491954,0.000000,0.000000,-0.411978,0.361891,-0.307299,-0.400590,-0.734659,0.752434,-0.116780,-0.036197,-0.274989,0.363053
-0.050000,-0.050000,0.000000,0.000000,0.000000,0.000000,0.000000,0.000000,0.000000,0.100000,0.100000,0.027956,0.022011,-0.050000,-0.050000,0.533481,-0.492686,0.000000,0.000000,-0.413320,0.363122,-0.311594,-0.401996,-0.737335,0.757076,-0.116529,-0.036038,-0.276692,0.364744
-0.050000,-0.050000,0.000000,0.000000,0.000000,0.000000,0.000000,0.000000,0.000000,0.100000,0.100000,0.028684,0.021844,-0.050000,-0.050000,0.533685,-0.493432,0.000000,0.000000,-0.414761,0.364484,-0.316193,-0.403420,-0.740157,0.761696,-0.116259,-0.035851,-0.278429,0.366495
-0.050000,-0.050000,0.000000,0.000000,0.000000,0.000000,0.000000,0.000000,0.000000,0.100000,0.100000,0.029257,0.021368,-0.050000,-0.050000,0.534434,-0.494203,0.000000,0.000000,-0.416401,0.366103,-0.321403,-0.404881,-0.743271,0.766272,-0.115946,-0.035610,-0.280233,0.368369
-0.050000,-0.050000,0.000000,0.000000,0.000000,0.000000,0.000000,0.000000,0.000000,0.100000,0.100000,0.029660,0.020598,-0.050000,-0.050000,0.535738,-0.494965,0.000000,0.000000,-0.418202,0.367865,-0.327060,-0.406265,-0.746595,0.770630,-0.115595,-0.035333,-0.282050,0.370207
-0.050000,-0.050000,0.000000,0.000000,0.000000,0.000000,0.000000,0.000000,0.000000,0.100000,0.100000,0.029979,0.019680,-0.050000,-0.050000,0.537318,-0.495723,0.000000,0.000000,-0.420085,0.369698,-0.332939,-0.407610,-0.750026,0.774879,-0.115225,-0.035039,-0.283873,0.372027
-0.050000,-0.050000,0.000000,0.000000,0.000000,0.000000,0.000000,0.000000,0.000000,0.100000,0.100000,0.030030,0.018370,-0.050000,-0.050000,0.539658,-0.496441,0.000000,0.000000,-0.422114,0.371549,-0.339149,-0.408672,-0.753612,0.778536,-0.114791,-0.034707,-0.285653,0.373595
-0.050000,-0.050000,0.000000,0.000000,0.000000,0.000000,0.000000,0.000000,0.000000,0.100000,0.100000,0.029993,0.016956,-0.050000,-0.050000,0.542206,-0.497146,0.000000,0.000000,-0.424146,0.373342,-0.345344,-0.409601,-0.757197,0.781918,-0.114333,-0.034364,-0.287405,0.375036
-0.050000,-0.050000,0.000000,0.000000,0.000000,0.000000,0.000000,0.000000,0.000000,0.100000,0.100000,0.029780,0.015337,-0.050000,-0.050000,0.545166,-0.497824,0.000000,0.000000,-0.426182,0.375017,-0.351508,-0.410263,-0.760779,0.784748,-0.113827,-0.034001,-0.289103,0.376224
-0.050000,-0.050000,0.000000,0.000000,0.000000,0.000000,0.000000,0.000000,0.000000,0.100000,0.100000,0.029401,0.013591,-0.050000,-0.050000,0.548409,-0.498487,0.000000,0.000000,-0.428111,0.376466,-0.357406,-0.410634,-0.764287,0.786912,-0.113272,-0.033622,-0.290732,0.377129
-0.050000,-0.050000,0.000000,0.000000,0.000000,0.000000,0.000000,0.000000,0.000000,0.100000,0.100000,0.028940,0.011781,-0.050000,-0.050000,0.551795,-0.499142,0.000000,0.000000,-0.429987,0.377802,-0.363172,-0.410860,-0.767758,0.788744,-0.112692,-0.033235,-0.292327,0.377892
-0.050000,-0.050000,0.000000,0.000000,0.000000,0.000000,0.000000,0.000000,0.000000,0.100000,0.100000,0.028265,0.009923,-0.050000,-0.050000,0.555388,-0.499799,0.000000,0.000000,-0.431533,0.378700,-0.368269,-0.410706,-0.771103,0.789496,-0.112050,-0.032833,-0.293808,0.378267
-0.050000,-0.050000,0.000000,0.000000,0.000000,0.000000,0.000000,0.000000,0.000000,0.100000,0.100000,0.027534,0.008098,-0.050000,-0.050000,0.558981,-0.500462,0.000000,0.000000,-0.432920,0.379450,-0.373087,-0.410466,-0.774428,0.789895,-0.111394,-0.032433,-0.295249,0.378539
-0.050000,-0.050000,0.000000,0.000000,0.000000,0.000000,0.000000,0.000000,0.000000,0.100000,0.100000,0.026691,0.006338,-0.050000,-0.050000,0.562573,-0.501140,0.000000,0.000000,-0.433989,0.379906,-0.377351,-0.410054,-0.777716,0.789589,-0.110713,-0.032036,-0.296609,0.378606
-0.050000,-0.050000,0.000000,0.000000,0.000000,0.000000,0.000000,0.000000,0.000000,0.100000,0.100000,0.025771,0.004732,-0.050000,-0.050000,0.566044,-0.501833,0.000000,0.000000,-0.434674,0.380136,-0.381019,-0.409565,-0.781033,0.788653,-0.110030,-0.031656,-0.297876,0.378518
-0.050000,-0.050000,0.000000,0.000000,0.000000,0.000000,0.000000,0.000000,0.000000,0.100000,0.100000,0.024814,0.003203,-0.050000,-0.050000,0.569455,-0.502534,0.000000,0.000000,-0.435167,0.380254,-0.384389,-0.409036,-0.784364,0.787402,-0.109346,-0.031286,-0.299096,0.378352
-0.050000,-0.050000,0.000000,0.000000,0.000000,0.000000,0.000000,0.000000,0.000000,0.100000,0.100000,0.023794,0.002002,-0.050000,-0.050000,0.572542,-0.503231,0.000000,0.000000,-0.435049,0.380234,-0.386876,-0.408479,-0.787784,0.785392,-0.108698,-0.030965,-0.300132,0.377977
-0.050000,-0.050000,0.000000,0.000000,0.000000,0.000000,0.000000,0.000000,0.000000,0.100000,0.100000,0.022766,0.000927,-0.050000,-0.050000,0.575482,-0.503905,0.000000,0.000000,-0.434734,0.380255,-0.389078,-0.407907,-0.791206,0.783205,-0.108072,-0.030665,-0.301083,0.377511
-0.050000,-0.050000,0.000000,0.000000,0.000000,0.000000,0.000000,0.000000,0.000000,0.100000,0.100000,0.021723,0.000105,-0.050000,-0.050000,0.578126,-0.504533,0.000000,0.000000,-0.434028,0.380357,-0.390710,-0.407308,-0.794632,0.780663,-0.107490,-0.030406,-0.301864,0.376868
-0.050000,-0.050000,0.000000,0.000000,0.000000,0.000000,0.000000,0.000000,0.000000,0.100000,0.100000,0.020681,-0.000464,-0.050000,-0.050000,0.580396,-0.505050,0.000000,0.000000,-0.432979,0.380713,-0.391773,-0.406592,-0.797909,0.777926,-0.106963,-0.030185,-0.302418,0.375969
-0.050000,-0.050000,0.000000,0.000000,0.000000,0.000000,0.000000,0.000000,0.000000,0.100000,0.100000,0.019639,-0.000906,-0.050000,-0.050000,0.582479,-0.505511,0.000000,0.000000,-0.431757,0.381196,-0.392551,-0.405819,-0.801111,0.775090,-0.106463,-0.029981,-0.302858,0.374943
-0.050000,-0.050000,0.000000,0.000000,0.000000,0.000000,0.000000,0.000000,0.000000,0.100000,0.100000,0.018605,-0.001017,-0.050000,-0.050000,0.583863,-0.505684,0.000000,0.000000,-0.430117,0.382258,-0.392431,-0.404652,-0.803752,0.772184,-0.106044,-0.029806,-0.302876,0.373416
-0.050000,-0.050000,0.000000,0.000000,0.000000,0.000000,0.000000,0.000000,0.000000,0.100000,0.100000,0.017570,-0.001044,-0.050000,-0.050000,0.584958,-0.505721,0.000000,0.000000,-0.428369,0.383542,-0.391981,-0.403275,-0.806092,0.769321,-0.105648,-0.029626,-0.302738,0.371707
-0.050000,-0.050000,0.000000,0.000000,0.000000,0.000000,0.000000,0.000000,0.000000,0.100000,0.100000,0.016535,-0.000905,-0.050000,-0.050000,0.585477,-0.505487,0.000000,0.000000,-0.426405,0.385269,-0.390874,-0.401478,-0.807830,0.766542,-0.105297,-0.029438,-0.302288,0.369634
-0.050000,-0.050000,0.000000,0.000000,0.000000,0.000000,0.000000,0.000000,0.000000,0.100000,0.100000,0.015488,-0.000664,-0.050000,-0.050000,0.585302,-0.504924,0.000000,0.000000,-0.424278,0.387407,-0.389044,-0.399141,-0.808814,0.763961,-0.104986,-0.029216,-0.301525,0.367249
-0.050000,-0.050000,0.000000,0.000000,0.000000,0.000000,0.000000,0.000000,0.000000,0.100000,0.100000,0.014435,-0.000372,-0.050000,-0.050000,0.584780,-0.504196,0.000000,0.000000,-0.422068,0.389752,-0.386853,-0.396535,-0.809421,0.761478,-0.104695,-0.028978,-0.300606,0.364708
-0.050000,-0.050000,0.000000,0.000000,0.000000,0.000000,0.000000,0.000000,0.000000,0.100000,0.100000,0.013342,-0.000023,-0.050000,-0.050000,0.583069,-0.502949,0.000000,0.000000,-0.419665,0.392540,-0.383516,-0.393067,-0.808866,0.759441,-0.104472,-0.028676,-0.299256,0.361902
-0.050000,-0.050000,0.000000,0.000000,0.000000,0.000000,0.000000,0.000000,0.000000,0.100000,0.100000,0.012226,0.000321,-0.050000,-0.050000,0.580936,-0.501546,0.000000,0.000000,-0.417207,0.395391,-0.379801,-0.389340,-0.807984,0.757594,-0.104284,-0.028357,-0.297777,0.359098
-0.050000,-0.050000,0.000000,0.000000,0.000000,0.000000,0.000000,0.000000,0.000000,0.100000,0.100000,0.011066,0.000654,-0.050000,-0.050000,0.577961,-0.499832,0.000000,0.000000,-0.414642,0.398366,-0.375327,-0.385095,-0.806448,0.756127,-0.104166,-0.028008,-0.296037,0.356298
-0.050000,-0.050000,0.000000,0.000000,0.000000,0.000000,0.000000,0.000000,0.000000,0.100000,0.100000,0.009839,0.000942,-0.050000,-0.050000,0.574174,-0.497900,0.000000,0.000000,-0.411986,0.401272,-0.370155,-0.380465,-0.804477,0.755096,-0.104158,-0.027663,-0.294037,0.353665
-0.050000,-0.050000,0.000000,0.000000,0.000000,0.000000,0.000000,0.000000,0.000000,0.100000,0.100000,0.008579,0.001208,-0.050000,-0.050000,0.569981,-0.495859,0.000000,0.000000,-0.409285,0.404142,-0.364635,-0.375642,-0.802288,0.754281,-0.104204,-0.027321,-0.291906,0.351114
-0.050000,-0.050000,0.000000,0.000000,0.000000,0.000000,0.000000,0.000000,0.000000,0.100000,0.100000,0.007175,0.001377,-0.050000,-0.050000,0.564761,-0.493699,0.000000,0.000000,-0.406486,0.406637,-0.358228,-0.370480,-0.799801,0.754112,-0.104474,-0.027055,-0.289305,0.348932
-0.050000,-0.050000,0.000000,0.000000,0.000000,0.000000,0.000000,0.000000,0.000000,0.100000,0.100000,0.005704,0.001506,-0.050000,-0.050000,0.559309,-0.491582,0.000000,0.000000,-0.403673,0.408934,-0.351591,-0.365270,-0.797298,0.754106,-0.104828,-0.026840,-0.286492,0.346850
-0.050000,-0.050000,0.000000,0.000000,0.000000,0.000000,0.000000,0.000000,0.000000,0.100000,0.100000,0.004101,0.001554,-0.050000,-0.050000,0.553394,-0.489550,0.000000,0.000000,-0.400835,0.410836,-0.344493,-0.359967,-0.794760,0.754429,-0.105351,-0.026723,-0.283256,0.344967
-0.050000,-0.050000,0.000000,0.000000,0.000000,0.000000,0.000000,0.000000,0.000000,0.100000,0.100000,0.002326,0.001498,-0.050000,-0.050000,0.547306,-0.487765,0.000000,0.000000,-0.398029,0.412244,-0.337056,-0.354623,-0.792215,0.754855,-0.106025,-0.026744,-0.279447,0.343102
-0.050000,-0.050000,0.000000,0.000000,0.000000,0.000000,0.000000,0.000000,0.000000,0.100000,0.100000,0.000465,0.001391,-0.050000,-0.050000,0.541133,-0.486103,0.000000,0.000000,-0.395239,0.413404,-0.329449,-0.349259,-0.789666,0.755334,-0.106775,-0.026833,-0.275352,0.341246
-0.050000,-0.050000,0.000000,0.000000,0.000000,0.000000,0.000000,0.000000,0.000000,0.100000,0.100000,-0.001700,0.001069,-0.050000,-0.050000,0.535194,-0.485011,0.000000,0.000000,-0.392609,0.413744,-0.321455,-0.343751,-0.786904,0.755453,-0.107661,-0.027163,-0.270168,0.338983
-0.050000,-0.050000,0.000000,0.000000,0.000000,0.000000,0.000000,0.000000,0.000000,0.100000,0.100000,-0.003972,0.000646,-0.050000,-0.050000,0.529493,-0.484152,0.000000,0.000000,-0.390074,0.413805,-0.313340,-0.338112,-0.783940,0.755243,-0.108544,-0.027582,-0.264560,0.336408
-0.050000,-0.050000,0.000000,0.000000,0.000000,0.000000,0.000000,0.000000,0.000000,0.100000,0.100000,-0.006460,0.000018,-0.050000,-0.050000,0.524270,-0.483757,0.000000,0.000000,-0.387731,0.413310,-0.304985,-0.332210,-0.780570,0.754374,-0.109419,-0.028178,-0.258108,0.333209
-0.050000,-0.050000,0.000000,0.000000,0.000000,0.000000,0.000000,0.000000,0.000000,0.100000,0.100000,-0.009151,-0.000895,-0.050000,-0.050000,0.519802,-0.483857,0.000000,0.000000,-0.385671,0.412294,-0.296336,-0.325791,-0.776461,0.752428,-0.110167,-0.028961,-0.250762,0.329035
-0.050000,-0.050000,0.000000,0.000000,0.000000,0.000000,0.000000,0.000000,0.000000,0.100000,0.100000,-0.011943,-0.001953,-0.050000,-0.050000,0.515713,-0.484205,0.000000,0.000000,-0.383753,0.411017,-0.287539,-0.319114,-0.771981,0.749943,-0.110853,-0.029838,-0.242969,0.324373
-0.050000,-0.050000,0.000000,0.000000,0.000000,0.000000,0.000000,0.000000,0.000000,0.100000,0.100000,-0.014983,-0.003588,-0.050000,-0.050000,0.513072,-0.485271,0.000000,0.000000,-0.382403,0.409091,-0.278127,-0.311221,-0.765893,0.745359,-0.111176,-0.031007,-0.233909,0.317819
-0.050000,-0.050000,0.000000,0.000000,0.000000,0.000000,0.000000,0.000000,0.000000,0.100000,0.100000,-0.018078,-0.005469,-0.050000,-0.050000,0.510979,-0.486554,0.000000,0.000000,-0.381294,0.407021,-0.268428,-0.302783,-0.759133,0.740005,-0.111331,-0.032272,-0.224508,0.310557
-0.050000,-0.050000,0.000000,0.000000,0.000000,0.000000,0.000000,0.000000,0.000000,0.100000,0.100000,-0.021285,-0.007840,-0.050000,-0.050000,0.509981,-0.488271,0.000000,0.000000,-0.380666,0.404665,-0.258159,-0.293255,-0.751028,0.733109,-0.111154,-0.033726,-0.214423,0.301878
-0.050000,-0.050000,0.000000,0.000000,0.000000,0.000000,0.000000,0.000000,0.000000,0.100000,0.100000,-0.024544,-0.010792,-0.050000,-0.050000,0.510123,-0.490361,0.000000,0.000000,-0.380627,0.402227,-0.247139,-0.282424,-0.741391,0.724760,-0.110595,-0.035348,-0.203931,0.291814
-0.050000,-0.050000,0.000000,0.000000,0.000000,0.000000,0.000000,0.000000,0.000000,0.100000,0.100000,-0.027830,-0.014035,-0.050000,-0.050000,0.510836,-0.492638,0.000000,0.000000,-0.380884,0.399748,-0.235742,-0.270942,-0.730989,0.715683,-0.109846,-0.037053,-0.193236,0.281057
-0.050000,-0.050000,0.000000,0.000000,0.000000,0.000000,0.000000,0.000000,0.000000,0.100000,0.100000,-0.031121,-0.018239,-0.050000,-0.050000,0.513203,-0.495383,0.000000,0.000000,-0.382193,0.397516,-0.222939,-0.257317,-0.718137,0.704904,-0.108535,-0.038942,-0.182496,0.268592
-0.050000,-0.050000,0.000000,0.000000,0.000000,0.000000,0.000000,0.000000,0.000000,0.100000,0.100000,-0.034399,-0.022769,-0.050000,-0.050000,0.516061,-0.498251,0.000000,0.000000,-0.383900,0.395495,-0.209570,-0.242953,-0.704451,0.693810,-0.107070,-0.040861,-0.171960,0.255781
-0.050000,-0.050000,0.000000,0.000000,0.000000,0.000000,0.000000,0.000000,0.000000,0.100000,0.100000,-0.037649,-0.027949,-0.050000,-0.050000,0.519900,-0.501362,0.000000,0.000000,-0.386403,0.393898,-0.195073,-0.227111,-0.689095,0.682086,-0.105297,-0.042843,-0.161830,0.242277
-0.050000,-0.050000,0.000000,0.000000,0.000000,0.000000,0.000000,0.000000,0.000000,0.100000,0.100000,-0.040862,-0.033728,-0.050000,-0.050000,0.524506,-0.504631,0.000000,0.000000,-0.389756,0.392953,-0.179231,-0.209775,-0.672077,0.670347,-0.103335,-0.044822,-0.152530,0.228654
-0.050000,-0.050000,0.000000,0.000000,0.000000,0.000000,0.000000,0.000000,0.000000,0.100000,0.100000,-0.044056,-0.039807,-0.050000,-0.050000,0.529495,-0.507979,0.000000,0.000000,-0.393535,0.392334,-0.162717,-0.191691,-0.654229,0.658600,-0.101280,-0.046800,-0.143646,0.214971
-0.050000,-0.050000,0.000000,0.000000,0.000000,0.000000,0.000000,0.000000,0.000000,0.100000,0.100000,-0.047206,-0.046619,-0.050000,-0.050000,0.535160,-0.511367,0.000000,0.000000,-0.398564,0.392935,-0.143792,-0.171297,-0.633958,0.647791,-0.099181,-0.048686,-0.136480,0.201981
-0.050000,-0.050000,0.000000,0.000000,0.000000,0.000000,0.000000,0.000000,0.000000,0.100000,0.100000,-0.050351,-0.053600,-0.050000,-0.050000,0.540839,-0.514675,0.000000,0.000000,-0.403957,0.393974,-0.123898,-0.150068,-0.612928,0.637588,-0.097151,-0.050514,-0.129941,0.189447
-0.050000,-0.050000,0.000000,0.000000,0.000000,0.000000,0.000000,0.000000,0.000000,0.100000,0.100000,-0.053488,-0.060919,-0.050000,-0.050000,0.546545,-0.517821,0.000000,0.000000,-0.410079,0.395888,-0.102065,-0.127171,-0.590381,0.628599,-0.095258,-0.052225,-0.124657,0.177824
-0.050000,-0.050000,0.000000,0.000000,0.000000,0.000000,0.000000,0.000000,0.000000,0.100000,0.100000,-0.056647,-0.068407,-0.050000,-0.050000,0.551760,-0.520552,0.000000,0.000000,-0.416740,0.398630,-0.077903,-0.102382,-0.566502,0.621305,-0.093632,-0.053757,-0.120465,0.167322
