RRGGZZ/g1_deploy_sonic/data/example_scalelab/qwen_audio/g1_ref_en/case_test3/joint_pos.csv
joint_0,joint_1,joint_2,joint_3,joint_4,joint_5,joint_6,joint_7,joint_8,joint_9,joint_10,joint_11,joint_12,joint_13,joint_14,joint_15,joint_16,joint_17,joint_18,joint_19,joint_20,joint_21,joint_22,joint_23,joint_24,joint_25,joint_26,joint_27,joint_28
-0.050000,-0.050000,0.000000,0.000000,0.000000,0.000000,0.000000,0.000000,0.000000,0.100000,0.100000,-0.203667,-0.606818,-0.050000,-0.050000,0.435930,-0.747160,0.000000,0.000000,-0.539724,0.261225,1.122541,-0.098962,0.190199,-0.368319,-0.078879,-0.052397,0.008099,-0.591658
-0.050000,-0.050000,0.000000,0.000000,0.000000,0.000000,0.000000,0.000000,0.000000,0.100000,0.100000,-0.203744,-0.612792,-0.050000,-0.050000,0.426238,-0.752567,0.000000,0.000000,-0.538137,0.257629,1.139515,-0.088583,0.193754,-0.367801,-0.085784,-0.052157,0.008591,-0.593260
-0.050000,-0.050000,0.000000,0.000000,0.000000,0.000000,0.000000,0.000000,0.000000,0.100000,0.100000,-0.202503,-0.617708,-0.050000,-0.050000,0.417734,-0.757575,0.000000,0.000000,-0.536047,0.252992,1.154516,-0.078961,0.197531,-0.367281,-0.091441,-0.051509,0.008542,-0.594101
-0.050000,-0.050000,0.000000,0.000000,0.000000,0.000000,0.000000,0.000000,0.000000,0.100000,0.100000,-0.198625,-0.620507,-0.050000,-0.050000,0.411606,-0.761784,0.000000,0.000000,-0.532949,0.246270,1.165574,-0.070854,0.201753,-0.366759,-0.094602,-0.050043,0.007410,-0.593420
-0.050000,-0.050000,0.000000,0.000000,0.000000,0.000000,0.000000,0.000000,0.000000,0.100000,0.100000,-0.193432,-0.622167,-0.050000,-0.050000,0.406621,-0.765798,0.000000,0.000000,-0.529336,0.238492,1.174720,-0.063664,0.205789,-0.366083,-0.096375,-0.048060,0.005882,-0.592205
-0.050000,-0.050000,0.000000,0.000000,0.000000,0.000000,0.000000,0.000000,0.000000,0.100000,0.100000,-0.187583,-0.623258,-0.050000,-0.050000,0.402205,-0.769715,0.000000,0.000000,-0.525465,0.230185,1.182910,-0.056934,0.209732,-0.365330,-0.097452,-0.045818,0.004155,-0.590721
-0.050000,-0.050000,0.000000,0.000000,0.000000,0.000000,0.000000,0.000000,0.000000,0.100000,0.100000,-0.181034,-0.623474,-0.050000,-0.050000,0.398718,-0.773720,0.000000,0.000000,-0.521114,0.221178,1.189461,-0.051379,0.212980,-0.364079,-0.097348,-0.043316,0.002425,-0.589366
-0.050000,-0.050000,0.000000,0.000000,0.000000,0.000000,0.000000,0.000000,0.000000,0.100000,0.100000,-0.174536,-0.623577,-0.050000,-0.050000,0.395439,-0.777772,0.000000,0.000000,-0.516672,0.212132,1.195618,-0.046261,0.215931,-0.362597,-0.097023,-0.040887,0.000801,-0.588290
-0.050000,-0.050000,0.000000,0.000000,0.000000,0.000000,0.000000,0.000000,0.000000,0.100000,0.100000,-0.168139,-0.623450,-0.050000,-0.050000,0.392575,-0.781920,0.000000,0.000000,-0.512050,0.203008,1.200986,-0.042016,0.218288,-0.360653,-0.096258,-0.038602,-0.000612,-0.587771
-0.050000,-0.050000,0.000000,0.000000,0.000000,0.000000,0.000000,0.000000,0.000000,0.100000,0.100000,-0.162203,-0.623313,-0.050000,-0.050000,0.390063,-0.786051,0.000000,0.000000,-0.507395,0.194092,1.205657,-0.038766,0.220026,-0.358186,-0.095287,-0.036707,-0.001700,-0.588167
-0.050000,-0.050000,0.000000,0.000000,0.000000,0.000000,0.000000,0.000000,0.000000,0.100000,0.100000,-0.156497,-0.623171,-0.050000,-0.050000,0.387726,-0.790175,0.000000,0.000000,-0.502725,0.185279,1.209979,-0.036014,0.221455,-0.355458,-0.094213,-0.035007,-0.002627,-0.589022
-0.050000,-0.050000,0.000000,0.000000,0.000000,0.000000,0.000000,0.000000,0.000000,0.100000,0.100000,-0.151783,-0.623200,-0.050000,-0.050000,0.385900,-0.793988,0.000000,0.000000,-0.498241,0.177105,1.213287,-0.034806,0.222044,-0.351969,-0.093103,-0.034121,-0.002971,-0.591595
-0.050000,-0.050000,0.000000,0.000000,0.000000,0.000000,0.000000,0.000000,0.000000,0.100000,0.100000,-0.147440,-0.623315,-0.050000,-0.050000,0.384243,-0.797593,0.000000,0.000000,-0.493892,0.169232,1.216263,-0.034053,0.222410,-0.348272,-0.092050,-0.033529,-0.003097,-0.594782
-0.050000,-0.050000,0.000000,0.000000,0.000000,0.000000,0.000000,0.000000,0.000000,0.100000,0.100000,-0.143837,-0.623600,-0.050000,-0.050000,0.382927,-0.800784,0.000000,0.000000,-0.489812,0.161960,1.218577,-0.034209,0.222327,-0.344159,-0.091113,-0.033526,-0.002787,-0.599197
-0.050000,-0.050000,0.000000,0.000000,0.000000,0.000000,0.000000,0.000000,0.000000,0.100000,0.100000,-0.140975,-0.624064,-0.050000,-0.050000,0.381940,-0.803393,0.000000,0.000000,-0.486113,0.155435,1.220252,-0.034984,0.221915,-0.339782,-0.090379,-0.034057,-0.001997,-0.604772
-0.050000,-0.050000,0.000000,0.000000,0.000000,0.000000,0.000000,0.000000,0.000000,0.100000,0.100000,-0.138482,-0.624617,-0.050000,-0.050000,0.381118,-0.805709,0.000000,0.000000,-0.482604,0.149283,1.221609,-0.036067,0.221337,-0.335274,-0.089748,-0.034853,-0.000967,-0.610929
-0.050000,-0.050000,0.000000,0.000000,0.000000,0.000000,0.000000,0.000000,0.000000,0.100000,0.100000,-0.137034,-0.625400,-0.050000,-0.050000,0.380751,-0.807014,0.000000,0.000000,-0.479768,0.144425,1.222057,-0.037418,0.220398,-0.330638,-0.089468,-0.036222,0.000829,-0.618519
-0.050000,-0.050000,0.000000,0.000000,0.000000,0.000000,0.000000,0.000000,0.000000,0.100000,0.100000,-0.135909,-0.626243,-0.050000,-0.050000,0.380512,-0.807980,0.000000,0.000000,-0.477171,0.140039,1.222215,-0.038592,0.219356,-0.326037,-0.089293,-0.037666,0.002879,-0.626426
-0.050000,-0.050000,0.000000,0.000000,0.000000,0.000000,0.000000,0.000000,0.000000,0.100000,0.100000,-0.135430,-0.627206,-0.050000,-0.050000,0.380533,-0.808272,0.000000,0.000000,-0.475054,0.136599,1.221790,-0.039410,0.218110,-0.321505,-0.089327,-0.039262,0.005437,-0.634966
-0.050000,-0.050000,0.000000,0.000000,0.000000,0.000000,0.000000,0.000000,0.000000,0.100000,0.100000,-0.135562,-0.628261,-0.050000,-0.050000,0.380757,-0.807975,0.000000,0.000000,-0.473425,0.134149,1.220779,-0.039324,0.216647,-0.317128,-0.089502,-0.040727,0.008443,-0.643723
-0.050000,-0.050000,0.000000,0.000000,0.000000,0.000000,0.000000,0.000000,0.000000,0.100000,0.100000,-0.136000,-0.629362,-0.050000,-0.050000,0.381083,-0.807382,0.000000,0.000000,-0.472040,0.132194,1.219475,-0.038786,0.215076,-0.312828,-0.089748,-0.042127,0.011674,-0.652589
-0.050000,-0.050000,0.000000,0.000000,0.000000,0.000000,0.000000,0.000000,0.000000,0.100000,0.100000,-0.137335,-0.630592,-0.050000,-0.050000,0.381618,-0.806134,0.000000,0.000000,-0.471396,0.131727,1.217230,-0.036194,0.213120,-0.308750,-0.090080,-0.042910,0.015390,-0.661083
-0.050000,-0.050000,0.000000,0.000000,0.000000,0.000000,0.000000,0.000000,0.000000,0.100000,0.100000,-0.138966,-0.631869,-0.050000,-0.050000,0.382190,-0.804762,0.000000,0.000000,-0.471004,0.131730,1.214636,-0.032779,0.211018,-0.304709,-0.090409,-0.043380,0.019182,-0.669230
-0.050000,-0.050000,0.000000,0.000000,0.000000,0.000000,0.000000,0.000000,0.000000,0.100000,0.100000,-0.141193,-0.633242,-0.050000,-0.050000,0.382835,-0.803145,0.000000,0.000000,-0.471115,0.132676,1.211344,-0.027718,0.208624,-0.300742,-0.090730,-0.043225,0.023127,-0.676683
-0.050000,-0.050000,0.000000,0.000000,0.000000,0.000000,0.000000,0.000000,0.000000,0.100000,0.100000,-0.143994,-0.634725,-0.050000,-0.050000,0.383489,-0.801488,0.000000,0.000000,-0.471733,0.134461,1.207284,-0.021006,0.205938,-0.296773,-0.091020,-0.042373,0.027044,-0.683103
-0.050000,-0.050000,0.000000,0.000000,0.000000,0.000000,0.000000,0.000000,0.000000,0.100000,0.100000,-0.147082,-0.636263,-0.050000,-0.050000,0.384147,-0.799810,0.000000,0.000000,-0.472603,0.136666,1.202840,-0.013467,0.203107,-0.292803,-0.091294,-0.041172,0.030949,-0.689008
-0.050000,-0.050000,0.000000,0.000000,0.000000,0.000000,0.000000,0.000000,0.000000,0.100000,0.100000,-0.150941,-0.637961,-0.050000,-0.050000,0.384718,-0.798364,0.000000,0.000000,-0.474204,0.139906,1.197200,-0.003895,0.199926,-0.288825,-0.091573,-0.039094,0.034613,-0.693137
-0.050000,-0.050000,0.000000,0.000000,0.000000,0.000000,0.000000,0.000000,0.000000,0.100000,0.100000,-0.154998,-0.639693,-0.050000,-0.050000,0.385229,-0.797073,0.000000,0.000000,-0.476018,0.143405,1.191189,0.006083,0.196687,-0.284899,-0.091893,-0.036871,0.038168,-0.696708
-0.050000,-0.050000,0.000000,0.000000,0.000000,0.000000,0.000000,0.000000,0.000000,0.100000,0.100000,-0.159451,-0.641496,-0.050000,-0.050000,0.385619,-0.796093,0.000000,0.000000,-0.478256,0.147419,1.184437,0.016872,0.193331,-0.281079,-0.092295,-0.034354,0.041507,-0.699164
-0.050000,-0.050000,0.000000,0.000000,0.000000,0.000000,0.000000,0.000000,0.000000,0.100000,0.100000,-0.164131,-0.643301,-0.050000,-0.050000,0.385829,-0.795522,0.000000,0.000000,-0.480811,0.151784,1.177115,0.027825,0.190012,-0.277558,-0.092876,-0.031938,0.044652,-0.700742
-0.050000,-0.050000,0.000000,0.000000,0.000000,0.000000,0.000000,0.000000,0.000000,0.100000,0.100000,-0.168925,-0.645106,-0.050000,-0.050000,0.385949,-0.795156,0.000000,0.000000,-0.483525,0.156325,1.169507,0.038859,0.186711,-0.274187,-0.093547,-0.029574,0.047701,-0.701881
-0.050000,-0.050000,0.000000,0.000000,0.000000,0.000000,0.000000,0.000000,0.000000,0.100000,0.100000,-0.173766,-0.646797,-0.050000,-0.050000,0.385723,-0.795423,0.000000,0.000000,-0.486493,0.161222,1.161474,0.049305,0.183699,-0.271534,-0.094589,-0.027924,0.050543,-0.702119
-0.050000,-0.050000,0.000000,0.000000,0.000000,0.000000,0.000000,0.000000,0.000000,0.100000,0.100000,-0.178531,-0.648422,-0.050000,-0.050000,0.385363,-0.795860,0.000000,0.000000,-0.489467,0.166220,1.153483,0.059422,0.180842,-0.269136,-0.095753,-0.026622,0.053329,-0.702130
-0.050000,-0.050000,0.000000,0.000000,0.000000,0.000000,0.000000,0.000000,0.000000,0.100000,0.100000,-0.183141,-0.649917,-0.050000,-0.050000,0.384736,-0.796635,0.000000,0.000000,-0.492451,0.171421,1.145576,0.068881,0.178295,-0.267247,-0.097158,-0.026015,0.056002,-0.701688
-0.050000,-0.050000,0.000000,0.000000,0.000000,0.000000,0.000000,0.000000,0.000000,0.100000,0.100000,-0.187457,-0.651286,-0.050000,-0.050000,0.383829,-0.797572,0.000000,0.000000,-0.495296,0.176874,1.138143,0.077809,0.176100,-0.265655,-0.098698,-0.026075,0.058496,-0.700679
-0.050000,-0.050000,0.000000,0.000000,0.000000,0.000000,0.000000,0.000000,0.000000,0.100000,0.100000,-0.191624,-0.652593,-0.050000,-0.050000,0.382781,-0.798590,0.000000,0.000000,-0.498071,0.182454,1.130949,0.086472,0.174081,-0.264210,-0.100305,-0.026468,0.060899,-0.699388
-0.050000,-0.050000,0.000000,0.000000,0.000000,0.000000,0.000000,0.000000,0.000000,0.100000,0.100000,-0.195239,-0.653822,-0.050000,-0.050000,0.381329,-0.799489,0.000000,0.000000,-0.500457,0.188566,1.124980,0.095080,0.172513,-0.262511,-0.101802,-0.027433,0.062759,-0.696644
-0.050000,-0.050000,0.000000,0.000000,0.000000,0.000000,0.000000,0.000000,0.000000,0.100000,0.100000,-0.198666,-0.655087,-0.050000,-0.050000,0.379759,-0.800217,0.000000,0.000000,-0.502666,0.194908,1.119537,0.104006,0.171024,-0.260419,-0.103127,-0.028364,0.064309,-0.693126
-0.050000,-0.050000,0.000000,0.000000,0.000000,0.000000,0.000000,0.000000,0.000000,0.100000,0.100000,-0.201719,-0.656424,-0.050000,-0.050000,0.377954,-0.800605,0.000000,0.000000,-0.504522,0.201710,1.115144,0.113569,0.169694,-0.257544,-0.104111,-0.029230,0.065239,-0.688062
-0.050000,-0.050000,0.000000,0.000000,0.000000,0.000000,0.000000,0.000000,0.000000,0.100000,0.100000,-0.204440,-0.657957,-0.050000,-0.050000,0.375968,-0.800425,0.000000,0.000000,-0.505954,0.209015,1.111892,0.124349,0.168318,-0.253320,-0.104493,-0.029584,0.065301,-0.680921
-0.050000,-0.050000,0.000000,0.000000,0.000000,0.000000,0.000000,0.000000,0.000000,0.100000,0.100000,-0.206995,-0.659587,-0.050000,-0.050000,0.373891,-0.799963,0.000000,0.000000,-0.507173,0.216570,1.109210,0.135736,0.166917,-0.248421,-0.104575,-0.029682,0.064929,-0.672742
-0.050000,-0.050000,0.000000,0.000000,0.000000,0.000000,0.000000,0.000000,0.000000,0.100000,0.100000,-0.209138,-0.661601,-0.050000,-0.050000,0.371635,-0.798432,0.000000,0.000000,-0.507664,0.224765,1.108163,0.149245,0.165111,-0.241039,-0.103494,-0.028614,0.063061,-0.661126
-0.050000,-0.050000,0.000000,0.000000,0.000000,0.000000,0.000000,0.000000,0.000000,0.100000,0.100000,-0.211161,-0.663718,-0.050000,-0.050000,0.369350,-0.796527,0.000000,0.000000,-0.507888,0.233069,1.107584,0.163288,0.163074,-0.232873,-0.102011,-0.027183,0.060731,-0.648514
-0.050000,-0.050000,0.000000,0.000000,0.000000,0.000000,0.000000,0.000000,0.000000,0.100000,0.100000,-0.212944,-0.666042,-0.050000,-0.050000,0.367007,-0.793874,0.000000,0.000000,-0.507577,0.241588,1.107939,0.178401,0.160579,-0.223140,-0.099725,-0.025027,0.057473,-0.633913
-0.050000,-0.050000,0.000000,0.000000,0.000000,0.000000,0.000000,0.000000,0.000000,0.100000,0.100000,-0.214473,-0.668404,-0.050000,-0.050000,0.364661,-0.790552,0.000000,0.000000,-0.506712,0.250002,1.109029,0.193726,0.157516,-0.212311,-0.096770,-0.022547,0.053574,-0.618179
-0.050000,-0.050000,0.000000,0.000000,0.000000,0.000000,0.000000,0.000000,0.000000,0.100000,0.100000,-0.215875,-0.670786,-0.050000,-0.050000,0.362313,-0.786896,0.000000,0.000000,-0.505569,0.258365,1.110486,0.209157,0.154169,-0.200934,-0.093480,-0.019906,0.049353,-0.601879
-0.050000,-0.050000,0.000000,0.000000,0.000000,0.000000,0.000000,0.000000,0.000000,0.100000,0.100000,-0.216791,-0.672864,-0.050000,-0.050000,0.360027,-0.782491,0.000000,0.000000,-0.503634,0.266034,1.112765,0.223206,0.149964,-0.188946,-0.089592,-0.017758,0.044812,-0.585748
-0.050000,-0.050000,0.000000,0.000000,0.000000,0.000000,0.000000,0.000000,0.000000,0.100000,0.100000,-0.217491,-0.674725,-0.050000,-0.050000,0.357776,-0.777940,0.000000,0.000000,-0.501478,0.273322,1.115249,0.236277,0.145520,-0.177091,-0.085668,-0.016118,0.040387,-0.570321
-0.050000,-0.050000,0.000000,0.000000,0.000000,0.000000,0.000000,0.000000,0.000000,0.100000,0.100000,-0.217760,-0.676152,-0.050000,-0.050000,0.355597,-0.773097,0.000000,0.000000,-0.498883,0.279847,1.118145,0.247388,0.140601,-0.165502,-0.081676,-0.015493,0.036194,-0.556304
-0.050000,-0.050000,0.000000,0.000000,0.000000,0.000000,0.000000,0.000000,0.000000,0.100000,0.100000,-0.217487,-0.677013,-0.050000,-0.050000,0.353513,-0.768148,0.000000,0.000000,-0.495999,0.285454,1.121375,0.255967,0.135381,-0.154639,-0.077913,-0.016324,0.032556,-0.544653
-0.050000,-0.050000,0.000000,0.000000,0.000000,0.000000,0.000000,0.000000,0.000000,0.100000,0.100000,-0.216943,-0.677592,-0.050000,-0.050000,0.351476,-0.763145,0.000000,0.000000,-0.492969,0.290602,1.124774,0.263280,0.130010,-0.144139,-0.074266,-0.017884,0.029194,-0.534185
-0.050000,-0.050000,0.000000,0.000000,0.000000,0.000000,0.000000,0.000000,0.000000,0.100000,0.100000,-0.215489,-0.677367,-0.050000,-0.050000,0.349600,-0.758152,0.000000,0.000000,-0.489782,0.294439,1.128617,0.266977,0.124518,-0.134979,-0.071245,-0.021611,0.026826,-0.527727
-0.050000,-0.050000,0.000000,0.000000,0.000000,0.000000,0.000000,0.000000,0.000000,0.100000,0.100000,-0.213738,-0.676969,-0.050000,-0.050000,0.347780,-0.753177,0.000000,0.000000,-0.486635,0.297966,1.132592,0.269877,0.119095,-0.126210,-0.068451,-0.025806,0.024729,-0.522375
-0.050000,-0.050000,0.000000,0.000000,0.000000,0.000000,0.000000,0.000000,0.000000,0.100000,0.100000,-0.211395,-0.676228,-0.050000,-0.050000,0.346074,-0.748239,0.000000,0.000000,-0.483567,0.300871,1.136827,0.271185,0.113812,-0.118223,-0.066110,-0.030934,0.023175,-0.519240
-0.050000,-0.050000,0.000000,0.000000,0.000000,0.000000,0.000000,0.000000,0.000000,0.100000,0.100000,-0.208563,-0.675435,-0.050000,-0.050000,0.344476,-0.743303,0.000000,0.000000,-0.480719,0.303572,1.141258,0.272179,0.108852,-0.110715,-0.064123,-0.036131,0.021881,-0.517209
-0.050000,-0.050000,0.000000,0.000000,0.000000,0.000000,0.000000,0.000000,0.000000,0.100000,0.100000,-0.205486,-0.674616,-0.050000,-0.050000,0.342933,-0.738369,0.000000,0.000000,-0.477981,0.306171,1.145787,0.273016,0.104053,-0.103446,-0.062313,-0.041361,0.020716,-0.515732
-0.050000,-0.050000,0.000000,0.000000,0.000000,0.000000,0.000000,0.000000,0.000000,0.100000,0.100000,-0.201939,-0.674168,-0.050000,-0.050000,0.341530,-0.733359,0.000000,0.000000,-0.475674,0.309198,1.150435,0.275408,0.099916,-0.096321,-0.060767,-0.045281,0.019423,-0.513698
-0.050000,-0.050000,0.000000,0.000000,0.000000,0.000000,0.000000,0.000000,0.000000,0.100000,0.100000,-0.198340,-0.673945,-0.050000,-0.050000,0.340159,-0.728303,0.000000,0.000000,-0.473499,0.312588,1.155042,0.278815,0.096019,-0.089076,-0.059221,-0.048407,0.017933,-0.510743
-0.050000,-0.050000,0.000000,0.000000,0.000000,0.000000,0.000000,0.000000,0.000000,0.100000,0.100000,-0.194638,-0.674171,-0.050000,-0.050000,0.338853,-0.723155,0.000000,0.000000,-0.471591,0.316707,1.159567,0.284253,0.092606,-0.081591,-0.057673,-0.049946,0.016053,-0.505942
-0.050000,-0.050000,0.000000,0.000000,0.000000,0.000000,0.000000,0.000000,0.000000,0.100000,0.100000,-0.191039,-0.674874,-0.050000,-0.050000,0.337573,-0.717908,0.000000,0.000000,-0.469849,0.321825,1.163826,0.292034,0.089650,-0.073679,-0.056014,-0.049640,0.013579,-0.498174
-0.050000,-0.050000,0.000000,0.000000,0.000000,0.000000,0.000000,0.000000,0.000000,0.100000,0.100000,-0.187490,-0.675816,-0.050000,-0.050000,0.336306,-0.712610,0.000000,0.000000,-0.468190,0.327442,1.167950,0.300988,0.086923,-0.065554,-0.054300,-0.048410,0.010810,-0.488922
-0.050000,-0.050000,0.000000,0.000000,0.000000,0.000000,0.000000,0.000000,0.000000,0.100000,0.100000,-0.184342,-0.677214,-0.050000,-0.050000,0.335022,-0.707201,0.000000,0.000000,-0.466559,0.334578,1.171404,0.312724,0.084779,-0.056787,-0.052414,-0.044820,0.007048,-0.474431
-0.050000,-0.050000,0.000000,0.000000,0.000000,0.000000,0.000000,0.000000,0.000000,0.100000,0.100000,-0.181380,-0.678599,-0.050000,-0.050000,0.333715,-0.701784,0.000000,0.000000,-0.464861,0.342094,1.174562,0.324807,0.082784,-0.047863,-0.050521,-0.040803,0.002983,-0.458269
-0.050000,-0.050000,0.000000,0.000000,0.000000,0.000000,0.000000,0.000000,0.000000,0.100000,0.100000,-0.178789,-0.679959,-0.050000,-0.050000,0.332363,-0.696351,0.000000,0.000000,-0.463031,0.350367,1.177129,0.337584,0.081087,-0.038626,-0.048613,-0.035931,-0.001690,-0.438763
-0.050000,-0.050000,0.000000,0.000000,0.000000,0.000000,0.000000,0.000000,0.000000,0.100000,0.100000,-0.176606,-0.680908,-0.050000,-0.050000,0.330948,-0.690978,0.000000,0.000000,-0.460962,0.358938,1.179023,0.349548,0.079595,-0.029176,-0.046860,-0.031156,-0.006826,-0.416648
-0.050000,-0.050000,0.000000,0.000000,0.000000,0.000000,0.000000,0.000000,0.000000,0.100000,0.100000,-0.174628,-0.681651,-0.050000,-0.050000,0.329501,-0.685635,0.000000,0.000000,-0.458775,0.367658,1.180579,0.361106,0.078206,-0.019619,-0.045182,-0.026428,-0.012195,-0.393228
-0.050000,-0.050000,0.000000,0.000000,0.000000,0.000000,0.000000,0.000000,0.000000,0.100000,0.100000,-0.173233,-0.681313,-0.050000,-0.050000,0.327943,-0.680495,0.000000,0.000000,-0.456192,0.376012,1.181108,0.369311,0.077005,-0.009708,-0.043998,-0.023204,-0.017966,-0.367547
-0.050000,-0.050000,0.000000,0.000000,0.000000,0.000000,0.000000,0.000000,0.000000,0.100000,0.100000,-0.172004,-0.680549,-0.050000,-0.050000,0.326346,-0.675440,0.000000,0.000000,-0.453510,0.383995,1.181325,0.375916,0.075839,0.000397,-0.043038,-0.020791,-0.023768,-0.341726
-0.050000,-0.050000,0.000000,0.000000,0.000000,0.000000,0.000000,0.000000,0.000000,0.100000,0.100000,-0.171107,-0.678933,-0.050000,-0.050000,0.324669,-0.670556,0.000000,0.000000,-0.450628,0.391239,1.180918,0.379318,0.074746,0.010891,-0.042527,-0.020001,-0.029630,-0.315621
-0.050000,-0.050000,0.000000,0.000000,0.000000,0.000000,0.000000,0.000000,0.000000,0.100000,0.100000,-0.170478,-0.676551,-0.050000,-0.050000,0.322908,-0.665809,0.000000,0.000000,-0.447687,0.397388,1.180016,0.379215,0.073713,0.021965,-0.042486,-0.021039,-0.035362,-0.290393
-0.050000,-0.050000,0.000000,0.000000,0.000000,0.000000,0.000000,0.000000,0.000000,0.100000,0.100000,-0.169983,-0.673788,-0.050000,-0.050000,0.321105,-0.661132,0.000000,0.000000,-0.444715,0.402989,1.178865,0.377359,0.072710,0.033330,-0.042681,-0.022993,-0.041029,-0.265602
-0.050000,-0.050000,0.000000,0.000000,0.000000,0.000000,0.000000,0.000000,0.000000,0.100000,0.100000,-0.169821,-0.670276,-0.050000,-0.050000,0.319168,-0.656495,0.000000,0.000000,-0.441916,0.406658,1.177235,0.370775,0.071846,0.045740,-0.043441,-0.027409,-0.046261,-0.243630
-0.050000,-0.050000,0.000000,0.000000,0.000000,0.000000,0.000000,0.000000,0.000000,0.100000,0.100000,-0.169765,-0.666691,-0.050000,-0.050000,0.317194,-0.651792,0.000000,0.000000,-0.439258,0.409651,1.175543,0.363028,0.071064,0.058486,-0.044297,-0.032425,-0.051284,-0.223021
-0.050000,-0.050000,0.000000,0.000000,0.000000,0.000000,0.000000,0.000000,0.000000,0.100000,0.100000,-0.169920,-0.662961,-0.050000,-0.050000,0.315142,-0.646956,0.000000,0.000000,-0.436885,0.411292,1.173729,0.352958,0.070444,0.071906,-0.045346,-0.038637,-0.055890,-0.205135
-0.050000,-0.050000,0.000000,0.000000,0.000000,0.000000,0.000000,0.000000,0.000000,0.100000,0.100000,-0.170313,-0.659423,-0.050000,-0.050000,0.313055,-0.641830,0.000000,0.000000,-0.434923,0.411588,1.171977,0.341595,0.070062,0.085842,-0.046359,-0.045518,-0.059976,-0.190668
-0.050000,-0.050000,0.000000,0.000000,0.000000,0.000000,0.000000,0.000000,0.000000,0.100000,0.100000,-0.170825,-0.655983,-0.050000,-0.050000,0.310950,-0.636559,0.000000,0.000000,-0.433166,0.411210,1.170255,0.329587,0.069798,0.100036,-0.047355,-0.052733,-0.063801,-0.177911
-0.050000,-0.050000,0.000000,0.000000,0.000000,0.000000,0.000000,0.000000,0.000000,0.100000,0.100000,-0.171763,-0.653219,-0.050000,-0.050000,0.308914,-0.630721,0.000000,0.000000,-0.432120,0.408852,1.168823,0.317114,0.069948,0.114651,-0.047983,-0.060254,-0.066719,-0.171058
-0.050000,-0.050000,0.000000,0.000000,0.000000,0.000000,0.000000,0.000000,0.000000,0.100000,0.100000,-0.172864,-0.650760,-0.050000,-0.050000,0.306960,-0.624712,0.000000,0.000000,-0.431310,0.405850,1.167509,0.304859,0.070223,0.129274,-0.048422,-0.067715,-0.069304,-0.166299
-0.050000,-0.050000,0.000000,0.000000,0.000000,0.000000,0.000000,0.000000,0.000000,0.100000,0.100000,-0.174288,-0.648909,-0.050000,-0.050000,0.305169,-0.618359,0.000000,0.000000,-0.430970,0.401559,1.166435,0.293041,0.070747,0.143912,-0.048485,-0.075055,-0.071221,-0.165731
-0.050000,-0.050000,0.000000,0.000000,0.000000,0.000000,0.000000,0.000000,0.000000,0.100000,0.100000,-0.176040,-0.647733,-0.050000,-0.050000,0.303673,-0.611844,0.000000,0.000000,-0.431042,0.396031,1.165548,0.282092,0.071421,0.158301,-0.048155,-0.082107,-0.072444,-0.169254
-0.050000,-0.050000,0.000000,0.000000,0.000000,0.000000,0.000000,0.000000,0.000000,0.100000,0.100000,-0.177955,-0.646895,-0.050000,-0.050000,0.302325,-0.605249,0.000000,0.000000,-0.431320,0.389882,1.164754,0.271579,0.072171,0.172565,-0.047628,-0.089015,-0.073320,-0.174824
-0.050000,-0.050000,0.000000,0.000000,0.000000,0.000000,0.000000,0.000000,0.000000,0.100000,0.100000,-0.180273,-0.647071,-0.050000,-0.050000,0.301597,-0.598887,0.000000,0.000000,-0.432068,0.382015,1.164042,0.262552,0.072934,0.186061,-0.046673,-0.095433,-0.073190,-0.185814
-0.050000,-0.050000,0.000000,0.000000,0.000000,0.000000,0.000000,0.000000,0.000000,0.100000,0.100000,-0.182659,-0.647556,-0.050000,-0.050000,0.301112,-0.592803,0.000000,0.000000,-0.432914,0.373645,1.163272,0.253955,0.073636,0.199170,-0.045678,-0.101717,-0.072766,-0.198219
-0.050000,-0.050000,0.000000,0.000000,0.000000,0.000000,0.000000,0.000000,0.000000,0.100000,0.100000,-0.185182,-0.648657,-0.050000,-0.050000,0.301111,-0.587276,0.000000,0.000000,-0.433957,0.364272,1.162386,0.246217,0.074214,0.211507,-0.044601,-0.107734,-0.071752,-0.213452
-0.050000,-0.050000,0.000000,0.000000,0.000000,0.000000,0.000000,0.000000,0.000000,0.100000,0.100000,-0.187644,-0.650246,-0.050000,-0.050000,0.301599,-0.582709,0.000000,0.000000,-0.435074,0.354077,1.161231,0.239041,0.074596,0.222826,-0.043690,-0.113616,-0.070281,-0.230592
-0.050000,-0.050000,0.000000,0.000000,0.000000,0.000000,0.000000,0.000000,0.000000,0.100000,0.100000,-0.190076,-0.652078,-0.050000,-0.050000,0.302332,-0.578622,0.000000,0.000000,-0.436230,0.343470,1.159942,0.232146,0.074880,0.233636,-0.042860,-0.119430,-0.068582,-0.248684
-0.050000,-0.050000,0.000000,0.000000,0.000000,0.000000,0.000000,0.000000,0.000000,0.100000,0.100000,-0.192070,-0.654307,-0.050000,-0.050000,0.303696,-0.576467,0.000000,0.000000,-0.437331,0.331904,1.158124,0.225522,0.074897,0.242628,-0.042613,-0.125317,-0.066442,-0.268345
-0.050000,-0.050000,0.000000,0.000000,0.000000,0.000000,0.000000,0.000000,0.000000,0.100000,0.100000,-0.193804,-0.656507,-0.050000,-0.050000,0.305206,-0.575048,0.000000,0.000000,-0.438369,0.320092,1.156133,0.218801,0.074880,0.250969,-0.042630,-0.131335,-0.064238,-0.288205
-0.050000,-0.050000,0.000000,0.000000,0.000000,0.000000,0.000000,0.000000,0.000000,0.100000,0.100000,-0.195018,-0.658648,-0.050000,-0.050000,0.307008,-0.575102,0.000000,0.000000,-0.439281,0.307789,1.153798,0.211885,0.074790,0.258010,-0.043175,-0.137614,-0.061906,-0.308465
-0.050000,-0.050000,0.000000,0.000000,0.000000,0.000000,0.000000,0.000000,0.000000,0.100000,0.100000,-0.195539,-0.660328,-0.050000,-0.050000,0.308942,-0.576634,0.000000,0.000000,-0.440007,0.295082,1.151213,0.204478,0.074782,0.263826,-0.044269,-0.144349,-0.059593,-0.328739
-0.050000,-0.050000,0.000000,0.000000,0.000000,0.000000,0.000000,0.000000,0.000000,0.100000,0.100000,-0.195712,-0.661777,-0.050000,-0.050000,0.310942,-0.578906,0.000000,0.000000,-0.440640,0.282175,1.148502,0.196824,0.074815,0.269029,-0.045638,-0.151312,-0.057288,-0.349021
-0.050000,-0.050000,0.000000,0.000000,0.000000,0.000000,0.000000,0.000000,0.000000,0.100000,0.100000,-0.194710,-0.661895,-0.050000,-0.050000,0.312886,-0.583139,0.000000,0.000000,-0.440956,0.268706,1.145637,0.188211,0.075174,0.272823,-0.047680,-0.159141,-0.055174,-0.369037
-0.050000,-0.050000,0.000000,0.000000,0.000000,0.000000,0.000000,0.000000,0.000000,0.100000,0.100000,-0.193322,-0.661384,-0.050000,-0.050000,0.314738,-0.587868,0.000000,0.000000,-0.441172,0.255043,1.142804,0.179297,0.075668,0.276400,-0.049849,-0.167257,-0.053159,-0.388899
-0.050000,-0.050000,0.000000,0.000000,0.000000,0.000000,0.000000,0.000000,0.000000,0.100000,0.100000,-0.191163,-0.659615,-0.050000,-0.050000,0.316403,-0.593587,0.000000,0.000000,-0.441187,0.240995,1.140032,0.169782,0.076433,0.279543,-0.052269,-0.175951,-0.051339,-0.408453
-0.050000,-0.050000,0.000000,0.000000,0.000000,0.000000,0.000000,0.000000,0.000000,0.100000,0.100000,-0.188339,-0.656352,-0.050000,-0.050000,0.317768,-0.599884,0.000000,0.000000,-0.441037,0.226540,1.137473,0.159896,0.077399,0.282946,-0.054694,-0.185091,-0.049756,-0.427497
-0.050000,-0.050000,0.000000,0.000000,0.000000,0.000000,0.000000,0.000000,0.000000,0.100000,0.100000,-0.185181,-0.652341,-0.050000,-0.050000,0.318983,-0.606470,0.000000,0.000000,-0.440804,0.211881,1.135021,0.149824,0.078467,0.286478,-0.057121,-0.194456,-0.048289,-0.446286
-0.050000,-0.050000,0.000000,0.000000,0.000000,0.000000,0.000000,0.000000,0.000000,0.100000,0.100000,-0.181278,-0.646018,-0.050000,-0.050000,0.319636,-0.613258,0.000000,0.000000,-0.440410,0.196608,1.133079,0.139744,0.079556,0.291573,-0.059185,-0.204161,-0.047215,-0.463820
-0.050000,-0.050000,0.000000,0.000000,0.000000,0.000000,0.000000,0.000000,0.000000,0.100000,0.100000,-0.177224,-0.639002,-0.050000,-0.050000,0.320085,-0.619910,0.000000,0.000000,-0.439998,0.181147,1.131356,0.129865,0.080529,0.297551,-0.061027,-0.213861,-0.046287,-0.480731
-0.050000,-0.050000,0.000000,0.000000,0.000000,0.000000,0.000000,0.000000,0.000000,0.100000,0.100000,-0.172868,-0.630603,-0.050000,-0.050000,0.320127,-0.626288,0.000000,0.000000,-0.439551,0.165309,1.130075,0.120390,0.081269,0.305296,-0.062426,-0.223548,-0.045652,-0.496395
-0.050000,-0.050000,0.000000,0.000000,0.000000,0.000000,0.000000,0.000000,0.000000,0.100000,0.100000,-0.168390,-0.621157,-0.050000,-0.050000,0.319771,-0.632076,0.000000,0.000000,-0.439156,0.149160,1.129320,0.111658,0.081568,0.315285,-0.063265,-0.233034,-0.045360,-0.510432
-0.050000,-0.050000,0.000000,0.000000,0.000000,0.000000,0.000000,0.000000,0.000000,0.100000,0.100000,-0.163851,-0.611189,-0.050000,-0.050000,0.319216,-0.637569,0.000000,0.000000,-0.438786,0.132856,1.128828,0.103298,0.081648,0.326396,-0.063822,-0.242420,-0.045239,-0.523656
-0.050000,-0.050000,0.000000,0.000000,0.000000,0.000000,0.000000,0.000000,0.000000,0.100000,0.100000,-0.159332,-0.600341,-0.050000,-0.050000,0.318144,-0.641904,0.000000,0.000000,-0.438642,0.116225,1.129231,0.096326,0.080976,0.340952,-0.063497,-0.251348,-0.045739,-0.534118
-0.050000,-0.050000,0.000000,0.000000,0.000000,0.000000,0.000000,0.000000,0.000000,0.100000,0.100000,-0.154858,-0.589453,-0.050000,-0.050000,0.316948,-0.645840,0.000000,0.000000,-0.438626,0.099541,1.129958,0.089815,0.080132,0.356411,-0.062910,-0.260109,-0.046483,-0.543681
-0.050000,-0.050000,0.000000,0.000000,0.000000,0.000000,0.000000,0.000000,0.000000,0.100000,0.100000,-0.150474,-0.578484,-0.050000,-0.050000,0.315505,-0.648977,0.000000,0.000000,-0.438866,0.082751,1.131332,0.084222,0.078945,0.373678,-0.061796,-0.268539,-0.047715,-0.551449
-0.050000,-0.050000,0.000000,0.000000,0.000000,0.000000,0.000000,0.000000,0.000000,0.100000,0.100000,-0.146199,-0.567913,-0.050000,-0.050000,0.313955,-0.651440,0.000000,0.000000,-0.439458,0.065985,1.133368,0.079392,0.077788,0.391728,-0.060284,-0.276646,-0.049488,-0.557747
-0.050000,-0.050000,0.000000,0.000000,0.000000,0.000000,0.000000,0.000000,0.000000,0.100000,0.100000,-0.141977,-0.557539,-0.050000,-0.050000,0.312352,-0.653567,0.000000,0.000000,-0.440227,0.049232,1.135735,0.074942,0.076647,0.410171,-0.058573,-0.284593,-0.051530,-0.563310
-0.050000,-0.050000,0.000000,0.000000,0.000000,0.000000,0.000000,0.000000,0.000000,0.100000,0.100000,-0.137892,-0.548341,-0.050000,-0.050000,0.310844,-0.655051,0.000000,0.000000,-0.441618,0.032763,1.139033,0.071314,0.076308,0.427676,-0.056519,-0.292044,-0.054370,-0.567502
-0.050000,-0.050000,0.000000,0.000000,0.000000,0.000000,0.000000,0.000000,0.000000,0.100000,0.100000,-0.133839,-0.539664,-0.050000,-0.050000,0.309455,-0.656475,0.000000,0.000000,-0.443224,0.016497,1.142584,0.067881,0.076477,0.444105,-0.054446,-0.299291,-0.057427,-0.571578
-0.050000,-0.050000,0.000000,0.000000,0.000000,0.000000,0.000000,0.000000,0.000000,0.100000,0.100000,-0.129850,-0.532030,-0.050000,-0.050000,0.308306,-0.657782,0.000000,0.000000,-0.445256,0.000639,1.146641,0.064841,0.077667,0.458382,-0.052333,-0.306128,-0.060915,-0.575420
-0.050000,-0.050000,0.000000,0.000000,0.000000,0.000000,0.000000,0.000000,0.000000,0.100000,0.100000,-0.125924,-0.525569,-0.050000,-0.050000,0.307549,-0.659285,0.000000,0.000000,-0.447665,-0.014518,1.151012,0.062193,0.080181,0.469183,-0.050369,-0.312363,-0.064632,-0.579702
-0.050000,-0.050000,0.000000,0.000000,0.000000,0.000000,0.000000,0.000000,0.000000,0.100000,0.100000,-0.122030,-0.519694,-0.050000,-0.050000,0.306990,-0.660887,0.000000,0.000000,-0.450263,-0.029324,1.155540,0.059742,0.083358,0.478245,-0.048480,-0.318296,-0.068462,-0.584204
-0.050000,-0.050000,0.000000,0.000000,0.000000,0.000000,0.000000,0.000000,0.000000,0.100000,0.100000,-0.118305,-0.515613,-0.050000,-0.050000,0.307185,-0.663184,0.000000,0.000000,-0.453275,-0.042500,1.160145,0.058197,0.088541,0.480822,-0.047072,-0.322824,-0.072191,-0.590148
-0.050000,-0.050000,0.000000,0.000000,0.000000,0.000000,0.000000,0.000000,0.000000,0.100000,0.100000,-0.114693,-0.512115,-0.050000,-0.050000,0.307665,-0.665810,0.000000,0.000000,-0.456364,-0.054890,1.164623,0.057165,0.094237,0.481132,-0.045894,-0.326653,-0.075721,-0.596691
-0.050000,-0.050000,0.000000,0.000000,0.000000,0.000000,0.000000,0.000000,0.000000,0.100000,0.100000,-0.111309,-0.509780,-0.050000,-0.050000,0.308713,-0.669092,0.000000,0.000000,-0.459610,-0.065707,1.168845,0.057161,0.100958,0.476910,-0.045178,-0.329083,-0.078850,-0.604432
-0.050000,-0.050000,0.000000,0.000000,0.000000,0.000000,0.000000,0.000000,0.000000,0.100000,0.100000,-0.108326,-0.508582,-0.050000,-0.050000,0.310363,-0.673148,0.000000,0.000000,-0.462909,-0.074378,1.172496,0.058777,0.108141,0.468600,-0.045014,-0.329583,-0.081281,-0.613202
-0.050000,-0.050000,0.000000,0.000000,0.000000,0.000000,0.000000,0.000000,0.000000,0.100000,0.100000,-0.105545,-0.507951,-0.050000,-0.050000,0.312314,-0.677592,0.000000,0.000000,-0.466236,-0.081976,1.175863,0.061205,0.115554,0.458247,-0.045127,-0.329117,-0.083362,-0.622488
-0.050000,-0.050000,0.000000,0.000000,0.000000,0.000000,0.000000,0.000000,0.000000,0.100000,0.100000,-0.103702,-0.509075,-0.050000,-0.050000,0.315220,-0.683286,0.000000,0.000000,-0.469574,-0.085405,1.177947,0.067084,0.122643,0.443239,-0.046127,-0.325025,-0.084122,-0.632363
-0.050000,-0.050000,0.000000,0.000000,0.000000,0.000000,0.000000,0.000000,0.000000,0.100000,0.100000,-0.102295,-0.510848,-0.050000,-0.050000,0.318479,-0.689400,0.000000,0.000000,-0.472925,-0.087130,1.179490,0.074444,0.129311,0.427345,-0.047416,-0.319577,-0.084436,-0.641886
-0.050000,-0.050000,0.000000,0.000000,0.000000,0.000000,0.000000,0.000000,0.000000,0.100000,0.100000,-0.101763,-0.513923,-0.050000,-0.050000,0.322443,-0.696355,0.000000,0.000000,-0.476305,-0.085444,1.179953,0.084765,0.135136,0.409678,-0.049282,-0.311416,-0.083856,-0.650702
-0.050000,-0.050000,0.000000,0.000000,0.000000,0.000000,0.000000,0.000000,0.000000,0.100000,0.100000,-0.102371,-0.518530,-0.050000,-0.050000,0.327235,-0.704098,0.000000,0.000000,-0.479788,-0.079807,1.179184,0.098552,0.139661,0.391691,-0.051665,-0.300578,-0.082547,-0.657375
-0.050000,-0.050000,0.000000,0.000000,0.000000,0.000000,0.000000,0.000000,0.000000,0.100000,0.100000,-0.103547,-0.523904,-0.050000,-0.050000,0.332441,-0.712234,0.000000,0.000000,-0.483321,-0.072194,1.177799,0.114070,0.143535,0.373543,-0.054308,-0.288402,-0.080874,-0.662974
-0.050000,-0.050000,0.000000,0.000000,0.000000,0.000000,0.000000,0.000000,0.000000,0.100000,0.100000,-0.106855,-0.532013,-0.050000,-0.050000,0.339152,-0.721322,0.000000,0.000000,-0.487129,-0.058132,1.174448,0.135095,0.145095,0.356944,-0.057582,-0.272880,-0.078550,-0.663061
-0.050000,-0.050000,0.000000,0.000000,0.000000,0.000000,0.000000,0.000000,0.000000,0.100000,0.100000,-0.111027,-0.541163,-0.050000,-0.050000,0.346465,-0.730580,0.000000,0.000000,-0.491042,-0.041902,1.170430,0.157844,0.145844,0.341394,-0.061004,-0.256660,-0.076173,-0.660676
-0.050000,-0.050000,0.000000,0.000000,0.000000,0.000000,0.000000,0.000000,0.000000,0.100000,0.100000,-0.116931,-0.552392,-0.050000,-0.050000,0.354983,-0.740179,0.000000,0.000000,-0.495166,-0.021334,1.165077,0.184041,0.144971,0.327944,-0.064719,-0.239043,-0.073689,-0.653347
-0.050000,-0.050000,0.000000,0.000000,0.000000,0.000000,0.000000,0.000000,0.000000,0.100000,0.100000,-0.127418,-0.572564,-0.050000,-0.050000,0.365279,-0.750424,0.000000,0.000000,-0.498742,0.005294,1.157868,0.217728,0.141497,0.317203,-0.068429,-0.220612,-0.071946,-0.639426
-0.050000,-0.050000,0.000000,0.000000,0.000000,0.000000,0.000000,0.000000,0.000000,0.100000,0.100000,-0.140197,-0.597208,-0.050000,-0.050000,0.376464,-0.760991,0.000000,0.000000,-0.502044,0.034951,1.149731,0.255160,0.136723,0.307816,-0.072137,-0.201775,-0.070575,-0.622210
-0.050000,-0.050000,0.000000,0.000000,0.000000,0.000000,0.000000,0.000000,0.000000,0.100000,0.100000,-0.150653,-0.609781,-0.050000,-0.050000,0.388475,-0.768646,0.000000,0.000000,-0.505856,0.065245,1.141226,0.284094,0.131622,0.303807,-0.076003,-0.186346,-0.068141,-0.599625
-0.050000,-0.050000,0.000000,0.000000,0.000000,0.000000,0.000000,0.000000,0.000000,0.100000,0.100000,-0.164231,-0.627600,-0.050000,-0.050000,0.401754,-0.776105,0.000000,0.000000,-0.509170,0.097645,1.131421,0.316310,0.124445,0.301743,-0.079626,-0.171483,-0.066179,-0.573595
-0.050000,-0.050000,0.000000,0.000000,0.000000,0.000000,0.000000,0.000000,0.000000,0.100000,0.100000,-0.184056,-0.655912,-0.050000,-0.050000,0.417570,-0.783175,0.000000,0.000000,-0.511489,0.134256,1.119017,0.355091,0.113113,0.303570,-0.082763,-0.157752,-0.065158,-0.540678
-0.050000,-0.050000,0.000000,0.000000,0.000000,0.000000,0.000000,0.000000,0.000000,0.100000,0.100000,-0.203092,-0.674461,-0.050000,-0.050000,0.432965,-0.787510,0.000000,0.000000,-0.513589,0.167914,1.106616,0.384542,0.101590,0.307056,-0.086218,-0.146846,-0.062530,-0.509921
-0.050000,-0.050000,0.000000,0.000000,0.000000,0.000000,0.000000,0.000000,0.000000,0.100000,0.100000,-0.221735,-0.688127,-0.050000,-0.050000,0.448150,-0.790478,0.000000,0.000000,-0.515581,0.200097,1.094217,0.409329,0.089972,0.311372,-0.089834,-0.137352,-0.059099,-0.480243
-0.050000,-0.050000,0.000000,0.000000,0.000000,0.000000,0.000000,0.000000,0.000000,0.100000,0.100000,-0.246808,-0.704359,-0.050000,-0.050000,0.464738,-0.791030,0.000000,0.000000,-0.515617,0.229710,1.078794,0.431363,0.071666,0.320869,-0.092984,-0.131362,-0.054451,-0.449697
-0.050000,-0.050000,0.000000,0.000000,0.000000,0.000000,0.000000,0.000000,0.000000,0.100000,0.100000,-0.273540,-0.720337,-0.050000,-0.050000,0.481151,-0.790666,0.000000,0.000000,-0.514577,0.257565,1.062522,0.451380,0.051022,0.332041,-0.095985,-0.126912,-0.048999,-0.420495
-0.050000,-0.050000,0.000000,0.000000,0.000000,0.000000,0.000000,0.000000,0.000000,0.100000,0.100000,-0.303588,-0.735807,-0.050000,-0.050000,0.497215,-0.788473,0.000000,0.000000,-0.511384,0.281902,1.044555,0.467367,0.025698,0.346560,-0.098688,-0.125543,-0.041940,-0.393980
-0.050000,-0.050000,0.000000,0.000000,0.000000,0.000000,0.000000,0.000000,0.000000,0.100000,0.100000,-0.336094,-0.749403,-0.050000,-0.050000,0.511917,-0.784411,0.000000,0.000000,-0.505682,0.301396,1.024753,0.478119,-0.004604,0.363938,-0.101473,-0.127197,-0.032518,-0.372211
-0.050000,-0.050000,0.000000,0.000000,0.000000,0.000000,0.000000,0.000000,0.000000,0.100000,0.100000,-0.369830,-0.762063,-0.050000,-0.050000,0.525939,-0.779414,0.000000,0.000000,-0.498726,0.318468,1.004034,0.486253,-0.037395,0.382745,-0.104298,-0.130362,-0.021916,-0.352815
-0.050000,-0.050000,0.000000,0.000000,0.000000,0.000000,0.000000,0.000000,0.000000,0.100000,0.100000,-0.405747,-0.770910,-0.050000,-0.050000,0.536585,-0.771611,0.000000,0.000000,-0.487779,0.327284,0.980211,0.485950,-0.077400,0.404591,-0.108142,-0.137701,-0.007009,-0.342049
-0.050000,-0.050000,0.000000,0.000000,0.000000,0.000000,0.000000,0.000000,0.000000,0.100000,0.100000,-0.441804,-0.778428,-0.050000,-0.050000,0.545771,-0.762841,0.000000,0.000000,-0.475524,0.333410,0.955243,0.482976,-0.119332,0.426883,-0.112708,-0.146289,0.009403,-0.334157
-0.050000,-0.050000,0.000000,0.000000,0.000000,0.000000,0.000000,0.000000,0.000000,0.100000,0.100000,-0.478146,-0.783288,-0.050000,-0.050000,0.552034,-0.752136,0.000000,0.000000,-0.460651,0.334155,0.927982,0.474662,-0.165116,0.450067,-0.118720,-0.157374,0.028825,-0.332012
-0.050000,-0.050000,0.000000,0.000000,0.000000,0.000000,0.000000,0.000000,0.000000,0.100000,0.100000,-0.513539,-0.785763,-0.050000,-0.050000,0.555041,-0.739404,0.000000,0.000000,-0.443427,0.330325,0.898302,0.461748,-0.212964,0.472881,-0.126937,-0.170593,0.050946,-0.334774
-0.050000,-0.050000,0.000000,0.000000,0.000000,0.000000,0.000000,0.000000,0.000000,0.100000,0.100000,-0.548458,-0.787046,-0.050000,-0.050000,0.556418,-0.725660,0.000000,0.000000,-0.425029,0.324207,0.867411,0.446534,-0.261845,0.495511,-0.136258,-0.184880,0.074417,-0.339990
-0.050000,-0.050000,0.000000,0.000000,0.000000,0.000000,0.000000,0.000000,0.000000,0.100000,0.100000,-0.580238,-0.785468,-0.050000,-0.050000,0.552986,-0.708853,0.000000,0.000000,-0.403879,0.313095,0.832954,0.425854,-0.310244,0.515874,-0.149618,-0.201618,0.100807,-0.350515
-0.050000,-0.050000,0.000000,0.000000,0.000000,0.000000,0.000000,0.000000,0.000000,0.100000,0.100000,-0.611884,-0.783710,-0.050000,-0.050000,0.548980,-0.691344,0.000000,0.000000,-0.382128,0.300415,0.796231,0.402182,-0.358726,0.535028,-0.164155,-0.219213,0.128978,-0.362917
-0.050000,-0.050000,0.000000,0.000000,0.000000,0.000000,0.000000,0.000000,0.000000,0.100000,0.100000,-0.643262,-0.781596,-0.050000,-0.050000,0.543826,-0.672434,0.000000,0.000000,-0.359176,0.284597,0.754974,0.372527,-0.407373,0.551766,-0.181047,-0.238522,0.160712,-0.379073
-0.050000,-0.050000,0.000000,0.000000,0.000000,0.000000,0.000000,0.000000,0.000000,0.100000,0.100000,-0.668295,-0.777329,-0.050000,-0.050000,0.534860,-0.651268,0.000000,0.000000,-0.335881,0.269082,0.713742,0.343286,-0.447495,0.565181,-0.200179,-0.257066,0.190035,-0.394635
-0.050000,-0.050000,0.000000,0.000000,0.000000,0.000000,0.000000,0.000000,0.000000,0.100000,0.100000,-0.690156,-0.771986,-0.050000,-0.050000,0.523987,-0.628976,0.000000,0.000000,-0.312415,0.253718,0.672522,0.314253,-0.483355,0.576934,-0.220431,-0.275228,0.218153,-0.409900
-0.050000,-0.050000,0.000000,0.000000,0.000000,0.000000,0.000000,0.000000,0.000000,0.100000,0.100000,-0.705106,-0.765471,-0.050000,-0.050000,0.510190,-0.604832,0.000000,0.000000,-0.289663,0.239654,0.630323,0.284702,-0.509273,0.585385,-0.241896,-0.292925,0.243682,-0.423598
-0.050000,-0.050000,0.000000,0.000000,0.000000,0.000000,0.000000,0.000000,0.000000,0.100000,0.100000,-0.718031,-0.758810,-0.050000,-0.050000,0.495810,-0.580391,0.000000,0.000000,-0.267623,0.226350,0.588325,0.255424,-0.532168,0.593188,-0.262941,-0.310200,0.267959,-0.436401
-0.050000,-0.050000,0.000000,0.000000,0.000000,0.000000,0.000000,0.000000,0.000000,0.100000,0.100000,-0.726909,-0.751858,-0.050000,-0.050000,0.480265,-0.555356,0.000000,0.000000,-0.247009,0.214567,0.546727,0.226694,-0.549012,0.599698,-0.283146,-0.326631,0.289732,-0.447413
-0.050000,-0.050000,0.000000,0.000000,0.000000,0.000000,0.000000,0.000000,0.000000,0.100000,0.100000,-0.732327,-0.744851,-0.050000,-0.050000,0.464079,-0.530327,0.000000,0.000000,-0.228581,0.204716,0.506865,0.199625,-0.561286,0.606101,-0.301202,-0.341845,0.308324,-0.456187
-0.050000,-0.050000,0.000000,0.000000,0.000000,0.000000,0.000000,0.000000,0.000000,0.100000,0.100000,-0.736015,-0.737818,-0.050000,-0.050000,0.447572,-0.505301,0.000000,0.000000,-0.211246,0.195830,0.467873,0.173388,-0.571274,0.612449,-0.318185,-0.356450,0.325327,-0.463842
-0.050000,-0.050000,0.000000,0.000000,0.000000,0.000000,0.000000,0.000000,0.000000,0.100000,0.100000,-0.735642,-0.730942,-0.050000,-0.050000,0.430719,-0.481138,0.000000,0.000000,-0.197979,0.190058,0.433557,0.151459,-0.577699,0.620532,-0.330720,-0.368876,0.336874,-0.467984
-0.050000,-0.050000,0.000000,0.000000,0.000000,0.000000,0.000000,0.000000,0.000000,0.100000,0.100000,-0.734337,-0.724184,-0.050000,-0.050000,0.413935,-0.457517,0.000000,0.000000,-0.186178,0.185275,0.401430,0.131554,-0.584130,0.629746,-0.341644,-0.380503,0.346504,-0.471039
-0.050000,-0.050000,0.000000,0.000000,0.000000,0.000000,0.000000,0.000000,0.000000,0.100000,0.100000,-0.731167,-0.717663,-0.050000,-0.050000,0.397289,-0.434979,0.000000,0.000000,-0.177309,0.182471,0.373681,0.115699,-0.590570,0.641221,-0.349344,-0.390530,0.352298,-0.471917
-0.050000,-0.050000,0.000000,0.000000,0.000000,0.000000,0.000000,0.000000,0.000000,0.100000,0.100000,-0.726944,-0.711482,-0.050000,-0.050000,0.381139,-0.413941,0.000000,0.000000,-0.171236,0.181339,0.351261,0.104848,-0.599045,0.655697,-0.354062,-0.398887,0.354379,-0.470938
-0.050000,-0.050000,0.000000,0.000000,0.000000,0.000000,0.000000,0.000000,0.000000,0.100000,0.100000,-0.722195,-0.705472,-0.050000,-0.050000,0.365236,-0.393653,0.000000,0.000000,-0.166561,0.181044,0.331507,0.096499,-0.608537,0.671673,-0.357288,-0.406407,0.354603,-0.469032
-0.050000,-0.050000,0.000000,0.000000,0.000000,0.000000,0.000000,0.000000,0.000000,0.100000,0.100000,-0.716839,-0.700068,-0.050000,-0.050000,0.350577,-0.376058,0.000000,0.000000,-0.165350,0.182563,0.320447,0.096443,-0.622979,0.692515,-0.356935,-0.411428,0.349958,-0.464875
-0.050000,-0.050000,0.000000,0.000000,0.000000,0.000000,0.000000,0.000000,0.000000,0.100000,0.100000,-0.711478,-0.694865,-0.050000,-0.050000,0.336475,-0.359441,0.000000,0.000000,-0.164913,0.184409,0.312225,0.099130,-0.639247,0.714834,-0.355781,-0.415658,0.344074,-0.460122
-0.050000,-0.050000,0.000000,0.000000,0.000000,0.000000,0.000000,0.000000,0.000000,0.100000,0.100000,-0.706106,-0.690067,-0.050000,-0.050000,0.323483,-0.344782,0.000000,0.000000,-0.166028,0.186911,0.309676,0.107305,-0.659166,0.740104,-0.353025,-0.418308,0.335712,-0.454178
-0.050000,-0.050000,0.000000,0.000000,0.000000,0.000000,0.000000,0.000000,0.000000,0.100000,0.100000,-0.700828,-0.685604,-0.050000,-0.050000,0.311807,-0.332118,0.000000,0.000000,-0.167806,0.189509,0.312120,0.120358,-0.682269,0.767567,-0.349484,-0.419534,0.325812,-0.447282
-0.050000,-0.050000,0.000000,0.000000,0.000000,0.000000,0.000000,0.000000,0.000000,0.100000,0.100000,-0.695599,-0.681309,-0.050000,-0.050000,0.300787,-0.320451,0.000000,0.000000,-0.169917,0.192156,0.317060,0.135851,-0.706964,0.796126,-0.345551,-0.420049,0.315143,-0.439910
-0.050000,-0.050000,0.000000,0.000000,0.000000,0.000000,0.000000,0.000000,0.000000,0.100000,0.100000,-0.690293,-0.677327,-0.050000,-0.050000,0.291920,-0.311691,0.000000,0.000000,-0.171742,0.194215,0.327863,0.157083,-0.734913,0.826344,-0.341520,-0.418743,0.303593,-0.431416
-0.050000,-0.050000,0.000000,0.000000,0.000000,0.000000,0.000000,0.000000,0.000000,0.100000,0.100000,-0.684810,-0.673372,-0.050000,-0.050000,0.283790,-0.303840,0.000000,0.000000,-0.173124,0.195896,0.339991,0.179585,-0.763324,0.856509,-0.337713,-0.416953,0.292160,-0.422658
-0.050000,-0.050000,0.000000,0.000000,0.000000,0.000000,0.000000,0.000000,0.000000,0.100000,0.100000,-0.678968,-0.669474,-0.050000,-0.050000,0.277131,-0.297808,0.000000,0.000000,-0.173622,0.196820,0.354771,0.204629,-0.792659,0.886566,-0.334357,-0.414195,0.280963,-0.413374
-0.050000,-0.050000,0.000000,0.000000,0.000000,0.000000,0.000000,0.000000,0.000000,0.100000,0.100000,-0.672420,-0.665491,-0.050000,-0.050000,0.271911,-0.293448,0.000000,0.000000,-0.172778,0.196763,0.371001,0.230916,-0.821709,0.915388,-0.331705,-0.410739,0.270622,-0.403840
-0.050000,-0.050000,0.000000,0.000000,0.000000,0.000000,0.000000,0.000000,0.000000,0.100000,0.100000,-0.665518,-0.661465,-0.050000,-0.050000,0.267410,-0.289925,0.000000,0.000000,-0.171263,0.196215,0.387955,0.257825,-0.850617,0.943593,-0.329404,-0.406935,0.260710,-0.394180
-0.050000,-0.050000,0.000000,0.000000,0.000000,0.000000,0.000000,0.000000,0.000000,0.100000,0.100000,-0.657143,-0.657181,-0.050000,-0.050000,0.264936,-0.288692,0.000000,0.000000,-0.167436,0.194056,0.405628,0.284907,-0.877582,0.968655,-0.328149,-0.402492,0.252698,-0.384624
-0.050000,-0.050000,0.000000,0.000000,0.000000,0.000000,0.000000,0.000000,0.000000,0.100000,0.100000,-0.648221,-0.652802,-0.050000,-0.050000,0.263086,-0.288162,0.000000,0.000000,-0.162856,0.191368,0.423217,0.311624,-0.903528,0.992427,-0.327135,-0.397960,0.245436,-0.375266
-0.050000,-0.050000,0.000000,0.000000,0.000000,0.000000,0.000000,0.000000,0.000000,0.100000,0.100000,-0.638206,-0.648236,-0.050000,-0.050000,0.262483,-0.289037,0.000000,0.000000,-0.156769,0.187620,0.440636,0.337609,-0.927436,1.013619,-0.326605,-0.393251,0.239675,-0.366301
-0.050000,-0.050000,0.000000,0.000000,0.000000,0.000000,0.000000,0.000000,0.000000,0.100000,0.100000,-0.627185,-0.643541,-0.050000,-0.050000,0.263045,-0.291224,0.000000,0.000000,-0.149397,0.182904,0.457564,0.362332,-0.948839,1.032128,-0.326230,-0.388555,0.235520,-0.358009
-0.050000,-0.050000,0.000000,0.000000,0.000000,0.000000,0.000000,0.000000,0.000000,0.100000,0.100000,-0.615661,-0.638781,-0.050000,-0.050000,0.264190,-0.294067,0.000000,0.000000,-0.141381,0.177704,0.474246,0.386424,-0.968989,1.049296,-0.325934,-0.383867,0.232169,-0.350052
-0.050000,-0.050000,0.000000,0.000000,0.000000,0.000000,0.000000,0.000000,0.000000,0.100000,0.100000,-0.603034,-0.633988,-0.050000,-0.050000,0.267031,-0.298775,0.000000,0.000000,-0.131945,0.171269,0.490103,0.408254,-0.985069,1.062754,-0.325352,-0.379388,0.231244,-0.343403
-0.050000,-0.050000,0.000000,0.000000,0.000000,0.000000,0.000000,0.000000,0.000000,0.100000,0.100000,-0.590232,-0.629242,-0.050000,-0.050000,0.270443,-0.304070,0.000000,0.000000,-0.122232,0.164508,0.505731,0.429311,-0.999802,1.075175,-0.324535,-0.375012,0.231094,-0.337244
-0.050000,-0.050000,0.000000,0.000000,0.000000,0.000000,0.000000,0.000000,0.000000,0.100000,0.100000,-0.577080,-0.624590,-0.050000,-0.050000,0.274998,-0.310538,0.000000,0.000000,-0.111962,0.157095,0.520902,0.448821,-1.011840,1.085520,-0.323247,-0.370841,0.232492,-0.332063
-0.050000,-0.050000,0.000000,0.000000,0.000000,0.000000,0.000000,0.000000,0.000000,0.100000,0.100000,-0.563990,-0.620109,-0.050000,-0.050000,0.280725,-0.318085,0.000000,0.000000,-0.101519,0.149204,0.535747,0.466850,-1.021383,1.094244,-0.321326,-0.366912,0.235283,-0.327874
-0.050000,-0.050000,0.000000,0.000000,0.000000,0.000000,0.000000,0.000000,0.000000,0.100000,0.100000,-0.550931,-0.615714,-0.050000,-0.050000,0.287037,-0.326171,0.000000,0.000000,-0.090990,0.141075,0.550431,0.484140,-1.029678,1.102158,-0.319087,-0.363103,0.238770,-0.324180
-0.050000,-0.050000,0.000000,0.000000,0.000000,0.000000,0.000000,0.000000,0.000000,0.100000,0.100000,-0.538501,-0.611580,-0.050000,-0.050000,0.295099,-0.335664,0.000000,0.000000,-0.080710,0.132475,0.564751,0.499335,-1.034686,1.108236,-0.315865,-0.359710,0.243966,-0.321857
-0.050000,-0.050000,0.000000,0.000000,0.000000,0.000000,0.000000,0.000000,0.000000,0.100000,0.100000,-0.526405,-0.607492,-0.050000,-0.050000,0.303700,-0.345530,0.000000,0.000000,-0.070656,0.123793,0.578943,0.513852,-1.038753,1.113832,-0.312369,-0.356481,0.249559,-0.319910
-0.050000,-0.050000,0.000000,0.000000,0.000000,0.000000,0.000000,0.000000,0.000000,0.100000,0.100000,-0.514975,-0.603494,-0.050000,-0.050000,0.313380,-0.356144,0.000000,0.000000,-0.061056,0.114947,0.592878,0.527012,-1.040938,1.118463,-0.308325,-0.353581,0.255944,-0.318714
-0.050000,-0.050000,0.000000,0.000000,0.000000,0.000000,0.000000,0.000000,0.000000,0.100000,0.100000,-0.504330,-0.599424,-0.050000,-0.050000,0.323948,-0.367273,0.000000,0.000000,-0.052169,0.106091,0.606448,0.538794,-1.041433,1.122206,-0.303922,-0.351070,0.262702,-0.318039
-0.050000,-0.050000,0.000000,0.000000,0.000000,0.000000,0.000000,0.000000,0.000000,0.100000,0.100000,-0.494077,-0.595318,-0.050000,-0.050000,0.334960,-0.378660,0.000000,0.000000,-0.043639,0.097230,0.619835,0.549887,-1.041083,1.125504,-0.299340,-0.348753,0.269645,-0.317625
-0.050000,-0.050000,0.000000,0.000000,0.000000,0.000000,0.000000,0.000000,0.000000,0.100000,0.100000,-0.485005,-0.590795,-0.050000,-0.050000,0.346872,-0.390432,0.000000,0.000000,-0.036587,0.088635,0.632431,0.558819,-1.038165,1.127306,-0.294521,-0.347077,0.276465,-0.317585
-0.050000,-0.050000,0.000000,0.000000,0.000000,0.000000,0.000000,0.000000,0.000000,0.100000,0.100000,-0.476290,-0.586031,-0.050000,-0.050000,0.358909,-0.402200,0.000000,0.000000,-0.030197,0.080258,0.644690,0.567008,-1.034237,1.128477,-0.289691,-0.345599,0.283020,-0.317532
-0.050000,-0.050000,0.000000,0.000000,0.000000,0.000000,0.000000,0.000000,0.000000,0.100000,0.100000,-0.468286,-0.580785,-0.050000,-0.050000,0.371197,-0.413959,0.000000,0.000000,-0.025129,0.072314,0.656273,0.573709,-1.028293,1.128386,-0.284837,-0.344518,0.289046,-0.317456
-0.050000,-0.050000,0.000000,0.000000,0.000000,0.000000,0.000000,0.000000,0.000000,0.100000,0.100000,-0.460888,-0.574906,-0.050000,-0.050000,0.383375,-0.425453,0.000000,0.000000,-0.021817,0.065153,0.667117,0.578960,-1.019749,1.126668,-0.279966,-0.343688,0.294140,-0.317126
-0.050000,-0.050000,0.000000,0.000000,0.000000,0.000000,0.000000,0.000000,0.000000,0.100000,0.100000,-0.453793,-0.568711,-0.050000,-0.050000,0.395499,-0.436815,0.000000,0.000000,-0.019382,0.058383,0.677592,0.583486,-1.009904,1.124135,-0.275084,-0.342984,0.298769,-0.316669
-0.050000,-0.050000,0.000000,0.000000,0.000000,0.000000,0.000000,0.000000,0.000000,0.100000,0.100000,-0.447461,-0.561481,-0.050000,-0.050000,0.406966,-0.447444,0.000000,0.000000,-0.020382,0.053445,0.687073,0.586124,-0.994968,1.118544,-0.269944,-0.342214,0.301495,-0.315599
-0.050000,-0.050000,0.000000,0.000000,0.000000,0.000000,0.000000,0.000000,0.000000,0.100000,0.100000,-0.441354,-0.553938,-0.050000,-0.050000,0.418082,-0.457741,0.000000,0.000000,-0.022822,0.049372,0.696344,0.588328,-0.977897,1.111727,-0.264569,-0.341196,0.303447,-0.314285
-0.050000,-0.050000,0.000000,0.000000,0.000000,0.000000,0.000000,0.000000,0.000000,0.100000,0.100000,-0.435696,-0.545767,-0.050000,-0.050000,0.428494,-0.467373,0.000000,0.000000,-0.028139,0.047025,0.705197,0.589665,-0.956556,1.102456,-0.258728,-0.339680,0.303851,-0.312484
-0.050000,-0.050000,0.000000,0.000000,0.000000,0.000000,0.000000,0.000000,0.000000,0.100000,0.100000,-0.430473,-0.537151,-0.050000,-0.050000,0.437995,-0.476224,0.000000,0.000000,-0.036882,0.046926,0.714032,0.590747,-0.930166,1.090323,-0.252057,-0.337083,0.302452,-0.310166
-0.050000,-0.050000,0.000000,0.000000,0.000000,0.000000,0.000000,0.000000,0.000000,0.100000,0.100000,-0.425467,-0.528312,-0.050000,-0.050000,0.447040,-0.484686,0.000000,0.000000,-0.047339,0.047951,0.722860,0.591700,-0.901252,1.076759,-0.244971,-0.333946,0.300153,-0.307588
-0.050000,-0.050000,0.000000,0.000000,0.000000,0.000000,0.000000,0.000000,0.000000,0.100000,0.100000,-0.421128,-0.519240,-0.050000,-0.050000,0.454448,-0.491888,0.000000,0.000000,-0.063505,0.053054,0.732436,0.593481,-0.864031,1.058281,-0.236171,-0.328209,0.294745,-0.304159
-0.050000,-0.050000,0.000000,0.000000,0.000000,0.000000,0.000000,0.000000,0.000000,0.100000,0.100000,-0.417010,-0.510271,-0.050000,-0.050000,0.461214,-0.498656,0.000000,0.000000,-0.081612,0.059693,0.742540,0.596004,-0.824030,1.037946,-0.226736,-0.321297,0.288153,-0.300374
-0.050000,-0.050000,0.000000,0.000000,0.000000,0.000000,0.000000,0.000000,0.000000,0.100000,0.100000,-0.413337,-0.501508,-0.050000,-0.050000,0.466695,-0.504553,0.000000,0.000000,-0.103599,0.069406,0.753699,0.600013,-0.778469,1.013896,-0.216033,-0.312035,0.279196,-0.295878
-0.050000,-0.050000,0.000000,0.000000,0.000000,0.000000,0.000000,0.000000,0.000000,0.100000,0.100000,-0.410049,-0.493338,-0.050000,-0.050000,0.470647,-0.509529,0.000000,0.000000,-0.129131,0.082381,0.766416,0.606461,-0.727912,0.985672,-0.204241,-0.299983,0.267620,-0.290386
-0.050000,-0.050000,0.000000,0.000000,0.000000,0.000000,0.000000,0.000000,0.000000,0.100000,0.100000,-0.406953,-0.485463,-0.050000,-0.050000,0.473836,-0.514045,0.000000,0.000000,-0.156436,0.096987,0.779912,0.614128,-0.674857,0.955363,-0.191906,-0.286536,0.254734,-0.284395
-0.050000,-0.050000,0.000000,0.000000,0.000000,0.000000,0.000000,0.000000,0.000000,0.100000,0.100000,-0.404197,-0.478978,-0.050000,-0.050000,0.474306,-0.516985,0.000000,0.000000,-0.187883,0.116447,0.796272,0.626704,-0.616062,0.918155,-0.178701,-0.268736,0.237841,-0.276277
-0.050000,-0.050000,0.000000,0.000000,0.000000,0.000000,0.000000,0.000000,0.000000,0.100000,0.100000,-0.401416,-0.473051,-0.050000,-0.050000,0.473735,-0.519279,0.000000,0.000000,-0.220121,0.137390,0.813636,0.641199,-0.556200,0.878507,-0.165563,-0.249662,0.219786,-0.267223
-0.050000,-0.050000,0.000000,0.000000,0.000000,0.000000,0.000000,0.000000,0.000000,0.100000,0.100000,-0.398588,-0.468243,-0.050000,-0.050000,0.471080,-0.520279,0.000000,0.000000,-0.253942,0.161299,0.833011,0.659536,-0.494204,0.833978,-0.152561,-0.228041,0.199403,-0.256299
-0.050000,-0.050000,0.000000,0.000000,0.000000,0.000000,0.000000,0.000000,0.000000,0.100000,0.100000,-0.395360,-0.464508,-0.050000,-0.050000,0.466185,-0.519643,0.000000,0.000000,-0.287931,0.187621,0.854188,0.681896,-0.432115,0.784597,-0.140364,-0.204737,0.177536,-0.243209
-0.050000,-0.050000,0.000000,0.000000,0.000000,0.000000,0.000000,0.000000,0.000000,0.100000,0.100000,-0.391930,-0.461311,-0.050000,-0.050000,0.460170,-0.518189,0.000000,0.000000,-0.322003,0.215149,0.876265,0.706267,-0.369980,0.732791,-0.128570,-0.180591,0.154926,-0.229038
-0.050000,-0.050000,0.000000,0.000000,0.000000,0.000000,0.000000,0.000000,0.000000,0.100000,0.100000,-0.387377,-0.459217,-0.050000,-0.050000,0.450876,-0.513744,0.000000,0.000000,-0.354179,0.245005,0.900275,0.736277,-0.310928,0.674512,-0.118551,-0.155814,0.131943,-0.211753
-0.050000,-0.050000,0.000000,0.000000,0.000000,0.000000,0.000000,0.000000,0.000000,0.100000,0.100000,-0.382330,-0.457188,-0.050000,-0.050000,0.440652,-0.508187,0.000000,0.000000,-0.385114,0.275062,0.924560,0.767817,-0.253884,0.614684,-0.109119,-0.131516,0.109506,-0.193741
-0.050000,-0.050000,0.000000,0.000000,0.000000,0.000000,0.000000,0.000000,0.000000,0.100000,0.100000,-0.376294,-0.455291,-0.050000,-0.050000,0.428569,-0.500404,0.000000,0.000000,-0.413567,0.305520,0.949397,0.802417,-0.200858,0.551756,-0.100860,-0.108176,0.088163,-0.174273
-0.050000,-0.050000,0.000000,0.000000,0.000000,0.000000,0.000000,0.000000,0.000000,0.100000,0.100000,-0.369209,-0.452777,-0.050000,-0.050000,0.415220,-0.490424,0.000000,0.000000,-0.438693,0.335041,0.973959,0.839038,-0.153337,0.487647,-0.093488,-0.086918,0.069033,-0.154464
-0.050000,-0.050000,0.000000,0.000000,0.000000,0.000000,0.000000,0.000000,0.000000,0.100000,0.100000,-0.361599,-0.449955,-0.050000,-0.050000,0.401238,-0.479346,0.000000,0.000000,-0.462156,0.364094,0.998383,0.876670,-0.108570,0.422947,-0.086558,-0.066701,0.051010,-0.134484
-0.050000,-0.050000,0.000000,0.000000,0.000000,0.000000,0.000000,0.000000,0.000000,0.100000,0.100000,-0.352593,-0.445159,-0.050000,-0.050000,0.386537,-0.465520,0.000000,0.000000,-0.480020,0.389736,1.021215,0.915458,-0.073271,0.360102,-0.080437,-0.050464,0.037332,-0.116015
-0.050000,-0.050000,0.000000,0.000000,0.000000,0.000000,0.000000,0.000000,0.000000,0.100000,0.100000,-0.343238,-0.439469,-0.050000,-0.050000,0.372028,-0.451108,0.000000,0.000000,-0.496020,0.413693,1.043197,0.953980,-0.041157,0.299117,-0.074475,-0.035534,0.025198,-0.098650
-0.050000,-0.050000,0.000000,0.000000,0.000000,0.000000,0.000000,0.000000,0.000000,0.100000,0.100000,-0.333189,-0.431988,-0.050000,-0.050000,0.357905,-0.435523,0.000000,0.000000,-0.508293,0.434279,1.063480,0.991970,-0.015411,0.241852,-0.068831,-0.023215,0.016155,-0.083491
-0.050000,-0.050000,0.000000,0.000000,0.000000,0.000000,0.000000,0.000000,0.000000,0.100000,0.100000,-0.322724,-0.422563,-0.050000,-0.050000,0.344977,-0.419591,0.000000,0.000000,-0.517180,0.450837,1.081639,1.028226,0.004582,0.190340,-0.063477,-0.013045,0.009979,-0.071239
-0.050000,-0.050000,0.000000,0.000000,0.000000,0.000000,0.000000,0.000000,0.000000,0.100000,0.100000,-0.312052,-0.412165,-0.050000,-0.050000,0.332646,-0.403483,0.000000,0.000000,-0.524374,0.465382,1.098738,1.063615,0.021698,0.141704,-0.058269,-0.003949,0.005238,-0.060440
-0.050000,-0.050000,0.000000,0.000000,0.000000,0.000000,0.000000,0.000000,0.000000,0.100000,0.100000,-0.301155,-0.399085,-0.050000,-0.050000,0.323054,-0.388069,0.000000,0.000000,-0.527350,0.473734,1.112393,1.094979,0.031821,0.103449,-0.053671,0.002791,0.004039,-0.054089
-0.050000,-0.050000,0.000000,0.000000,0.000000,0.000000,0.000000,0.000000,0.000000,0.100000,0.100000,-0.289851,-0.384629,-0.050000,-0.050000,0.314670,-0.373686,0.000000,0.000000,-0.529465,0.480508,1.124547,1.123825,0.040065,0.069711,-0.049337,0.009246,0.003593,-0.048919
-0.050000,-0.050000,0.000000,0.000000,0.000000,0.000000,0.000000,0.000000,0.000000,0.100000,0.100000,-0.277732,-0.367419,-0.050000,-0.050000,0.308701,-0.361368,0.000000,0.000000,-0.529856,0.484128,1.133700,1.147637,0.044548,0.045010,-0.045530,0.015126,0.004650,-0.046111
-0.050000,-0.050000,0.000000,0.000000,0.000000,0.000000,0.000000,0.000000,0.000000,0.100000,0.100000,-0.266447,-0.350294,-0.050000,-0.050000,0.304520,-0.349683,0.000000,0.000000,-0.528508,0.484521,1.141724,1.169614,0.047505,0.024331,-0.042381,0.019859,0.006923,-0.044931
-0.050000,-0.050000,0.000000,0.000000,0.000000,0.000000,0.000000,0.000000,0.000000,0.100000,0.100000,-0.255579,-0.333210,-0.050000,-0.050000,0.301234,-0.338315,0.000000,0.000000,-0.526291,0.483299,1.149185,1.190675,0.049700,0.005663,-0.039562,0.024017,0.009805,-0.044566
-0.050000,-0.050000,0.000000,0.000000,0.000000,0.000000,0.000000,0.000000,0.000000,0.100000,0.100000,-0.245807,-0.316150,-0.050000,-0.050000,0.300951,-0.329041,0.000000,0.000000,-0.522879,0.479225,1.154682,1.207580,0.050499,-0.006204,-0.037846,0.026807,0.013452,-0.045514
-0.050000,-0.050000,0.000000,0.000000,0.000000,0.000000,0.000000,0.000000,0.000000,0.100000,0.100000,-0.236426,-0.299221,-0.050000,-0.050000,0.301498,-0.320498,0.000000,0.000000,-0.519388,0.474754,1.159668,1.223151,0.051179,-0.016420,-0.036418,0.029281,0.017077,-0.046535
-0.050000,-0.050000,0.000000,0.000000,0.000000,0.000000,0.000000,0.000000,0.000000,0.100000,0.100000,-0.227825,-0.282552,-0.050000,-0.050000,0.303705,-0.313415,0.000000,0.000000,-0.515738,0.469491,1.163633,1.236053,0.051616,-0.023330,-0.035563,0.031124,0.020661,-0.047700
-0.050000,-0.050000,0.000000,0.000000,0.000000,0.000000,0.000000,0.000000,0.000000,0.100000,0.100000,-0.220135,-0.266481,-0.050000,-0.050000,0.307038,-0.307597,0.000000,0.000000,-0.512330,0.464254,1.166962,1.246769,0.052243,-0.028271,-0.035060,0.032553,0.023840,-0.048545
-0.050000,-0.050000,0.000000,0.000000,0.000000,0.000000,0.000000,0.000000,0.000000,0.100000,0.100000,-0.212901,-0.250710,-0.050000,-0.050000,0.310934,-0.302410,0.000000,0.000000,-0.509042,0.459030,1.169973,1.256392,0.052964,-0.032225,-0.034734,0.033776,0.026817,-0.049231
-0.050000,-0.050000,0.000000,0.000000,0.000000,0.000000,0.000000,0.000000,0.000000,0.100000,0.100000,-0.207239,-0.236325,-0.050000,-0.050000,0.315648,-0.298684,0.000000,0.000000,-0.506435,0.454561,1.172529,1.263634,0.054190,-0.034671,-0.034603,0.034658,0.028920,-0.049227
-0.050000,-0.050000,0.000000,0.000000,0.000000,0.000000,0.000000,0.000000,0.000000,0.100000,0.100000,-0.202150,-0.222536,-0.050000,-0.050000,0.320369,-0.295300,0.000000,0.000000,-0.504094,0.450417,1.175029,1.270359,0.055555,-0.036862,-0.034452,0.035501,0.030723,-0.049058
-0.050000,-0.050000,0.000000,0.000000,0.000000,0.000000,0.000000,0.000000,0.000000,0.100000,0.100000,-0.198208,-0.209942,-0.050000,-0.050000,0.325103,-0.292597,0.000000,0.000000,-0.502285,0.446923,1.177417,1.276050,0.057197,-0.038542,-0.034257,0.036264,0.031925,-0.048562
-0.050000,-0.050000,0.000000,0.000000,0.000000,0.000000,0.000000,0.000000,0.000000,0.100000,0.100000,-0.195440,-0.198742,-0.050000,-0.050000,0.329432,-0.290348,0.000000,0.000000,-0.501015,0.443982,1.179712,1.281129,0.058958,-0.039824,-0.033928,0.037045,0.032625,-0.048038
-0.050000,-0.050000,0.000000,0.000000,0.000000,0.000000,0.000000,0.000000,0.000000,0.100000,0.100000,-0.193259,-0.188240,-0.050000,-0.050000,0.333558,-0.288326,0.000000,0.000000,-0.500015,0.441319,1.181961,1.285903,0.060778,-0.040908,-0.033532,0.037834,0.033073,-0.047500
-0.050000,-0.050000,0.000000,0.000000,0.000000,0.000000,0.000000,0.000000,0.000000,0.100000,0.100000,-0.192763,-0.180012,-0.050000,-0.050000,0.336669,-0.286781,0.000000,0.000000,-0.499808,0.439160,1.183851,1.290139,0.062542,-0.041257,-0.032933,0.038703,0.032993,-0.047426
-0.050000,-0.050000,0.000000,0.000000,0.000000,0.000000,0.000000,0.000000,0.000000,0.100000,0.100000,-0.192766,-0.172564,-0.050000,-0.050000,0.339386,-0.285379,0.000000,0.000000,-0.499867,0.437059,1.185486,1.294238,0.064241,-0.041299,-0.032304,0.039590,0.032808,-0.047636
-0.050000,-0.050000,0.000000,0.000000,0.000000,0.000000,0.000000,0.000000,0.000000,0.100000,0.100000,-0.193766,-0.166674,-0.050000,-0.050000,0.341311,-0.284262,0.000000,0.000000,-0.500455,0.435074,1.186612,1.298064,0.065811,-0.040727,-0.031615,0.040513,0.032411,-0.048415
-0.050000,-0.050000,0.000000,0.000000,0.000000,0.000000,0.000000,0.000000,0.000000,0.100000,0.100000,-0.195585,-0.162303,-0.050000,-0.050000,0.342470,-0.283475,0.000000,0.000000,-0.501588,0.433057,1.186906,1.301555,0.067251,-0.039500,-0.030989,0.041408,0.031893,-0.049883
-0.050000,-0.050000,0.000000,0.000000,0.000000,0.000000,0.000000,0.000000,0.000000,0.100000,0.100000,-0.197811,-0.158692,-0.050000,-0.050000,0.343247,-0.282855,0.000000,0.000000,-0.502991,0.431024,1.186783,1.304880,0.068625,-0.037944,-0.030395,0.042289,0.031313,-0.051694
-0.050000,-0.050000,0.000000,0.000000,0.000000,0.000000,0.000000,0.000000,0.000000,0.100000,0.100000,-0.200951,-0.157186,-0.050000,-0.050000,0.343075,-0.282865,0.000000,0.000000,-0.505214,0.428878,1.184961,1.307454,0.069905,-0.035526,-0.030104,0.042991,0.030600,-0.054486
-0.050000,-0.050000,0.000000,0.000000,0.000000,0.000000,0.000000,0.000000,0.000000,0.100000,0.100000,-0.204290,-0.156294,-0.050000,-0.050000,0.342686,-0.283128,0.000000,0.000000,-0.507691,0.426720,1.182472,1.309668,0.071199,-0.032914,-0.029981,0.043579,0.029847,-0.057529
-0.050000,-0.050000,0.000000,0.000000,0.000000,0.000000,0.000000,0.000000,0.000000,0.100000,0.100000,-0.208027,-0.156630,-0.050000,-0.050000,0.341864,-0.283900,0.000000,0.000000,-0.510675,0.424539,1.178649,1.311162,0.072520,-0.029914,-0.030193,0.043941,0.029012,-0.061073
-0.050000,-0.050000,0.000000,0.000000,0.000000,0.000000,0.000000,0.000000,0.000000,0.100000,0.100000,-0.211972,-0.157978,-0.050000,-0.050000,0.340825,-0.285224,0.000000,0.000000,-0.514061,0.422451,1.173447,1.311719,0.073928,-0.026781,-0.030843,0.043973,0.028126,-0.064911
-0.050000,-0.050000,0.000000,0.000000,0.000000,0.000000,0.000000,0.000000,0.000000,0.100000,0.100000,-0.216022,-0.159834,-0.050000,-0.050000,0.339679,-0.286825,0.000000,0.000000,-0.517649,0.420410,1.167557,1.311808,0.075381,-0.023581,-0.031713,0.043841,0.027215,-0.068896
-0.050000,-0.050000,0.000000,0.000000,0.000000,0.000000,0.000000,0.000000,0.000000,0.100000,0.100000,-0.220150,-0.162883,-0.050000,-0.050000,0.338493,-0.289223,0.000000,0.000000,-0.521575,0.418724,1.159822,1.310266,0.076947,-0.020596,-0.033329,0.043098,0.026365,-0.073009
-0.050000,-0.050000,0.000000,0.000000,0.000000,0.000000,0.000000,0.000000,0.000000,0.100000,0.100000,-0.224244,-0.166235,-0.050000,-0.050000,0.337357,-0.291842,0.000000,0.000000,-0.525499,0.417224,1.151644,1.308160,0.078502,-0.017811,-0.035191,0.042136,0.025614,-0.077078
-0.050000,-0.050000,0.000000,0.000000,0.000000,0.000000,0.000000,0.000000,0.000000,0.100000,0.100000,-0.228272,-0.170192,-0.050000,-0.050000,0.336319,-0.294902,0.000000,0.000000,-0.529417,0.416098,1.142581,1.304928,0.080033,-0.015428,-0.037543,0.040735,0.025060,-0.081061
-0.050000,-0.050000,0.000000,0.000000,0.000000,0.000000,0.000000,0.000000,0.000000,0.100000,0.100000,-0.232144,-0.174614,-0.050000,-0.050000,0.335416,-0.298255,0.000000,0.000000,-0.533079,0.415447,1.133149,1.300671,0.081365,-0.013648,-0.040294,0.038929,0.024893,-0.084825
-0.050000,-0.050000,0.000000,0.000000,0.000000,0.000000,0.000000,0.000000,0.000000,0.100000,0.100000,-0.235939,-0.179267,-0.050000,-0.050000,0.334581,-0.301754,0.000000,0.000000,-0.536614,0.415033,1.123531,1.295902,0.082597,-0.012170,-0.043245,0.036920,0.024919,-0.088479
-0.050000,-0.050000,0.000000,0.000000,0.000000,0.000000,0.000000,0.000000,0.000000,0.100000,0.100000,-0.239411,-0.184489,-0.050000,-0.050000,0.333864,-0.305429,0.000000,0.000000,-0.539439,0.415405,1.114300,1.289945,0.083214,-0.011755,-0.046516,0.034462,0.025759,-0.091645
-0.050000,-0.050000,0.000000,0.000000,0.000000,0.000000,0.000000,0.000000,0.000000,0.100000,0.100000,-0.242757,-0.189879,-0.050000,-0.050000,0.333122,-0.309076,0.000000,0.000000,-0.541958,0.416034,1.105527,1.283755,0.083525,-0.011676,-0.049760,0.031935,0.026901,-0.094594
-0.050000,-0.050000,0.000000,0.000000,0.000000,0.000000,0.000000,0.000000,0.000000,0.100000,0.100000,-0.245849,-0.195604,-0.050000,-0.050000,0.332331,-0.312667,0.000000,0.000000,-0.543862,0.417177,1.097670,1.277099,0.083227,-0.012270,-0.052953,0.029270,0.028649,-0.097111
-0.050000,-0.050000,0.000000,0.000000,0.000000,0.000000,0.000000,0.000000,0.000000,0.100000,0.100000,-0.248676,-0.201639,-0.050000,-0.050000,0.331327,-0.316060,0.000000,0.000000,-0.545109,0.418755,1.091317,1.270324,0.082177,-0.013328,-0.055788,0.026647,0.030935,-0.099074
-0.050000,-0.050000,0.000000,0.000000,0.000000,0.000000,0.000000,0.000000,0.000000,0.100000,0.100000,-0.251369,-0.207828,-0.050000,-0.050000,0.330217,-0.319354,0.000000,0.000000,-0.546029,0.420550,1.085717,1.263490,0.080751,-0.014619,-0.058445,0.024046,0.033489,-0.100760
-0.050000,-0.050000,0.000000,0.000000,0.000000,0.000000,0.000000,0.000000,0.000000,0.100000,0.100000,-0.253673,-0.214425,-0.050000,-0.050000,0.328558,-0.322220,0.000000,0.000000,-0.546037,0.422787,1.082994,1.256906,0.078111,-0.016023,-0.060146,0.021730,0.036561,-0.101410
-0.050000,-0.050000,0.000000,0.000000,0.000000,0.000000,0.000000,0.000000,0.000000,0.100000,0.100000,-0.255858,-0.221121,-0.050000,-0.050000,0.326668,-0.324935,0.000000,0.000000,-0.545792,0.425068,1.081305,1.250483,0.075079,-0.017192,-0.061434,0.019544,0.039669,-0.101645
-0.050000,-0.050000,0.000000,0.000000,0.000000,0.000000,0.000000,0.000000,0.000000,0.100000,0.100000,-0.257806,-0.228016,-0.050000,-0.050000,0.324318,-0.327346,0.000000,0.000000,-0.545040,0.427441,1.081682,1.244378,0.071263,-0.017893,-0.061899,0.017616,0.042851,-0.101050
-0.050000,-0.050000,0.000000,0.000000,0.000000,0.000000,0.000000,0.000000,0.000000,0.100000,0.100000,-0.259541,-0.234998,-0.050000,-0.050000,0.321505,-0.329511,0.000000,0.000000,-0.543879,0.429655,1.083950,1.238567,0.066744,-0.017490,-0.061510,0.015912,0.045828,-0.099511
-0.050000,-0.050000,0.000000,0.000000,0.000000,0.000000,0.000000,0.000000,0.000000,0.100000,0.100000,-0.261170,-0.242023,-0.050000,-0.050000,0.318461,-0.331553,0.000000,0.000000,-0.542512,0.431789,1.087164,1.232902,0.061873,-0.016536,-0.060693,0.014320,0.048703,-0.097500
-0.050000,-0.050000,0.000000,0.000000,0.000000,0.000000,0.000000,0.000000,0.000000,0.100000,0.100000,-0.262512,-0.248970,-0.050000,-0.050000,0.314884,-0.333425,0.000000,0.000000,-0.540586,0.433270,1.092454,1.227366,0.056073,-0.012971,-0.058821,0.012868,0.050946,-0.093989
-0.050000,-0.050000,0.000000,0.000000,0.000000,0.000000,0.000000,0.000000,0.000000,0.100000,0.100000,-0.263770,-0.255821,-0.050000,-0.050000,0.311236,-0.335337,0.000000,0.000000,-0.538444,0.434391,1.098045,1.221698,0.049976,-0.008259,-0.056754,0.011373,0.052929,-0.089998
-0.050000,-0.050000,0.000000,0.000000,0.000000,0.000000,0.000000,0.000000,0.000000,0.100000,0.100000,-0.264859,-0.262483,-0.050000,-0.050000,0.307449,-0.337330,0.000000,0.000000,-0.535870,0.434797,1.104238,1.215768,0.043287,-0.001253,-0.054295,0.009788,0.054392,-0.085047
-0.050000,-0.050000,0.000000,0.000000,0.000000,0.000000,0.000000,0.000000,0.000000,0.100000,0.100000,-0.265824,-0.268850,-0.050000,-0.050000,0.303818,-0.339638,0.000000,0.000000,-0.532696,0.434224,1.110086,1.209150,0.035908,0.008450,-0.051855,0.007930,0.055383,-0.079305
-0.050000,-0.050000,0.000000,0.000000,0.000000,0.000000,0.000000,0.000000,0.000000,0.100000,0.100000,-0.266726,-0.275069,-0.050000,-0.050000,0.300266,-0.342103,0.000000,0.000000,-0.529224,0.433162,1.115762,1.202189,0.028185,0.019501,-0.049424,0.005937,0.056136,-0.073167
-0.050000,-0.050000,0.000000,0.000000,0.000000,0.000000,0.000000,0.000000,0.000000,0.100000,0.100000,-0.267569,-0.280772,-0.050000,-0.050000,0.297454,-0.345401,0.000000,0.000000,-0.524465,0.430286,1.119488,1.193570,0.019036,0.034938,-0.047643,0.003326,0.056462,-0.066340
-0.050000,-0.050000,0.000000,0.000000,0.000000,0.000000,0.000000,0.000000,0.000000,0.100000,0.100000,-0.268466,-0.286309,-0.050000,-0.050000,0.295050,-0.349080,0.000000,0.000000,-0.519123,0.426705,1.122162,1.184226,0.009196,0.051871,-0.046240,0.000469,0.056797,-0.059533
-0.050000,-0.050000,0.000000,0.000000,0.000000,0.000000,0.000000,0.000000,0.000000,0.100000,0.100000,-0.269470,-0.291511,-0.050000,-0.050000,0.293460,-0.353520,0.000000,0.000000,-0.512610,0.421717,1.122731,1.173433,-0.002028,0.071794,-0.045593,-0.002878,0.057150,-0.052768
-0.050000,-0.050000,0.000000,0.000000,0.000000,0.000000,0.000000,0.000000,0.000000,0.100000,0.100000,-0.270775,-0.296432,-0.050000,-0.050000,0.292931,-0.358856,0.000000,0.000000,-0.504613,0.415151,1.120674,1.160971,-0.015196,0.094647,-0.045875,-0.006749,0.057884,-0.046697
-0.050000,-0.050000,0.000000,0.000000,0.000000,0.000000,0.000000,0.000000,0.000000,0.100000,0.100000,-0.272231,-0.301213,-0.050000,-0.050000,0.292932,-0.364639,0.000000,0.000000,-0.495874,0.407796,1.117305,1.147676,-0.029337,0.118965,-0.046621,-0.010883,0.058811,-0.040972
-0.050000,-0.050000,0.000000,0.000000,0.000000,0.000000,0.000000,0.000000,0.000000,0.100000,0.100000,-0.274452,-0.305666,-0.050000,-0.050000,0.294709,-0.371810,0.000000,0.000000,-0.484523,0.397873,1.109756,1.131767,-0.047275,0.147451,-0.048778,-0.015844,0.060853,-0.037383
-0.050000,-0.050000,0.000000,0.000000,0.000000,0.000000,0.000000,0.000000,0.000000,0.100000,0.100000,-0.277011,-0.310030,-0.050000,-0.050000,0.297065,-0.379400,0.000000,0.000000,-0.472238,0.387054,1.100919,1.115021,-0.066707,0.177211,-0.051356,-0.021111,0.063413,-0.034852
-0.050000,-0.050000,0.000000,0.000000,0.000000,0.000000,0.000000,0.000000,0.000000,0.100000,0.100000,-0.280244,-0.314213,-0.050000,-0.050000,0.300577,-0.387826,0.000000,0.000000,-0.458083,0.374442,1.089504,1.096602,-0.089128,0.209519,-0.054774,-0.026988,0.067005,-0.034436
-0.050000,-0.050000,0.000000,0.000000,0.000000,0.000000,0.000000,0.000000,0.000000,0.100000,0.100000,-0.284216,-0.318208,-0.050000,-0.050000,0.305070,-0.396886,0.000000,0.000000,-0.442120,0.360051,1.076039,1.076701,-0.114695,0.244046,-0.058894,-0.033588,0.071784,-0.036638
-0.050000,-0.050000,0.000000,0.000000,0.000000,0.000000,0.000000,0.000000,0.000000,0.100000,0.100000,-0.288556,-0.322108,-0.050000,-0.050000,0.310055,-0.406262,0.000000,0.000000,-0.425251,0.344771,1.061549,1.056059,-0.141836,0.279683,-0.063364,-0.040549,0.077157,-0.040149
-0.050000,-0.050000,0.000000,0.000000,0.000000,0.000000,0.000000,0.000000,0.000000,0.100000,0.100000,-0.293885,-0.325633,-0.050000,-0.050000,0.316075,-0.416154,0.000000,0.000000,-0.406103,0.327056,1.045118,1.033626,-0.173275,0.317946,-0.068704,-0.048805,0.084273,-0.047848
-0.050000,-0.050000,0.000000,0.000000,0.000000,0.000000,0.000000,0.000000,0.000000,0.100000,0.100000,-0.299434,-0.328984,-0.050000,-0.050000,0.322263,-0.426050,0.000000,0.000000,-0.386454,0.308698,1.028484,1.010777,-0.205761,0.356766,-0.074286,-0.057547,0.091862,-0.056825
-0.050000,-0.050000,0.000000,0.000000,0.000000,0.000000,0.000000,0.000000,0.000000,0.100000,0.100000,-0.305421,-0.331987,-0.050000,-0.050000,0.328788,-0.435954,0.000000,0.000000,-0.365804,0.289052,1.011445,0.987100,-0.240340,0.396700,-0.080353,-0.067263,0.100398,-0.068357
-0.050000,-0.050000,0.000000,0.000000,0.000000,0.000000,0.000000,0.000000,0.000000,0.100000,0.100000,-0.311517,-0.334534,-0.050000,-0.050000,0.335286,-0.445536,0.000000,0.000000,-0.344852,0.268644,0.994934,0.963039,-0.275815,0.436941,-0.086793,-0.077942,0.109501,-0.081807
-0.050000,-0.050000,0.000000,0.000000,0.000000,0.000000,0.000000,0.000000,0.000000,0.100000,0.100000,-0.317666,-0.336852,-0.050000,-0.050000,0.341772,-0.454956,0.000000,0.000000,-0.323750,0.247855,0.978689,0.938785,-0.311739,0.477337,-0.093418,-0.089102,0.118888,-0.096217
-0.050000,-0.050000,0.000000,0.000000,0.000000,0.000000,0.000000,0.000000,0.000000,0.100000,0.100000,-0.323415,-0.338346,-0.050000,-0.050000,0.347732,-0.463463,0.000000,0.000000,-0.303386,0.226948,0.964609,0.914777,-0.346841,0.516811,-0.100300,-0.101390,0.128410,-0.112115
-0.050000,-0.050000,0.000000,0.000000,0.000000,0.000000,0.000000,0.000000,0.000000,0.100000,0.100000,-0.328853,-0.339536,-0.050000,-0.050000,0.353382,-0.471558,0.000000,0.000000,-0.283660,0.206392,0.951674,0.891194,-0.380936,0.555501,-0.107106,-0.113826,0.137735,-0.127991
-0.050000,-0.050000,0.000000,0.000000,0.000000,0.000000,0.000000,0.000000,0.000000,0.100000,0.100000,-0.333673,-0.340117,-0.050000,-0.050000,0.358415,-0.478829,0.000000,0.000000,-0.265207,0.186537,0.941028,0.868459,-0.413017,0.592623,-0.113757,-0.126559,0.146666,-0.143822
-0.050000,-0.050000,0.000000,0.000000,0.000000,0.000000,0.000000,0.000000,0.000000,0.100000,0.100000,-0.337608,-0.340079,-0.050000,-0.050000,0.362621,-0.485145,0.000000,0.000000,-0.248710,0.168181,0.933394,0.847428,-0.441796,0.627275,-0.119819,-0.138912,0.154788,-0.158644
-0.050000,-0.050000,0.000000,0.000000,0.000000,0.000000,0.000000,0.000000,0.000000,0.100000,0.100000,-0.341101,-0.339731,-0.050000,-0.050000,0.366415,-0.490984,0.000000,0.000000,-0.233190,0.150573,0.927266,0.827248,-0.468924,0.660692,-0.125587,-0.151075,0.162505,-0.172961
-0.050000,-0.050000,0.000000,0.000000,0.000000,0.000000,0.000000,0.000000,0.000000,0.100000,0.100000,-0.343052,-0.338533,-0.050000,-0.050000,0.368736,-0.495314,0.000000,0.000000,-0.221397,0.136320,0.926470,0.811154,-0.489614,0.689189,-0.129756,-0.161436,0.168558,-0.184645
-0.050000,-0.050000,0.000000,0.000000,0.000000,0.000000,0.000000,0.000000,0.000000,0.100000,0.100000,-0.344480,-0.337118,-0.050000,-0.050000,0.370514,-0.499153,0.000000,0.000000,-0.211033,0.123501,0.927599,0.796987,-0.507816,0.715678,-0.133179,-0.170768,0.173961,-0.195225
-0.050000,-0.050000,0.000000,0.000000,0.000000,0.000000,0.000000,0.000000,0.000000,0.100000,0.100000,-0.344863,-0.335271,-0.050000,-0.050000,0.371205,-0.502008,0.000000,0.000000,-0.203527,0.113550,0.932578,0.786674,-0.521043,0.738149,-0.135108,-0.178045,0.178064,-0.203596
-0.050000,-0.050000,0.000000,0.000000,0.000000,0.000000,0.000000,0.000000,0.000000,0.100000,0.100000,-0.344280,-0.333214,-0.050000,-0.050000,0.370751,-0.503953,0.000000,0.000000,-0.199118,0.106957,0.941391,0.781331,-0.528861,0.755868,-0.135245,-0.182499,0.180748,-0.209592
-0.050000,-0.050000,0.000000,0.000000,0.000000,0.000000,0.000000,0.000000,0.000000,0.100000,0.100000,-0.343213,-0.331051,-0.050000,-0.050000,0.369725,-0.505441,0.000000,0.000000,-0.196258,0.102043,0.952122,0.778474,-0.533974,0.771210,-0.134487,-0.185542,0.182724,-0.214401
-0.050000,-0.050000,0.000000,0.000000,0.000000,0.000000,0.000000,0.000000,0.000000,0.100000,0.100000,-0.340875,-0.329002,-0.050000,-0.050000,0.366969,-0.505685,0.000000,0.000000,-0.198226,0.102652,0.968050,0.784444,-0.530584,0.778211,-0.130886,-0.183515,0.182434,-0.215721
-0.050000,-0.050000,0.000000,0.000000,0.000000,0.000000,0.000000,0.000000,0.000000,0.100000,0.100000,-0.338160,-0.327130,-0.050000,-0.050000,0.363655,-0.505533,0.000000,0.000000,-0.201795,0.105163,0.985350,0.793597,-0.524307,0.781991,-0.126401,-0.179678,0.181343,-0.215958
-0.050000,-0.050000,0.000000,0.000000,0.000000,0.000000,0.000000,0.000000,0.000000,0.100000,0.100000,-0.334693,-0.325613,-0.050000,-0.050000,0.359225,-0.504590,0.000000,0.000000,-0.208569,0.111479,1.005394,0.809118,-0.512260,0.779331,-0.120148,-0.172220,0.178648,-0.214026
-0.050000,-0.050000,0.000000,0.000000,0.000000,0.000000,0.000000,0.000000,0.000000,0.100000,0.100000,-0.330502,-0.324609,-0.050000,-0.050000,0.353759,-0.502802,0.000000,0.000000,-0.218340,0.121464,1.027161,0.830842,-0.494568,0.769410,-0.112495,-0.161328,0.174264,-0.210093
-0.050000,-0.050000,0.000000,0.000000,0.000000,0.000000,0.000000,0.000000,0.000000,0.100000,0.100000,-0.325949,-0.323861,-0.050000,-0.050000,0.347774,-0.500592,0.000000,0.000000,-0.229610,0.133284,1.049790,0.855668,-0.474054,0.755860,-0.104143,-0.148720,0.169036,-0.205159
-0.050000,-0.050000,0.000000,0.000000,0.000000,0.000000,0.000000,0.000000,0.000000,0.100000,0.100000,-0.320238,-0.323753,-0.050000,-0.050000,0.340433,-0.496886,0.000000,0.000000,-0.244674,0.149913,1.073220,0.888404,-0.445840,0.730712,-0.094559,-0.131995,0.161237,-0.197437
-0.050000,-0.050000,0.000000,0.000000,0.000000,0.000000,0.000000,0.000000,0.000000,0.100000,0.100000,-0.315214,-0.325376,-0.050000,-0.050000,0.332243,-0.492565,0.000000,0.000000,-0.260149,0.167564,1.097423,0.924825,-0.414437,0.700657,-0.085044,-0.114411,0.152393,-0.188241
-0.050000,-0.050000,0.000000,0.000000,0.000000,0.000000,0.000000,0.000000,0.000000,0.100000,0.100000,-0.311566,-0.330459,-0.050000,-0.050000,0.322355,-0.487015,0.000000,0.000000,-0.276450,0.187255,1.123176,0.968615,-0.376659,0.660786,-0.075666,-0.095109,0.141458,-0.176095
-0.050000,-0.050000,0.000000,0.000000,0.000000,0.000000,0.000000,0.000000,0.000000,0.100000,0.100000,-0.305021,-0.332231,-0.050000,-0.050000,0.312909,-0.480099,0.000000,0.000000,-0.293984,0.208327,1.145307,1.011098,-0.338278,0.616202,-0.066806,-0.076322,0.129647,-0.163487
-0.050000,-0.050000,0.000000,0.000000,0.000000,0.000000,0.000000,0.000000,0.000000,0.100000,0.100000,-0.297028,-0.332346,-0.050000,-0.050000,0.303684,-0.472501,0.000000,0.000000,-0.312134,0.230090,1.165628,1.052926,-0.299596,0.569261,-0.058206,-0.057791,0.117400,-0.150647
-0.050000,-0.050000,0.000000,0.000000,0.000000,0.000000,0.000000,0.000000,0.000000,0.100000,0.100000,-0.286901,-0.328922,-0.050000,-0.050000,0.294669,-0.463169,0.000000,0.000000,-0.330177,0.251424,1.181730,1.092377,-0.260826,0.516989,-0.050972,-0.041167,0.104264,-0.137356
-0.050000,-0.050000,0.000000,0.000000,0.000000,0.000000,0.000000,0.000000,0.000000,0.100000,0.100000,-0.276365,-0.324277,-0.050000,-0.050000,0.285826,-0.453516,0.000000,0.000000,-0.347603,0.271936,1.196472,1.130285,-0.223064,0.464533,-0.044362,-0.025667,0.091189,-0.124283
-0.050000,-0.050000,0.000000,0.000000,0.000000,0.000000,0.000000,0.000000,0.000000,0.100000,0.100000,-0.265010,-0.317188,-0.050000,-0.050000,0.277324,-0.443221,0.000000,0.000000,-0.363793,0.290802,1.208494,1.165105,-0.187319,0.411710,-0.039002,-0.012416,0.078235,-0.111649
-0.050000,-0.050000,0.000000,0.000000,0.000000,0.000000,0.000000,0.000000,0.000000,0.100000,0.100000,-0.253285,-0.307662,-0.050000,-0.050000,0.269377,-0.432878,0.000000,0.000000,-0.377904,0.306957,1.218040,1.195680,-0.155441,0.361860,-0.034876,-0.001757,0.066179,-0.100315
-0.050000,-0.050000,0.000000,0.000000,0.000000,0.000000,0.000000,0.000000,0.000000,0.100000,0.100000,-0.241376,-0.296917,-0.050000,-0.050000,0.261707,-0.422511,0.000000,0.000000,-0.390974,0.321757,1.226346,1.224132,-0.125497,0.313496,-0.031367,0.007605,0.054571,-0.089631
-0.050000,-0.050000,0.000000,0.000000,0.000000,0.000000,0.000000,0.000000,0.000000,0.100000,0.100000,-0.229578,-0.283082,-0.050000,-0.050000,0.255079,-0.412909,0.000000,0.000000,-0.400271,0.331562,1.231625,1.245488,-0.103118,0.273619,-0.029334,0.013396,0.045280,-0.081828
-0.050000,-0.050000,0.000000,0.000000,0.000000,0.000000,0.000000,0.000000,0.000000,0.100000,0.100000,-0.217675,-0.268197,-0.050000,-0.050000,0.248897,-0.403834,0.000000,0.000000,-0.408475,0.340074,1.236066,1.264190,-0.083851,0.238255,-0.027620,0.018417,0.037108,-0.075222
-0.050000,-0.050000,0.000000,0.000000,0.000000,0.000000,0.000000,0.000000,0.000000,0.100000,0.100000,-0.205563,-0.251212,-0.050000,-0.050000,0.243607,-0.395811,0.000000,0.000000,-0.414495,0.345998,1.238834,1.277583,-0.070806,0.211918,-0.026545,0.021895,0.031175,-0.071011
-0.050000,-0.050000,0.000000,0.000000,0.000000,0.000000,0.000000,0.000000,0.000000,0.100000,0.100000,-0.194655,-0.234475,-0.050000,-0.050000,0.238944,-0.388743,0.000000,0.000000,-0.418064,0.348281,1.240978,1.288137,-0.061510,0.190657,-0.025815,0.023871,0.026844,-0.068290
-0.050000,-0.050000,0.000000,0.000000,0.000000,0.000000,0.000000,0.000000,0.000000,0.100000,0.100000,-0.184350,-0.217862,-0.050000,-0.050000,0.234594,-0.382153,0.000000,0.000000,-0.420408,0.348745,1.242810,1.297273,-0.054089,0.171934,-0.025258,0.025095,0.023313,-0.066316
-0.050000,-0.050000,0.000000,0.000000,0.000000,0.000000,0.000000,0.000000,0.000000,0.100000,0.100000,-0.176062,-0.202374,-0.050000,-0.050000,0.231453,-0.377386,0.000000,0.000000,-0.420583,0.345751,1.244193,1.302446,-0.052188,0.162087,-0.024861,0.024967,0.022316,-0.066276
-0.050000,-0.050000,0.000000,0.000000,0.000000,0.000000,0.000000,0.000000,0.000000,0.100000,0.100000,-0.168523,-0.187631,-0.050000,-0.050000,0.228726,-0.373223,0.000000,0.000000,-0.420486,0.342192,1.245569,1.306684,-0.051539,0.154544,-0.024449,0.024641,0.021973,-0.066599
-0.050000,-0.050000,0.000000,0.000000,0.000000,0.000000,0.000000,0.000000,0.000000,0.100000,0.100000,-0.162481,-0.174374,-0.050000,-0.050000,0.226825,-0.370268,0.000000,0.000000,-0.419846,0.337500,1.246933,1.309052,-0.053395,0.151604,-0.024007,0.023919,0.022941,-0.067646
-0.050000,-0.050000,0.000000,0.000000,0.000000,0.000000,0.000000,0.000000,0.000000,0.100000,0.100000,-0.158045,-0.163257,-0.050000,-0.050000,0.225732,-0.368383,0.000000,0.000000,-0.419421,0.332690,1.248419,1.310314,-0.056406,0.151519,-0.023516,0.023085,0.024711,-0.068854
-0.050000,-0.050000,0.000000,0.000000,0.000000,0.000000,0.000000,0.000000,0.000000,0.100000,0.100000,-0.154412,-0.153211,-0.050000,-0.050000,0.225042,-0.367034,0.000000,0.000000,-0.419102,0.327822,1.249966,1.311022,-0.059995,0.152862,-0.023002,0.022195,0.026882,-0.070142
-0.050000,-0.050000,0.000000,0.000000,0.000000,0.000000,0.000000,0.000000,0.000000,0.100000,0.100000,-0.153212,-0.146985,-0.050000,-0.050000,0.225501,-0.366950,0.000000,0.000000,-0.419934,0.323909,1.251630,1.310884,-0.063534,0.156178,-0.022513,0.021290,0.029488,-0.071082
-0.050000,-0.050000,0.000000,0.000000,0.000000,0.000000,0.000000,0.000000,0.000000,0.100000,0.100000,-0.152777,-0.142079,-0.050000,-0.050000,0.226309,-0.367143,0.000000,0.000000,-0.421305,0.320525,1.253239,1.310600,-0.066617,0.159633,-0.022092,0.020367,0.032020,-0.071822
-0.050000,-0.050000,0.000000,0.000000,0.000000,0.000000,0.000000,0.000000,0.000000,0.100000,0.100000,-0.153872,-0.139813,-0.050000,-0.050000,0.227819,-0.367892,0.000000,0.000000,-0.423757,0.318198,1.254738,1.310025,-0.068790,0.163366,-0.021803,0.019409,0.034406,-0.072164
-0.050000,-0.050000,0.000000,0.000000,0.000000,0.000000,0.000000,0.000000,0.000000,0.100000,0.100000,-0.156311,-0.139980,-0.050000,-0.050000,0.229942,-0.368886,0.000000,0.000000,-0.427377,0.317015,1.255857,1.309212,-0.069545,0.166879,-0.021777,0.018326,0.036328,-0.072142
-0.050000,-0.050000,0.000000,0.000000,0.000000,0.000000,0.000000,0.000000,0.000000,0.100000,0.100000,-0.159421,-0.141362,-0.050000,-0.050000,0.232373,-0.370002,0.000000,0.000000,-0.431583,0.316405,1.256788,1.308281,-0.069592,0.170281,-0.021882,0.017181,0.038019,-0.071938
-0.050000,-0.050000,0.000000,0.000000,0.000000,0.000000,0.000000,0.000000,0.000000,0.100000,0.100000,-0.164172,-0.145731,-0.050000,-0.050000,0.235566,-0.371061,0.000000,0.000000,-0.437411,0.317271,1.256726,1.306899,-0.067284,0.173213,-0.022551,0.015722,0.038755,-0.071433
-0.050000,-0.050000,0.000000,0.000000,0.000000,0.000000,0.000000,0.000000,0.000000,0.100000,0.100000,-0.169333,-0.150808,-0.050000,-0.050000,0.238955,-0.371990,0.000000,0.000000,-0.443681,0.318486,1.256214,1.305326,-0.064260,0.176034,-0.023444,0.014145,0.039155,-0.070930
-0.050000,-0.050000,0.000000,0.000000,0.000000,0.000000,0.000000,0.000000,0.000000,0.100000,0.100000,-0.175315,-0.157301,-0.050000,-0.050000,0.242735,-0.372662,0.000000,0.000000,-0.450835,0.320402,1.254801,1.303374,-0.059805,0.178631,-0.024785,0.012330,0.038885,-0.070431
-0.050000,-0.050000,0.000000,0.000000,0.000000,0.000000,0.000000,0.000000,0.000000,0.100000,0.100000,-0.181863,-0.164606,-0.050000,-0.050000,0.246784,-0.372942,0.000000,0.000000,-0.458634,0.322742,1.252315,1.301017,-0.054245,0.181066,-0.026596,0.010329,0.038031,-0.070117
-0.050000,-0.050000,0.000000,0.000000,0.000000,0.000000,0.000000,0.000000,0.000000,0.100000,0.100000,-0.188695,-0.172318,-0.050000,-0.050000,0.250968,-0.373026,0.000000,0.000000,-0.466754,0.325295,1.249293,1.298457,-0.048133,0.183420,-0.028642,0.008235,0.036885,-0.069893
-0.050000,-0.050000,0.000000,0.000000,0.000000,0.000000,0.000000,0.000000,0.000000,0.100000,0.100000,-0.196063,-0.180433,-0.050000,-0.050000,0.255386,-0.372450,0.000000,0.000000,-0.475502,0.328226,1.244510,1.295368,-0.040974,0.185356,-0.031353,0.006034,0.035119,-0.070102
-0.050000,-0.050000,0.000000,0.000000,0.000000,0.000000,0.000000,0.000000,0.000000,0.100000,0.100000,-0.203536,-0.188466,-0.050000,-0.050000,0.259831,-0.371661,0.000000,0.000000,-0.484367,0.331270,1.239118,1.292157,-0.033662,0.186989,-0.034256,0.003872,0.033250,-0.070463
-0.050000,-0.050000,0.000000,0.000000,0.000000,0.000000,0.000000,0.000000,0.000000,0.100000,0.100000,-0.211219,-0.196337,-0.050000,-0.050000,0.264332,-0.370448,0.000000,0.000000,-0.493466,0.334541,1.232511,1.288702,-0.026044,0.188016,-0.037543,0.001787,0.031177,-0.071128
-0.050000,-0.050000,0.000000,0.000000,0.000000,0.000000,0.000000,0.000000,0.000000,0.100000,0.100000,-0.219019,-0.203749,-0.050000,-0.050000,0.268804,-0.368867,0.000000,0.000000,-0.502661,0.338138,1.224701,1.285130,-0.018435,0.187958,-0.041133,-0.000078,0.029111,-0.072026
-0.050000,-0.050000,0.000000,0.000000,0.000000,0.000000,0.000000,0.000000,0.000000,0.100000,0.100000,-0.226877,-0.210930,-0.050000,-0.050000,0.273262,-0.367102,0.000000,0.000000,-0.511903,0.341899,1.216289,1.281498,-0.010832,0.187358,-0.044875,-0.001835,0.027048,-0.073041
-0.050000,-0.050000,0.000000,0.000000,0.000000,0.000000,0.000000,0.000000,0.000000,0.100000,0.100000,-0.234819,-0.217161,-0.050000,-0.050000,0.277566,-0.364891,0.000000,0.000000,-0.521106,0.346395,1.206199,1.277852,-0.003583,0.184390,-0.048939,-0.003112,0.025276,-0.074216
-0.050000,-0.050000,0.000000,0.000000,0.000000,0.000000,0.000000,0.000000,0.000000,0.100000,0.100000,-0.242758,-0.223037,-0.050000,-0.050000,0.281779,-0.362562,0.000000,0.000000,-0.530227,0.351205,1.195645,1.274244,0.003472,0.180456,-0.053057,-0.004207,0.023681,-0.075371
-0.050000,-0.050000,0.000000,0.000000,0.000000,0.000000,0.000000,0.000000,0.000000,0.100000,0.100000,-0.250688,-0.228207,-0.050000,-0.050000,0.285809,-0.359998,0.000000,0.000000,-0.539182,0.356645,1.184162,1.270708,0.010138,0.174590,-0.057282,-0.004937,0.022437,-0.076486
-0.050000,-0.050000,0.000000,0.000000,0.000000,0.000000,0.000000,0.000000,0.000000,0.100000,0.100000,-0.258511,-0.232666,-0.050000,-0.050000,0.289557,-0.357241,0.000000,0.000000,-0.547785,0.362752,1.172087,1.267325,0.016303,0.166702,-0.061479,-0.005311,0.021675,-0.077437
-0.050000,-0.050000,0.000000,0.000000,0.000000,0.000000,0.000000,0.000000,0.000000,0.100000,0.100000,-0.266279,-0.236769,-0.050000,-0.050000,0.293165,-0.354386,0.000000,0.000000,-0.556213,0.369192,1.159717,1.264017,0.022218,0.157803,-0.065660,-0.005507,0.021153,-0.078307
-0.050000,-0.050000,0.000000,0.000000,0.000000,0.000000,0.000000,0.000000,0.000000,0.100000,0.100000,-0.273641,-0.239879,-0.050000,-0.050000,0.296153,-0.351259,0.000000,0.000000,-0.563750,0.376475,1.147221,1.261093,0.027239,0.146225,-0.069522,-0.005230,0.021500,-0.078832
-0.050000,-0.050000,0.000000,0.000000,0.000000,0.000000,0.000000,0.000000,0.000000,0.100000,0.100000,-0.280755,-0.242699,-0.050000,-0.050000,0.298857,-0.348034,0.000000,0.000000,-0.570850,0.383915,1.135010,1.258372,0.031913,0.134023,-0.073161,-0.004817,0.022164,-0.079244
-0.050000,-0.050000,0.000000,0.000000,0.000000,0.000000,0.000000,0.000000,0.000000,0.100000,0.100000,-0.287373,-0.244938,-0.050000,-0.050000,0.300994,-0.344615,0.000000,0.000000,-0.577074,0.391667,1.123371,1.256057,0.035894,0.120575,-0.076355,-0.004134,0.023462,-0.079430
-0.050000,-0.050000,0.000000,0.000000,0.000000,0.000000,0.000000,0.000000,0.000000,0.100000,0.100000,-0.293229,-0.246707,-0.050000,-0.050000,0.302408,-0.340979,0.000000,0.000000,-0.582146,0.399386,1.113026,1.254324,0.039086,0.106633,-0.078850,-0.003211,0.025383,-0.079451
-0.050000,-0.050000,0.000000,0.000000,0.000000,0.000000,0.000000,0.000000,0.000000,0.100000,0.100000,-0.298703,-0.248240,-0.050000,-0.050000,0.303462,-0.337234,0.000000,0.000000,-0.586641,0.407088,1.103328,1.252884,0.041883,0.092444,-0.080996,-0.002167,0.027615,-0.079391
-0.050000,-0.050000,0.000000,0.000000,0.000000,0.000000,0.000000,0.000000,0.000000,0.100000,0.100000,-0.302639,-0.249263,-0.050000,-0.050000,0.303257,-0.333149,0.000000,0.000000,-0.589070,0.414190,1.096560,1.252549,0.043367,0.078768,-0.081758,-0.000780,0.030633,-0.079213
-0.050000,-0.050000,0.000000,0.000000,0.000000,0.000000,0.000000,0.000000,0.000000,0.100000,0.100000,-0.305957,-0.250188,-0.050000,-0.050000,0.302614,-0.328965,0.000000,0.000000,-0.590751,0.420938,1.090994,1.252607,0.044384,0.065650,-0.081995,0.000715,0.033818,-0.079032
-0.050000,-0.050000,0.000000,0.000000,0.000000,0.000000,0.000000,0.000000,0.000000,0.100000,0.100000,-0.308039,-0.250917,-0.050000,-0.050000,0.301097,-0.324581,0.000000,0.000000,-0.590934,0.426977,1.087833,1.253455,0.044468,0.053648,-0.081181,0.002426,0.037338,-0.078847
-0.050000,-0.050000,0.000000,0.000000,0.000000,0.000000,0.000000,0.000000,0.000000,0.100000,0.100000,-0.308771,-0.251596,-0.050000,-0.050000,0.298777,-0.320079,0.000000,0.000000,-0.589638,0.432126,1.087203,1.254975,0.043621,0.043359,-0.079345,0.004306,0.040937,-0.078695
-0.050000,-0.050000,0.000000,0.000000,0.000000,0.000000,0.000000,0.000000,0.000000,0.100000,0.100000,-0.308827,-0.252252,-0.050000,-0.050000,0.296056,-0.315517,0.000000,0.000000,-0.587603,0.436829,1.087840,1.256832,0.042309,0.033926,-0.076996,0.006271,0.044576,-0.078560
-0.050000,-0.050000,0.000000,0.000000,0.000000,0.000000,0.000000,0.000000,0.000000,0.100000,0.100000,-0.306858,-0.253043,-0.050000,-0.050000,0.292411,-0.310985,0.000000,0.000000,-0.583607,0.440162,1.091922,1.259238,0.039749,0.027568,-0.073423,0.008336,0.047934,-0.078481
-0.050000,-0.050000,0.000000,0.000000,0.000000,0.000000,0.000000,0.000000,0.000000,0.100000,0.100000,-0.304271,-0.253938,-0.050000,-0.050000,0.288595,-0.306552,0.000000,0.000000,-0.579116,0.443105,1.096884,1.261598,0.036884,0.022263,-0.069618,0.010353,0.051086,-0.078417
-0.050000,-0.050000,0.000000,0.000000,0.000000,0.000000,0.000000,0.000000,0.000000,0.100000,0.100000,-0.300447,-0.255040,-0.050000,-0.050000,0.284437,-0.302318,0.000000,0.000000,-0.573633,0.445271,1.103606,1.263865,0.033411,0.019060,-0.065351,0.012278,0.053829,-0.078384
-0.050000,-0.050000,0.000000,0.000000,0.000000,0.000000,0.000000,0.000000,0.000000,0.100000,0.100000,-0.295591,-0.256429,-0.050000,-0.050000,0.280245,-0.298476,0.000000,0.000000,-0.567582,0.446913,1.111387,1.265525,0.029681,0.017746,-0.061048,0.013921,0.056033,-0.078395
-0.050000,-0.050000,0.000000,0.000000,0.000000,0.000000,0.000000,0.000000,0.000000,0.100000,0.100000,-0.290219,-0.257963,-0.050000,-0.050000,0.276036,-0.294830,0.000000,0.000000,-0.561247,0.448294,1.119697,1.266882,0.025822,0.017375,-0.056726,0.015424,0.057967,-0.078428
-0.050000,-0.050000,0.000000,0.000000,0.000000,0.000000,0.000000,0.000000,0.000000,0.100000,0.100000,-0.283706,-0.259980,-0.050000,-0.050000,0.272197,-0.292022,0.000000,0.000000,-0.554772,0.449362,1.128569,1.266671,0.022236,0.019201,-0.052929,0.016260,0.059059,-0.078599
-0.050000,-0.050000,0.000000,0.000000,0.000000,0.000000,0.000000,0.000000,0.000000,0.100000,0.100000,-0.276969,-0.262153,-0.050000,-0.050000,0.268582,-0.289552,0.000000,0.000000,-0.548477,0.450476,1.137368,1.265816,0.018964,0.021487,-0.049433,0.016830,0.059905,-0.078855
-0.050000,-0.050000,0.000000,0.000000,0.000000,0.000000,0.000000,0.000000,0.000000,0.100000,0.100000,-0.269785,-0.264636,-0.050000,-0.050000,0.265417,-0.287757,0.000000,0.000000,-0.542542,0.451684,1.146019,1.263675,0.016319,0.024694,-0.046540,0.016868,0.060260,-0.079280
-0.050000,-0.050000,0.000000,0.000000,0.000000,0.000000,0.000000,0.000000,0.000000,0.100000,0.100000,-0.262492,-0.267375,-0.050000,-0.050000,0.262802,-0.286683,0.000000,0.000000,-0.537327,0.453209,1.154240,1.260280,0.014653,0.028259,-0.044314,0.016397,0.060253,-0.079949
-0.050000,-0.050000,0.000000,0.000000,0.000000,0.000000,0.000000,0.000000,0.000000,0.100000,0.100000,-0.255143,-0.270241,-0.050000,-0.050000,0.260463,-0.285971,0.000000,0.000000,-0.532473,0.454893,1.162247,1.256257,0.013476,0.032005,-0.042422,0.015671,0.060064,-0.080741
-0.050000,-0.050000,0.000000,0.000000,0.000000,0.000000,0.000000,0.000000,0.000000,0.100000,0.100000,-0.248138,-0.273359,-0.050000,-0.050000,0.258963,-0.286313,0.000000,0.000000,-0.529020,0.457208,1.169521,1.250820,0.014029,0.035570,-0.041358,0.014382,0.059557,-0.081955
-0.050000,-0.050000,0.000000,0.000000,0.000000,0.000000,0.000000,0.000000,0.000000,0.100000,0.100000,-0.241403,-0.276506,-0.050000,-0.050000,0.257716,-0.286971,0.000000,0.000000,-0.526059,0.459720,1.176584,1.245170,0.015136,0.038914,-0.040457,0.013011,0.059017,-0.083296
-0.050000,-0.050000,0.000000,0.000000,0.000000,0.000000,0.000000,0.000000,0.000000,0.100000,0.100000,-0.235207,-0.279709,-0.050000,-0.050000,0.256976,-0.288261,0.000000,0.000000,-0.524082,0.462625,1.183228,1.239097,0.017350,0.041815,-0.039883,0.011477,0.058409,-0.084894
-0.050000,-0.050000,0.000000,0.000000,0.000000,0.000000,0.000000,0.000000,0.000000,0.100000,0.100000,-0.229804,-0.282846,-0.050000,-0.050000,0.256670,-0.290078,0.000000,0.000000,-0.522985,0.465782,1.189529,1.233204,0.020421,0.044139,-0.039391,0.010010,0.057862,-0.086661
-0.050000,-0.050000,0.000000,0.000000,0.000000,0.000000,0.000000,0.000000,0.000000,0.100000,0.100000,-0.224798,-0.285949,-0.050000,-0.050000,0.256582,-0.292160,0.000000,0.000000,-0.522330,0.469065,1.195659,1.227401,0.023920,0.046175,-0.038941,0.008578,0.057346,-0.088512
-0.050000,-0.050000,0.000000,0.000000,0.000000,0.000000,0.000000,0.000000,0.000000,0.100000,0.100000,-0.221234,-0.288754,-0.050000,-0.050000,0.257059,-0.294865,0.000000,0.000000,-0.522686,0.472404,1.201252,1.222691,0.028113,0.047414,-0.038363,0.007522,0.057077,-0.090434
-0.050000,-0.050000,0.000000,0.000000,0.000000,0.000000,0.000000,0.000000,0.000000,0.100000,0.100000,-0.218186,-0.291397,-0.050000,-0.050000,0.257713,-0.297727,0.000000,0.000000,-0.523251,0.475643,1.206589,1.218530,0.032315,0.048474,-0.037722,0.006636,0.056932,-0.092321
-0.050000,-0.050000,0.000000,0.000000,0.000000,0.000000,0.000000,0.000000,0.000000,0.100000,0.100000,-0.216171,-0.293715,-0.050000,-0.050000,0.258721,-0.300900,0.000000,0.000000,-0.524236,0.478680,1.211415,1.215469,0.036533,0.049176,-0.036958,0.006085,0.057034,-0.094139
-0.050000,-0.050000,0.000000,0.000000,0.000000,0.000000,0.000000,0.000000,0.000000,0.100000,0.100000,-0.215163,-0.295596,-0.050000,-0.050000,0.260090,-0.304302,0.000000,0.000000,-0.525389,0.481292,1.215465,1.213631,0.040365,0.049755,-0.036167,0.005840,0.057430,-0.095810
-0.050000,-0.050000,0.000000,0.000000,0.000000,0.000000,0.000000,0.000000,0.000000,0.100000,0.100000,-0.214660,-0.297259,-0.050000,-0.050000,0.261640,-0.307819,0.000000,0.000000,-0.526628,0.483692,1.219125,1.212406,0.044003,0.050271,-0.035361,0.005746,0.057974,-0.097408
-0.050000,-0.050000,0.000000,0.000000,0.000000,0.000000,0.000000,0.000000,0.000000,0.100000,0.100000,-0.215507,-0.298152,-0.050000,-0.050000,0.263749,-0.311584,0.000000,0.000000,-0.527811,0.485186,1.221170,1.212839,0.046619,0.050950,-0.034798,0.005913,0.058966,-0.098752
-0.050000,-0.050000,0.000000,0.000000,0.000000,0.000000,0.000000,0.000000,0.000000,0.100000,0.100000,-0.216722,-0.298776,-0.050000,-0.050000,0.266035,-0.315406,0.000000,0.000000,-0.528902,0.486314,1.222561,1.213679,0.048816,0.051782,-0.034422,0.006077,0.060084,-0.100020
-0.050000,-0.050000,0.000000,0.000000,0.000000,0.000000,0.000000,0.000000,0.000000,0.100000,0.100000,-0.218669,-0.298860,-0.050000,-0.050000,0.268675,-0.319342,0.000000,0.000000,-0.529810,0.486713,1.222641,1.215330,0.050176,0.052922,-0.034424,0.006235,0.061452,-0.101139
-0.050000,-0.050000,0.000000,0.000000,0.000000,0.000000,0.000000,0.000000,0.000000,0.100000,0.100000,-0.221141,-0.298442,-0.050000,-0.050000,0.271587,-0.323333,0.000000,0.000000,-0.530442,0.486310,1.221334,1.217428,0.050671,0.054533,-0.034969,0.006217,0.062969,-0.102140
-0.050000,-0.050000,0.000000,0.000000,0.000000,0.000000,0.000000,0.000000,0.000000,0.100000,0.100000,-0.223877,-0.297773,-0.050000,-0.050000,0.274635,-0.327353,0.000000,0.000000,-0.530937,0.485505,1.219334,1.219749,0.050734,0.056380,-0.035786,0.006112,0.064560,-0.103083
-0.050000,-0.050000,0.000000,0.000000,0.000000,0.000000,0.000000,0.000000,0.000000,0.100000,0.100000,-0.227057,-0.296505,-0.050000,-0.050000,0.277850,-0.331338,0.000000,0.000000,-0.530943,0.483460,1.215444,1.222250,0.049602,0.059158,-0.037520,0.005577,0.066166,-0.103871
-0.050000,-0.050000,0.000000,0.000000,0.000000,0.000000,0.000000,0.000000,0.000000,0.100000,0.100000,-0.230271,-0.295115,-0.050000,-0.050000,0.281006,-0.335258,0.000000,0.000000,-0.530774,0.481006,1.211092,1.224705,0.048135,0.062328,-0.039533,0.004887,0.067702,-0.104593
-0.050000,-0.050000,0.000000,0.000000,0.000000,0.000000,0.000000,0.000000,0.000000,0.100000,0.100000,-0.233552,-0.293483,-0.050000,-0.050000,0.284044,-0.339049,0.000000,0.000000,-0.530257,0.477736,1.205815,1.227068,0.045997,0.066284,-0.042105,0.003885,0.069098,-0.105184
-0.050000,-0.050000,0.000000,0.000000,0.000000,0.000000,0.000000,0.000000,0.000000,0.100000,0.100000,-0.236688,-0.291796,-0.050000,-0.050000,0.286703,-0.342583,0.000000,0.000000,-0.529390,0.473692,1.200105,1.229262,0.043340,0.071220,-0.045073,0.002622,0.070222,-0.105575
