RRGGZZ/g1_deploy_sonic/data/example_scalelab/qwen_50fps/case_test06/joint_pos.csv
joint_0,joint_1,joint_2,joint_3,joint_4,joint_5,joint_6,joint_7,joint_8,joint_9,joint_10,joint_11,joint_12,joint_13,joint_14,joint_15,joint_16,joint_17,joint_18,joint_19,joint_20,joint_21,joint_22,joint_23,joint_24,joint_25,joint_26,joint_27,joint_28
-0.050000,-0.050000,0.000000,0.000000,0.000000,0.000000,0.000000,0.000000,0.000000,0.100000,0.100000,-0.165810,-0.528233,-0.050000,-0.050000,0.449284,-0.730289,0.000000,0.000000,-0.478841,0.311903,1.132770,-0.084898,0.141872,-0.397888,-0.058304,-0.032710,0.024101,-0.505962
-0.050000,-0.050000,0.000000,0.000000,0.000000,0.000000,0.000000,0.000000,0.000000,0.100000,0.100000,-0.182696,-0.545976,-0.050000,-0.050000,0.435512,-0.737036,0.000000,0.000000,-0.479438,0.314223,1.162341,-0.073960,0.145505,-0.396851,-0.075262,-0.037883,0.028887,-0.514845
-0.050000,-0.050000,0.000000,0.000000,0.000000,0.000000,0.000000,0.000000,0.000000,0.100000,0.100000,-0.190150,-0.556756,-0.050000,-0.050000,0.427950,-0.741364,0.000000,0.000000,-0.478240,0.312413,1.178261,-0.069473,0.149995,-0.395881,-0.083643,-0.042355,0.030600,-0.519551
-0.050000,-0.050000,0.000000,0.000000,0.000000,0.000000,0.000000,0.000000,0.000000,0.100000,0.100000,-0.192695,-0.563728,-0.050000,-0.050000,0.423258,-0.744247,0.000000,0.000000,-0.476409,0.308365,1.187725,-0.068394,0.154595,-0.395208,-0.087790,-0.045920,0.030906,-0.522749
-0.050000,-0.050000,0.000000,0.000000,0.000000,0.000000,0.000000,0.000000,0.000000,0.100000,0.100000,-0.192812,-0.568581,-0.050000,-0.050000,0.419965,-0.746372,0.000000,0.000000,-0.474443,0.303101,1.194091,-0.069148,0.159179,-0.394787,-0.089892,-0.048874,0.030576,-0.525305
-0.050000,-0.050000,0.000000,0.000000,0.000000,0.000000,0.000000,0.000000,0.000000,0.100000,0.100000,-0.191335,-0.572348,-0.050000,-0.050000,0.416955,-0.748015,0.000000,0.000000,-0.472145,0.296667,1.198996,-0.070905,0.163414,-0.394224,-0.090848,-0.051413,0.030037,-0.528173
-0.050000,-0.050000,0.000000,0.000000,0.000000,0.000000,0.000000,0.000000,0.000000,0.100000,0.100000,-0.189162,-0.575404,-0.050000,-0.050000,0.414108,-0.749471,0.000000,0.000000,-0.469805,0.289785,1.203090,-0.073233,0.167400,-0.393578,-0.091263,-0.053733,0.029473,-0.531253
-0.050000,-0.050000,0.000000,0.000000,0.000000,0.000000,0.000000,0.000000,0.000000,0.100000,0.100000,-0.186414,-0.578051,-0.050000,-0.050000,0.411077,-0.750762,0.000000,0.000000,-0.467276,0.282466,1.206705,-0.075877,0.170918,-0.392653,-0.091333,-0.055905,0.029008,-0.534967
-0.050000,-0.050000,0.000000,0.000000,0.000000,0.000000,0.000000,0.000000,0.000000,0.100000,0.100000,-0.183281,-0.580351,-0.050000,-0.050000,0.407787,-0.751947,0.000000,0.000000,-0.464592,0.274971,1.209855,-0.078748,0.173821,-0.391351,-0.091231,-0.058008,0.028754,-0.539575
-0.050000,-0.050000,0.000000,0.000000,0.000000,0.000000,0.000000,0.000000,0.000000,0.100000,0.100000,-0.179906,-0.582442,-0.050000,-0.050000,0.404351,-0.753101,0.000000,0.000000,-0.461866,0.267430,1.212711,-0.081733,0.176322,-0.389819,-0.091016,-0.060097,0.028643,-0.544790
-0.050000,-0.050000,0.000000,0.000000,0.000000,0.000000,0.000000,0.000000,0.000000,0.100000,0.100000,-0.176257,-0.584170,-0.050000,-0.050000,0.400525,-0.754132,0.000000,0.000000,-0.458954,0.259943,1.214872,-0.084961,0.177843,-0.387684,-0.090855,-0.062227,0.028906,-0.551534
-0.050000,-0.050000,0.000000,0.000000,0.000000,0.000000,0.000000,0.000000,0.000000,0.100000,0.100000,-0.172472,-0.585686,-0.050000,-0.050000,0.396621,-0.755186,0.000000,0.000000,-0.456098,0.252610,1.216599,-0.088312,0.178879,-0.385295,-0.090716,-0.064438,0.029365,-0.559121
-0.050000,-0.050000,0.000000,0.000000,0.000000,0.000000,0.000000,0.000000,0.000000,0.100000,0.100000,-0.168593,-0.586911,-0.050000,-0.050000,0.392541,-0.756196,0.000000,0.000000,-0.453244,0.245458,1.217651,-0.091888,0.179204,-0.382507,-0.090723,-0.066772,0.030108,-0.567935
-0.050000,-0.050000,0.000000,0.000000,0.000000,0.000000,0.000000,0.000000,0.000000,0.100000,0.100000,-0.164754,-0.587848,-0.050000,-0.050000,0.388404,-0.757213,0.000000,0.000000,-0.450531,0.238536,1.217930,-0.095742,0.178910,-0.379397,-0.090957,-0.069268,0.031133,-0.577961
-0.050000,-0.050000,0.000000,0.000000,0.000000,0.000000,0.000000,0.000000,0.000000,0.100000,0.100000,-0.160894,-0.588582,-0.050000,-0.050000,0.384270,-0.758242,0.000000,0.000000,-0.447947,0.231762,1.217700,-0.099745,0.178209,-0.376115,-0.091306,-0.071894,0.032320,-0.588792
-0.050000,-0.050000,0.000000,0.000000,0.000000,0.000000,0.000000,0.000000,0.000000,0.100000,0.100000,-0.157451,-0.589002,-0.050000,-0.050000,0.380169,-0.759282,0.000000,0.000000,-0.445732,0.225244,1.216326,-0.104165,0.176947,-0.372555,-0.092105,-0.074730,0.033880,-0.601032
-0.050000,-0.050000,0.000000,0.000000,0.000000,0.000000,0.000000,0.000000,0.000000,0.100000,0.100000,-0.154185,-0.589253,-0.050000,-0.050000,0.376194,-0.760359,0.000000,0.000000,-0.443823,0.218801,1.214406,-0.108689,0.175451,-0.368960,-0.093043,-0.077675,0.035594,-0.613958
-0.050000,-0.050000,0.000000,0.000000,0.000000,0.000000,0.000000,0.000000,0.000000,0.100000,0.100000,-0.151432,-0.589329,-0.050000,-0.050000,0.372352,-0.761446,0.000000,0.000000,-0.442380,0.212463,1.211635,-0.113400,0.173744,-0.365322,-0.094291,-0.080739,0.037579,-0.627746
-0.050000,-0.050000,0.000000,0.000000,0.000000,0.000000,0.000000,0.000000,0.000000,0.100000,0.100000,-0.149333,-0.589302,-0.050000,-0.050000,0.368713,-0.762541,0.000000,0.000000,-0.441527,0.206146,1.208095,-0.118098,0.171999,-0.361753,-0.095774,-0.083816,0.039863,-0.642202
-0.050000,-0.050000,0.000000,0.000000,0.000000,0.000000,0.000000,0.000000,0.000000,0.100000,0.100000,-0.147663,-0.589222,-0.050000,-0.050000,0.365220,-0.763643,0.000000,0.000000,-0.441081,0.199790,1.204082,-0.122752,0.170221,-0.358270,-0.097367,-0.086919,0.042329,-0.657092
-0.050000,-0.050000,0.000000,0.000000,0.000000,0.000000,0.000000,0.000000,0.000000,0.100000,0.100000,-0.147211,-0.589155,-0.050000,-0.050000,0.362034,-0.764702,0.000000,0.000000,-0.441567,0.193402,1.199116,-0.126985,0.168689,-0.354975,-0.099206,-0.089773,0.045359,-0.672480
-0.050000,-0.050000,0.000000,0.000000,0.000000,0.000000,0.000000,0.000000,0.000000,0.100000,0.100000,-0.147343,-0.589169,-0.050000,-0.050000,0.359022,-0.765755,0.000000,0.000000,-0.442533,0.186891,1.193780,-0.130836,0.167263,-0.351836,-0.101028,-0.092471,0.048704,-0.688066
-0.050000,-0.050000,0.000000,0.000000,0.000000,0.000000,0.000000,0.000000,0.000000,0.100000,0.100000,-0.148496,-0.589300,-0.050000,-0.050000,0.356266,-0.766758,0.000000,0.000000,-0.444230,0.180295,1.187818,-0.134011,0.166115,-0.348889,-0.102902,-0.094803,0.052629,-0.703778
-0.050000,-0.050000,0.000000,0.000000,0.000000,0.000000,0.000000,0.000000,0.000000,0.100000,0.100000,-0.150601,-0.589602,-0.050000,-0.050000,0.353769,-0.767718,0.000000,0.000000,-0.446559,0.173609,1.181302,-0.136295,0.165235,-0.346123,-0.104739,-0.096647,0.057278,-0.719418
-0.050000,-0.050000,0.000000,0.000000,0.000000,0.000000,0.000000,0.000000,0.000000,0.100000,0.100000,-0.153342,-0.590117,-0.050000,-0.050000,0.351422,-0.768659,0.000000,0.000000,-0.449308,0.166844,1.174438,-0.137947,0.164527,-0.343472,-0.106509,-0.098186,0.062428,-0.735003
-0.050000,-0.050000,0.000000,0.000000,0.000000,0.000000,0.000000,0.000000,0.000000,0.100000,0.100000,-0.157264,-0.590778,-0.050000,-0.050000,0.349457,-0.769532,0.000000,0.000000,-0.452655,0.160098,1.166752,-0.138147,0.164144,-0.340978,-0.108272,-0.098872,0.068876,-0.750101
-0.050000,-0.050000,0.000000,0.000000,0.000000,0.000000,0.000000,0.000000,0.000000,0.100000,0.100000,-0.161646,-0.591713,-0.050000,-0.050000,0.347629,-0.770403,0.000000,0.000000,-0.456225,0.153351,1.158679,-0.137609,0.163863,-0.338521,-0.109958,-0.099214,0.076038,-0.764907
-0.050000,-0.050000,0.000000,0.000000,0.000000,0.000000,0.000000,0.000000,0.000000,0.100000,0.100000,-0.166731,-0.592757,-0.050000,-0.050000,0.346084,-0.771239,0.000000,0.000000,-0.459996,0.146725,1.149916,-0.135920,0.163723,-0.336095,-0.111676,-0.098954,0.084373,-0.779110
-0.050000,-0.050000,0.000000,0.000000,0.000000,0.000000,0.000000,0.000000,0.000000,0.100000,0.100000,-0.172253,-0.593866,-0.050000,-0.050000,0.344791,-0.772041,0.000000,0.000000,-0.463753,0.140305,1.140474,-0.133233,0.163612,-0.333612,-0.113484,-0.098278,0.093855,-0.792580
-0.050000,-0.050000,0.000000,0.000000,0.000000,0.000000,0.000000,0.000000,0.000000,0.100000,0.100000,-0.177990,-0.595101,-0.050000,-0.050000,0.343647,-0.772820,0.000000,0.000000,-0.467470,0.134042,1.130548,-0.129868,0.163532,-0.331052,-0.115341,-0.097366,0.104125,-0.805528
-0.050000,-0.050000,0.000000,0.000000,0.000000,0.000000,0.000000,0.000000,0.000000,0.100000,0.100000,-0.184044,-0.595970,-0.050000,-0.050000,0.342868,-0.773468,0.000000,0.000000,-0.470795,0.128312,1.119714,-0.125325,0.163327,-0.328224,-0.117520,-0.096210,0.115775,-0.817151
-0.050000,-0.050000,0.000000,0.000000,0.000000,0.000000,0.000000,0.000000,0.000000,0.100000,0.100000,-0.189986,-0.596802,-0.050000,-0.050000,0.342213,-0.774014,0.000000,0.000000,-0.473880,0.122881,1.108471,-0.120239,0.163069,-0.325107,-0.119816,-0.095136,0.127969,-0.828018
-0.050000,-0.050000,0.000000,0.000000,0.000000,0.000000,0.000000,0.000000,0.000000,0.100000,0.100000,-0.195896,-0.597153,-0.050000,-0.050000,0.341799,-0.774338,0.000000,0.000000,-0.476465,0.118056,1.096676,-0.114297,0.162646,-0.321487,-0.122380,-0.094227,0.140843,-0.837586
-0.050000,-0.050000,0.000000,0.000000,0.000000,0.000000,0.000000,0.000000,0.000000,0.100000,0.100000,-0.201564,-0.596942,-0.050000,-0.050000,0.341538,-0.774313,0.000000,0.000000,-0.478548,0.113919,1.084658,-0.107521,0.162036,-0.317043,-0.125079,-0.093709,0.153844,-0.845699
-0.050000,-0.050000,0.000000,0.000000,0.000000,0.000000,0.000000,0.000000,0.000000,0.100000,0.100000,-0.206974,-0.596387,-0.050000,-0.050000,0.341399,-0.774040,0.000000,0.000000,-0.480235,0.110274,1.072491,-0.100139,0.161309,-0.311943,-0.127885,-0.093563,0.166848,-0.852745
-0.050000,-0.050000,0.000000,0.000000,0.000000,0.000000,0.000000,0.000000,0.000000,0.100000,0.100000,-0.212020,-0.594628,-0.050000,-0.050000,0.341327,-0.772939,0.000000,0.000000,-0.481265,0.107886,1.060777,-0.091314,0.160233,-0.304922,-0.130501,-0.094082,0.178939,-0.857276
-0.050000,-0.050000,0.000000,0.000000,0.000000,0.000000,0.000000,0.000000,0.000000,0.100000,0.100000,-0.216678,-0.592462,-0.050000,-0.050000,0.341287,-0.771392,0.000000,0.000000,-0.481948,0.106131,1.049501,-0.081645,0.158989,-0.296544,-0.132906,-0.095116,0.190181,-0.860326
-0.050000,-0.050000,0.000000,0.000000,0.000000,0.000000,0.000000,0.000000,0.000000,0.100000,0.100000,-0.220942,-0.589299,-0.050000,-0.050000,0.341179,-0.768915,0.000000,0.000000,-0.482196,0.105566,1.039271,-0.070484,0.157437,-0.285789,-0.134724,-0.096715,0.199768,-0.860875
-0.050000,-0.050000,0.000000,0.000000,0.000000,0.000000,0.000000,0.000000,0.000000,0.100000,0.100000,-0.224768,-0.585331,-0.050000,-0.050000,0.340915,-0.765427,0.000000,0.000000,-0.482164,0.106142,1.030547,-0.057793,0.155612,-0.272209,-0.135628,-0.098772,0.207217,-0.858781
-0.050000,-0.050000,0.000000,0.000000,0.000000,0.000000,0.000000,0.000000,0.000000,0.100000,0.100000,-0.228323,-0.580917,-0.050000,-0.050000,0.340562,-0.761263,0.000000,0.000000,-0.481883,0.107534,1.022950,-0.043960,0.153555,-0.256438,-0.135878,-0.101186,0.213026,-0.854661
-0.050000,-0.050000,0.000000,0.000000,0.000000,0.000000,0.000000,0.000000,0.000000,0.100000,0.100000,-0.231304,-0.575340,-0.050000,-0.050000,0.339758,-0.755300,0.000000,0.000000,-0.481542,0.110568,1.018311,-0.028061,0.151268,-0.236069,-0.134178,-0.103778,0.215242,-0.846545
-0.050000,-0.050000,0.000000,0.000000,0.000000,0.000000,0.000000,0.000000,0.000000,0.100000,0.100000,-0.234092,-0.569558,-0.050000,-0.050000,0.338791,-0.748636,0.000000,0.000000,-0.481055,0.114272,1.015270,-0.011290,0.148861,-0.213108,-0.131529,-0.106501,0.215524,-0.836184
-0.050000,-0.050000,0.000000,0.000000,0.000000,0.000000,0.000000,0.000000,0.000000,0.100000,0.100000,-0.236427,-0.563086,-0.050000,-0.050000,0.337384,-0.740455,0.000000,0.000000,-0.480613,0.119105,1.015018,0.006642,0.146478,-0.186238,-0.127072,-0.109136,0.212795,-0.822484
-0.050000,-0.050000,0.000000,0.000000,0.000000,0.000000,0.000000,0.000000,0.000000,0.100000,0.100000,-0.238371,-0.556256,-0.050000,-0.050000,0.335610,-0.731080,0.000000,0.000000,-0.480170,0.124599,1.017287,0.024826,0.144321,-0.156199,-0.121094,-0.111727,0.207645,-0.806049
-0.050000,-0.050000,0.000000,0.000000,0.000000,0.000000,0.000000,0.000000,0.000000,0.100000,0.100000,-0.240124,-0.549113,-0.050000,-0.050000,0.333559,-0.720867,0.000000,0.000000,-0.479666,0.130473,1.021408,0.043040,0.142394,-0.123884,-0.114074,-0.114013,0.200786,-0.787508
-0.050000,-0.050000,0.000000,0.000000,0.000000,0.000000,0.000000,0.000000,0.000000,0.100000,0.100000,-0.241031,-0.541609,-0.050000,-0.050000,0.331012,-0.709126,0.000000,0.000000,-0.479218,0.136612,1.028653,0.059807,0.141220,-0.088841,-0.105346,-0.116574,0.191630,-0.766603
-0.050000,-0.050000,0.000000,0.000000,0.000000,0.000000,0.000000,0.000000,0.000000,0.100000,0.100000,-0.241733,-0.533782,-0.050000,-0.050000,0.328261,-0.696872,0.000000,0.000000,-0.478546,0.142496,1.037263,0.075234,0.140540,-0.052908,-0.096165,-0.118943,0.181682,-0.744639
-0.050000,-0.050000,0.000000,0.000000,0.000000,0.000000,0.000000,0.000000,0.000000,0.100000,0.100000,-0.241614,-0.525749,-0.050000,-0.050000,0.325213,-0.683744,0.000000,0.000000,-0.477724,0.147895,1.047826,0.087931,0.140660,-0.016359,-0.086319,-0.121822,0.170864,-0.722011
-0.050000,-0.050000,0.000000,0.000000,0.000000,0.000000,0.000000,0.000000,0.000000,0.100000,0.100000,-0.240780,-0.517543,-0.050000,-0.050000,0.322011,-0.670222,0.000000,0.000000,-0.476524,0.152399,1.059501,0.097430,0.141416,0.019549,-0.076529,-0.125385,0.159995,-0.699794
-0.050000,-0.050000,0.000000,0.000000,0.000000,0.000000,0.000000,0.000000,0.000000,0.100000,0.100000,-0.239410,-0.508949,-0.050000,-0.050000,0.318697,-0.656357,0.000000,0.000000,-0.475055,0.156189,1.071938,0.104340,0.142694,0.054745,-0.066914,-0.129239,0.149199,-0.678012
-0.050000,-0.050000,0.000000,0.000000,0.000000,0.000000,0.000000,0.000000,0.000000,0.100000,0.100000,-0.236717,-0.500830,-0.050000,-0.050000,0.315382,-0.642546,0.000000,0.000000,-0.472916,0.158306,1.084823,0.106417,0.144280,0.087468,-0.058124,-0.135078,0.139219,-0.658677
-0.050000,-0.050000,0.000000,0.000000,0.000000,0.000000,0.000000,0.000000,0.000000,0.100000,0.100000,-0.233524,-0.492337,-0.050000,-0.050000,0.312087,-0.628687,0.000000,0.000000,-0.470421,0.159640,1.097697,0.106098,0.145986,0.118543,-0.050036,-0.141312,0.129805,-0.640824
-0.050000,-0.050000,0.000000,0.000000,0.000000,0.000000,0.000000,0.000000,0.000000,0.100000,0.100000,-0.229257,-0.484440,-0.050000,-0.050000,0.308920,-0.615221,0.000000,0.000000,-0.467308,0.159509,1.110234,0.102292,0.147443,0.146895,-0.043066,-0.149072,0.121381,-0.625871
-0.050000,-0.050000,0.000000,0.000000,0.000000,0.000000,0.000000,0.000000,0.000000,0.100000,0.100000,-0.224297,-0.476955,-0.050000,-0.050000,0.305913,-0.602213,0.000000,0.000000,-0.463737,0.158375,1.122116,0.096503,0.148418,0.172805,-0.037171,-0.157494,0.113784,-0.613644
-0.050000,-0.050000,0.000000,0.000000,0.000000,0.000000,0.000000,0.000000,0.000000,0.100000,0.100000,-0.218806,-0.469874,-0.050000,-0.050000,0.303052,-0.589510,0.000000,0.000000,-0.459873,0.156609,1.133442,0.089347,0.148965,0.196843,-0.032077,-0.166385,0.106787,-0.603529
-0.050000,-0.050000,0.000000,0.000000,0.000000,0.000000,0.000000,0.000000,0.000000,0.100000,0.100000,-0.212727,-0.464050,-0.050000,-0.050000,0.300458,-0.578001,0.000000,0.000000,-0.455562,0.153783,1.143504,0.081865,0.148471,0.218065,-0.028239,-0.175257,0.100574,-0.596951
-0.050000,-0.050000,0.000000,0.000000,0.000000,0.000000,0.000000,0.000000,0.000000,0.100000,0.100000,-0.206532,-0.458834,-0.050000,-0.050000,0.298016,-0.566907,0.000000,0.000000,-0.451253,0.150932,1.152857,0.074814,0.147466,0.237907,-0.024933,-0.183682,0.094630,-0.592053
-0.050000,-0.050000,0.000000,0.000000,0.000000,0.000000,0.000000,0.000000,0.000000,0.100000,0.100000,-0.200322,-0.454764,-0.050000,-0.050000,0.295793,-0.557019,0.000000,0.000000,-0.446867,0.147760,1.161043,0.069347,0.145633,0.255831,-0.022400,-0.190929,0.089000,-0.589543
-0.050000,-0.050000,0.000000,0.000000,0.000000,0.000000,0.000000,0.000000,0.000000,0.100000,0.100000,-0.194450,-0.451594,-0.050000,-0.050000,0.293736,-0.548140,0.000000,0.000000,-0.442699,0.144809,1.168236,0.066105,0.143291,0.272332,-0.020321,-0.196553,0.083462,-0.588481
-0.050000,-0.050000,0.000000,0.000000,0.000000,0.000000,0.000000,0.000000,0.000000,0.100000,0.100000,-0.188871,-0.449314,-0.050000,-0.050000,0.291781,-0.540068,0.000000,0.000000,-0.438703,0.142066,1.174669,0.064776,0.140562,0.287811,-0.018525,-0.200916,0.077956,-0.588458
-0.050000,-0.050000,0.000000,0.000000,0.000000,0.000000,0.000000,0.000000,0.000000,0.100000,0.100000,-0.184320,-0.447626,-0.050000,-0.050000,0.290007,-0.533657,0.000000,0.000000,-0.435196,0.139875,1.179786,0.067111,0.137597,0.301397,-0.017193,-0.202360,0.072531,-0.589185
-0.050000,-0.050000,0.000000,0.000000,0.000000,0.000000,0.000000,0.000000,0.000000,0.100000,0.100000,-0.180278,-0.446626,-0.050000,-0.050000,0.288253,-0.527942,0.000000,0.000000,-0.432010,0.138072,1.184279,0.071249,0.134548,0.314045,-0.015972,-0.202578,0.067131,-0.590077
-0.050000,-0.050000,0.000000,0.000000,0.000000,0.000000,0.000000,0.000000,0.000000,0.100000,0.100000,-0.177392,-0.445730,-0.050000,-0.050000,0.286611,-0.523598,0.000000,0.000000,-0.429324,0.136939,1.187667,0.078070,0.131599,0.324791,-0.015094,-0.200496,0.061936,-0.590730
-0.050000,-0.050000,0.000000,0.000000,0.000000,0.000000,0.000000,0.000000,0.000000,0.100000,0.100000,-0.175430,-0.444896,-0.050000,-0.050000,0.285006,-0.520184,0.000000,0.000000,-0.427059,0.136375,1.190184,0.086307,0.128819,0.333725,-0.014480,-0.197097,0.057047,-0.590768
-0.050000,-0.050000,0.000000,0.000000,0.000000,0.000000,0.000000,0.000000,0.000000,0.100000,0.100000,-0.174194,-0.443994,-0.050000,-0.050000,0.283408,-0.517462,0.000000,0.000000,-0.425108,0.136211,1.192029,0.095525,0.126191,0.341143,-0.014071,-0.192699,0.052434,-0.590263
-0.050000,-0.050000,0.000000,0.000000,0.000000,0.000000,0.000000,0.000000,0.000000,0.100000,0.100000,-0.174281,-0.442461,-0.050000,-0.050000,0.281951,-0.515821,0.000000,0.000000,-0.423619,0.136937,1.192611,0.104888,0.123894,0.345506,-0.014226,-0.187531,0.048618,-0.588371
-0.050000,-0.050000,0.000000,0.000000,0.000000,0.000000,0.000000,0.000000,0.000000,0.100000,0.100000,-0.174810,-0.440658,-0.050000,-0.050000,0.280462,-0.514443,0.000000,0.000000,-0.422321,0.137909,1.192662,0.113895,0.121714,0.348281,-0.014585,-0.182267,0.045237,-0.585841
-0.050000,-0.050000,0.000000,0.000000,0.000000,0.000000,0.000000,0.000000,0.000000,0.100000,0.100000,-0.176291,-0.438214,-0.050000,-0.050000,0.279115,-0.513651,0.000000,0.000000,-0.421328,0.139655,1.191654,0.121658,0.119746,0.348333,-0.015479,-0.177302,0.042764,-0.582048
-0.050000,-0.050000,0.000000,0.000000,0.000000,0.000000,0.000000,0.000000,0.000000,0.100000,0.100000,-0.178267,-0.435370,-0.050000,-0.050000,0.277836,-0.512994,0.000000,0.000000,-0.420521,0.141900,1.189917,0.127828,0.117849,0.346459,-0.016731,-0.173033,0.041062,-0.577407
-0.050000,-0.050000,0.000000,0.000000,0.000000,0.000000,0.000000,0.000000,0.000000,0.100000,0.100000,-0.180621,-0.432115,-0.050000,-0.050000,0.276632,-0.512410,0.000000,0.000000,-0.419851,0.144561,1.187587,0.132590,0.116000,0.343032,-0.018272,-0.169366,0.040004,-0.572117
-0.050000,-0.050000,0.000000,0.000000,0.000000,0.000000,0.000000,0.000000,0.000000,0.100000,0.100000,-0.183531,-0.428824,-0.050000,-0.050000,0.275617,-0.511829,0.000000,0.000000,-0.419471,0.148102,1.184370,0.134747,0.114132,0.338015,-0.020251,-0.167155,0.039990,-0.565877
-0.050000,-0.050000,0.000000,0.000000,0.000000,0.000000,0.000000,0.000000,0.000000,0.100000,0.100000,-0.186561,-0.425398,-0.050000,-0.050000,0.274658,-0.511099,0.000000,0.000000,-0.419171,0.151937,1.180811,0.135654,0.112211,0.332404,-0.022348,-0.165573,0.040458,-0.559353
-0.050000,-0.050000,0.000000,0.000000,0.000000,0.000000,0.000000,0.000000,0.000000,0.100000,0.100000,-0.189912,-0.422363,-0.050000,-0.050000,0.273868,-0.510209,0.000000,0.000000,-0.419180,0.156511,1.176709,0.134511,0.110205,0.326517,-0.024654,-0.165217,0.041668,-0.552302
-0.050000,-0.050000,0.000000,0.000000,0.000000,0.000000,0.000000,0.000000,0.000000,0.100000,0.100000,-0.193407,-0.419739,-0.050000,-0.050000,0.273184,-0.509133,0.000000,0.000000,-0.419416,0.161507,1.172387,0.132203,0.108110,0.321083,-0.026968,-0.165572,0.043287,-0.545064
-0.050000,-0.050000,0.000000,0.000000,0.000000,0.000000,0.000000,0.000000,0.000000,0.100000,0.100000,-0.197046,-0.417557,-0.050000,-0.050000,0.272595,-0.507950,0.000000,0.000000,-0.419843,0.166875,1.167904,0.129028,0.105941,0.316198,-0.029280,-0.166497,0.045213,-0.537667
-0.050000,-0.050000,0.000000,0.000000,0.000000,0.000000,0.000000,0.000000,0.000000,0.100000,0.100000,-0.200889,-0.416335,-0.050000,-0.050000,0.272156,-0.506564,0.000000,0.000000,-0.420744,0.172639,1.163466,0.125063,0.103736,0.313049,-0.031432,-0.168050,0.047330,-0.530214
-0.050000,-0.050000,0.000000,0.000000,0.000000,0.000000,0.000000,0.000000,0.000000,0.100000,0.100000,-0.204876,-0.415580,-0.050000,-0.050000,0.271790,-0.505197,0.000000,0.000000,-0.421795,0.178511,1.159124,0.121023,0.101505,0.311004,-0.033466,-0.169809,0.049477,-0.522749
-0.050000,-0.050000,0.000000,0.000000,0.000000,0.000000,0.000000,0.000000,0.000000,0.100000,0.100000,-0.209056,-0.415651,-0.050000,-0.050000,0.271554,-0.503739,0.000000,0.000000,-0.423283,0.184408,1.155107,0.116997,0.099344,0.311072,-0.035247,-0.171837,0.051508,-0.515371
-0.050000,-0.050000,0.000000,0.000000,0.000000,0.000000,0.000000,0.000000,0.000000,0.100000,0.100000,-0.213425,-0.416190,-0.050000,-0.050000,0.271423,-0.502335,0.000000,0.000000,-0.425021,0.190086,1.151465,0.113406,0.097281,0.312948,-0.036810,-0.173962,0.053342,-0.508085
-0.050000,-0.050000,0.000000,0.000000,0.000000,0.000000,0.000000,0.000000,0.000000,0.100000,0.100000,-0.217974,-0.417131,-0.050000,-0.050000,0.271375,-0.500990,0.000000,0.000000,-0.426997,0.195541,1.148172,0.110245,0.095320,0.316405,-0.038198,-0.176176,0.054983,-0.500851
-0.050000,-0.050000,0.000000,0.000000,0.000000,0.000000,0.000000,0.000000,0.000000,0.100000,0.100000,-0.222699,-0.418207,-0.050000,-0.050000,0.271479,-0.499663,0.000000,0.000000,-0.429238,0.200227,1.145534,0.108027,0.093605,0.322298,-0.039284,-0.178459,0.056273,-0.493855
-0.050000,-0.050000,0.000000,0.000000,0.000000,0.000000,0.000000,0.000000,0.000000,0.100000,0.100000,-0.227589,-0.419314,-0.050000,-0.050000,0.271650,-0.498458,0.000000,0.000000,-0.431602,0.204470,1.143238,0.106407,0.092005,0.329508,-0.040275,-0.180839,0.057398,-0.486839
-0.050000,-0.050000,0.000000,0.000000,0.000000,0.000000,0.000000,0.000000,0.000000,0.100000,0.100000,-0.232582,-0.420075,-0.050000,-0.050000,0.271937,-0.497274,0.000000,0.000000,-0.434034,0.207689,1.141524,0.105840,0.090620,0.338786,-0.041064,-0.183317,0.058292,-0.480017
-0.050000,-0.050000,0.000000,0.000000,0.000000,0.000000,0.000000,0.000000,0.000000,0.100000,0.100000,-0.237646,-0.420360,-0.050000,-0.050000,0.272279,-0.496161,0.000000,0.000000,-0.436428,0.210032,1.140180,0.106087,0.089340,0.349542,-0.041784,-0.185942,0.059117,-0.473220
-0.050000,-0.050000,0.000000,0.000000,0.000000,0.000000,0.000000,0.000000,0.000000,0.100000,0.100000,-0.242741,-0.420162,-0.050000,-0.050000,0.272658,-0.495099,0.000000,0.000000,-0.438802,0.211572,1.139145,0.107020,0.088146,0.361545,-0.042454,-0.188692,0.059906,-0.466428
-0.050000,-0.050000,0.000000,0.000000,0.000000,0.000000,0.000000,0.000000,0.000000,0.100000,0.100000,-0.247730,-0.418853,-0.050000,-0.050000,0.273017,-0.494023,0.000000,0.000000,-0.440788,0.211725,1.138416,0.108927,0.086922,0.375152,-0.043096,-0.191616,0.060814,-0.459794
-0.050000,-0.050000,0.000000,0.000000,0.000000,0.000000,0.000000,0.000000,0.000000,0.100000,0.100000,-0.252645,-0.416944,-0.050000,-0.050000,0.273342,-0.493023,0.000000,0.000000,-0.442711,0.211188,1.137803,0.111179,0.085679,0.389535,-0.043770,-0.194672,0.061806,-0.453072
-0.050000,-0.050000,0.000000,0.000000,0.000000,0.000000,0.000000,0.000000,0.000000,0.100000,0.100000,-0.257315,-0.413804,-0.050000,-0.050000,0.273538,-0.492021,0.000000,0.000000,-0.444111,0.209355,1.137290,0.114012,0.084257,0.404956,-0.044489,-0.197869,0.063011,-0.446514
-0.050000,-0.050000,0.000000,0.000000,0.000000,0.000000,0.000000,0.000000,0.000000,0.100000,0.100000,-0.261717,-0.409735,-0.050000,-0.050000,0.273585,-0.491107,0.000000,0.000000,-0.445216,0.206650,1.136772,0.116917,0.082691,0.420830,-0.045273,-0.201172,0.064343,-0.440001
-0.050000,-0.050000,0.000000,0.000000,0.000000,0.000000,0.000000,0.000000,0.000000,0.100000,0.100000,-0.265853,-0.404786,-0.050000,-0.050000,0.273481,-0.490257,0.000000,0.000000,-0.446028,0.203161,1.136227,0.119813,0.080982,0.437021,-0.046111,-0.204519,0.065786,-0.433566
-0.050000,-0.050000,0.000000,0.000000,0.000000,0.000000,0.000000,0.000000,0.000000,0.100000,0.100000,-0.269451,-0.398628,-0.050000,-0.050000,0.273085,-0.489579,0.000000,0.000000,-0.446267,0.198601,1.135642,0.122336,0.079066,0.453087,-0.047011,-0.207952,0.067212,-0.427399
-0.050000,-0.050000,0.000000,0.000000,0.000000,0.000000,0.000000,0.000000,0.000000,0.100000,0.100000,-0.272734,-0.391763,-0.050000,-0.050000,0.272524,-0.489033,0.000000,0.000000,-0.446377,0.193558,1.135022,0.124357,0.077120,0.468919,-0.047934,-0.211339,0.068568,-0.421312
-0.050000,-0.050000,0.000000,0.000000,0.000000,0.000000,0.000000,0.000000,0.000000,0.100000,0.100000,-0.275374,-0.383924,-0.050000,-0.050000,0.271667,-0.488761,0.000000,0.000000,-0.446051,0.187708,1.134459,0.125505,0.075136,0.483999,-0.048847,-0.214753,0.069628,-0.415484
-0.050000,-0.050000,0.000000,0.000000,0.000000,0.000000,0.000000,0.000000,0.000000,0.100000,0.100000,-0.277494,-0.375421,-0.050000,-0.050000,0.270601,-0.488745,0.000000,0.000000,-0.445583,0.181430,1.134026,0.125652,0.073294,0.498233,-0.049700,-0.218107,0.070307,-0.409766
-0.050000,-0.050000,0.000000,0.000000,0.000000,0.000000,0.000000,0.000000,0.000000,0.100000,0.100000,-0.279130,-0.366317,-0.050000,-0.050000,0.269338,-0.488942,0.000000,0.000000,-0.444961,0.174768,1.133737,0.124852,0.071599,0.511633,-0.050490,-0.221385,0.070607,-0.404167
-0.050000,-0.050000,0.000000,0.000000,0.000000,0.000000,0.000000,0.000000,0.000000,0.100000,0.100000,-0.279922,-0.356792,-0.050000,-0.050000,0.267870,-0.489570,0.000000,0.000000,-0.444221,0.167726,1.133974,0.122567,0.070327,0.523624,-0.051050,-0.224695,0.070122,-0.398490
-0.050000,-0.050000,0.000000,0.000000,0.000000,0.000000,0.000000,0.000000,0.000000,0.100000,0.100000,-0.280324,-0.346889,-0.050000,-0.050000,0.266262,-0.490327,0.000000,0.000000,-0.443432,0.160520,1.134484,0.119374,0.069339,0.534846,-0.051507,-0.227897,0.069218,-0.392790
-0.050000,-0.050000,0.000000,0.000000,0.000000,0.000000,0.000000,0.000000,0.000000,0.100000,0.100000,-0.279866,-0.336935,-0.050000,-0.050000,0.264535,-0.491448,0.000000,0.000000,-0.442630,0.153115,1.135777,0.114769,0.068924,0.544832,-0.051639,-0.231195,0.067487,-0.386760
-0.050000,-0.050000,0.000000,0.000000,0.000000,0.000000,0.000000,0.000000,0.000000,0.100000,0.100000,-0.278862,-0.326967,-0.050000,-0.050000,0.262726,-0.492672,0.000000,0.000000,-0.441806,0.145629,1.137687,0.109226,0.068974,0.554131,-0.051548,-0.234539,0.065212,-0.380456
-0.050000,-0.050000,0.000000,0.000000,0.000000,0.000000,0.000000,0.000000,0.000000,0.100000,0.100000,-0.277338,-0.317083,-0.050000,-0.050000,0.260866,-0.493987,0.000000,0.000000,-0.440971,0.138082,1.140214,0.102876,0.069463,0.562863,-0.051243,-0.237967,0.062445,-0.373842
-0.050000,-0.050000,0.000000,0.000000,0.000000,0.000000,0.000000,0.000000,0.000000,0.100000,0.100000,-0.275013,-0.307758,-0.050000,-0.050000,0.259023,-0.495292,0.000000,0.000000,-0.440146,0.130489,1.143767,0.095634,0.070583,0.571264,-0.050549,-0.241752,0.059081,-0.366769
-0.050000,-0.050000,0.000000,0.000000,0.000000,0.000000,0.000000,0.000000,0.000000,0.100000,0.100000,-0.272391,-0.298643,-0.050000,-0.050000,0.257180,-0.496465,0.000000,0.000000,-0.439269,0.122896,1.147787,0.088076,0.072042,0.579614,-0.049743,-0.245695,0.055471,-0.359506
-0.050000,-0.050000,0.000000,0.000000,0.000000,0.000000,0.000000,0.000000,0.000000,0.100000,0.100000,-0.269078,-0.290363,-0.050000,-0.050000,0.255436,-0.497354,0.000000,0.000000,-0.438395,0.115278,1.152722,0.080042,0.074054,0.588217,-0.048600,-0.250170,0.051505,-0.352040
-0.050000,-0.050000,0.000000,0.000000,0.000000,0.000000,0.000000,0.000000,0.000000,0.100000,0.100000,-0.265450,-0.282676,-0.050000,-0.050000,0.253797,-0.497857,0.000000,0.000000,-0.437491,0.107673,1.158114,0.071951,0.076433,0.597234,-0.047335,-0.255050,0.047419,-0.344668
-0.050000,-0.050000,0.000000,0.000000,0.000000,0.000000,0.000000,0.000000,0.000000,0.100000,0.100000,-0.261501,-0.275649,-0.050000,-0.050000,0.252292,-0.497970,0.000000,0.000000,-0.436574,0.100095,1.163927,0.063836,0.079146,0.606694,-0.045939,-0.260355,0.043239,-0.337425
-0.050000,-0.050000,0.000000,0.000000,0.000000,0.000000,0.000000,0.000000,0.000000,0.100000,0.100000,-0.257186,-0.269677,-0.050000,-0.050000,0.251030,-0.497341,0.000000,0.000000,-0.435739,0.092504,1.170058,0.055787,0.082296,0.616962,-0.044417,-0.266334,0.039039,-0.330884
-0.050000,-0.050000,0.000000,0.000000,0.000000,0.000000,0.000000,0.000000,0.000000,0.100000,0.100000,-0.252768,-0.264278,-0.050000,-0.050000,0.249970,-0.496287,0.000000,0.000000,-0.434928,0.085008,1.176235,0.047902,0.085677,0.627614,-0.042883,-0.272648,0.034851,-0.324757
-0.050000,-0.050000,0.000000,0.000000,0.000000,0.000000,0.000000,0.000000,0.000000,0.100000,0.100000,-0.248150,-0.259971,-0.050000,-0.050000,0.249240,-0.494386,0.000000,0.000000,-0.434328,0.077539,1.182312,0.040136,0.089445,0.638964,-0.041343,-0.279570,0.030699,-0.319758
-0.050000,-0.050000,0.000000,0.000000,0.000000,0.000000,0.000000,0.000000,0.000000,0.100000,0.100000,-0.243522,-0.256415,-0.050000,-0.050000,0.248839,-0.491920,0.000000,0.000000,-0.433919,0.070209,1.188062,0.032482,0.093452,0.650564,-0.039874,-0.286809,0.026571,-0.315655
-0.050000,-0.050000,0.000000,0.000000,0.000000,0.000000,0.000000,0.000000,0.000000,0.100000,0.100000,-0.238871,-0.253604,-0.050000,-0.050000,0.248758,-0.488884,0.000000,0.000000,-0.433713,0.063003,1.193445,0.024877,0.097673,0.662352,-0.038468,-0.294335,0.022453,-0.312467
-0.050000,-0.050000,0.000000,0.000000,0.000000,0.000000,0.000000,0.000000,0.000000,0.100000,0.100000,-0.234340,-0.251812,-0.050000,-0.050000,0.249131,-0.485200,0.000000,0.000000,-0.433991,0.056010,1.198010,0.017176,0.102134,0.674069,-0.037287,-0.302088,0.018332,-0.310628
-0.050000,-0.050000,0.000000,0.000000,0.000000,0.000000,0.000000,0.000000,0.000000,0.100000,0.100000,-0.229865,-0.250604,-0.050000,-0.050000,0.249835,-0.481168,0.000000,0.000000,-0.434462,0.049222,1.202046,0.009382,0.106665,0.685538,-0.036189,-0.309886,0.014184,-0.309546
-0.050000,-0.050000,0.000000,0.000000,0.000000,0.000000,0.000000,0.000000,0.000000,0.100000,0.100000,-0.225643,-0.250428,-0.050000,-0.050000,0.251018,-0.476725,0.000000,0.000000,-0.435528,0.042771,1.204992,0.001289,0.111282,0.696469,-0.035413,-0.317678,0.010020,-0.309683
-0.050000,-0.050000,0.000000,0.000000,0.000000,0.000000,0.000000,0.000000,0.000000,0.100000,0.100000,-0.221608,-0.251013,-0.050000,-0.050000,0.252593,-0.472117,0.000000,0.000000,-0.436923,0.036658,1.207100,-0.007080,0.115810,0.706735,-0.034826,-0.325322,0.005853,-0.310615
-0.050000,-0.050000,0.000000,0.000000,0.000000,0.000000,0.000000,0.000000,0.000000,0.100000,0.100000,-0.217788,-0.252366,-0.050000,-0.050000,0.254529,-0.467379,0.000000,0.000000,-0.438669,0.030887,1.208360,-0.015741,0.120225,0.716321,-0.034447,-0.332803,0.001693,-0.312285
-0.050000,-0.050000,0.000000,0.000000,0.000000,0.000000,0.000000,0.000000,0.000000,0.100000,0.100000,-0.214380,-0.254871,-0.050000,-0.050000,0.256938,-0.462798,0.000000,0.000000,-0.440916,0.025694,1.208447,-0.024767,0.124293,0.724875,-0.034433,-0.339950,-0.002307,-0.314721
-0.050000,-0.050000,0.000000,0.000000,0.000000,0.000000,0.000000,0.000000,0.000000,0.100000,0.100000,-0.211158,-0.258095,-0.050000,-0.050000,0.259627,-0.458258,0.000000,0.000000,-0.443311,0.020856,1.207895,-0.033941,0.128069,0.732753,-0.034529,-0.346862,-0.006219,-0.317678
-0.050000,-0.050000,0.000000,0.000000,0.000000,0.000000,0.000000,0.000000,0.000000,0.100000,0.100000,-0.208442,-0.262646,-0.050000,-0.050000,0.262779,-0.454167,0.000000,0.000000,-0.446079,0.016748,1.206267,-0.043255,0.131235,0.739582,-0.034978,-0.353338,-0.009752,-0.321219
-0.050000,-0.050000,0.000000,0.000000,0.000000,0.000000,0.000000,0.000000,0.000000,0.100000,0.100000,-0.206040,-0.268243,-0.050000,-0.050000,0.266243,-0.450400,0.000000,0.000000,-0.448915,0.013198,1.204019,-0.052389,0.133814,0.745705,-0.035556,-0.359465,-0.012940,-0.325239
-0.050000,-0.050000,0.000000,0.000000,0.000000,0.000000,0.000000,0.000000,0.000000,0.100000,0.100000,-0.204000,-0.274936,-0.050000,-0.050000,0.270011,-0.447022,0.000000,0.000000,-0.451825,0.010257,1.201183,-0.061256,0.135794,0.751180,-0.036288,-0.365262,-0.015729,-0.329662
-0.050000,-0.050000,0.000000,0.000000,0.000000,0.000000,0.000000,0.000000,0.000000,0.100000,0.100000,-0.202489,-0.283096,-0.050000,-0.050000,0.274207,-0.444349,0.000000,0.000000,-0.454705,0.008210,1.197760,-0.069332,0.136819,0.755983,-0.037192,-0.370511,-0.017765,-0.334585
-0.050000,-0.050000,0.000000,0.000000,0.000000,0.000000,0.000000,0.000000,0.000000,0.100000,0.100000,-0.201247,-0.292295,-0.050000,-0.050000,0.278606,-0.441980,0.000000,0.000000,-0.457501,0.006723,1.194071,-0.076691,0.137258,0.760463,-0.038135,-0.375520,-0.019385,-0.339844
-0.050000,-0.050000,0.000000,0.000000,0.000000,0.000000,0.000000,0.000000,0.000000,0.100000,0.100000,-0.200577,-0.302985,-0.050000,-0.050000,0.283446,-0.440384,0.000000,0.000000,-0.460111,0.006256,1.190045,-0.082607,0.136633,0.764542,-0.039182,-0.379900,-0.020072,-0.345606
-0.050000,-0.050000,0.000000,0.000000,0.000000,0.000000,0.000000,0.000000,0.000000,0.100000,0.100000,-0.200245,-0.314843,-0.050000,-0.050000,0.288525,-0.439164,0.000000,0.000000,-0.462550,0.006514,1.185926,-0.087123,0.135275,0.768526,-0.040238,-0.383932,-0.020148,-0.351727
-0.050000,-0.050000,0.000000,0.000000,0.000000,0.000000,0.000000,0.000000,0.000000,0.100000,0.100000,-0.200292,-0.327813,-0.050000,-0.050000,0.293866,-0.438355,0.000000,0.000000,-0.464797,0.007536,1.181747,-0.090155,0.133193,0.772475,-0.041315,-0.387600,-0.019575,-0.358159
-0.050000,-0.050000,0.000000,0.000000,0.000000,0.000000,0.000000,0.000000,0.000000,0.100000,0.100000,-0.200826,-0.341851,-0.050000,-0.050000,0.299516,-0.437955,0.000000,0.000000,-0.466824,0.009474,1.177617,-0.091075,0.130255,0.776579,-0.042381,-0.390687,-0.018187,-0.364998
-0.050000,-0.050000,0.000000,0.000000,0.000000,0.000000,0.000000,0.000000,0.000000,0.100000,0.100000,-0.201611,-0.356735,-0.050000,-0.050000,0.305301,-0.437668,0.000000,0.000000,-0.468744,0.011968,1.173573,-0.090587,0.126853,0.780910,-0.043449,-0.393627,-0.016378,-0.371956
-0.050000,-0.050000,0.000000,0.000000,0.000000,0.000000,0.000000,0.000000,0.000000,0.100000,0.100000,-0.202903,-0.372244,-0.050000,-0.050000,0.311297,-0.437498,0.000000,0.000000,-0.470534,0.015263,1.169704,-0.087878,0.122795,0.785704,-0.044480,-0.396035,-0.013880,-0.379220
-0.050000,-0.050000,0.000000,0.000000,0.000000,0.000000,0.000000,0.000000,0.000000,0.100000,0.100000,-0.204493,-0.388208,-0.050000,-0.050000,0.317339,-0.437169,0.000000,0.000000,-0.472331,0.019007,1.166030,-0.083663,0.118427,0.791021,-0.045491,-0.398331,-0.011038,-0.386520
-0.050000,-0.050000,0.000000,0.000000,0.000000,0.000000,0.000000,0.000000,0.000000,0.100000,0.100000,-0.206429,-0.404390,-0.050000,-0.050000,0.323411,-0.436642,0.000000,0.000000,-0.474145,0.023166,1.162560,-0.077993,0.113798,0.796909,-0.046481,-0.400472,-0.007868,-0.393845
-0.050000,-0.050000,0.000000,0.000000,0.000000,0.000000,0.000000,0.000000,0.000000,0.100000,0.100000,-0.208838,-0.420306,-0.050000,-0.050000,0.329335,-0.435539,0.000000,0.000000,-0.476142,0.027631,1.159347,-0.070797,0.109070,0.803670,-0.047405,-0.402506,-0.004439,-0.401226
-0.050000,-0.050000,0.000000,0.000000,0.000000,0.000000,0.000000,0.000000,0.000000,0.100000,0.100000,-0.211511,-0.436121,-0.050000,-0.050000,0.335164,-0.434087,0.000000,0.000000,-0.478263,0.032233,1.156344,-0.062777,0.104319,0.811020,-0.048312,-0.404607,-0.000877,-0.408451
-0.050000,-0.050000,0.000000,0.000000,0.000000,0.000000,0.000000,0.000000,0.000000,0.100000,0.100000,-0.214758,-0.451039,-0.050000,-0.050000,0.340584,-0.431695,0.000000,0.000000,-0.480741,0.036913,1.153544,-0.053612,0.099726,0.819393,-0.049134,-0.406736,0.002784,-0.415678
-0.050000,-0.050000,0.000000,0.000000,0.000000,0.000000,0.000000,0.000000,0.000000,0.100000,0.100000,-0.218393,-0.465278,-0.050000,-0.050000,0.345672,-0.428685,0.000000,0.000000,-0.483496,0.041565,1.150887,-0.043929,0.095299,0.828442,-0.049919,-0.408993,0.006478,-0.422671
-0.050000,-0.050000,0.000000,0.000000,0.000000,0.000000,0.000000,0.000000,0.000000,0.100000,0.100000,-0.222470,-0.478617,-0.050000,-0.050000,0.350336,-0.424957,0.000000,0.000000,-0.486578,0.046147,1.148310,-0.033764,0.091081,0.838178,-0.050660,-0.411342,0.010176,-0.429467
-0.050000,-0.050000,0.000000,0.000000,0.000000,0.000000,0.000000,0.000000,0.000000,0.100000,0.100000,-0.227194,-0.490568,-0.050000,-0.050000,0.354288,-0.420257,0.000000,0.000000,-0.490134,0.050689,1.145540,-0.023137,0.087165,0.848573,-0.051405,-0.413727,0.013803,-0.435862
-0.050000,-0.050000,0.000000,0.000000,0.000000,0.000000,0.000000,0.000000,0.000000,0.100000,0.100000,-0.232257,-0.501692,-0.050000,-0.050000,0.357852,-0.415142,0.000000,0.000000,-0.493969,0.055128,1.142699,-0.012414,0.083409,0.859305,-0.052140,-0.416132,0.017401,-0.441829
-0.050000,-0.050000,0.000000,0.000000,0.000000,0.000000,0.000000,0.000000,0.000000,0.100000,0.100000,-0.238088,-0.511164,-0.050000,-0.050000,0.360506,-0.409123,0.000000,0.000000,-0.498370,0.059668,1.139135,-0.001301,0.079901,0.870298,-0.053043,-0.418345,0.020822,-0.446929
-0.050000,-0.050000,0.000000,0.000000,0.000000,0.000000,0.000000,0.000000,0.000000,0.100000,0.100000,-0.244335,-0.519613,-0.050000,-0.050000,0.362629,-0.402832,0.000000,0.000000,-0.503135,0.064251,1.134963,0.009863,0.076462,0.881226,-0.054097,-0.420341,0.024092,-0.451049
-0.050000,-0.050000,0.000000,0.000000,0.000000,0.000000,0.000000,0.000000,0.000000,0.100000,0.100000,-0.251059,-0.526934,-0.050000,-0.050000,0.364134,-0.396213,0.000000,0.000000,-0.508319,0.068961,1.129930,0.021195,0.073063,0.891997,-0.055385,-0.422014,0.027150,-0.454055
-0.050000,-0.050000,0.000000,0.000000,0.000000,0.000000,0.000000,0.000000,0.000000,0.100000,0.100000,-0.258376,-0.532978,-0.050000,-0.050000,0.364920,-0.389519,0.000000,0.000000,-0.514057,0.074112,1.123271,0.032742,0.069541,0.902060,-0.057257,-0.423057,0.029790,-0.455101
-0.050000,-0.050000,0.000000,0.000000,0.000000,0.000000,0.000000,0.000000,0.000000,0.100000,0.100000,-0.265877,-0.538315,-0.050000,-0.050000,0.365360,-0.382909,0.000000,0.000000,-0.520097,0.079337,1.115661,0.044362,0.065883,0.911760,-0.059373,-0.423732,0.032132,-0.454850
-0.050000,-0.050000,0.000000,0.000000,0.000000,0.000000,0.000000,0.000000,0.000000,0.100000,0.100000,-0.273907,-0.542497,-0.050000,-0.050000,0.365182,-0.376697,0.000000,0.000000,-0.526769,0.085312,1.105653,0.056226,0.061854,0.920158,-0.062483,-0.423487,0.033770,-0.451827
-0.050000,-0.050000,0.000000,0.000000,0.000000,0.000000,0.000000,0.000000,0.000000,0.100000,0.100000,-0.281975,-0.546079,-0.050000,-0.050000,0.364793,-0.370987,0.000000,0.000000,-0.533773,0.091527,1.094091,0.068214,0.057456,0.927758,-0.066134,-0.422678,0.034825,-0.446840
-0.050000,-0.050000,0.000000,0.000000,0.000000,0.000000,0.000000,0.000000,0.000000,0.100000,0.100000,-0.290150,-0.549028,-0.050000,-0.050000,0.364178,-0.365873,0.000000,0.000000,-0.541165,0.098189,1.080664,0.080386,0.052636,0.934356,-0.070518,-0.421193,0.035188,-0.439642
-0.050000,-0.050000,0.000000,0.000000,0.000000,0.000000,0.000000,0.000000,0.000000,0.100000,0.100000,-0.298288,-0.551359,-0.050000,-0.050000,0.363462,-0.361835,0.000000,0.000000,-0.548930,0.105448,1.065041,0.092783,0.047225,0.939518,-0.075902,-0.418866,0.034611,-0.429770
-0.050000,-0.050000,0.000000,0.000000,0.000000,0.000000,0.000000,0.000000,0.000000,0.100000,0.100000,-0.306219,-0.553350,-0.050000,-0.050000,0.362756,-0.358389,0.000000,0.000000,-0.556841,0.112850,1.048181,0.105439,0.041413,0.944039,-0.081702,-0.416103,0.033388,-0.418340
-0.050000,-0.050000,0.000000,0.000000,0.000000,0.000000,0.000000,0.000000,0.000000,0.100000,0.100000,-0.313859,-0.554797,-0.050000,-0.050000,0.362141,-0.356453,0.000000,0.000000,-0.564901,0.120878,1.029530,0.118553,0.034975,0.946917,-0.088440,-0.412420,0.031129,-0.404485
-0.050000,-0.050000,0.000000,0.000000,0.000000,0.000000,0.000000,0.000000,0.000000,0.100000,0.100000,-0.321046,-0.555935,-0.050000,-0.050000,0.361651,-0.355400,0.000000,0.000000,-0.572853,0.129013,1.010278,0.132290,0.028161,0.949036,-0.095402,-0.408218,0.028207,-0.389484
-0.050000,-0.050000,0.000000,0.000000,0.000000,0.000000,0.000000,0.000000,0.000000,0.100000,0.100000,-0.327799,-0.556754,-0.050000,-0.050000,0.361279,-0.355434,0.000000,0.000000,-0.580635,0.137418,0.990604,0.146749,0.021007,0.950165,-0.102617,-0.403391,0.024636,-0.373403
-0.050000,-0.050000,0.000000,0.000000,0.000000,0.000000,0.000000,0.000000,0.000000,0.100000,0.100000,-0.333830,-0.557120,-0.050000,-0.050000,0.361120,-0.356901,0.000000,0.000000,-0.587847,0.146009,0.971773,0.162707,0.013679,0.950077,-0.109560,-0.397599,0.020581,-0.356923
-0.050000,-0.050000,0.000000,0.000000,0.000000,0.000000,0.000000,0.000000,0.000000,0.100000,0.100000,-0.339454,-0.557349,-0.050000,-0.050000,0.360880,-0.359025,0.000000,0.000000,-0.594725,0.154753,0.953595,0.179656,0.006308,0.949333,-0.116322,-0.391295,0.016240,-0.340280
-0.050000,-0.050000,0.000000,0.000000,0.000000,0.000000,0.000000,0.000000,0.000000,0.100000,0.100000,-0.344098,-0.556975,-0.050000,-0.050000,0.360869,-0.362808,0.000000,0.000000,-0.600477,0.163647,0.938480,0.199318,-0.000803,0.947094,-0.121866,-0.383476,0.011894,-0.324419
-0.050000,-0.050000,0.000000,0.000000,0.000000,0.000000,0.000000,0.000000,0.000000,0.100000,0.100000,-0.348204,-0.556447,-0.050000,-0.050000,0.360579,-0.367285,0.000000,0.000000,-0.605507,0.172755,0.925907,0.220974,-0.007516,0.943929,-0.126529,-0.374645,0.007705,-0.309286
-0.050000,-0.050000,0.000000,0.000000,0.000000,0.000000,0.000000,0.000000,0.000000,0.100000,0.100000,-0.351643,-0.555614,-0.050000,-0.050000,0.360119,-0.372693,0.000000,0.000000,-0.609542,0.182085,0.916797,0.245137,-0.013675,0.939548,-0.129938,-0.364489,0.003874,-0.295213
-0.050000,-0.050000,0.000000,0.000000,0.000000,0.000000,0.000000,0.000000,0.000000,0.100000,0.100000,-0.354128,-0.554313,-0.050000,-0.050000,0.359486,-0.379153,0.000000,0.000000,-0.612129,0.191651,0.912984,0.272864,-0.018934,0.933606,-0.131269,-0.352333,0.000726,-0.282760
-0.050000,-0.050000,0.000000,0.000000,0.000000,0.000000,0.000000,0.000000,0.000000,0.100000,0.100000,-0.356288,-0.553048,-0.050000,-0.050000,0.358221,-0.385912,0.000000,0.000000,-0.613969,0.201588,0.912335,0.302506,-0.023513,0.926565,-0.131745,-0.339113,-0.001929,-0.271060
-0.050000,-0.050000,0.000000,0.000000,0.000000,0.000000,0.000000,0.000000,0.000000,0.100000,0.100000,-0.357134,-0.551126,-0.050000,-0.050000,0.356887,-0.393746,0.000000,0.000000,-0.613803,0.211733,0.918698,0.336364,-0.026964,0.917544,-0.129435,-0.323325,-0.003586,-0.261144
-0.050000,-0.050000,0.000000,0.000000,0.000000,0.000000,0.000000,0.000000,0.000000,0.100000,0.100000,-0.357477,-0.549242,-0.050000,-0.050000,0.354820,-0.401713,0.000000,0.000000,-0.612547,0.222229,0.928979,0.372118,-0.029668,0.907192,-0.126130,-0.306307,-0.004609,-0.251771
-0.050000,-0.050000,0.000000,0.000000,0.000000,0.000000,0.000000,0.000000,0.000000,0.100000,0.100000,-0.356950,-0.547060,-0.050000,-0.050000,0.352431,-0.410041,0.000000,0.000000,-0.609761,0.232918,0.944002,0.410117,-0.031666,0.895275,-0.121327,-0.287806,-0.004937,-0.243046
-0.050000,-0.050000,0.000000,0.000000,0.000000,0.000000,0.000000,0.000000,0.000000,0.100000,0.100000,-0.355132,-0.544594,-0.050000,-0.050000,0.349869,-0.418697,0.000000,0.000000,-0.604955,0.243487,0.963791,0.449711,-0.033275,0.881862,-0.115151,-0.268142,-0.004596,-0.234640
-0.050000,-0.050000,0.000000,0.000000,0.000000,0.000000,0.000000,0.000000,0.000000,0.100000,0.100000,-0.352785,-0.541976,-0.050000,-0.050000,0.346920,-0.427213,0.000000,0.000000,-0.599017,0.254152,0.986085,0.489841,-0.034632,0.867309,-0.108599,-0.248039,-0.003925,-0.226081
-0.050000,-0.050000,0.000000,0.000000,0.000000,0.000000,0.000000,0.000000,0.000000,0.100000,0.100000,-0.348462,-0.539005,-0.050000,-0.050000,0.344387,-0.436096,0.000000,0.000000,-0.590279,0.263904,1.012130,0.529875,-0.036464,0.851785,-0.101249,-0.227917,-0.002754,-0.217384
-0.050000,-0.050000,0.000000,0.000000,0.000000,0.000000,0.000000,0.000000,0.000000,0.100000,0.100000,-0.343217,-0.535779,-0.050000,-0.050000,0.341947,-0.444808,0.000000,0.000000,-0.579995,0.273147,1.039241,0.568848,-0.038783,0.835788,-0.094236,-0.208463,-0.001454,-0.208262
-0.050000,-0.050000,0.000000,0.000000,0.000000,0.000000,0.000000,0.000000,0.000000,0.100000,0.100000,-0.336513,-0.532217,-0.050000,-0.050000,0.340068,-0.453561,0.000000,0.000000,-0.567602,0.281352,1.067343,0.606250,-0.042026,0.819639,-0.087516,-0.190094,-0.000028,-0.198798
-0.050000,-0.050000,0.000000,0.000000,0.000000,0.000000,0.000000,0.000000,0.000000,0.100000,0.100000,-0.328019,-0.528440,-0.050000,-0.050000,0.339161,-0.462405,0.000000,0.000000,-0.552605,0.287731,1.095113,0.640669,-0.046976,0.804427,-0.081840,-0.173914,0.001552,-0.189105
-0.050000,-0.050000,0.000000,0.000000,0.000000,0.000000,0.000000,0.000000,0.000000,0.100000,0.100000,-0.318528,-0.524154,-0.050000,-0.050000,0.338964,-0.471143,0.000000,0.000000,-0.536254,0.293251,1.122316,0.673184,-0.052915,0.789621,-0.076800,-0.159025,0.003045,-0.179280
-0.050000,-0.050000,0.000000,0.000000,0.000000,0.000000,0.000000,0.000000,0.000000,0.100000,0.100000,-0.306905,-0.519876,-0.050000,-0.050000,0.340457,-0.480156,0.000000,0.000000,-0.516614,0.295708,1.147484,0.701161,-0.061715,0.777651,-0.073598,-0.147607,0.004871,-0.169757
-0.050000,-0.050000,0.000000,0.000000,0.000000,0.000000,0.000000,0.000000,0.000000,0.100000,0.100000,-0.294263,-0.515090,-0.050000,-0.050000,0.343209,-0.489175,0.000000,0.000000,-0.495530,0.296771,1.170890,0.726551,-0.072157,0.767409,-0.071365,-0.137949,0.006732,-0.160599
-0.050000,-0.050000,0.000000,0.000000,0.000000,0.000000,0.000000,0.000000,0.000000,0.100000,0.100000,-0.280350,-0.510138,-0.050000,-0.050000,0.347487,-0.498339,0.000000,0.000000,-0.472352,0.295581,1.192096,0.748681,-0.084884,0.759852,-0.070417,-0.130669,0.008847,-0.152053
-0.050000,-0.050000,0.000000,0.000000,0.000000,0.000000,0.000000,0.000000,0.000000,0.100000,0.100000,-0.265496,-0.505076,-0.050000,-0.050000,0.353811,-0.507767,0.000000,0.000000,-0.446949,0.291738,1.210590,0.767444,-0.100433,0.755943,-0.070835,-0.125863,0.011536,-0.144527
-0.050000,-0.050000,0.000000,0.000000,0.000000,0.000000,0.000000,0.000000,0.000000,0.100000,0.100000,-0.249989,-0.499683,-0.050000,-0.050000,0.361400,-0.517243,0.000000,0.000000,-0.420480,0.286604,1.227360,0.784331,-0.117569,0.754032,-0.071816,-0.122212,0.014370,-0.137627
-0.050000,-0.050000,0.000000,0.000000,0.000000,0.000000,0.000000,0.000000,0.000000,0.100000,0.100000,-0.234241,-0.494431,-0.050000,-0.050000,0.371825,-0.527264,0.000000,0.000000,-0.391429,0.278146,1.241110,0.798067,-0.138295,0.756902,-0.074068,-0.120982,0.018413,-0.132284
-0.050000,-0.050000,0.000000,0.000000,0.000000,0.000000,0.000000,0.000000,0.000000,0.100000,0.100000,-0.218440,-0.488931,-0.050000,-0.050000,0.383965,-0.537460,0.000000,0.000000,-0.361445,0.268387,1.253213,0.810485,-0.160838,0.762011,-0.076532,-0.120487,0.022939,-0.127788
-0.050000,-0.050000,0.000000,0.000000,0.000000,0.000000,0.000000,0.000000,0.000000,0.100000,0.100000,-0.202899,-0.483425,-0.050000,-0.050000,0.398314,-0.548065,0.000000,0.000000,-0.329945,0.256597,1.263459,0.821417,-0.185795,0.770096,-0.079399,-0.121057,0.028397,-0.124429
-0.050000,-0.050000,0.000000,0.000000,0.000000,0.000000,0.000000,0.000000,0.000000,0.100000,0.100000,-0.188229,-0.477870,-0.050000,-0.050000,0.415406,-0.559304,0.000000,0.000000,-0.296973,0.242780,1.271950,0.831272,-0.213340,0.781085,-0.082411,-0.122464,0.035123,-0.122372
-0.050000,-0.050000,0.000000,0.000000,0.000000,0.000000,0.000000,0.000000,0.000000,0.100000,0.100000,-0.173838,-0.472253,-0.050000,-0.050000,0.433991,-0.570737,0.000000,0.000000,-0.263265,0.227852,1.279406,0.840545,-0.242330,0.793620,-0.085395,-0.124210,0.042379,-0.120982
-0.050000,-0.050000,0.000000,0.000000,0.000000,0.000000,0.000000,0.000000,0.000000,0.100000,0.100000,-0.161185,-0.466575,-0.050000,-0.050000,0.456148,-0.583286,0.000000,0.000000,-0.227864,0.210545,1.285158,0.849165,-0.274212,0.808993,-0.088414,-0.126791,0.051448,-0.121217
-0.050000,-0.050000,0.000000,0.000000,0.000000,0.000000,0.000000,0.000000,0.000000,0.100000,0.100000,-0.149186,-0.460822,-0.050000,-0.050000,0.479932,-0.596123,0.000000,0.000000,-0.191922,0.192103,1.290046,0.857506,-0.307393,0.825515,-0.091296,-0.129655,0.061114,-0.122149
-0.050000,-0.050000,0.000000,0.000000,0.000000,0.000000,0.000000,0.000000,0.000000,0.100000,0.100000,-0.138318,-0.454926,-0.050000,-0.050000,0.505995,-0.609676,0.000000,0.000000,-0.155054,0.172063,1.293888,0.865600,-0.342223,0.843466,-0.094203,-0.133036,0.071802,-0.124110
-0.050000,-0.050000,0.000000,0.000000,0.000000,0.000000,0.000000,0.000000,0.000000,0.100000,0.100000,-0.128723,-0.448831,-0.050000,-0.050000,0.534197,-0.623934,0.000000,0.000000,-0.117532,0.150331,1.296577,0.873445,-0.378436,0.862637,-0.097201,-0.137092,0.083350,-0.127166
-0.050000,-0.050000,0.000000,0.000000,0.000000,0.000000,0.000000,0.000000,0.000000,0.100000,0.100000,-0.119576,-0.442534,-0.050000,-0.050000,0.563515,-0.638450,0.000000,0.000000,-0.079689,0.127525,1.298660,0.881123,-0.415384,0.882433,-0.100317,-0.141514,0.095248,-0.130741
-0.050000,-0.050000,0.000000,0.000000,0.000000,0.000000,0.000000,0.000000,0.000000,0.100000,0.100000,-0.111936,-0.435901,-0.050000,-0.050000,0.594720,-0.653740,0.000000,0.000000,-0.041574,0.102717,1.299177,0.888428,-0.453206,0.903276,-0.103879,-0.147046,0.107703,-0.135606
-0.050000,-0.050000,0.000000,0.000000,0.000000,0.000000,0.000000,0.000000,0.000000,0.100000,0.100000,-0.104655,-0.428942,-0.050000,-0.050000,0.626397,-0.669060,0.000000,0.000000,-0.003680,0.076845,1.298972,0.895431,-0.491124,0.924428,-0.107752,-0.153131,0.120084,-0.140902
-0.050000,-0.050000,0.000000,0.000000,0.000000,0.000000,0.000000,0.000000,0.000000,0.100000,0.100000,-0.098017,-0.421579,-0.050000,-0.050000,0.658599,-0.684571,0.000000,0.000000,0.033880,0.049668,1.297642,0.902045,-0.528962,0.945930,-0.112181,-0.160062,0.132311,-0.146838
-0.050000,-0.050000,0.000000,0.000000,0.000000,0.000000,0.000000,0.000000,0.000000,0.100000,0.100000,-0.091951,-0.413816,-0.050000,-0.050000,0.690572,-0.699890,0.000000,0.000000,0.070398,0.021483,1.294999,0.908129,-0.566021,0.967432,-0.117259,-0.167856,0.143895,-0.153223
-0.050000,-0.050000,0.000000,0.000000,0.000000,0.000000,0.000000,0.000000,0.000000,0.100000,0.100000,-0.085983,-0.405559,-0.050000,-0.050000,0.722332,-0.715095,0.000000,0.000000,0.106397,-0.007469,1.291703,0.913872,-0.602566,0.988840,-0.122833,-0.176177,0.155110,-0.159808
-0.050000,-0.050000,0.000000,0.000000,0.000000,0.000000,0.000000,0.000000,0.000000,0.100000,0.100000,-0.080712,-0.396989,-0.050000,-0.050000,0.752673,-0.729492,0.000000,0.000000,0.139980,-0.036691,1.286561,0.918866,-0.637069,1.009529,-0.129205,-0.185303,0.164840,-0.166515
-0.050000,-0.050000,0.000000,0.000000,0.000000,0.000000,0.000000,0.000000,0.000000,0.100000,0.100000,-0.075534,-0.387919,-0.050000,-0.050000,0.781990,-0.743421,0.000000,0.000000,0.172311,-0.066040,1.280721,0.923457,-0.670284,1.029493,-0.136030,-0.194727,0.173863,-0.173164
-0.050000,-0.050000,0.000000,0.000000,0.000000,0.000000,0.000000,0.000000,0.000000,0.100000,0.100000,-0.070688,-0.378526,-0.050000,-0.050000,0.809687,-0.756489,0.000000,0.000000,0.202453,-0.095005,1.273704,0.927506,-0.701508,1.048361,-0.143360,-0.204381,0.181639,-0.179588
-0.050000,-0.050000,0.000000,0.000000,0.000000,0.000000,0.000000,0.000000,0.000000,0.100000,0.100000,-0.066239,-0.368908,-0.050000,-0.050000,0.835245,-0.768401,0.000000,0.000000,0.229775,-0.122777,1.265561,0.931029,-0.730213,1.065534,-0.151001,-0.213869,0.188009,-0.185543
-0.050000,-0.050000,0.000000,0.000000,0.000000,0.000000,0.000000,0.000000,0.000000,0.100000,0.100000,-0.061942,-0.358967,-0.050000,-0.050000,0.859486,-0.779776,0.000000,0.000000,0.255658,-0.150090,1.256878,0.934252,-0.757405,1.081620,-0.158915,-0.223295,0.193714,-0.191325
-0.050000,-0.050000,0.000000,0.000000,0.000000,0.000000,0.000000,0.000000,0.000000,0.100000,0.100000,-0.058353,-0.349180,-0.050000,-0.050000,0.880560,-0.789265,0.000000,0.000000,0.277121,-0.174422,1.246869,0.936876,-0.780965,1.094905,-0.166707,-0.231735,0.197483,-0.196122
-0.050000,-0.050000,0.000000,0.000000,0.000000,0.000000,0.000000,0.000000,0.000000,0.100000,0.100000,-0.055090,-0.339320,-0.050000,-0.050000,0.900010,-0.798156,0.000000,0.000000,0.296785,-0.197516,1.236543,0.939277,-0.802696,1.106593,-0.174474,-0.239670,0.200761,-0.200709
-0.050000,-0.050000,0.000000,0.000000,0.000000,0.000000,0.000000,0.000000,0.000000,0.100000,0.100000,-0.052382,-0.329677,-0.050000,-0.050000,0.917136,-0.805817,0.000000,0.000000,0.313374,-0.218134,1.225572,0.941300,-0.821840,1.116066,-0.181946,-0.246589,0.202992,-0.204656
-0.050000,-0.050000,0.000000,0.000000,0.000000,0.000000,0.000000,0.000000,0.000000,0.100000,0.100000,-0.050295,-0.320432,-0.050000,-0.050000,0.931875,-0.812284,0.000000,0.000000,0.326857,-0.235909,1.214179,0.942921,-0.838372,1.123186,-0.188919,-0.252290,0.204414,-0.207980
-0.050000,-0.050000,0.000000,0.000000,0.000000,0.000000,0.000000,0.000000,0.000000,0.100000,0.100000,-0.048649,-0.311453,-0.050000,-0.050000,0.945167,-0.818255,0.000000,0.000000,0.338671,-0.252165,1.202633,0.944348,-0.853319,1.128857,-0.195658,-0.257311,0.205592,-0.211180
-0.050000,-0.050000,0.000000,0.000000,0.000000,0.000000,0.000000,0.000000,0.000000,0.100000,0.100000,-0.047809,-0.303340,-0.050000,-0.050000,0.955494,-0.822601,0.000000,0.000000,0.346512,-0.264314,1.190702,0.945010,-0.865227,1.131773,-0.201435,-0.260609,0.205873,-0.213433
-0.050000,-0.050000,0.000000,0.000000,0.000000,0.000000,0.000000,0.000000,0.000000,0.100000,0.100000,-0.047487,-0.295767,-0.050000,-0.050000,0.964426,-0.826616,0.000000,0.000000,0.352907,-0.274889,1.178824,0.945309,-0.875722,1.133384,-0.206870,-0.263285,0.206274,-0.215747
-0.050000,-0.050000,0.000000,0.000000,0.000000,0.000000,0.000000,0.000000,0.000000,0.100000,0.100000,-0.047757,-0.288984,-0.050000,-0.050000,0.971381,-0.829772,0.000000,0.000000,0.356975,-0.282878,1.166848,0.944868,-0.884384,1.133354,-0.211658,-0.264971,0.206455,-0.217697
-0.050000,-0.050000,0.000000,0.000000,0.000000,0.000000,0.000000,0.000000,0.000000,0.100000,0.100000,-0.048591,-0.283094,-0.050000,-0.050000,0.976418,-0.832221,0.000000,0.000000,0.359065,-0.288578,1.154871,0.943422,-0.891475,1.131921,-0.215846,-0.265945,0.206666,-0.219448
-0.050000,-0.050000,0.000000,0.000000,0.000000,0.000000,0.000000,0.000000,0.000000,0.100000,0.100000,-0.049840,-0.277783,-0.050000,-0.050000,0.980277,-0.834373,0.000000,0.000000,0.360090,-0.292972,1.142901,0.941348,-0.897577,1.129600,-0.219729,-0.266548,0.207088,-0.221344
-0.050000,-0.050000,0.000000,0.000000,0.000000,0.000000,0.000000,0.000000,0.000000,0.100000,0.100000,-0.051605,-0.273651,-0.050000,-0.050000,0.981711,-0.835581,0.000000,0.000000,0.358913,-0.294804,1.130862,0.937399,-0.902189,1.125877,-0.222893,-0.266673,0.207557,-0.222909
-0.050000,-0.050000,0.000000,0.000000,0.000000,0.000000,0.000000,0.000000,0.000000,0.100000,0.100000,-0.053708,-0.270065,-0.050000,-0.050000,0.981961,-0.836559,0.000000,0.000000,0.357011,-0.295671,1.118756,0.932410,-0.906081,1.121375,-0.225861,-0.266787,0.208437,-0.224861
-0.050000,-0.050000,0.000000,0.000000,0.000000,0.000000,0.000000,0.000000,0.000000,0.100000,0.100000,-0.056104,-0.267237,-0.050000,-0.050000,0.980483,-0.836989,0.000000,0.000000,0.353899,-0.295111,1.106477,0.925744,-0.909134,1.115887,-0.228460,-0.266888,0.209565,-0.226911
-0.050000,-0.050000,0.000000,0.000000,0.000000,0.000000,0.000000,0.000000,0.000000,0.100000,0.100000,-0.058741,-0.265042,-0.050000,-0.050000,0.977249,-0.836887,0.000000,0.000000,0.349689,-0.293306,1.093874,0.917195,-0.911462,1.109280,-0.230764,-0.267153,0.210999,-0.229185
-0.050000,-0.050000,0.000000,0.000000,0.000000,0.000000,0.000000,0.000000,0.000000,0.100000,0.100000,-0.061501,-0.263150,-0.050000,-0.050000,0.972888,-0.836470,0.000000,0.000000,0.344922,-0.290825,1.080986,0.907356,-0.913281,1.101838,-0.232923,-0.267534,0.212789,-0.231898
-0.050000,-0.050000,0.000000,0.000000,0.000000,0.000000,0.000000,0.000000,0.000000,0.100000,0.100000,-0.064426,-0.261854,-0.050000,-0.050000,0.966156,-0.835185,0.000000,0.000000,0.338473,-0.286705,1.067320,0.894858,-0.914268,1.092637,-0.234653,-0.268121,0.214660,-0.234596
-0.050000,-0.050000,0.000000,0.000000,0.000000,0.000000,0.000000,0.000000,0.000000,0.100000,0.100000,-0.067379,-0.260580,-0.050000,-0.050000,0.958217,-0.833456,0.000000,0.000000,0.331344,-0.281937,1.053026,0.880908,-0.914698,1.082203,-0.236219,-0.268752,0.216830,-0.237790
-0.050000,-0.050000,0.000000,0.000000,0.000000,0.000000,0.000000,0.000000,0.000000,0.100000,0.100000,-0.070352,-0.259416,-0.050000,-0.050000,0.948520,-0.830973,0.000000,0.000000,0.322849,-0.275981,1.037778,0.864941,-0.914398,1.070078,-0.237417,-0.269311,0.218984,-0.241067
-0.050000,-0.050000,0.000000,0.000000,0.000000,0.000000,0.000000,0.000000,0.000000,0.100000,0.100000,-0.073338,-0.258134,-0.050000,-0.050000,0.937101,-0.827581,0.000000,0.000000,0.312720,-0.268683,1.021242,0.847066,-0.913253,1.056067,-0.238162,-0.269516,0.220880,-0.244246
-0.050000,-0.050000,0.000000,0.000000,0.000000,0.000000,0.000000,0.000000,0.000000,0.100000,0.100000,-0.076208,-0.256594,-0.050000,-0.050000,0.924596,-0.823652,0.000000,0.000000,0.301693,-0.260751,1.003822,0.827874,-0.911510,1.040694,-0.238585,-0.269397,0.222795,-0.247601
-0.050000,-0.050000,0.000000,0.000000,0.000000,0.000000,0.000000,0.000000,0.000000,0.100000,0.100000,-0.079169,-0.254700,-0.050000,-0.050000,0.909956,-0.818178,0.000000,0.000000,0.287699,-0.250440,0.984132,0.806498,-0.908544,1.022966,-0.238146,-0.268192,0.223447,-0.249809
-0.050000,-0.050000,0.000000,0.000000,0.000000,0.000000,0.000000,0.000000,0.000000,0.100000,0.100000,-0.081956,-0.252242,-0.050000,-0.050000,0.894409,-0.812021,0.000000,0.000000,0.272467,-0.239366,0.963167,0.783998,-0.904898,1.003981,-0.237196,-0.266224,0.223687,-0.251658
-0.050000,-0.050000,0.000000,0.000000,0.000000,0.000000,0.000000,0.000000,0.000000,0.100000,0.100000,-0.084706,-0.249163,-0.050000,-0.050000,0.877554,-0.804633,0.000000,0.000000,0.254810,-0.226493,0.940128,0.760025,-0.900295,0.983518,-0.235408,-0.262996,0.222570,-0.252135
-0.050000,-0.050000,0.000000,0.000000,0.000000,0.000000,0.000000,0.000000,0.000000,0.100000,0.100000,-0.087393,-0.245303,-0.050000,-0.050000,0.859703,-0.795978,0.000000,0.000000,0.234666,-0.211831,0.914793,0.734734,-0.894799,0.962068,-0.232735,-0.258360,0.219743,-0.250742
-0.050000,-0.050000,0.000000,0.000000,0.000000,0.000000,0.000000,0.000000,0.000000,0.100000,0.100000,-0.089805,-0.240672,-0.050000,-0.050000,0.841381,-0.786685,0.000000,0.000000,0.213099,-0.196323,0.888043,0.708630,-0.888778,0.940072,-0.229352,-0.252730,0.215874,-0.248036
-0.050000,-0.050000,0.000000,0.000000,0.000000,0.000000,0.000000,0.000000,0.000000,0.100000,0.100000,-0.092310,-0.235042,-0.050000,-0.050000,0.822219,-0.775512,0.000000,0.000000,0.187805,-0.177940,0.857761,0.680887,-0.881748,0.917929,-0.224826,-0.245260,0.208715,-0.241573
-0.050000,-0.050000,0.000000,0.000000,0.000000,0.000000,0.000000,0.000000,0.000000,0.100000,0.100000,-0.094379,-0.228429,-0.050000,-0.050000,0.803105,-0.763829,0.000000,0.000000,0.161247,-0.158912,0.825965,0.652447,-0.874417,0.896155,-0.219585,-0.236967,0.200104,-0.233029
-0.050000,-0.050000,0.000000,0.000000,0.000000,0.000000,0.000000,0.000000,0.000000,0.100000,0.100000,-0.096266,-0.220801,-0.050000,-0.050000,0.783963,-0.750986,0.000000,0.000000,0.132210,-0.138069,0.791489,0.622806,-0.866585,0.875196,-0.213485,-0.227566,0.188738,-0.221010
-0.050000,-0.050000,0.000000,0.000000,0.000000,0.000000,0.000000,0.000000,0.000000,0.100000,0.100000,-0.097786,-0.212118,-0.050000,-0.050000,0.765182,-0.737238,0.000000,0.000000,0.101292,-0.115943,0.754561,0.591972,-0.858451,0.855673,-0.206745,-0.217516,0.174805,-0.205515
-0.050000,-0.050000,0.000000,0.000000,0.000000,0.000000,0.000000,0.000000,0.000000,0.100000,0.100000,-0.098812,-0.202479,-0.050000,-0.050000,0.746938,-0.723164,0.000000,0.000000,0.069322,-0.093165,0.716144,0.560479,-0.850263,0.837287,-0.199383,-0.207046,0.159090,-0.187473
-0.050000,-0.050000,0.000000,0.000000,0.000000,0.000000,0.000000,0.000000,0.000000,0.100000,0.100000,-0.099474,-0.191844,-0.050000,-0.050000,0.729434,-0.707886,0.000000,0.000000,0.035410,-0.068891,0.674499,0.527109,-0.841783,0.821606,-0.191789,-0.196491,0.140182,-0.165096
-0.050000,-0.050000,0.000000,0.000000,0.000000,0.000000,0.000000,0.000000,0.000000,0.100000,0.100000,-0.099420,-0.180282,-0.050000,-0.050000,0.712801,-0.692589,0.000000,0.000000,0.001271,-0.044535,0.631683,0.493069,-0.833424,0.807598,-0.183883,-0.186025,0.119920,-0.140553
-0.050000,-0.050000,0.000000,0.000000,0.000000,0.000000,0.000000,0.000000,0.000000,0.100000,0.100000,-0.098806,-0.167977,-0.050000,-0.050000,0.697112,-0.676804,0.000000,0.000000,-0.033391,-0.019682,0.586846,0.457673,-0.825047,0.796096,-0.176016,-0.175906,0.097758,-0.113224
-0.050000,-0.050000,0.000000,0.000000,0.000000,0.000000,0.000000,0.000000,0.000000,0.100000,0.100000,-0.097427,-0.155043,-0.050000,-0.050000,0.682428,-0.660869,0.000000,0.000000,-0.067625,0.004990,0.540612,0.421170,-0.816758,0.787124,-0.168429,-0.166381,0.074494,-0.084014
-0.050000,-0.050000,0.000000,0.000000,0.000000,0.000000,0.000000,0.000000,0.000000,0.100000,0.100000,-0.095452,-0.141616,-0.050000,-0.050000,0.668618,-0.645073,0.000000,0.000000,-0.101472,0.029645,0.493445,0.384004,-0.808627,0.779904,-0.160844,-0.157072,0.050387,-0.053474
-0.050000,-0.050000,0.000000,0.000000,0.000000,0.000000,0.000000,0.000000,0.000000,0.100000,0.100000,-0.092523,-0.127989,-0.050000,-0.050000,0.655803,-0.629132,0.000000,0.000000,-0.133458,0.053272,0.445212,0.345620,-0.800589,0.775992,-0.154306,-0.148909,0.026102,-0.022106
-0.050000,-0.050000,0.000000,0.000000,0.000000,0.000000,0.000000,0.000000,0.000000,0.100000,0.100000,-0.088922,-0.114185,-0.050000,-0.050000,0.643721,-0.613634,0.000000,0.000000,-0.164167,0.076486,0.396659,0.306940,-0.792750,0.773653,-0.147994,-0.140954,0.001778,0.009496
-0.050000,-0.050000,0.000000,0.000000,0.000000,0.000000,0.000000,0.000000,0.000000,0.100000,0.100000,-0.084487,-0.100520,-0.050000,-0.050000,0.632340,-0.598425,0.000000,0.000000,-0.192497,0.098522,0.347998,0.267843,-0.785109,0.773621,-0.142536,-0.133717,-0.021983,0.040722
-0.050000,-0.050000,0.000000,0.000000,0.000000,0.000000,0.000000,0.000000,0.000000,0.100000,0.100000,-0.079233,-0.087167,-0.050000,-0.050000,0.621544,-0.583808,0.000000,0.000000,-0.218122,0.119284,0.299805,0.228810,-0.777731,0.775391,-0.137836,-0.127009,-0.044803,0.070936
-0.050000,-0.050000,0.000000,0.000000,0.000000,0.000000,0.000000,0.000000,0.000000,0.100000,0.100000,-0.073474,-0.074151,-0.050000,-0.050000,0.611157,-0.569714,0.000000,0.000000,-0.241901,0.139431,0.251896,0.189894,-0.770577,0.778374,-0.133544,-0.120435,-0.067112,0.100473
-0.050000,-0.050000,0.000000,0.000000,0.000000,0.000000,0.000000,0.000000,0.000000,0.100000,0.100000,-0.066699,-0.061921,-0.050000,-0.050000,0.601261,-0.556569,0.000000,0.000000,-0.261329,0.157178,0.205774,0.151763,-0.763866,0.783045,-0.130419,-0.114729,-0.087347,0.127531
-0.050000,-0.050000,0.000000,0.000000,0.000000,0.000000,0.000000,0.000000,0.000000,0.100000,0.100000,-0.059609,-0.050336,-0.050000,-0.050000,0.591627,-0.544158,0.000000,0.000000,-0.278916,0.174425,0.160489,0.114205,-0.757457,0.788349,-0.127615,-0.109043,-0.106923,0.153468
-0.050000,-0.050000,0.000000,0.000000,0.000000,0.000000,0.000000,0.000000,0.000000,0.100000,0.100000,-0.051913,-0.039637,-0.050000,-0.050000,0.582353,-0.532789,0.000000,0.000000,-0.293110,0.189906,0.117196,0.077751,-0.751553,0.794378,-0.125515,-0.103841,-0.124847,0.177158
-0.050000,-0.050000,0.000000,0.000000,0.000000,0.000000,0.000000,0.000000,0.000000,0.100000,0.100000,-0.043916,-0.029916,-0.050000,-0.050000,0.573476,-0.522571,0.000000,0.000000,-0.304616,0.204104,0.075968,0.042544,-0.746239,0.800640,-0.123879,-0.098950,-0.141438,0.198814
-0.050000,-0.050000,0.000000,0.000000,0.000000,0.000000,0.000000,0.000000,0.000000,0.100000,0.100000,-0.035832,-0.021015,-0.050000,-0.050000,0.564809,-0.513138,0.000000,0.000000,-0.314338,0.217571,0.036211,0.008276,-0.741376,0.807048,-0.122553,-0.094201,-0.157234,0.219104
-0.050000,-0.050000,0.000000,0.000000,0.000000,0.000000,0.000000,0.000000,0.000000,0.100000,0.100000,-0.027543,-0.013363,-0.050000,-0.050000,0.556954,-0.505467,0.000000,0.000000,-0.320817,0.228998,-0.000094,-0.023994,-0.737526,0.813075,-0.121703,-0.090042,-0.171056,0.236582
-0.050000,-0.050000,0.000000,0.000000,0.000000,0.000000,0.000000,0.000000,0.000000,0.100000,0.100000,-0.019572,-0.006625,-0.050000,-0.050000,0.549398,-0.498561,0.000000,0.000000,-0.326273,0.240032,-0.034792,-0.055199,-0.734282,0.818892,-0.121066,-0.086022,-0.184327,0.252962
-0.050000,-0.050000,0.000000,0.000000,0.000000,0.000000,0.000000,0.000000,0.000000,0.100000,0.100000,-0.011799,-0.000955,-0.050000,-0.050000,0.542657,-0.493102,0.000000,0.000000,-0.329830,0.249713,-0.066570,-0.084657,-0.732011,0.824086,-0.120688,-0.082418,-0.196226,0.267396
-0.050000,-0.050000,0.000000,0.000000,0.000000,0.000000,0.000000,0.000000,0.000000,0.100000,0.100000,-0.004524,0.003707,-0.050000,-0.050000,0.536708,-0.488837,0.000000,0.000000,-0.332326,0.258547,-0.095793,-0.112501,-0.730708,0.828629,-0.120506,-0.079131,-0.207085,0.280384
-0.050000,-0.050000,0.000000,0.000000,0.000000,0.000000,0.000000,0.000000,0.000000,0.100000,0.100000,0.002251,0.007567,-0.050000,-0.050000,0.531277,-0.485353,0.000000,0.000000,-0.334166,0.266814,-0.123125,-0.139136,-0.730134,0.832725,-0.120515,-0.076080,-0.217265,0.292416
-0.050000,-0.050000,0.000000,0.000000,0.000000,0.000000,0.000000,0.000000,0.000000,0.100000,0.100000,0.008367,0.010412,-0.050000,-0.050000,0.527243,-0.483495,0.000000,0.000000,-0.335070,0.273859,-0.146978,-0.163521,-0.730854,0.835732,-0.120645,-0.073454,-0.225798,0.302707
-0.050000,-0.050000,0.000000,0.000000,0.000000,0.000000,0.000000,0.000000,0.000000,0.100000,0.100000,0.013744,0.012552,-0.050000,-0.050000,0.523693,-0.482123,0.000000,0.000000,-0.335917,0.280614,-0.169140,-0.186709,-0.732276,0.838328,-0.120989,-0.071044,-0.233746,0.312389
-0.050000,-0.050000,0.000000,0.000000,0.000000,0.000000,0.000000,0.000000,0.000000,0.100000,0.100000,0.018415,0.013970,-0.050000,-0.050000,0.521248,-0.481815,0.000000,0.000000,-0.336489,0.286579,-0.188596,-0.207988,-0.734676,0.840076,-0.121427,-0.068922,-0.240390,0.320936
-0.050000,-0.050000,0.000000,0.000000,0.000000,0.000000,0.000000,0.000000,0.000000,0.100000,0.100000,0.022309,0.014793,-0.050000,-0.050000,0.519604,-0.482122,0.000000,0.000000,-0.337166,0.292095,-0.205850,-0.227544,-0.737860,0.841172,-0.121982,-0.067017,-0.245993,0.328672
-0.050000,-0.050000,0.000000,0.000000,0.000000,0.000000,0.000000,0.000000,0.000000,0.100000,0.100000,0.025546,0.015130,-0.050000,-0.050000,0.518517,-0.482826,0.000000,0.000000,-0.337982,0.297286,-0.221457,-0.245801,-0.741609,0.841806,-0.122673,-0.065298,-0.250857,0.335871
-0.050000,-0.050000,0.000000,0.000000,0.000000,0.000000,0.000000,0.000000,0.000000,0.100000,0.100000,0.028054,0.015053,-0.050000,-0.050000,0.518445,-0.484151,0.000000,0.000000,-0.339085,0.301955,-0.234420,-0.261690,-0.746097,0.841532,-0.123293,-0.063717,-0.254292,0.341971
-0.050000,-0.050000,0.000000,0.000000,0.000000,0.000000,0.000000,0.000000,0.000000,0.100000,0.100000,0.029929,0.014605,-0.050000,-0.050000,0.518673,-0.485520,0.000000,0.000000,-0.340540,0.306512,-0.246117,-0.276377,-0.750924,0.840889,-0.124033,-0.062283,-0.257213,0.347694
-0.050000,-0.050000,0.000000,0.000000,0.000000,0.000000,0.000000,0.000000,0.000000,0.100000,0.100000,0.031254,0.013931,-0.050000,-0.050000,0.519499,-0.487081,0.000000,0.000000,-0.342396,0.310801,-0.255946,-0.289131,-0.756110,0.839554,-0.124665,-0.060902,-0.259217,0.352607
-0.050000,-0.050000,0.000000,0.000000,0.000000,0.000000,0.000000,0.000000,0.000000,0.100000,0.100000,0.032078,0.013066,-0.050000,-0.050000,0.520622,-0.488559,0.000000,0.000000,-0.344719,0.315004,-0.264431,-0.300317,-0.761440,0.837684,-0.125221,-0.059565,-0.260719,0.356934
-0.050000,-0.050000,0.000000,0.000000,0.000000,0.000000,0.000000,0.000000,0.000000,0.100000,0.100000,0.032513,0.012040,-0.050000,-0.050000,0.521953,-0.489949,0.000000,0.000000,-0.347401,0.319137,-0.271917,-0.310331,-0.766848,0.835412,-0.125733,-0.058277,-0.261880,0.360848
-0.050000,-0.050000,0.000000,0.000000,0.000000,0.000000,0.000000,0.000000,0.000000,0.100000,0.100000,0.032621,0.011046,-0.050000,-0.050000,0.523515,-0.491087,0.000000,0.000000,-0.350660,0.323207,-0.278103,-0.318477,-0.772103,0.832478,-0.125946,-0.056892,-0.262781,0.363992
-0.050000,-0.050000,0.000000,0.000000,0.000000,0.000000,0.000000,0.000000,0.000000,0.100000,0.100000,0.032455,0.009956,-0.050000,-0.050000,0.525100,-0.492010,0.000000,0.000000,-0.354250,0.327268,-0.283704,-0.325793,-0.777226,0.829260,-0.126110,-0.055539,-0.263703,0.366902
-0.050000,-0.050000,0.000000,0.000000,0.000000,0.000000,0.000000,0.000000,0.000000,0.100000,0.100000,0.032120,0.008971,-0.050000,-0.050000,0.526729,-0.492640,0.000000,0.000000,-0.358284,0.331277,-0.288574,-0.331849,-0.782001,0.825630,-0.126026,-0.054079,-0.264771,0.369355
-0.050000,-0.050000,0.000000,0.000000,0.000000,0.000000,0.000000,0.000000,0.000000,0.100000,0.100000,0.031657,0.008069,-0.050000,-0.050000,0.528301,-0.493014,0.000000,0.000000,-0.362641,0.335204,-0.293012,-0.337087,-0.786376,0.821785,-0.125796,-0.052555,-0.266144,0.371614
-0.050000,-0.050000,0.000000,0.000000,0.000000,0.000000,0.000000,0.000000,0.000000,0.100000,0.100000,0.031110,0.007246,-0.050000,-0.050000,0.529820,-0.493208,0.000000,0.000000,-0.367236,0.339048,-0.297136,-0.341727,-0.790426,0.817795,-0.125455,-0.050979,-0.267773,0.373752
-0.050000,-0.050000,0.000000,0.000000,0.000000,0.000000,0.000000,0.000000,0.000000,0.100000,0.100000,0.030539,0.006689,-0.050000,-0.050000,0.531193,-0.493195,0.000000,0.000000,-0.372068,0.342618,-0.300944,-0.345601,-0.793786,0.813797,-0.124947,-0.049266,-0.269935,0.375834
-0.050000,-0.050000,0.000000,0.000000,0.000000,0.000000,0.000000,0.000000,0.000000,0.100000,0.100000,0.029926,0.006231,-0.050000,-0.050000,0.532452,-0.493131,0.000000,0.000000,-0.376995,0.345990,-0.304573,-0.349172,-0.796792,0.809858,-0.124413,-0.047527,-0.272341,0.377995
-0.050000,-0.050000,0.000000,0.000000,0.000000,0.000000,0.000000,0.000000,0.000000,0.100000,0.100000,0.029299,0.006018,-0.050000,-0.050000,0.533535,-0.493051,0.000000,0.000000,-0.381953,0.348964,-0.307982,-0.352297,-0.799182,0.806130,-0.123836,-0.045709,-0.275107,0.380280
-0.050000,-0.050000,0.000000,0.000000,0.000000,0.000000,0.000000,0.000000,0.000000,0.100000,0.100000,0.028626,0.005974,-0.050000,-0.050000,0.534439,-0.493070,0.000000,0.000000,-0.386832,0.351501,-0.311154,-0.355130,-0.801081,0.802689,-0.123295,-0.043883,-0.278009,0.382732
-0.050000,-0.050000,0.000000,0.000000,0.000000,0.000000,0.000000,0.000000,0.000000,0.100000,0.100000,0.027901,0.006063,-0.050000,-0.050000,0.535187,-0.493195,0.000000,0.000000,-0.391663,0.353685,-0.314135,-0.357738,-0.802598,0.799498,-0.122791,-0.042057,-0.280999,0.385334
-0.050000,-0.050000,0.000000,0.000000,0.000000,0.000000,0.000000,0.000000,0.000000,0.100000,0.100000,0.027058,0.006333,-0.050000,-0.050000,0.535701,-0.493603,0.000000,0.000000,-0.396129,0.355131,-0.316656,-0.359951,-0.803510,0.796821,-0.122414,-0.040308,-0.283793,0.388062
-0.050000,-0.050000,0.000000,0.000000,0.000000,0.000000,0.000000,0.000000,0.000000,0.100000,0.100000,0.026091,0.006640,-0.050000,-0.050000,0.536052,-0.494198,0.000000,0.000000,-0.400485,0.356228,-0.318904,-0.361959,-0.804140,0.794437,-0.122116,-0.038638,-0.286426,0.390872
-0.050000,-0.050000,0.000000,0.000000,0.000000,0.000000,0.000000,0.000000,0.000000,0.100000,0.100000,0.024933,0.007007,-0.050000,-0.050000,0.536201,-0.495103,0.000000,0.000000,-0.404412,0.356668,-0.320608,-0.363584,-0.804334,0.792527,-0.121962,-0.037131,-0.288591,0.393639
-0.050000,-0.050000,0.000000,0.000000,0.000000,0.000000,0.000000,0.000000,0.000000,0.100000,0.100000,0.023556,0.007333,-0.050000,-0.050000,0.536176,-0.496254,0.000000,0.000000,-0.408012,0.356656,-0.321806,-0.364883,-0.804231,0.791009,-0.121921,-0.035816,-0.290257,0.396274
-0.050000,-0.050000,0.000000,0.000000,0.000000,0.000000,0.000000,0.000000,0.000000,0.100000,0.100000,0.021977,0.007595,-0.050000,-0.050000,0.536005,-0.497607,0.000000,0.000000,-0.411350,0.356300,-0.322588,-0.365907,-0.803900,0.789806,-0.121972,-0.034668,-0.291505,0.398781
-0.050000,-0.050000,0.000000,0.000000,0.000000,0.000000,0.000000,0.000000,0.000000,0.100000,0.100000,0.020112,0.007729,-0.050000,-0.050000,0.535671,-0.499180,0.000000,0.000000,-0.414082,0.355461,-0.322602,-0.366497,-0.803272,0.789087,-0.122130,-0.033830,-0.291915,0.400829
-0.050000,-0.050000,0.000000,0.000000,0.000000,0.000000,0.000000,0.000000,0.000000,0.100000,0.100000,0.018043,0.007705,-0.050000,-0.050000,0.535224,-0.500849,0.000000,0.000000,-0.416619,0.354513,-0.322259,-0.366882,-0.802516,0.788624,-0.122334,-0.033161,-0.291953,0.402654
-0.050000,-0.050000,0.000000,0.000000,0.000000,0.000000,0.000000,0.000000,0.000000,0.100000,0.100000,0.015752,0.007501,-0.050000,-0.050000,0.534663,-0.502576,0.000000,0.000000,-0.418630,0.353368,-0.321284,-0.366968,-0.801588,0.788548,-0.122575,-0.032757,-0.291314,0.403966
-0.050000,-0.050000,0.000000,0.000000,0.000000,0.000000,0.000000,0.000000,0.000000,0.100000,0.100000,0.013307,0.007097,-0.050000,-0.050000,0.534018,-0.504263,0.000000,0.000000,-0.420304,0.352271,-0.319900,-0.366912,-0.800571,0.788758,-0.122808,-0.032527,-0.290273,0.404884
-0.050000,-0.050000,0.000000,0.000000,0.000000,0.000000,0.000000,0.000000,0.000000,0.100000,0.100000,0.010756,0.006525,-0.050000,-0.050000,0.533315,-0.505904,0.000000,0.000000,-0.421674,0.351236,-0.318191,-0.366754,-0.799491,0.789190,-0.123027,-0.032430,-0.288917,0.405464
-0.050000,-0.050000,0.000000,0.000000,0.000000,0.000000,0.000000,0.000000,0.000000,0.100000,0.100000,0.008189,0.005762,-0.050000,-0.050000,0.532561,-0.507302,0.000000,0.000000,-0.422563,0.350476,-0.316086,-0.366618,-0.798367,0.789930,-0.123167,-0.032454,-0.287246,0.405574
-0.050000,-0.050000,0.000000,0.000000,0.000000,0.000000,0.000000,0.000000,0.000000,0.100000,0.100000,0.005644,0.004862,-0.050000,-0.050000,0.531802,-0.508578,0.000000,0.000000,-0.423219,0.349946,-0.313855,-0.366542,-0.797230,0.790784,-0.123255,-0.032501,-0.285506,0.405463
-0.050000,-0.050000,0.000000,0.000000,0.000000,0.000000,0.000000,0.000000,0.000000,0.100000,0.100000,0.003238,0.003840,-0.050000,-0.050000,0.531050,-0.509540,0.000000,0.000000,-0.423488,0.349826,-0.311456,-0.366666,-0.796090,0.791804,-0.123237,-0.032544,-0.283734,0.405076
-0.050000,-0.050000,0.000000,0.000000,0.000000,0.000000,0.000000,0.000000,0.000000,0.100000,0.100000,0.001030,0.002742,-0.050000,-0.050000,0.530358,-0.510251,0.000000,0.000000,-0.423483,0.350099,-0.309054,-0.367036,-0.794945,0.792853,-0.123123,-0.032518,-0.282087,0.404558
-0.050000,-0.050000,0.000000,0.000000,0.000000,0.000000,0.000000,0.000000,0.000000,0.100000,0.100000,-0.000973,0.001601,-0.050000,-0.050000,0.529732,-0.510735,0.000000,0.000000,-0.423229,0.350712,-0.306672,-0.367634,-0.793801,0.793905,-0.122925,-0.032419,-0.280566,0.403937
-0.050000,-0.050000,0.000000,0.000000,0.000000,0.000000,0.000000,0.000000,0.000000,0.100000,0.100000,-0.002592,0.000446,-0.050000,-0.050000,0.529269,-0.510851,0.000000,0.000000,-0.422709,0.351865,-0.304431,-0.368669,-0.792606,0.794828,-0.122598,-0.032177,-0.279390,0.403316
-0.050000,-0.050000,0.000000,0.000000,0.000000,0.000000,0.000000,0.000000,0.000000,0.100000,0.100000,-0.003939,-0.000691,-0.050000,-0.050000,0.528943,-0.510788,0.000000,0.000000,-0.422001,0.353293,-0.302320,-0.369941,-0.791376,0.795611,-0.122199,-0.031835,-0.278418,0.402665
-0.050000,-0.050000,0.000000,0.000000,0.000000,0.000000,0.000000,0.000000,0.000000,0.100000,0.100000,-0.004875,-0.001797,-0.050000,-0.050000,0.528861,-0.510438,0.000000,0.000000,-0.421137,0.355159,-0.300439,-0.371612,-0.790033,0.796101,-0.121695,-0.031361,-0.277831,0.402070
-0.050000,-0.050000,0.000000,0.000000,0.000000,0.000000,0.000000,0.000000,0.000000,0.100000,0.100000,-0.005454,-0.002851,-0.050000,-0.050000,0.529030,-0.509908,0.000000,0.000000,-0.420168,0.357296,-0.298784,-0.373544,-0.788558,0.796242,-0.121117,-0.030795,-0.277535,0.401480
-0.050000,-0.050000,0.000000,0.000000,0.000000,0.000000,0.000000,0.000000,0.000000,0.100000,0.100000,-0.005725,-0.003854,-0.050000,-0.050000,0.529422,-0.509219,0.000000,0.000000,-0.419124,0.359660,-0.297335,-0.375694,-0.786960,0.796068,-0.120476,-0.030157,-0.277483,0.400900
-0.050000,-0.050000,0.000000,0.000000,0.000000,0.000000,0.000000,0.000000,0.000000,0.100000,0.100000,-0.005596,-0.004800,-0.050000,-0.050000,0.530208,-0.508405,0.000000,0.000000,-0.418123,0.362242,-0.296190,-0.378044,-0.785077,0.795240,-0.119765,-0.029476,-0.277760,0.400303
-0.050000,-0.050000,0.000000,0.000000,0.000000,0.000000,0.000000,0.000000,0.000000,0.100000,0.100000,-0.005233,-0.005684,-0.050000,-0.050000,0.531199,-0.507495,0.000000,0.000000,-0.417114,0.364914,-0.295231,-0.380467,-0.783044,0.794029,-0.119019,-0.028777,-0.278161,0.399659
-0.050000,-0.050000,0.000000,0.000000,0.000000,0.000000,0.000000,0.000000,0.000000,0.100000,0.100000,-0.004574,-0.006510,-0.050000,-0.050000,0.532556,-0.506561,0.000000,0.000000,-0.416235,0.367639,-0.294537,-0.382906,-0.780694,0.792080,-0.118236,-0.028098,-0.278741,0.398927
-0.050000,-0.050000,0.000000,0.000000,0.000000,0.000000,0.000000,0.000000,0.000000,0.100000,0.100000,-0.003725,-0.007261,-0.050000,-0.050000,0.534145,-0.505609,0.000000,0.000000,-0.415455,0.370320,-0.294041,-0.385264,-0.778100,0.789520,-0.117445,-0.027460,-0.279353,0.398090
-0.050000,-0.050000,0.000000,0.000000,0.000000,0.000000,0.000000,0.000000,0.000000,0.100000,0.100000,-0.002729,-0.007951,-0.050000,-0.050000,0.535932,-0.504653,0.000000,0.000000,-0.414788,0.372946,-0.293712,-0.387531,-0.775288,0.786418,-0.116650,-0.026869,-0.279974,0.397165
-0.050000,-0.050000,0.000000,0.000000,0.000000,0.000000,0.000000,0.000000,0.000000,0.100000,0.100000,-0.001601,-0.008511,-0.050000,-0.050000,0.537934,-0.503790,0.000000,0.000000,-0.414293,0.375315,-0.293581,-0.389516,-0.772147,0.782450,-0.115898,-0.026378,-0.280495,0.396064
-0.050000,-0.050000,0.000000,0.000000,0.000000,0.000000,0.000000,0.000000,0.000000,0.100000,0.100000,-0.000421,-0.008979,-0.050000,-0.050000,0.539999,-0.502917,0.000000,0.000000,-0.413896,0.377537,-0.293563,-0.391351,-0.768848,0.778068,-0.115174,-0.025955,-0.280914,0.394894
-0.050000,-0.050000,0.000000,0.000000,0.000000,0.000000,0.000000,0.000000,0.000000,0.100000,0.100000,0.000806,-0.009256,-0.050000,-0.050000,0.542120,-0.502143,0.000000,0.000000,-0.413614,0.379366,-0.293677,-0.392841,-0.765302,0.772986,-0.114539,-0.025652,-0.281121,0.393559
-0.050000,-0.050000,0.000000,0.000000,0.000000,0.000000,0.000000,0.000000,0.000000,0.100000,0.100000,0.002033,-0.009338,-0.050000,-0.050000,0.544178,-0.501386,0.000000,0.000000,-0.413396,0.380852,-0.293872,-0.394080,-0.761626,0.767541,-0.113991,-0.025461,-0.281119,0.392122
-0.050000,-0.050000,0.000000,0.000000,0.000000,0.000000,0.000000,0.000000,0.000000,0.100000,0.100000,0.003249,-0.009235,-0.050000,-0.050000,0.546167,-0.500665,0.000000,0.000000,-0.413236,0.382005,-0.294125,-0.395094,-0.757843,0.761799,-0.113526,-0.025369,-0.280926,0.390597
-0.050000,-0.050000,0.000000,0.000000,0.000000,0.000000,0.000000,0.000000,0.000000,0.100000,0.100000,0.004441,-0.008769,-0.050000,-0.050000,0.547895,-0.499948,0.000000,0.000000,-0.413019,0.382543,-0.294409,-0.395760,-0.754022,0.755921,-0.113231,-0.025451,-0.280423,0.388881
-0.050000,-0.050000,0.000000,0.000000,0.000000,0.000000,0.000000,0.000000,0.000000,0.100000,0.100000,0.005603,-0.008103,-0.050000,-0.050000,0.549473,-0.499237,0.000000,0.000000,-0.412841,0.382776,-0.294701,-0.396292,-0.750199,0.750070,-0.113015,-0.025629,-0.279765,0.387103
-0.050000,-0.050000,0.000000,0.000000,0.000000,0.000000,0.000000,0.000000,0.000000,0.100000,0.100000,0.006743,-0.007036,-0.050000,-0.050000,0.550671,-0.498473,0.000000,0.000000,-0.412540,0.382385,-0.294960,-0.396552,-0.746483,0.744500,-0.112976,-0.025988,-0.278840,0.385114
-0.050000,-0.050000,0.000000,0.000000,0.000000,0.000000,0.000000,0.000000,0.000000,0.100000,0.100000,0.007863,-0.005685,-0.050000,-0.050000,0.551564,-0.497678,0.000000,0.000000,-0.412206,0.381589,-0.295172,-0.396688,-0.742915,0.739356,-0.113048,-0.026477,-0.277771,0.382997
-0.050000,-0.050000,0.000000,0.000000,0.000000,0.000000,0.000000,0.000000,0.000000,0.100000,0.100000,0.008969,-0.004069,-0.050000,-0.050000,0.552163,-0.496859,0.000000,0.000000,-0.411821,0.380410,-0.295326,-0.396712,-0.739503,0.734651,-0.113227,-0.027080,-0.276580,0.380749
-0.050000,-0.050000,0.000000,0.000000,0.000000,0.000000,0.000000,0.000000,0.000000,0.100000,0.100000,0.010096,-0.002108,-0.050000,-0.050000,0.552248,-0.495941,0.000000,0.000000,-0.411326,0.378756,-0.295377,-0.396607,-0.736473,0.730895,-0.113540,-0.027844,-0.275288,0.378307
-0.050000,-0.050000,0.000000,0.000000,0.000000,0.000000,0.000000,0.000000,0.000000,0.100000,0.100000,0.011217,0.000004,-0.050000,-0.050000,0.552104,-0.495064,0.000000,0.000000,-0.410845,0.376895,-0.295365,-0.396480,-0.733645,0.727670,-0.113909,-0.028671,-0.273991,0.375811
-0.050000,-0.050000,0.000000,0.000000,0.000000,0.000000,0.000000,0.000000,0.000000,0.100000,0.100000,0.012384,0.002336,-0.050000,-0.050000,0.551461,-0.494122,0.000000,0.000000,-0.410312,0.374745,-0.295261,-0.396295,-0.731301,0.725536,-0.114360,-0.029600,-0.272721,0.373218
-0.050000,-0.050000,0.000000,0.000000,0.000000,0.000000,0.000000,0.000000,0.000000,0.100000,0.100000,0.013574,0.004735,-0.050000,-0.050000,0.550530,-0.493250,0.000000,0.000000,-0.409822,0.372512,-0.295114,-0.396122,-0.729323,0.724188,-0.114832,-0.030553,-0.271564,0.370668
-0.050000,-0.050000,0.000000,0.000000,0.000000,0.000000,0.000000,0.000000,0.000000,0.100000,0.100000,0.014796,0.007180,-0.050000,-0.050000,0.549317,-0.492426,0.000000,0.000000,-0.409352,0.370219,-0.294933,-0.395954,-0.727704,0.723586,-0.115320,-0.031526,-0.270521,0.368169
-0.050000,-0.050000,0.000000,0.000000,0.000000,0.000000,0.000000,0.000000,0.000000,0.100000,0.100000,0.016068,0.009559,-0.050000,-0.050000,0.547762,-0.491702,0.000000,0.000000,-0.409001,0.368054,-0.294819,-0.395862,-0.726659,0.724027,-0.115773,-0.032447,-0.269752,0.365925
-0.050000,-0.050000,0.000000,0.000000,0.000000,0.000000,0.000000,0.000000,0.000000,0.100000,0.100000,0.017362,0.011872,-0.050000,-0.050000,0.546075,-0.491108,0.000000,0.000000,-0.408687,0.365964,-0.294749,-0.395800,-0.725905,0.724994,-0.116199,-0.033334,-0.269154,0.363855
-0.050000,-0.050000,0.000000,0.000000,0.000000,0.000000,0.000000,0.000000,0.000000,0.100000,0.100000,0.018687,0.013990,-0.050000,-0.050000,0.544186,-0.490677,0.000000,0.000000,-0.408556,0.364200,-0.294905,-0.395880,-0.725706,0.726844,-0.116541,-0.034099,-0.268914,0.362230
-0.050000,-0.050000,0.000000,0.000000,0.000000,0.000000,0.000000,0.000000,0.000000,0.100000,0.100000,0.020022,0.015922,-0.050000,-0.050000,0.542264,-0.490428,0.000000,0.000000,-0.408527,0.362702,-0.295299,-0.396064,-0.725867,0.729226,-0.116808,-0.034763,-0.268946,0.360986
-0.050000,-0.050000,0.000000,0.000000,0.000000,0.000000,0.000000,0.000000,0.000000,0.100000,0.100000,0.021371,0.017662,-0.050000,-0.050000,0.540324,-0.490332,0.000000,0.000000,-0.408606,0.361489,-0.295958,-0.396359,-0.726375,0.732095,-0.116994,-0.035322,-0.269238,0.360123
-0.050000,-0.050000,0.000000,0.000000,0.000000,0.000000,0.000000,0.000000,0.000000,0.100000,0.100000,0.022666,0.019074,-0.050000,-0.050000,0.538523,-0.490460,0.000000,0.000000,-0.408935,0.360803,-0.297185,-0.396899,-0.727352,0.735533,-0.117069,-0.035703,-0.269916,0.359887
-0.050000,-0.050000,0.000000,0.000000,0.000000,0.000000,0.000000,0.000000,0.000000,0.100000,0.100000,0.023975,0.020312,-0.050000,-0.050000,0.536835,-0.490702,0.000000,0.000000,-0.409308,0.360341,-0.298732,-0.397518,-0.728579,0.739249,-0.117067,-0.036006,-0.270761,0.359955
-0.050000,-0.050000,0.000000,0.000000,0.000000,0.000000,0.000000,0.000000,0.000000,0.100000,0.100000,0.025172,0.021192,-0.050000,-0.050000,0.535470,-0.491137,0.000000,0.000000,-0.409970,0.360443,-0.301016,-0.398415,-0.730239,0.743378,-0.116971,-0.036142,-0.271941,0.360624
-0.050000,-0.050000,0.000000,0.000000,0.000000,0.000000,0.000000,0.000000,0.000000,0.100000,0.100000,0.026320,0.021830,-0.050000,-0.050000,0.534414,-0.491666,0.000000,0.000000,-0.410753,0.360849,-0.303840,-0.399437,-0.732195,0.747716,-0.116803,-0.036192,-0.273275,0.361620
-0.050000,-0.050000,0.000000,0.000000,0.000000,0.000000,0.000000,0.000000,0.000000,0.100000,0.100000,0.027397,0.022224,-0.050000,-0.050000,0.533686,-0.492273,0.000000,0.000000,-0.411694,0.361584,-0.307222,-0.400599,-0.734436,0.752233,-0.116571,-0.036156,-0.274757,0.362932
-0.050000,-0.050000,0.000000,0.000000,0.000000,0.000000,0.000000,0.000000,0.000000,0.100000,0.100000,0.028291,0.022259,-0.050000,-0.050000,0.533525,-0.492968,0.000000,0.000000,-0.412917,0.362741,-0.311399,-0.401934,-0.737051,0.756861,-0.116295,-0.036027,-0.276407,0.364565
-0.050000,-0.050000,0.000000,0.000000,0.000000,0.000000,0.000000,0.000000,0.000000,0.100000,0.100000,0.029141,0.022109,-0.050000,-0.050000,0.533693,-0.493656,0.000000,0.000000,-0.414216,0.364061,-0.315982,-0.403291,-0.739877,0.761517,-0.115967,-0.035860,-0.278084,0.366311
-0.050000,-0.050000,0.000000,0.000000,0.000000,0.000000,0.000000,0.000000,0.000000,0.100000,0.100000,0.029760,0.021593,-0.050000,-0.050000,0.534507,-0.494387,0.000000,0.000000,-0.415804,0.365705,-0.321270,-0.404714,-0.743020,0.766089,-0.115617,-0.035628,-0.279860,0.368192
-0.050000,-0.050000,0.000000,0.000000,0.000000,0.000000,0.000000,0.000000,0.000000,0.100000,0.100000,0.030262,0.020847,-0.050000,-0.050000,0.535761,-0.495082,0.000000,0.000000,-0.417502,0.367451,-0.326916,-0.406066,-0.746346,0.770501,-0.115228,-0.035371,-0.281627,0.370045
-0.050000,-0.050000,0.000000,0.000000,0.000000,0.000000,0.000000,0.000000,0.000000,0.100000,0.100000,0.030611,0.019862,-0.050000,-0.050000,0.537457,-0.495750,0.000000,0.000000,-0.419339,0.369309,-0.332897,-0.407348,-0.749831,0.774717,-0.114816,-0.035088,-0.283400,0.371857
-0.050000,-0.050000,0.000000,0.000000,0.000000,0.000000,0.000000,0.000000,0.000000,0.100000,0.100000,0.030736,0.018585,-0.050000,-0.050000,0.539719,-0.496416,0.000000,0.000000,-0.421305,0.371174,-0.339099,-0.408423,-0.753413,0.778468,-0.114370,-0.034773,-0.285156,0.373471
-0.050000,-0.050000,0.000000,0.000000,0.000000,0.000000,0.000000,0.000000,0.000000,0.100000,0.100000,0.030739,0.017152,-0.050000,-0.050000,0.542260,-0.497011,0.000000,0.000000,-0.423313,0.373021,-0.345364,-0.409353,-0.757046,0.781941,-0.113901,-0.034451,-0.286877,0.374961
-0.050000,-0.050000,0.000000,0.000000,0.000000,0.000000,0.000000,0.000000,0.000000,0.100000,0.100000,0.030518,0.015493,-0.050000,-0.050000,0.545272,-0.497626,0.000000,0.000000,-0.425332,0.374705,-0.351542,-0.409973,-0.760640,0.784733,-0.113388,-0.034098,-0.288553,0.376140
-0.050000,-0.050000,0.000000,0.000000,0.000000,0.000000,0.000000,0.000000,0.000000,0.100000,0.100000,0.030146,0.013722,-0.050000,-0.050000,0.548498,-0.498195,0.000000,0.000000,-0.427291,0.376230,-0.357517,-0.410370,-0.764190,0.787017,-0.112848,-0.033735,-0.290179,0.377104
-0.050000,-0.050000,0.000000,0.000000,0.000000,0.000000,0.000000,0.000000,0.000000,0.100000,0.100000,0.029617,0.011857,-0.050000,-0.050000,0.551928,-0.498757,0.000000,0.000000,-0.429174,0.377568,-0.363239,-0.410541,-0.767670,0.788753,-0.112279,-0.033357,-0.291764,0.377844
-0.050000,-0.050000,0.000000,0.000000,0.000000,0.000000,0.000000,0.000000,0.000000,0.100000,0.100000,0.028941,0.009976,-0.050000,-0.050000,0.555502,-0.499357,0.000000,0.000000,-0.430792,0.378553,-0.368435,-0.410431,-0.771043,0.789673,-0.111664,-0.032964,-0.293265,0.378286
-0.050000,-0.050000,0.000000,0.000000,0.000000,0.000000,0.000000,0.000000,0.000000,0.100000,0.100000,0.028140,0.008092,-0.050000,-0.050000,0.559103,-0.499931,0.000000,0.000000,-0.432300,0.379391,-0.373320,-0.410208,-0.774383,0.790163,-0.111046,-0.032566,-0.294748,0.378596
-0.050000,-0.050000,0.000000,0.000000,0.000000,0.000000,0.000000,0.000000,0.000000,0.100000,0.100000,0.027244,0.006320,-0.050000,-0.050000,0.562693,-0.500575,0.000000,0.000000,-0.433380,0.379839,-0.377518,-0.409786,-0.777671,0.789809,-0.110390,-0.032169,-0.296122,0.378655
-0.050000,-0.050000,0.000000,0.000000,0.000000,0.000000,0.000000,0.000000,0.000000,0.100000,0.100000,0.026261,0.004659,-0.050000,-0.050000,0.566181,-0.501218,0.000000,0.000000,-0.434205,0.380136,-0.381257,-0.409320,-0.780982,0.788968,-0.109743,-0.031781,-0.297451,0.378598
-0.050000,-0.050000,0.000000,0.000000,0.000000,0.000000,0.000000,0.000000,0.000000,0.100000,0.100000,0.025223,0.003140,-0.050000,-0.050000,0.569557,-0.501894,0.000000,0.000000,-0.434713,0.380255,-0.384501,-0.408811,-0.784320,0.787623,-0.109099,-0.031404,-0.298711,0.378416
-0.050000,-0.050000,0.000000,0.000000,0.000000,0.000000,0.000000,0.000000,0.000000,0.100000,0.100000,0.024164,0.001879,-0.050000,-0.050000,0.572687,-0.502579,0.000000,0.000000,-0.434737,0.380263,-0.387090,-0.408277,-0.787724,0.785724,-0.108475,-0.031067,-0.299816,0.378073
-0.050000,-0.050000,0.000000,0.000000,0.000000,0.000000,0.000000,0.000000,0.000000,0.100000,0.100000,0.023074,0.000753,-0.050000,-0.050000,0.575661,-0.503265,0.000000,0.000000,-0.434550,0.380285,-0.389328,-0.407763,-0.791153,0.783550,-0.107880,-0.030748,-0.300873,0.377637
-0.050000,-0.050000,0.000000,0.000000,0.000000,0.000000,0.000000,0.000000,0.000000,0.100000,0.100000,0.022003,-0.000055,-0.050000,-0.050000,0.578273,-0.503899,0.000000,0.000000,-0.433849,0.380398,-0.390886,-0.407189,-0.794577,0.780978,-0.107328,-0.030485,-0.301682,0.376976
-0.050000,-0.050000,0.000000,0.000000,0.000000,0.000000,0.000000,0.000000,0.000000,0.100000,0.100000,0.020930,-0.000684,-0.050000,-0.050000,0.580603,-0.504465,0.000000,0.000000,-0.432903,0.380719,-0.392018,-0.406554,-0.797894,0.778241,-0.106822,-0.030252,-0.302345,0.376125
-0.050000,-0.050000,0.000000,0.000000,0.000000,0.000000,0.000000,0.000000,0.000000,0.100000,0.100000,0.019873,-0.001122,-0.050000,-0.050000,0.582615,-0.504945,0.000000,0.000000,-0.431670,0.381269,-0.392685,-0.405810,-0.801063,0.775359,-0.106363,-0.030057,-0.302811,0.375051
-0.050000,-0.050000,0.000000,0.000000,0.000000,0.000000,0.000000,0.000000,0.000000,0.100000,0.100000,0.018831,-0.001307,-0.050000,-0.050000,0.584105,-0.505198,0.000000,0.000000,-0.430113,0.382248,-0.392693,-0.404747,-0.803804,0.772446,-0.105955,-0.029882,-0.302943,0.373604
-0.050000,-0.050000,0.000000,0.000000,0.000000,0.000000,0.000000,0.000000,0.000000,0.100000,0.100000,0.017793,-0.001426,-0.050000,-0.050000,0.585286,-0.505352,0.000000,0.000000,-0.428419,0.383502,-0.392327,-0.403503,-0.806250,0.769520,-0.105590,-0.029733,-0.302919,0.371949
-0.050000,-0.050000,0.000000,0.000000,0.000000,0.000000,0.000000,0.000000,0.000000,0.100000,0.100000,0.016758,-0.001316,-0.050000,-0.050000,0.585752,-0.505137,0.000000,0.000000,-0.426445,0.385282,-0.391160,-0.401693,-0.807944,0.766737,-0.105266,-0.029562,-0.302481,0.369850
-0.050000,-0.050000,0.000000,0.000000,0.000000,0.000000,0.000000,0.000000,0.000000,0.100000,0.100000,0.015709,-0.001181,-0.050000,-0.050000,0.585702,-0.504710,0.000000,0.000000,-0.424362,0.387393,-0.389451,-0.399487,-0.809060,0.764082,-0.104983,-0.029389,-0.301825,0.367520
-0.050000,-0.050000,0.000000,0.000000,0.000000,0.000000,0.000000,0.000000,0.000000,0.100000,0.100000,0.014637,-0.000982,-0.050000,-0.050000,0.585058,-0.504011,0.000000,0.000000,-0.422145,0.389843,-0.387128,-0.396800,-0.809530,0.761608,-0.104737,-0.029196,-0.300910,0.364948
-0.050000,-0.050000,0.000000,0.000000,0.000000,0.000000,0.000000,0.000000,0.000000,0.100000,0.100000,0.013537,-0.000717,-0.050000,-0.050000,0.583538,-0.502909,0.000000,0.000000,-0.419780,0.392596,-0.383968,-0.393469,-0.809156,0.759480,-0.104533,-0.028945,-0.299668,0.362189
-0.050000,-0.050000,0.000000,0.000000,0.000000,0.000000,0.000000,0.000000,0.000000,0.100000,0.100000,0.012384,-0.000503,-0.050000,-0.050000,0.581526,-0.501655,0.000000,0.000000,-0.417370,0.395510,-0.380328,-0.389782,-0.808309,0.757536,-0.104381,-0.028697,-0.298286,0.359386
-0.050000,-0.050000,0.000000,0.000000,0.000000,0.000000,0.000000,0.000000,0.000000,0.100000,0.100000,0.011189,-0.000240,-0.050000,-0.050000,0.578477,-0.499975,0.000000,0.000000,-0.414808,0.398519,-0.375774,-0.385470,-0.806710,0.756093,-0.104300,-0.028388,-0.296563,0.356601
-0.050000,-0.050000,0.000000,0.000000,0.000000,0.000000,0.000000,0.000000,0.000000,0.100000,0.100000,0.009914,-0.000044,-0.050000,-0.050000,0.574826,-0.498172,0.000000,0.000000,-0.412208,0.401499,-0.370680,-0.380850,-0.804748,0.754960,-0.104313,-0.028093,-0.294671,0.353952
-0.050000,-0.050000,0.000000,0.000000,0.000000,0.000000,0.000000,0.000000,0.000000,0.100000,0.100000,0.008564,0.000131,-0.050000,-0.050000,0.570496,-0.496198,0.000000,0.000000,-0.409540,0.404385,-0.365001,-0.375915,-0.802457,0.754208,-0.104423,-0.027800,-0.292559,0.351467
-0.050000,-0.050000,0.000000,0.000000,0.000000,0.000000,0.000000,0.000000,0.000000,0.100000,0.100000,0.007124,0.000261,-0.050000,-0.050000,0.565429,-0.494118,0.000000,0.000000,-0.406793,0.406970,-0.358697,-0.370759,-0.799980,0.753929,-0.104688,-0.027555,-0.290089,0.349246
-0.050000,-0.050000,0.000000,0.000000,0.000000,0.000000,0.000000,0.000000,0.000000,0.100000,0.100000,0.005569,0.000353,-0.050000,-0.050000,0.559993,-0.492071,0.000000,0.000000,-0.404056,0.409377,-0.352050,-0.365485,-0.797411,0.753896,-0.105058,-0.027348,-0.287432,0.347193
-0.050000,-0.050000,0.000000,0.000000,0.000000,0.000000,0.000000,0.000000,0.000000,0.100000,0.100000,0.003895,0.000373,-0.050000,-0.050000,0.554018,-0.490092,0.000000,0.000000,-0.401259,0.411248,-0.344880,-0.360145,-0.794852,0.754255,-0.105623,-0.027259,-0.284206,0.345351
-0.050000,-0.050000,0.000000,0.000000,0.000000,0.000000,0.000000,0.000000,0.000000,0.100000,0.100000,0.002060,0.000332,-0.050000,-0.050000,0.547891,-0.488310,0.000000,0.000000,-0.398521,0.412774,-0.337451,-0.354773,-0.792280,0.754716,-0.106304,-0.027258,-0.280581,0.343554
-0.050000,-0.050000,0.000000,0.000000,0.000000,0.000000,0.000000,0.000000,0.000000,0.100000,0.100000,0.000075,0.000218,-0.050000,-0.050000,0.541643,-0.486732,0.000000,0.000000,-0.395824,0.413862,-0.329763,-0.349392,-0.789715,0.755241,-0.107106,-0.027370,-0.276436,0.341741
-0.050000,-0.050000,0.000000,0.000000,0.000000,0.000000,0.000000,0.000000,0.000000,0.100000,0.100000,-0.002105,-0.000049,-0.050000,-0.050000,0.535596,-0.485558,0.000000,0.000000,-0.393228,0.414345,-0.321812,-0.343916,-0.786996,0.755481,-0.107997,-0.027655,-0.271487,0.339606
-0.050000,-0.050000,0.000000,0.000000,0.000000,0.000000,0.000000,0.000000,0.000000,0.100000,0.100000,-0.004454,-0.000392,-0.050000,-0.050000,0.529658,-0.484592,0.000000,0.000000,-0.390764,0.414525,-0.313742,-0.338379,-0.784158,0.755518,-0.108923,-0.028030,-0.266062,0.337253
-0.050000,-0.050000,0.000000,0.000000,0.000000,0.000000,0.000000,0.000000,0.000000,0.100000,0.100000,-0.007013,-0.001012,-0.050000,-0.050000,0.524411,-0.484221,0.000000,0.000000,-0.388494,0.413980,-0.305370,-0.332487,-0.780774,0.754648,-0.109819,-0.028633,-0.259565,0.334050
-0.050000,-0.050000,0.000000,0.000000,0.000000,0.000000,0.000000,0.000000,0.000000,0.100000,0.100000,-0.009763,-0.001826,-0.050000,-0.050000,0.519630,-0.484144,0.000000,0.000000,-0.386468,0.413098,-0.296827,-0.326263,-0.776893,0.753049,-0.110637,-0.029371,-0.252401,0.330177
-0.050000,-0.050000,0.000000,0.000000,0.000000,0.000000,0.000000,0.000000,0.000000,0.100000,0.100000,-0.012683,-0.002909,-0.050000,-0.050000,0.515524,-0.484462,0.000000,0.000000,-0.384688,0.411777,-0.288033,-0.319565,-0.772339,0.750471,-0.111328,-0.030277,-0.244454,0.325424
-0.050000,-0.050000,0.000000,0.000000,0.000000,0.000000,0.000000,0.000000,0.000000,0.100000,0.100000,-0.015755,-0.004419,-0.050000,-0.050000,0.512504,-0.485315,0.000000,0.000000,-0.383294,0.409983,-0.278783,-0.311968,-0.766613,0.746359,-0.111756,-0.031400,-0.235611,0.319293
-0.050000,-0.050000,0.000000,0.000000,0.000000,0.000000,0.000000,0.000000,0.000000,0.100000,0.100000,-0.018978,-0.006209,-0.050000,-0.050000,0.509979,-0.486313,0.000000,0.000000,-0.382181,0.408020,-0.269303,-0.303845,-0.760219,0.741398,-0.112029,-0.032656,-0.226259,0.312394
-0.050000,-0.050000,0.000000,0.000000,0.000000,0.000000,0.000000,0.000000,0.000000,0.100000,0.100000,-0.022261,-0.008624,-0.050000,-0.050000,0.508978,-0.487973,0.000000,0.000000,-0.381621,0.405654,-0.259031,-0.294278,-0.752073,0.734450,-0.111869,-0.034150,-0.216105,0.303674
-0.050000,-0.050000,0.000000,0.000000,0.000000,0.000000,0.000000,0.000000,0.000000,0.100000,0.100000,-0.025656,-0.011494,-0.050000,-0.050000,0.508669,-0.489762,0.000000,0.000000,-0.381502,0.403283,-0.248270,-0.283791,-0.742875,0.726473,-0.111469,-0.035804,-0.205613,0.293977
-0.050000,-0.050000,0.000000,0.000000,0.000000,0.000000,0.000000,0.000000,0.000000,0.100000,0.100000,-0.029088,-0.014902,-0.050000,-0.050000,0.509371,-0.491882,0.000000,0.000000,-0.381881,0.400854,-0.236806,-0.272112,-0.732328,0.717243,-0.110738,-0.037605,-0.194818,0.283090
-0.050000,-0.050000,0.000000,0.000000,0.000000,0.000000,0.000000,0.000000,0.000000,0.100000,0.100000,-0.032495,-0.018989,-0.050000,-0.050000,0.511297,-0.494381,0.000000,0.000000,-0.382989,0.398593,-0.224314,-0.258896,-0.720035,0.706819,-0.109619,-0.039553,-0.184021,0.270996
-0.050000,-0.050000,0.000000,0.000000,0.000000,0.000000,0.000000,0.000000,0.000000,0.100000,0.100000,-0.035972,-0.023537,-0.050000,-0.050000,0.513724,-0.496927,0.000000,0.000000,-0.384520,0.396514,-0.211211,-0.244753,-0.706794,0.695811,-0.108332,-0.041593,-0.173289,0.258318
-0.050000,-0.050000,0.000000,0.000000,0.000000,0.000000,0.000000,0.000000,0.000000,0.100000,0.100000,-0.039318,-0.028848,-0.050000,-0.050000,0.517550,-0.499948,0.000000,0.000000,-0.387050,0.394951,-0.196622,-0.228758,-0.691410,0.684072,-0.106640,-0.043695,-0.163150,0.244810
-0.050000,-0.050000,0.000000,0.000000,0.000000,0.000000,0.000000,0.000000,0.000000,0.100000,0.100000,-0.042712,-0.034662,-0.050000,-0.050000,0.521790,-0.502972,0.000000,0.000000,-0.390151,0.393850,-0.181063,-0.211633,-0.674886,0.672291,-0.104885,-0.045857,-0.153575,0.231194
-0.050000,-0.050000,0.000000,0.000000,0.000000,0.000000,0.000000,0.000000,0.000000,0.100000,0.100000,-0.046061,-0.041001,-0.050000,-0.050000,0.526698,-0.506174,0.000000,0.000000,-0.393990,0.393327,-0.164249,-0.193163,-0.656902,0.660572,-0.103002,-0.048017,-0.144807,0.217560
-0.050000,-0.050000,0.000000,0.000000,0.000000,0.000000,0.000000,0.000000,0.000000,0.100000,0.100000,-0.049352,-0.047823,-0.050000,-0.050000,0.532120,-0.509452,0.000000,0.000000,-0.398703,0.393664,-0.145728,-0.173092,-0.637218,0.649556,-0.101083,-0.050108,-0.137252,0.204437
-0.050000,-0.050000,0.000000,0.000000,0.000000,0.000000,0.000000,0.000000,0.000000,0.100000,0.100000,-0.052691,-0.055006,-0.050000,-0.050000,0.537601,-0.512677,0.000000,0.000000,-0.403872,0.394470,-0.126092,-0.151973,-0.616592,0.639010,-0.099310,-0.052221,-0.130468,0.191725
-0.050000,-0.050000,0.000000,0.000000,0.000000,0.000000,0.000000,0.000000,0.000000,0.100000,0.100000,-0.055942,-0.062488,-0.050000,-0.050000,0.543237,-0.515781,0.000000,0.000000,-0.409984,0.396423,-0.104013,-0.128835,-0.594038,0.630109,-0.097615,-0.054109,-0.125243,0.180203
