RRGGZZ/g1_deploy_sonic/data/example_scalelab/qwen_50fps/case_test13/joint_pos.csv
joint_0,joint_1,joint_2,joint_3,joint_4,joint_5,joint_6,joint_7,joint_8,joint_9,joint_10,joint_11,joint_12,joint_13,joint_14,joint_15,joint_16,joint_17,joint_18,joint_19,joint_20,joint_21,joint_22,joint_23,joint_24,joint_25,joint_26,joint_27,joint_28
-0.050000,-0.050000,0.000000,0.000000,0.000000,0.000000,0.000000,0.000000,0.000000,0.100000,0.100000,-0.243389,-0.619026,-0.050000,-0.050000,0.410501,-0.703578,0.000000,0.000000,-0.556772,0.290125,1.067944,0.002977,0.127944,-0.346108,-0.097180,-0.049234,0.013436,-0.559433
-0.050000,-0.050000,0.000000,0.000000,0.000000,0.000000,0.000000,0.000000,0.000000,0.100000,0.100000,-0.250900,-0.633861,-0.050000,-0.050000,0.396775,-0.709851,0.000000,0.000000,-0.556201,0.292288,1.096021,0.014409,0.131619,-0.341507,-0.108811,-0.055114,0.015921,-0.565649
-0.050000,-0.050000,0.000000,0.000000,0.000000,0.000000,0.000000,0.000000,0.000000,0.100000,0.100000,-0.252410,-0.643264,-0.050000,-0.050000,0.388878,-0.713864,0.000000,0.000000,-0.553815,0.290496,1.114561,0.020116,0.136217,-0.336876,-0.114061,-0.059420,0.015999,-0.568583
-0.050000,-0.050000,0.000000,0.000000,0.000000,0.000000,0.000000,0.000000,0.000000,0.100000,0.100000,-0.250448,-0.649683,-0.050000,-0.050000,0.383746,-0.716845,0.000000,0.000000,-0.550563,0.286671,1.128862,0.023033,0.140773,-0.332142,-0.116032,-0.062595,0.014915,-0.569863
-0.050000,-0.050000,0.000000,0.000000,0.000000,0.000000,0.000000,0.000000,0.000000,0.100000,0.100000,-0.246653,-0.654426,-0.050000,-0.050000,0.379947,-0.719301,0.000000,0.000000,-0.547014,0.281805,1.141143,0.024500,0.145212,-0.327329,-0.116419,-0.065127,0.013286,-0.570310
-0.050000,-0.050000,0.000000,0.000000,0.000000,0.000000,0.000000,0.000000,0.000000,0.100000,0.100000,-0.241267,-0.658089,-0.050000,-0.050000,0.376990,-0.721865,0.000000,0.000000,-0.542453,0.276249,1.152625,0.025420,0.149031,-0.321928,-0.115708,-0.067130,0.011517,-0.570113
-0.050000,-0.050000,0.000000,0.000000,0.000000,0.000000,0.000000,0.000000,0.000000,0.100000,0.100000,-0.235199,-0.661158,-0.050000,-0.050000,0.374488,-0.724460,0.000000,0.000000,-0.537539,0.270488,1.163402,0.025999,0.152498,-0.316226,-0.114518,-0.068850,0.009710,-0.569587
-0.050000,-0.050000,0.000000,0.000000,0.000000,0.000000,0.000000,0.000000,0.000000,0.100000,0.100000,-0.228442,-0.663732,-0.050000,-0.050000,0.372413,-0.727300,0.000000,0.000000,-0.531894,0.264663,1.173658,0.026545,0.155323,-0.310086,-0.112912,-0.070247,0.008005,-0.568793
-0.050000,-0.050000,0.000000,0.000000,0.000000,0.000000,0.000000,0.000000,0.000000,0.100000,0.100000,-0.221225,-0.665830,-0.050000,-0.050000,0.370784,-0.730393,0.000000,0.000000,-0.525602,0.259022,1.183126,0.027159,0.157398,-0.303578,-0.111058,-0.071308,0.006494,-0.567849
-0.050000,-0.050000,0.000000,0.000000,0.000000,0.000000,0.000000,0.000000,0.000000,0.100000,0.100000,-0.213673,-0.667700,-0.050000,-0.050000,0.369452,-0.733620,0.000000,0.000000,-0.518951,0.253528,1.191989,0.027807,0.158989,-0.296833,-0.109000,-0.072164,0.005059,-0.566842
-0.050000,-0.050000,0.000000,0.000000,0.000000,0.000000,0.000000,0.000000,0.000000,0.100000,0.100000,-0.205893,-0.668851,-0.050000,-0.050000,0.368739,-0.737125,0.000000,0.000000,-0.511604,0.248578,1.199477,0.028726,0.159501,-0.289837,-0.106891,-0.072543,0.004018,-0.565845
-0.050000,-0.050000,0.000000,0.000000,0.000000,0.000000,0.000000,0.000000,0.000000,0.100000,0.100000,-0.197928,-0.669760,-0.050000,-0.050000,0.368380,-0.740656,0.000000,0.000000,-0.504134,0.243944,1.206020,0.029735,0.159501,-0.282761,-0.104682,-0.072710,0.003073,-0.564940
-0.050000,-0.050000,0.000000,0.000000,0.000000,0.000000,0.000000,0.000000,0.000000,0.100000,0.100000,-0.189946,-0.670135,-0.050000,-0.050000,0.368499,-0.744234,0.000000,0.000000,-0.496449,0.239842,1.211261,0.030984,0.158777,-0.275667,-0.102508,-0.072548,0.002394,-0.564165
-0.050000,-0.050000,0.000000,0.000000,0.000000,0.000000,0.000000,0.000000,0.000000,0.100000,0.100000,-0.182102,-0.670029,-0.050000,-0.050000,0.369054,-0.747712,0.000000,0.000000,-0.488862,0.236345,1.215120,0.032526,0.157464,-0.268661,-0.100436,-0.072102,0.001954,-0.563580
-0.050000,-0.050000,0.000000,0.000000,0.000000,0.000000,0.000000,0.000000,0.000000,0.100000,0.100000,-0.174239,-0.669665,-0.050000,-0.050000,0.369917,-0.751097,0.000000,0.000000,-0.481352,0.233216,1.218046,0.034272,0.155753,-0.261735,-0.098352,-0.071494,0.001624,-0.563166
-0.050000,-0.050000,0.000000,0.000000,0.000000,0.000000,0.000000,0.000000,0.000000,0.100000,0.100000,-0.167023,-0.668692,-0.050000,-0.050000,0.371196,-0.754127,0.000000,0.000000,-0.474431,0.231053,1.219270,0.036640,0.153581,-0.255042,-0.096590,-0.070571,0.001650,-0.562972
-0.050000,-0.050000,0.000000,0.000000,0.000000,0.000000,0.000000,0.000000,0.000000,0.100000,0.100000,-0.159950,-0.667626,-0.050000,-0.050000,0.372688,-0.756918,0.000000,0.000000,-0.467901,0.229324,1.219701,0.039418,0.151190,-0.248488,-0.094824,-0.069551,0.001760,-0.562967
-0.050000,-0.050000,0.000000,0.000000,0.000000,0.000000,0.000000,0.000000,0.000000,0.100000,0.100000,-0.153486,-0.666323,-0.050000,-0.050000,0.374383,-0.759298,0.000000,0.000000,-0.462088,0.228367,1.219049,0.042888,0.148652,-0.242111,-0.093244,-0.068361,0.002081,-0.563103
-0.050000,-0.050000,0.000000,0.000000,0.000000,0.000000,0.000000,0.000000,0.000000,0.100000,0.100000,-0.147683,-0.665009,-0.050000,-0.050000,0.376186,-0.761215,0.000000,0.000000,-0.457148,0.228160,1.217570,0.047218,0.146106,-0.235860,-0.091767,-0.067015,0.002558,-0.563308
-0.050000,-0.050000,0.000000,0.000000,0.000000,0.000000,0.000000,0.000000,0.000000,0.100000,0.100000,-0.142272,-0.663805,-0.050000,-0.050000,0.378049,-0.762846,0.000000,0.000000,-0.452742,0.228451,1.215606,0.052205,0.143530,-0.229689,-0.090313,-0.065615,0.003129,-0.563593
-0.050000,-0.050000,0.000000,0.000000,0.000000,0.000000,0.000000,0.000000,0.000000,0.100000,0.100000,-0.138051,-0.662795,-0.050000,-0.050000,0.379883,-0.763801,0.000000,0.000000,-0.449730,0.229770,1.212870,0.058570,0.141207,-0.223534,-0.088977,-0.063915,0.003870,-0.563660
-0.050000,-0.050000,0.000000,0.000000,0.000000,0.000000,0.000000,0.000000,0.000000,0.100000,0.100000,-0.134304,-0.662183,-0.050000,-0.050000,0.381675,-0.764525,0.000000,0.000000,-0.447283,0.231542,1.209926,0.065782,0.138937,-0.217365,-0.087575,-0.062134,0.004664,-0.563632
-0.050000,-0.050000,0.000000,0.000000,0.000000,0.000000,0.000000,0.000000,0.000000,0.100000,0.100000,-0.131479,-0.661982,-0.050000,-0.050000,0.383362,-0.764833,0.000000,0.000000,-0.445833,0.234022,1.206613,0.074159,0.136900,-0.211123,-0.086171,-0.060103,0.005534,-0.563240
-0.050000,-0.050000,0.000000,0.000000,0.000000,0.000000,0.000000,0.000000,0.000000,0.100000,0.100000,-0.129476,-0.662309,-0.050000,-0.050000,0.384918,-0.764903,0.000000,0.000000,-0.445189,0.237042,1.203048,0.083582,0.135048,-0.204819,-0.084717,-0.057819,0.006448,-0.562339
-0.050000,-0.050000,0.000000,0.000000,0.000000,0.000000,0.000000,0.000000,0.000000,0.100000,0.100000,-0.128032,-0.663092,-0.050000,-0.050000,0.386364,-0.764848,0.000000,0.000000,-0.445037,0.240421,1.199358,0.093746,0.133296,-0.198460,-0.083209,-0.055391,0.007391,-0.561083
-0.050000,-0.050000,0.000000,0.000000,0.000000,0.000000,0.000000,0.000000,0.000000,0.100000,0.100000,-0.127625,-0.664437,-0.050000,-0.050000,0.387623,-0.764733,0.000000,0.000000,-0.445715,0.244282,1.195240,0.104791,0.131763,-0.192178,-0.081736,-0.052611,0.008397,-0.558841
-0.050000,-0.050000,0.000000,0.000000,0.000000,0.000000,0.000000,0.000000,0.000000,0.100000,0.100000,-0.127664,-0.666199,-0.050000,-0.050000,0.388758,-0.764739,0.000000,0.000000,-0.446616,0.248278,1.190964,0.116152,0.130241,-0.186012,-0.080265,-0.049753,0.009454,-0.556112
-0.050000,-0.050000,0.000000,0.000000,0.000000,0.000000,0.000000,0.000000,0.000000,0.100000,0.100000,-0.128363,-0.668317,-0.050000,-0.050000,0.389742,-0.764963,0.000000,0.000000,-0.447832,0.252440,1.186286,0.127662,0.128771,-0.180162,-0.078929,-0.046781,0.010620,-0.552593
-0.050000,-0.050000,0.000000,0.000000,0.000000,0.000000,0.000000,0.000000,0.000000,0.100000,0.100000,-0.129532,-0.670678,-0.050000,-0.050000,0.390584,-0.765587,0.000000,0.000000,-0.449073,0.256605,1.181171,0.138811,0.127252,-0.174886,-0.077837,-0.043918,0.011978,-0.548466
-0.050000,-0.050000,0.000000,0.000000,0.000000,0.000000,0.000000,0.000000,0.000000,0.100000,0.100000,-0.131000,-0.673127,-0.050000,-0.050000,0.391308,-0.766482,0.000000,0.000000,-0.450323,0.260711,1.175766,0.149629,0.125702,-0.170044,-0.076913,-0.041109,0.013471,-0.543915
-0.050000,-0.050000,0.000000,0.000000,0.000000,0.000000,0.000000,0.000000,0.000000,0.100000,0.100000,-0.132862,-0.675615,-0.050000,-0.050000,0.391873,-0.768131,0.000000,0.000000,-0.451240,0.264709,1.169636,0.159064,0.123999,-0.166487,-0.076606,-0.038911,0.015417,-0.539021
-0.050000,-0.050000,0.000000,0.000000,0.000000,0.000000,0.000000,0.000000,0.000000,0.100000,0.100000,-0.134813,-0.677930,-0.050000,-0.050000,0.392303,-0.770113,0.000000,0.000000,-0.451958,0.268526,1.163220,0.167624,0.122238,-0.163682,-0.076614,-0.037032,0.017604,-0.534081
-0.050000,-0.050000,0.000000,0.000000,0.000000,0.000000,0.000000,0.000000,0.000000,0.100000,0.100000,-0.136885,-0.680063,-0.050000,-0.050000,0.392589,-0.772687,0.000000,0.000000,-0.452254,0.272188,1.156304,0.174648,0.120364,-0.162141,-0.077226,-0.035896,0.020237,-0.529319
-0.050000,-0.050000,0.000000,0.000000,0.000000,0.000000,0.000000,0.000000,0.000000,0.100000,0.100000,-0.138933,-0.681920,-0.050000,-0.050000,0.392711,-0.775683,0.000000,0.000000,-0.452137,0.275698,1.149078,0.180194,0.118443,-0.161791,-0.078396,-0.035531,0.023251,-0.525009
-0.050000,-0.050000,0.000000,0.000000,0.000000,0.000000,0.000000,0.000000,0.000000,0.100000,0.100000,-0.140934,-0.683472,-0.050000,-0.050000,0.392705,-0.778934,0.000000,0.000000,-0.451739,0.279079,1.141673,0.184682,0.116521,-0.162293,-0.079975,-0.035678,0.026534,-0.521045
-0.050000,-0.050000,0.000000,0.000000,0.000000,0.000000,0.000000,0.000000,0.000000,0.100000,0.100000,-0.142789,-0.684820,-0.050000,-0.050000,0.392507,-0.782477,0.000000,0.000000,-0.450844,0.282430,1.134167,0.187550,0.114658,-0.164052,-0.082168,-0.036877,0.030104,-0.517950
-0.050000,-0.050000,0.000000,0.000000,0.000000,0.000000,0.000000,0.000000,0.000000,0.100000,0.100000,-0.144507,-0.685894,-0.050000,-0.050000,0.392183,-0.785981,0.000000,0.000000,-0.449772,0.285756,1.126778,0.189858,0.112923,-0.166277,-0.084611,-0.038405,0.033692,-0.515211
-0.050000,-0.050000,0.000000,0.000000,0.000000,0.000000,0.000000,0.000000,0.000000,0.100000,0.100000,-0.146044,-0.686892,-0.050000,-0.050000,0.391722,-0.789368,0.000000,0.000000,-0.448480,0.289156,1.119652,0.191569,0.111380,-0.168920,-0.087293,-0.040430,0.037140,-0.512944
-0.050000,-0.050000,0.000000,0.000000,0.000000,0.000000,0.000000,0.000000,0.000000,0.100000,0.100000,-0.147394,-0.687887,-0.050000,-0.050000,0.391158,-0.792369,0.000000,0.000000,-0.447141,0.292682,1.113024,0.193437,0.110100,-0.171341,-0.089941,-0.042507,0.040101,-0.510675
-0.050000,-0.050000,0.000000,0.000000,0.000000,0.000000,0.000000,0.000000,0.000000,0.100000,0.100000,-0.148632,-0.688973,-0.050000,-0.050000,0.390551,-0.795081,0.000000,0.000000,-0.445754,0.296351,1.106773,0.195523,0.109011,-0.173517,-0.092557,-0.044611,0.042673,-0.508357
-0.050000,-0.050000,0.000000,0.000000,0.000000,0.000000,0.000000,0.000000,0.000000,0.100000,0.100000,-0.149626,-0.690332,-0.050000,-0.050000,0.389873,-0.796876,0.000000,0.000000,-0.444565,0.300230,1.101553,0.198988,0.108310,-0.174186,-0.094602,-0.046111,0.043932,-0.505026
-0.050000,-0.050000,0.000000,0.000000,0.000000,0.000000,0.000000,0.000000,0.000000,0.100000,0.100000,-0.150564,-0.692025,-0.050000,-0.050000,0.389251,-0.798202,0.000000,0.000000,-0.443424,0.304299,1.096884,0.203393,0.107771,-0.173809,-0.096331,-0.047262,0.044432,-0.500953
-0.050000,-0.050000,0.000000,0.000000,0.000000,0.000000,0.000000,0.000000,0.000000,0.100000,0.100000,-0.151335,-0.694103,-0.050000,-0.050000,0.388649,-0.798613,0.000000,0.000000,-0.442504,0.308531,1.093215,0.209535,0.107482,-0.171421,-0.097333,-0.047591,0.043542,-0.495352
-0.050000,-0.050000,0.000000,0.000000,0.000000,0.000000,0.000000,0.000000,0.000000,0.100000,0.100000,-0.151990,-0.696591,-0.050000,-0.050000,0.388138,-0.798217,0.000000,0.000000,-0.441729,0.312867,1.090474,0.217322,0.107311,-0.166881,-0.097620,-0.047183,0.041372,-0.488119
-0.050000,-0.050000,0.000000,0.000000,0.000000,0.000000,0.000000,0.000000,0.000000,0.100000,0.100000,-0.152603,-0.699483,-0.050000,-0.050000,0.387728,-0.797263,0.000000,0.000000,-0.441032,0.317298,1.088389,0.226330,0.107197,-0.160716,-0.097393,-0.046253,0.038260,-0.479640
-0.050000,-0.050000,0.000000,0.000000,0.000000,0.000000,0.000000,0.000000,0.000000,0.100000,0.100000,-0.152947,-0.702591,-0.050000,-0.050000,0.387408,-0.795236,0.000000,0.000000,-0.440442,0.321617,1.087622,0.237168,0.107043,-0.151493,-0.096186,-0.044549,0.033643,-0.469024
-0.050000,-0.050000,0.000000,0.000000,0.000000,0.000000,0.000000,0.000000,0.000000,0.100000,0.100000,-0.153264,-0.705975,-0.050000,-0.050000,0.387233,-0.792872,0.000000,0.000000,-0.439799,0.325913,1.087421,0.248674,0.106780,-0.140835,-0.094627,-0.042685,0.028425,-0.457479
-0.050000,-0.050000,0.000000,0.000000,0.000000,0.000000,0.000000,0.000000,0.000000,0.100000,0.100000,-0.153328,-0.709349,-0.050000,-0.050000,0.387150,-0.789862,0.000000,0.000000,-0.439059,0.330010,1.088215,0.260936,0.106295,-0.128055,-0.092500,-0.040709,0.022443,-0.444775
-0.050000,-0.050000,0.000000,0.000000,0.000000,0.000000,0.000000,0.000000,0.000000,0.100000,0.100000,-0.153182,-0.712620,-0.050000,-0.050000,0.387183,-0.786558,0.000000,0.000000,-0.438107,0.333940,1.089759,0.273195,0.105501,-0.113933,-0.090133,-0.039104,0.016214,-0.431668
-0.050000,-0.050000,0.000000,0.000000,0.000000,0.000000,0.000000,0.000000,0.000000,0.100000,0.100000,-0.152883,-0.715720,-0.050000,-0.050000,0.387277,-0.783060,0.000000,0.000000,-0.437001,0.337714,1.091861,0.285372,0.104476,-0.098904,-0.087648,-0.037773,0.009862,-0.418337
-0.050000,-0.050000,0.000000,0.000000,0.000000,0.000000,0.000000,0.000000,0.000000,0.100000,0.100000,-0.152158,-0.718356,-0.050000,-0.050000,0.387490,-0.779442,0.000000,0.000000,-0.435460,0.341324,1.094827,0.296513,0.102896,-0.083120,-0.085183,-0.037632,0.003867,-0.405601
-0.050000,-0.050000,0.000000,0.000000,0.000000,0.000000,0.000000,0.000000,0.000000,0.100000,0.100000,-0.151284,-0.720610,-0.050000,-0.050000,0.387720,-0.775869,0.000000,0.000000,-0.433739,0.344876,1.098167,0.307002,0.101067,-0.067255,-0.082896,-0.038057,-0.001823,-0.393305
-0.050000,-0.050000,0.000000,0.000000,0.000000,0.000000,0.000000,0.000000,0.000000,0.100000,0.100000,-0.150069,-0.722349,-0.050000,-0.050000,0.388029,-0.772404,0.000000,0.000000,-0.431651,0.348445,1.102042,0.316160,0.098780,-0.051595,-0.080880,-0.039647,-0.006856,-0.382039
-0.050000,-0.050000,0.000000,0.000000,0.000000,0.000000,0.000000,0.000000,0.000000,0.100000,0.100000,-0.148646,-0.723576,-0.050000,-0.050000,0.388366,-0.769103,0.000000,0.000000,-0.429318,0.352164,1.106222,0.324152,0.096186,-0.036573,-0.079204,-0.042065,-0.011247,-0.371698
-0.050000,-0.050000,0.000000,0.000000,0.000000,0.000000,0.000000,0.000000,0.000000,0.100000,0.100000,-0.147050,-0.724366,-0.050000,-0.050000,0.388698,-0.765906,0.000000,0.000000,-0.426814,0.355987,1.110634,0.331241,0.093373,-0.022102,-0.077803,-0.045044,-0.015137,-0.362065
-0.050000,-0.050000,0.000000,0.000000,0.000000,0.000000,0.000000,0.000000,0.000000,0.100000,0.100000,-0.145325,-0.724629,-0.050000,-0.050000,0.389098,-0.762938,0.000000,0.000000,-0.424100,0.360292,1.115164,0.336973,0.090329,-0.009018,-0.076787,-0.048683,-0.018254,-0.353326
-0.050000,-0.050000,0.000000,0.000000,0.000000,0.000000,0.000000,0.000000,0.000000,0.100000,0.100000,-0.143560,-0.724502,-0.050000,-0.050000,0.389435,-0.759987,0.000000,0.000000,-0.421345,0.364786,1.119724,0.342144,0.087255,0.003309,-0.075960,-0.052330,-0.021054,-0.344862
-0.050000,-0.050000,0.000000,0.000000,0.000000,0.000000,0.000000,0.000000,0.000000,0.100000,0.100000,-0.141865,-0.723939,-0.050000,-0.050000,0.389781,-0.757113,0.000000,0.000000,-0.418572,0.369769,1.124178,0.346569,0.084213,0.014321,-0.075328,-0.055868,-0.023448,-0.336524
-0.050000,-0.050000,0.000000,0.000000,0.000000,0.000000,0.000000,0.000000,0.000000,0.100000,0.100000,-0.140333,-0.722944,-0.050000,-0.050000,0.390056,-0.754171,0.000000,0.000000,-0.415880,0.375117,1.128440,0.350643,0.081348,0.024267,-0.074751,-0.058875,-0.025698,-0.327851
-0.050000,-0.050000,0.000000,0.000000,0.000000,0.000000,0.000000,0.000000,0.000000,0.100000,0.100000,-0.138925,-0.721620,-0.050000,-0.050000,0.390291,-0.751160,0.000000,0.000000,-0.413257,0.380703,1.132534,0.354438,0.078639,0.033390,-0.074178,-0.061379,-0.027865,-0.318849
-0.050000,-0.050000,0.000000,0.000000,0.000000,0.000000,0.000000,0.000000,0.000000,0.100000,0.100000,-0.137976,-0.719616,-0.050000,-0.050000,0.390383,-0.747932,0.000000,0.000000,-0.410889,0.386811,1.136183,0.358154,0.076387,0.041224,-0.073514,-0.062784,-0.030132,-0.308690
-0.050000,-0.050000,0.000000,0.000000,0.000000,0.000000,0.000000,0.000000,0.000000,0.100000,0.100000,-0.137193,-0.717223,-0.050000,-0.050000,0.390401,-0.744541,0.000000,0.000000,-0.408638,0.392974,1.139617,0.361751,0.074379,0.048446,-0.072735,-0.063520,-0.032490,-0.297907
-0.050000,-0.050000,0.000000,0.000000,0.000000,0.000000,0.000000,0.000000,0.000000,0.100000,0.100000,-0.136864,-0.714065,-0.050000,-0.050000,0.390242,-0.740872,0.000000,0.000000,-0.406659,0.399446,1.142620,0.365360,0.072848,0.054726,-0.071810,-0.063240,-0.035064,-0.285887
-0.050000,-0.050000,0.000000,0.000000,0.000000,0.000000,0.000000,0.000000,0.000000,0.100000,0.100000,-0.136840,-0.710192,-0.050000,-0.050000,0.389919,-0.736942,0.000000,0.000000,-0.404889,0.405996,1.145308,0.368897,0.071700,0.060312,-0.070752,-0.062229,-0.037829,-0.272905
-0.050000,-0.050000,0.000000,0.000000,0.000000,0.000000,0.000000,0.000000,0.000000,0.100000,0.100000,-0.137049,-0.705701,-0.050000,-0.050000,0.389482,-0.732805,0.000000,0.000000,-0.403300,0.412571,1.147749,0.372343,0.070858,0.065335,-0.069589,-0.060635,-0.040745,-0.259170
-0.050000,-0.050000,0.000000,0.000000,0.000000,0.000000,0.000000,0.000000,0.000000,0.100000,0.100000,-0.137650,-0.700116,-0.050000,-0.050000,0.388744,-0.728303,0.000000,0.000000,-0.401988,0.419315,1.149828,0.375681,0.070492,0.069511,-0.068376,-0.058480,-0.043863,-0.244363
-0.050000,-0.050000,0.000000,0.000000,0.000000,0.000000,0.000000,0.000000,0.000000,0.100000,0.100000,-0.138325,-0.693955,-0.050000,-0.050000,0.387906,-0.723628,0.000000,0.000000,-0.400813,0.425970,1.151805,0.378831,0.070335,0.073200,-0.067133,-0.056072,-0.047042,-0.229153
-0.050000,-0.050000,0.000000,0.000000,0.000000,0.000000,0.000000,0.000000,0.000000,0.100000,0.100000,-0.139189,-0.686881,-0.050000,-0.050000,0.386799,-0.718645,0.000000,0.000000,-0.399847,0.432737,1.153606,0.381788,0.070499,0.076144,-0.065946,-0.053488,-0.050288,-0.213386
-0.050000,-0.050000,0.000000,0.000000,0.000000,0.000000,0.000000,0.000000,0.000000,0.100000,0.100000,-0.140049,-0.679198,-0.050000,-0.050000,0.385505,-0.713425,0.000000,0.000000,-0.399024,0.439513,1.155405,0.384532,0.070861,0.078430,-0.064841,-0.050899,-0.053501,-0.197452
-0.050000,-0.050000,0.000000,0.000000,0.000000,0.000000,0.000000,0.000000,0.000000,0.100000,0.100000,-0.140898,-0.671023,-0.050000,-0.050000,0.384056,-0.707998,0.000000,0.000000,-0.398319,0.446330,1.157221,0.387107,0.071376,0.080166,-0.063829,-0.048326,-0.056669,-0.181428
-0.050000,-0.050000,0.000000,0.000000,0.000000,0.000000,0.000000,0.000000,0.000000,0.100000,0.100000,-0.141595,-0.662417,-0.050000,-0.050000,0.382328,-0.702244,0.000000,0.000000,-0.397757,0.453251,1.159200,0.389473,0.072071,0.080986,-0.062982,-0.045966,-0.059674,-0.165620
-0.050000,-0.050000,0.000000,0.000000,0.000000,0.000000,0.000000,0.000000,0.000000,0.100000,0.100000,-0.142163,-0.653645,-0.050000,-0.050000,0.380483,-0.696288,0.000000,0.000000,-0.397257,0.460200,1.161336,0.391738,0.072852,0.081293,-0.062247,-0.043714,-0.062543,-0.150059
-0.050000,-0.050000,0.000000,0.000000,0.000000,0.000000,0.000000,0.000000,0.000000,0.100000,0.100000,-0.142465,-0.644865,-0.050000,-0.050000,0.378425,-0.690028,0.000000,0.000000,-0.396847,0.467186,1.163756,0.393865,0.073746,0.080793,-0.061648,-0.041729,-0.065175,-0.135095
-0.050000,-0.050000,0.000000,0.000000,0.000000,0.000000,0.000000,0.000000,0.000000,0.100000,0.100000,-0.142503,-0.636267,-0.050000,-0.050000,0.376238,-0.683503,0.000000,0.000000,-0.396477,0.474107,1.166470,0.395906,0.074718,0.079720,-0.061147,-0.039989,-0.067555,-0.120902
-0.050000,-0.050000,0.000000,0.000000,0.000000,0.000000,0.000000,0.000000,0.000000,0.100000,0.100000,-0.142326,-0.627858,-0.050000,-0.050000,0.373948,-0.676744,0.000000,0.000000,-0.396130,0.481009,1.169430,0.397895,0.075754,0.078185,-0.060729,-0.038465,-0.069718,-0.107394
-0.050000,-0.050000,0.000000,0.000000,0.000000,0.000000,0.000000,0.000000,0.000000,0.100000,0.100000,-0.141706,-0.620064,-0.050000,-0.050000,0.371569,-0.669693,0.000000,0.000000,-0.395802,0.487474,1.172796,0.399708,0.076866,0.076232,-0.060332,-0.037400,-0.071482,-0.095536
-0.050000,-0.050000,0.000000,0.000000,0.000000,0.000000,0.000000,0.000000,0.000000,0.100000,0.100000,-0.140909,-0.612539,-0.050000,-0.050000,0.369177,-0.662456,0.000000,0.000000,-0.395458,0.493792,1.176340,0.401460,0.078019,0.074163,-0.059971,-0.036583,-0.073009,-0.084631
-0.050000,-0.050000,0.000000,0.000000,0.000000,0.000000,0.000000,0.000000,0.000000,0.100000,0.100000,-0.139702,-0.605684,-0.050000,-0.050000,0.366815,-0.655036,0.000000,0.000000,-0.395095,0.499425,1.180166,0.402962,0.079210,0.072208,-0.059565,-0.036274,-0.074132,-0.075692
-0.050000,-0.050000,0.000000,0.000000,0.000000,0.000000,0.000000,0.000000,0.000000,0.100000,0.100000,-0.138232,-0.599262,-0.050000,-0.050000,0.364562,-0.647540,0.000000,0.000000,-0.394695,0.504475,1.184090,0.404215,0.080403,0.070695,-0.059117,-0.036376,-0.074909,-0.068447
-0.050000,-0.050000,0.000000,0.000000,0.000000,0.000000,0.000000,0.000000,0.000000,0.100000,0.100000,-0.136533,-0.593196,-0.050000,-0.050000,0.362422,-0.640012,0.000000,0.000000,-0.394278,0.509003,1.188068,0.405229,0.081591,0.069631,-0.058612,-0.036824,-0.075401,-0.062666
-0.050000,-0.050000,0.000000,0.000000,0.000000,0.000000,0.000000,0.000000,0.000000,0.100000,0.100000,-0.134450,-0.587699,-0.050000,-0.050000,0.360574,-0.632677,0.000000,0.000000,-0.393768,0.512366,1.191957,0.405686,0.082675,0.069892,-0.057991,-0.037846,-0.075403,-0.059326
-0.050000,-0.050000,0.000000,0.000000,0.000000,0.000000,0.000000,0.000000,0.000000,0.100000,0.100000,-0.132225,-0.582306,-0.050000,-0.050000,0.358922,-0.625519,0.000000,0.000000,-0.393267,0.515316,1.195680,0.405816,0.083689,0.070915,-0.057297,-0.039077,-0.075171,-0.057067
-0.050000,-0.050000,0.000000,0.000000,0.000000,0.000000,0.000000,0.000000,0.000000,0.100000,0.100000,-0.129684,-0.577240,-0.050000,-0.050000,0.357642,-0.618841,0.000000,0.000000,-0.392662,0.517237,1.199083,0.405287,0.084495,0.073555,-0.056490,-0.040708,-0.074505,-0.056606
-0.050000,-0.050000,0.000000,0.000000,0.000000,0.000000,0.000000,0.000000,0.000000,0.100000,0.100000,-0.126958,-0.572194,-0.050000,-0.050000,0.356689,-0.612745,0.000000,0.000000,-0.392017,0.518650,1.202076,0.404163,0.085083,0.077470,-0.055596,-0.042491,-0.073548,-0.056944
-0.050000,-0.050000,0.000000,0.000000,0.000000,0.000000,0.000000,0.000000,0.000000,0.100000,0.100000,-0.124048,-0.567155,-0.050000,-0.050000,0.356009,-0.607212,0.000000,0.000000,-0.391341,0.519591,1.204687,0.402481,0.085462,0.082519,-0.054612,-0.044377,-0.072352,-0.057881
-0.050000,-0.050000,0.000000,0.000000,0.000000,0.000000,0.000000,0.000000,0.000000,0.100000,0.100000,-0.120905,-0.562017,-0.050000,-0.050000,0.355790,-0.602853,0.000000,0.000000,-0.390510,0.520157,1.206652,0.399857,0.085422,0.089158,-0.053579,-0.046331,-0.070801,-0.058783
-0.050000,-0.050000,0.000000,0.000000,0.000000,0.000000,0.000000,0.000000,0.000000,0.100000,0.100000,-0.117614,-0.556688,-0.050000,-0.050000,0.355744,-0.599226,0.000000,0.000000,-0.389685,0.520640,1.208207,0.396622,0.085166,0.096544,-0.052469,-0.048210,-0.069132,-0.059364
-0.050000,-0.050000,0.000000,0.000000,0.000000,0.000000,0.000000,0.000000,0.000000,0.100000,0.100000,-0.114132,-0.551061,-0.050000,-0.050000,0.356052,-0.596980,0.000000,0.000000,-0.388712,0.521243,1.209166,0.392360,0.084501,0.104949,-0.051346,-0.050025,-0.067237,-0.058852
-0.050000,-0.050000,0.000000,0.000000,0.000000,0.000000,0.000000,0.000000,0.000000,0.100000,0.100000,-0.110480,-0.545057,-0.050000,-0.050000,0.356499,-0.595901,0.000000,0.000000,-0.387698,0.522156,1.209704,0.387163,0.083582,0.113824,-0.050188,-0.051733,-0.065286,-0.057053
-0.050000,-0.050000,0.000000,0.000000,0.000000,0.000000,0.000000,0.000000,0.000000,0.100000,0.100000,-0.106678,-0.538692,-0.050000,-0.050000,0.357034,-0.595893,0.000000,0.000000,-0.386628,0.523362,1.209895,0.381107,0.082448,0.123064,-0.049010,-0.053320,-0.063288,-0.054034
-0.050000,-0.050000,0.000000,0.000000,0.000000,0.000000,0.000000,0.000000,0.000000,0.100000,0.100000,-0.102687,-0.531687,-0.050000,-0.050000,0.357672,-0.597536,0.000000,0.000000,-0.385514,0.525427,1.209764,0.373569,0.081138,0.132391,-0.047840,-0.054943,-0.061363,-0.048773
-0.050000,-0.050000,0.000000,0.000000,0.000000,0.000000,0.000000,0.000000,0.000000,0.100000,0.100000,-0.098533,-0.524247,-0.050000,-0.050000,0.358187,-0.600093,0.000000,0.000000,-0.384401,0.527802,1.209474,0.365112,0.079793,0.141827,-0.046647,-0.056492,-0.059528,-0.042391
-0.050000,-0.050000,0.000000,0.000000,0.000000,0.000000,0.000000,0.000000,0.000000,0.100000,0.100000,-0.094191,-0.516083,-0.050000,-0.050000,0.358635,-0.604110,0.000000,0.000000,-0.383357,0.531090,1.209079,0.354976,0.078522,0.151205,-0.045454,-0.058247,-0.057936,-0.033980
-0.050000,-0.050000,0.000000,0.000000,0.000000,0.000000,0.000000,0.000000,0.000000,0.100000,0.100000,-0.089657,-0.507307,-0.050000,-0.050000,0.358843,-0.609098,0.000000,0.000000,-0.382424,0.534854,1.208665,0.343408,0.077443,0.160768,-0.044252,-0.060175,-0.056626,-0.024351
-0.050000,-0.050000,0.000000,0.000000,0.000000,0.000000,0.000000,0.000000,0.000000,0.100000,0.100000,-0.084966,-0.497956,-0.050000,-0.050000,0.358843,-0.614966,0.000000,0.000000,-0.381611,0.539074,1.208260,0.330507,0.076572,0.170531,-0.043050,-0.062250,-0.055578,-0.013655
-0.050000,-0.050000,0.000000,0.000000,0.000000,0.000000,0.000000,0.000000,0.000000,0.100000,0.100000,-0.080069,-0.487872,-0.050000,-0.050000,0.358497,-0.621656,0.000000,0.000000,-0.381168,0.543880,1.207900,0.315424,0.076212,0.181095,-0.041881,-0.064883,-0.055075,-0.001766
-0.050000,-0.050000,0.000000,0.000000,0.000000,0.000000,0.000000,0.000000,0.000000,0.100000,0.100000,-0.075047,-0.477309,-0.050000,-0.050000,0.357878,-0.628860,0.000000,0.000000,-0.380891,0.548820,1.207545,0.299147,0.076137,0.192337,-0.040756,-0.067580,-0.054847,0.010630
-0.050000,-0.050000,0.000000,0.000000,0.000000,0.000000,0.000000,0.000000,0.000000,0.100000,0.100000,-0.069894,-0.466199,-0.050000,-0.050000,0.356855,-0.636331,0.000000,0.000000,-0.381160,0.554065,1.207145,0.280716,0.076693,0.205158,-0.039761,-0.070805,-0.055203,0.023739
-0.050000,-0.050000,0.000000,0.000000,0.000000,0.000000,0.000000,0.000000,0.000000,0.100000,0.100000,-0.064705,-0.454753,-0.050000,-0.050000,0.355491,-0.643845,0.000000,0.000000,-0.381854,0.559349,1.206615,0.260823,0.077728,0.219565,-0.038951,-0.074154,-0.055940,0.037200
-0.050000,-0.050000,0.000000,0.000000,0.000000,0.000000,0.000000,0.000000,0.000000,0.100000,0.100000,-0.059504,-0.443063,-0.050000,-0.050000,0.353839,-0.651310,0.000000,0.000000,-0.382992,0.564668,1.205953,0.239599,0.079218,0.235546,-0.038330,-0.077571,-0.057031,0.050974
-0.050000,-0.050000,0.000000,0.000000,0.000000,0.000000,0.000000,0.000000,0.000000,0.100000,0.100000,-0.054520,-0.431429,-0.050000,-0.050000,0.351735,-0.657964,0.000000,0.000000,-0.385026,0.570059,1.204840,0.216688,0.081481,0.254195,-0.038188,-0.081125,-0.058582,0.065119
-0.050000,-0.050000,0.000000,0.000000,0.000000,0.000000,0.000000,0.000000,0.000000,0.100000,0.100000,-0.049677,-0.419856,-0.050000,-0.050000,0.349468,-0.664376,0.000000,0.000000,-0.387464,0.575461,1.203511,0.193057,0.084122,0.274274,-0.038314,-0.084385,-0.060314,0.079472
-0.050000,-0.050000,0.000000,0.000000,0.000000,0.000000,0.000000,0.000000,0.000000,0.100000,0.100000,-0.045361,-0.408816,-0.050000,-0.050000,0.346809,-0.669496,0.000000,0.000000,-0.390972,0.581081,1.201509,0.168287,0.087599,0.296844,-0.039103,-0.087446,-0.062334,0.094199
-0.050000,-0.050000,0.000000,0.000000,0.000000,0.000000,0.000000,0.000000,0.000000,0.100000,0.100000,-0.041571,-0.398390,-0.050000,-0.050000,0.344008,-0.673796,0.000000,0.000000,-0.395195,0.586969,1.199013,0.143116,0.091676,0.320790,-0.040397,-0.089997,-0.064435,0.109201
-0.050000,-0.050000,0.000000,0.000000,0.000000,0.000000,0.000000,0.000000,0.000000,0.100000,0.100000,-0.038339,-0.388662,-0.050000,-0.050000,0.341056,-0.677170,0.000000,0.000000,-0.400131,0.593173,1.196014,0.117641,0.096340,0.345965,-0.042195,-0.092033,-0.066600,0.124454
-0.050000,-0.050000,0.000000,0.000000,0.000000,0.000000,0.000000,0.000000,0.000000,0.100000,0.100000,-0.036292,-0.380313,-0.050000,-0.050000,0.337976,-0.679059,0.000000,0.000000,-0.406299,0.600203,1.192070,0.092057,0.102003,0.371842,-0.044792,-0.093352,-0.068709,0.140069
-0.050000,-0.050000,0.000000,0.000000,0.000000,0.000000,0.000000,0.000000,0.000000,0.100000,0.100000,-0.034864,-0.372847,-0.050000,-0.050000,0.334925,-0.680309,0.000000,0.000000,-0.412900,0.607682,1.187752,0.066691,0.108113,0.397876,-0.047736,-0.094038,-0.070758,0.155782
-0.050000,-0.050000,0.000000,0.000000,0.000000,0.000000,0.000000,0.000000,0.000000,0.100000,0.100000,-0.034915,-0.367092,-0.050000,-0.050000,0.331917,-0.680284,0.000000,0.000000,-0.420688,0.616345,1.182415,0.041581,0.115217,0.423204,-0.051396,-0.093925,-0.072612,0.171705
-0.050000,-0.050000,0.000000,0.000000,0.000000,0.000000,0.000000,0.000000,0.000000,0.100000,0.100000,-0.035997,-0.362685,-0.050000,-0.050000,0.329078,-0.679660,0.000000,0.000000,-0.428988,0.625881,1.176499,0.016940,0.122836,0.447383,-0.055386,-0.093148,-0.074282,0.187555
-0.050000,-0.050000,0.000000,0.000000,0.000000,0.000000,0.000000,0.000000,0.000000,0.100000,0.100000,-0.038140,-0.359619,-0.050000,-0.050000,0.326394,-0.678433,0.000000,0.000000,-0.437816,0.636343,1.169963,-0.007281,0.130960,0.470277,-0.059694,-0.091762,-0.075768,0.203304
-0.050000,-0.050000,0.000000,0.000000,0.000000,0.000000,0.000000,0.000000,0.000000,0.100000,0.100000,-0.041816,-0.358397,-0.050000,-0.050000,0.324106,-0.676905,0.000000,0.000000,-0.447294,0.648225,1.162509,-0.030986,0.139524,0.490337,-0.064300,-0.089795,-0.076899,0.218695
-0.050000,-0.050000,0.000000,0.000000,0.000000,0.000000,0.000000,0.000000,0.000000,0.100000,0.100000,-0.046228,-0.358264,-0.050000,-0.050000,0.322007,-0.675145,0.000000,0.000000,-0.456820,0.660812,1.154676,-0.054250,0.148156,0.508904,-0.068945,-0.087453,-0.077875,0.233708
-0.050000,-0.050000,0.000000,0.000000,0.000000,0.000000,0.000000,0.000000,0.000000,0.100000,0.100000,-0.051977,-0.359873,-0.050000,-0.050000,0.320434,-0.673608,0.000000,0.000000,-0.466635,0.674766,1.146026,-0.077067,0.156681,0.524114,-0.073667,-0.084812,-0.078439,0.248045
-0.050000,-0.050000,0.000000,0.000000,0.000000,0.000000,0.000000,0.000000,0.000000,0.100000,0.100000,-0.058393,-0.362647,-0.050000,-0.050000,0.319187,-0.672232,0.000000,0.000000,-0.476243,0.689488,1.137000,-0.099479,0.164732,0.537204,-0.078270,-0.082045,-0.078759,0.261681
-0.050000,-0.050000,0.000000,0.000000,0.000000,0.000000,0.000000,0.000000,0.000000,0.100000,0.100000,-0.065448,-0.366549,-0.050000,-0.050000,0.318290,-0.671113,0.000000,0.000000,-0.485675,0.704985,1.127583,-0.121567,0.172256,0.548193,-0.082763,-0.079214,-0.078820,0.274645
-0.050000,-0.050000,0.000000,0.000000,0.000000,0.000000,0.000000,0.000000,0.000000,0.100000,0.100000,-0.072945,-0.371716,-0.050000,-0.050000,0.317916,-0.670667,0.000000,0.000000,-0.494567,0.721229,1.117901,-0.143215,0.178454,0.556591,-0.086997,-0.076512,-0.078471,0.286580
-0.050000,-0.050000,0.000000,0.000000,0.000000,0.000000,0.000000,0.000000,0.000000,0.100000,0.100000,-0.080642,-0.377653,-0.050000,-0.050000,0.317747,-0.670326,0.000000,0.000000,-0.503052,0.737867,1.108117,-0.164572,0.183855,0.563881,-0.091048,-0.073864,-0.077974,0.297910
-0.050000,-0.050000,0.000000,0.000000,0.000000,0.000000,0.000000,0.000000,0.000000,0.100000,0.100000,-0.088249,-0.384585,-0.050000,-0.050000,0.318041,-0.670669,0.000000,0.000000,-0.510648,0.754823,1.098460,-0.185353,0.187374,0.569391,-0.094737,-0.071436,-0.077081,0.308203
-0.050000,-0.050000,0.000000,0.000000,0.000000,0.000000,0.000000,0.000000,0.000000,0.100000,0.100000,-0.095650,-0.392133,-0.050000,-0.050000,0.318532,-0.671127,0.000000,0.000000,-0.517531,0.771843,1.089051,-0.205606,0.189519,0.574283,-0.098149,-0.069113,-0.076020,0.317816
-0.050000,-0.050000,0.000000,0.000000,0.000000,0.000000,0.000000,0.000000,0.000000,0.100000,0.100000,-0.102752,-0.400238,-0.050000,-0.050000,0.319237,-0.671758,0.000000,0.000000,-0.523674,0.788829,1.079973,-0.225283,0.190237,0.578653,-0.101288,-0.066888,-0.074770,0.326788
-0.050000,-0.050000,0.000000,0.000000,0.000000,0.000000,0.000000,0.000000,0.000000,0.100000,0.100000,-0.109091,-0.408697,-0.050000,-0.050000,0.320110,-0.672501,0.000000,0.000000,-0.528631,0.805290,1.071708,-0.243821,0.188924,0.582867,-0.103970,-0.064674,-0.073323,0.334902
-0.050000,-0.050000,0.000000,0.000000,0.000000,0.000000,0.000000,0.000000,0.000000,0.100000,0.100000,-0.115141,-0.417438,-0.050000,-0.050000,0.321062,-0.673051,0.000000,0.000000,-0.533071,0.821541,1.063866,-0.261698,0.186621,0.587129,-0.106473,-0.062453,-0.071813,0.342620
-0.050000,-0.050000,0.000000,0.000000,0.000000,0.000000,0.000000,0.000000,0.000000,0.100000,0.100000,-0.120201,-0.426141,-0.050000,-0.050000,0.322042,-0.673456,0.000000,0.000000,-0.536235,0.836790,1.057176,-0.277913,0.182467,0.591660,-0.108453,-0.060055,-0.070207,0.349453
-0.050000,-0.050000,0.000000,0.000000,0.000000,0.000000,0.000000,0.000000,0.000000,0.100000,0.100000,-0.124789,-0.434780,-0.050000,-0.050000,0.323006,-0.673475,0.000000,0.000000,-0.538791,0.851387,1.051244,-0.292870,0.177423,0.596411,-0.110178,-0.057516,-0.068602,0.355757
-0.050000,-0.050000,0.000000,0.000000,0.000000,0.000000,0.000000,0.000000,0.000000,0.100000,0.100000,-0.128797,-0.443227,-0.050000,-0.050000,0.323926,-0.673138,0.000000,0.000000,-0.540647,0.865167,1.046169,-0.306415,0.171498,0.601373,-0.111597,-0.054801,-0.067000,0.361468
-0.050000,-0.050000,0.000000,0.000000,0.000000,0.000000,0.000000,0.000000,0.000000,0.100000,0.100000,-0.132039,-0.451121,-0.050000,-0.050000,0.324698,-0.672350,0.000000,0.000000,-0.541630,0.877619,1.042306,-0.317708,0.164864,0.606441,-0.112562,-0.051789,-0.065483,0.366184
-0.050000,-0.050000,0.000000,0.000000,0.000000,0.000000,0.000000,0.000000,0.000000,0.100000,0.100000,-0.135027,-0.458752,-0.050000,-0.050000,0.325411,-0.671132,0.000000,0.000000,-0.542361,0.889446,1.039062,-0.327786,0.158011,0.611463,-0.113385,-0.048708,-0.063999,0.370468
-0.050000,-0.050000,0.000000,0.000000,0.000000,0.000000,0.000000,0.000000,0.000000,0.100000,0.100000,-0.137326,-0.465577,-0.050000,-0.050000,0.325923,-0.669511,0.000000,0.000000,-0.542360,0.899737,1.037058,-0.335233,0.151062,0.616222,-0.113752,-0.045375,-0.062667,0.373528
-0.050000,-0.050000,0.000000,0.000000,0.000000,0.000000,0.000000,0.000000,0.000000,0.100000,0.100000,-0.139399,-0.471908,-0.050000,-0.050000,0.326329,-0.667492,0.000000,0.000000,-0.542211,0.909174,1.035754,-0.341055,0.144391,0.620588,-0.113962,-0.042056,-0.061424,0.375923
-0.050000,-0.050000,0.000000,0.000000,0.000000,0.000000,0.000000,0.000000,0.000000,0.100000,0.100000,-0.141169,-0.477648,-0.050000,-0.050000,0.326610,-0.665175,0.000000,0.000000,-0.541820,0.917620,1.035203,-0.345102,0.138066,0.624506,-0.113963,-0.038739,-0.060290,0.377528
-0.050000,-0.050000,0.000000,0.000000,0.000000,0.000000,0.000000,0.000000,0.000000,0.100000,0.100000,-0.142620,-0.482641,-0.050000,-0.050000,0.326760,-0.662648,0.000000,0.000000,-0.541236,0.924762,1.035521,-0.346924,0.132552,0.627685,-0.113730,-0.035526,-0.059350,0.378053
-0.050000,-0.050000,0.000000,0.000000,0.000000,0.000000,0.000000,0.000000,0.000000,0.100000,0.100000,-0.143977,-0.487205,-0.050000,-0.050000,0.326833,-0.659888,0.000000,0.000000,-0.540689,0.931277,1.036282,-0.347622,0.127543,0.630398,-0.113444,-0.032498,-0.058482,0.378137
-0.050000,-0.050000,0.000000,0.000000,0.000000,0.000000,0.000000,0.000000,0.000000,0.100000,0.100000,-0.145074,-0.491055,-0.050000,-0.050000,0.326832,-0.657099,0.000000,0.000000,-0.540061,0.936435,1.037791,-0.346278,0.123637,0.632307,-0.112988,-0.029733,-0.057854,0.377180
-0.050000,-0.050000,0.000000,0.000000,0.000000,0.000000,0.000000,0.000000,0.000000,0.100000,0.100000,-0.146111,-0.494468,-0.050000,-0.050000,0.326789,-0.654204,0.000000,0.000000,-0.539545,0.940865,1.039664,-0.343928,0.120461,0.633737,-0.112524,-0.027284,-0.057347,0.375805
-0.050000,-0.050000,0.000000,0.000000,0.000000,0.000000,0.000000,0.000000,0.000000,0.100000,0.100000,-0.147049,-0.497438,-0.050000,-0.050000,0.326726,-0.651312,0.000000,0.000000,-0.539094,0.944449,1.041908,-0.340521,0.118057,0.634708,-0.112030,-0.025132,-0.056991,0.373930
-0.050000,-0.050000,0.000000,0.000000,0.000000,0.000000,0.000000,0.000000,0.000000,0.100000,0.100000,-0.147916,-0.499944,-0.050000,-0.050000,0.326673,-0.648494,0.000000,0.000000,-0.538747,0.946980,1.044457,-0.336106,0.116568,0.635286,-0.111544,-0.023390,-0.056846,0.371540
-0.050000,-0.050000,0.000000,0.000000,0.000000,0.000000,0.000000,0.000000,0.000000,0.100000,0.100000,-0.148768,-0.502146,-0.050000,-0.050000,0.326615,-0.645687,0.000000,0.000000,-0.538516,0.948975,1.047142,-0.331237,0.115550,0.635672,-0.111089,-0.021904,-0.056795,0.368969
-0.050000,-0.050000,0.000000,0.000000,0.000000,0.000000,0.000000,0.000000,0.000000,0.100000,0.100000,-0.149600,-0.503943,-0.050000,-0.050000,0.326587,-0.643024,0.000000,0.000000,-0.538393,0.949890,1.049936,-0.325691,0.115284,0.635907,-0.110686,-0.020829,-0.056958,0.365998
-0.050000,-0.050000,0.000000,0.000000,0.000000,0.000000,0.000000,0.000000,0.000000,0.100000,0.100000,-0.150456,-0.505450,-0.050000,-0.050000,0.326563,-0.640434,0.000000,0.000000,-0.538387,0.950228,1.052699,-0.319927,0.115353,0.636121,-0.110339,-0.019998,-0.057223,0.362919
-0.050000,-0.050000,0.000000,0.000000,0.000000,0.000000,0.000000,0.000000,0.000000,0.100000,0.100000,-0.151335,-0.506682,-0.050000,-0.050000,0.326551,-0.637956,0.000000,0.000000,-0.538476,0.949910,1.055396,-0.313951,0.115740,0.636351,-0.110044,-0.019404,-0.057605,0.359694
-0.050000,-0.050000,0.000000,0.000000,0.000000,0.000000,0.000000,0.000000,0.000000,0.100000,0.100000,-0.152272,-0.507603,-0.050000,-0.050000,0.326522,-0.635617,0.000000,0.000000,-0.538636,0.948873,1.057871,-0.307875,0.116337,0.636648,-0.109828,-0.019055,-0.058112,0.356359
-0.050000,-0.050000,0.000000,0.000000,0.000000,0.000000,0.000000,0.000000,0.000000,0.100000,0.100000,-0.153231,-0.508317,-0.050000,-0.050000,0.326496,-0.633384,0.000000,0.000000,-0.538876,0.947462,1.060201,-0.301814,0.117015,0.636976,-0.109634,-0.018816,-0.058685,0.353010
-0.050000,-0.050000,0.000000,0.000000,0.000000,0.000000,0.000000,0.000000,0.000000,0.100000,0.100000,-0.154260,-0.508730,-0.050000,-0.050000,0.326411,-0.631317,0.000000,0.000000,-0.539125,0.945441,1.062160,-0.295828,0.117706,0.637311,-0.109519,-0.018764,-0.059364,0.349649
-0.050000,-0.050000,0.000000,0.000000,0.000000,0.000000,0.000000,0.000000,0.000000,0.100000,0.100000,-0.155301,-0.508941,-0.050000,-0.050000,0.326303,-0.629400,0.000000,0.000000,-0.539408,0.943155,1.063867,-0.290006,0.118345,0.637577,-0.109412,-0.018778,-0.060104,0.346376
-0.050000,-0.050000,0.000000,0.000000,0.000000,0.000000,0.000000,0.000000,0.000000,0.100000,0.100000,-0.156360,-0.508950,-0.050000,-0.050000,0.326146,-0.627635,0.000000,0.000000,-0.539684,0.940596,1.065281,-0.284372,0.118902,0.637740,-0.109326,-0.018864,-0.060905,0.343205
-0.050000,-0.050000,0.000000,0.000000,0.000000,0.000000,0.000000,0.000000,0.000000,0.100000,0.100000,-0.157421,-0.508776,-0.050000,-0.050000,0.325913,-0.626089,0.000000,0.000000,-0.539905,0.937894,1.066343,-0.279098,0.119317,0.637618,-0.109254,-0.019017,-0.061767,0.340314
-0.050000,-0.050000,0.000000,0.000000,0.000000,0.000000,0.000000,0.000000,0.000000,0.100000,0.100000,-0.158451,-0.508469,-0.050000,-0.050000,0.325647,-0.624700,0.000000,0.000000,-0.540113,0.935123,1.067209,-0.274065,0.119654,0.637325,-0.109158,-0.019180,-0.062668,0.337596
-0.050000,-0.050000,0.000000,0.000000,0.000000,0.000000,0.000000,0.000000,0.000000,0.100000,0.100000,-0.159454,-0.508068,-0.050000,-0.050000,0.325287,-0.623601,0.000000,0.000000,-0.540218,0.932441,1.067764,-0.269595,0.119839,0.636551,-0.109057,-0.019393,-0.063610,0.335407
-0.050000,-0.050000,0.000000,0.000000,0.000000,0.000000,0.000000,0.000000,0.000000,0.100000,0.100000,-0.160400,-0.507607,-0.050000,-0.050000,0.324881,-0.622730,0.000000,0.000000,-0.540273,0.929867,1.068177,-0.265524,0.119961,0.635478,-0.108912,-0.019600,-0.064569,0.333597
-0.050000,-0.050000,0.000000,0.000000,0.000000,0.000000,0.000000,0.000000,0.000000,0.100000,0.100000,-0.161301,-0.507129,-0.050000,-0.050000,0.324413,-0.622111,0.000000,0.000000,-0.540255,0.927468,1.068454,-0.261924,0.120020,0.634043,-0.108735,-0.019812,-0.065533,0.332268
-0.050000,-0.050000,0.000000,0.000000,0.000000,0.000000,0.000000,0.000000,0.000000,0.100000,0.100000,-0.162161,-0.506732,-0.050000,-0.050000,0.323893,-0.621832,0.000000,0.000000,-0.540154,0.925381,1.068666,-0.258927,0.120052,0.632174,-0.108504,-0.020023,-0.066462,0.331655
-0.050000,-0.050000,0.000000,0.000000,0.000000,0.000000,0.000000,0.000000,0.000000,0.100000,0.100000,-0.162984,-0.506339,-0.050000,-0.050000,0.323321,-0.621764,0.000000,0.000000,-0.539994,0.923437,1.068849,-0.256253,0.120082,0.630094,-0.108239,-0.020214,-0.067367,0.331417
-0.050000,-0.050000,0.000000,0.000000,0.000000,0.000000,0.000000,0.000000,0.000000,0.100000,0.100000,-0.163815,-0.506144,-0.050000,-0.050000,0.322728,-0.622095,0.000000,0.000000,-0.539753,0.921862,1.069076,-0.254167,0.120148,0.627617,-0.107912,-0.020401,-0.068166,0.332050
-0.050000,-0.050000,0.000000,0.000000,0.000000,0.000000,0.000000,0.000000,0.000000,0.100000,0.100000,-0.164654,-0.506007,-0.050000,-0.050000,0.322102,-0.622666,0.000000,0.000000,-0.539440,0.920389,1.069349,-0.252295,0.120255,0.624992,-0.107551,-0.020572,-0.068878,0.333098
-0.050000,-0.050000,0.000000,0.000000,0.000000,0.000000,0.000000,0.000000,0.000000,0.100000,0.100000,-0.165534,-0.505995,-0.050000,-0.050000,0.321474,-0.623501,0.000000,0.000000,-0.539067,0.919051,1.069694,-0.250641,0.120416,0.622194,-0.107154,-0.020744,-0.069475,0.334648
-0.050000,-0.050000,0.000000,0.000000,0.000000,0.000000,0.000000,0.000000,0.000000,0.100000,0.100000,-0.166500,-0.506096,-0.050000,-0.050000,0.320888,-0.624619,0.000000,0.000000,-0.538589,0.917655,1.070137,-0.248930,0.120641,0.619247,-0.106723,-0.020939,-0.069888,0.336583
-0.050000,-0.050000,0.000000,0.000000,0.000000,0.000000,0.000000,0.000000,0.000000,0.100000,0.100000,-0.167519,-0.506230,-0.050000,-0.050000,0.320311,-0.625865,0.000000,0.000000,-0.538069,0.916183,1.070635,-0.247134,0.120905,0.616231,-0.106281,-0.021171,-0.070198,0.338698
-0.050000,-0.050000,0.000000,0.000000,0.000000,0.000000,0.000000,0.000000,0.000000,0.100000,0.100000,-0.168664,-0.506401,-0.050000,-0.050000,0.319862,-0.627351,0.000000,0.000000,-0.537373,0.914262,1.071226,-0.244713,0.121206,0.613030,-0.105820,-0.021504,-0.070253,0.340777
-0.050000,-0.050000,0.000000,0.000000,0.000000,0.000000,0.000000,0.000000,0.000000,0.100000,0.100000,-0.169868,-0.506519,-0.050000,-0.050000,0.319489,-0.628878,0.000000,0.000000,-0.536604,0.911935,1.071857,-0.241693,0.121509,0.609671,-0.105359,-0.021975,-0.070167,0.342616
-0.050000,-0.050000,0.000000,0.000000,0.000000,0.000000,0.000000,0.000000,0.000000,0.100000,0.100000,-0.171135,-0.506565,-0.050000,-0.050000,0.319248,-0.630455,0.000000,0.000000,-0.535710,0.909039,1.072530,-0.237815,0.121796,0.606082,-0.104897,-0.022617,-0.069900,0.344032
-0.050000,-0.050000,0.000000,0.000000,0.000000,0.000000,0.000000,0.000000,0.000000,0.100000,0.100000,-0.172389,-0.506442,-0.050000,-0.050000,0.319196,-0.632039,0.000000,0.000000,-0.534599,0.905189,1.073253,-0.232413,0.121997,0.601998,-0.104435,-0.023549,-0.069426,0.344403
-0.050000,-0.050000,0.000000,0.000000,0.000000,0.000000,0.000000,0.000000,0.000000,0.100000,0.100000,-0.173637,-0.506227,-0.050000,-0.050000,0.319273,-0.633501,0.000000,0.000000,-0.533465,0.900864,1.073993,-0.226104,0.122148,0.597574,-0.103974,-0.024725,-0.068850,0.344193
-0.050000,-0.050000,0.000000,0.000000,0.000000,0.000000,0.000000,0.000000,0.000000,0.100000,0.100000,-0.174664,-0.505767,-0.050000,-0.050000,0.319613,-0.634931,0.000000,0.000000,-0.531982,0.895135,1.074846,-0.217261,0.122089,0.592117,-0.103495,-0.026335,-0.068068,0.341980
-0.050000,-0.050000,0.000000,0.000000,0.000000,0.000000,0.000000,0.000000,0.000000,0.100000,0.100000,-0.175508,-0.505222,-0.050000,-0.050000,0.320127,-0.636130,0.000000,0.000000,-0.530464,0.888786,1.075772,-0.206790,0.121889,0.585825,-0.102999,-0.028329,-0.067221,0.338544
-0.050000,-0.050000,0.000000,0.000000,0.000000,0.000000,0.000000,0.000000,0.000000,0.100000,0.100000,-0.176040,-0.504574,-0.050000,-0.050000,0.320848,-0.637169,0.000000,0.000000,-0.528755,0.881527,1.076831,-0.194104,0.121475,0.578424,-0.102471,-0.030721,-0.066292,0.333372
-0.050000,-0.050000,0.000000,0.000000,0.000000,0.000000,0.000000,0.000000,0.000000,0.100000,0.100000,-0.175995,-0.503935,-0.050000,-0.050000,0.321792,-0.638071,0.000000,0.000000,-0.526823,0.873281,1.078152,-0.178370,0.120741,0.569259,-0.101868,-0.033542,-0.065356,0.325841
-0.050000,-0.050000,0.000000,0.000000,0.000000,0.000000,0.000000,0.000000,0.000000,0.100000,0.100000,-0.175647,-0.503361,-0.050000,-0.050000,0.322873,-0.638655,0.000000,0.000000,-0.524860,0.864686,1.079589,-0.160832,0.119825,0.559021,-0.101239,-0.036703,-0.064427,0.317033
-0.050000,-0.050000,0.000000,0.000000,0.000000,0.000000,0.000000,0.000000,0.000000,0.100000,0.100000,-0.174285,-0.503059,-0.050000,-0.050000,0.324171,-0.639267,0.000000,0.000000,-0.522559,0.855069,1.081512,-0.139003,0.118418,0.546040,-0.100459,-0.040141,-0.063639,0.305133
-0.050000,-0.050000,0.000000,0.000000,0.000000,0.000000,0.000000,0.000000,0.000000,0.100000,0.100000,-0.172395,-0.503069,-0.050000,-0.050000,0.325555,-0.639527,0.000000,0.000000,-0.520225,0.845340,1.083648,-0.114666,0.116740,0.531356,-0.099623,-0.043816,-0.062981,0.291723
-0.050000,-0.050000,0.000000,0.000000,0.000000,0.000000,0.000000,0.000000,0.000000,0.100000,0.100000,-0.169695,-0.503507,-0.050000,-0.050000,0.327038,-0.639681,0.000000,0.000000,-0.517691,0.835256,1.086145,-0.087017,0.114684,0.514458,-0.098672,-0.047523,-0.062521,0.276299
-0.050000,-0.050000,0.000000,0.000000,0.000000,0.000000,0.000000,0.000000,0.000000,0.100000,0.100000,-0.166028,-0.504569,-0.050000,-0.050000,0.328554,-0.639785,0.000000,0.000000,-0.514980,0.824980,1.089051,-0.055454,0.112190,0.494813,-0.097583,-0.051066,-0.062394,0.258829
-0.050000,-0.050000,0.000000,0.000000,0.000000,0.000000,0.000000,0.000000,0.000000,0.100000,0.100000,-0.161863,-0.506076,-0.050000,-0.050000,0.330048,-0.639554,0.000000,0.000000,-0.512176,0.814788,1.092126,-0.021569,0.109461,0.473648,-0.096438,-0.054481,-0.062446,0.240264
-0.050000,-0.050000,0.000000,0.000000,0.000000,0.000000,0.000000,0.000000,0.000000,0.100000,0.100000,-0.156561,-0.508386,-0.050000,-0.050000,0.331455,-0.639489,0.000000,0.000000,-0.509165,0.804416,1.095628,0.016931,0.106266,0.449278,-0.095118,-0.057234,-0.063004,0.219776
-0.050000,-0.050000,0.000000,0.000000,0.000000,0.000000,0.000000,0.000000,0.000000,0.100000,0.100000,-0.150855,-0.511169,-0.050000,-0.050000,0.332699,-0.639021,0.000000,0.000000,-0.506110,0.794206,1.099182,0.057746,0.102911,0.423518,-0.093749,-0.059598,-0.063802,0.198581
-0.050000,-0.050000,0.000000,0.000000,0.000000,0.000000,0.000000,0.000000,0.000000,0.100000,0.100000,-0.144575,-0.514468,-0.050000,-0.050000,0.333759,-0.638456,0.000000,0.000000,-0.502964,0.783939,1.102853,0.101381,0.099373,0.396086,-0.092282,-0.061217,-0.064932,0.176572
-0.050000,-0.050000,0.000000,0.000000,0.000000,0.000000,0.000000,0.000000,0.000000,0.100000,0.100000,-0.137978,-0.518081,-0.050000,-0.050000,0.334487,-0.637645,0.000000,0.000000,-0.499867,0.773534,1.106439,0.147375,0.095838,0.367580,-0.090747,-0.062029,-0.066373,0.154145
-0.050000,-0.050000,0.000000,0.000000,0.000000,0.000000,0.000000,0.000000,0.000000,0.100000,0.100000,-0.131230,-0.521912,-0.050000,-0.050000,0.335003,-0.636572,0.000000,0.000000,-0.496790,0.763012,1.109950,0.194660,0.092335,0.338681,-0.089152,-0.062122,-0.067960,0.131581
-0.050000,-0.050000,0.000000,0.000000,0.000000,0.000000,0.000000,0.000000,0.000000,0.100000,0.100000,-0.124618,-0.525554,-0.050000,-0.050000,0.334982,-0.635145,0.000000,0.000000,-0.494017,0.751989,1.113067,0.243123,0.089221,0.310120,-0.087513,-0.061322,-0.069754,0.109190
-0.050000,-0.050000,0.000000,0.000000,0.000000,0.000000,0.000000,0.000000,0.000000,0.100000,0.100000,-0.118243,-0.528974,-0.050000,-0.050000,0.334665,-0.633420,0.000000,0.000000,-0.491483,0.740570,1.115914,0.291467,0.086452,0.282517,-0.085813,-0.059862,-0.071539,0.087176
-0.050000,-0.050000,0.000000,0.000000,0.000000,0.000000,0.000000,0.000000,0.000000,0.100000,0.100000,-0.112308,-0.531893,-0.050000,-0.050000,0.333933,-0.631389,0.000000,0.000000,-0.489344,0.728557,1.118346,0.339170,0.084222,0.256504,-0.084075,-0.057727,-0.073289,0.065738
-0.050000,-0.050000,0.000000,0.000000,0.000000,0.000000,0.000000,0.000000,0.000000,0.100000,0.100000,-0.107171,-0.533908,-0.050000,-0.050000,0.332739,-0.628923,0.000000,0.000000,-0.487811,0.715880,1.120237,0.384614,0.082828,0.233368,-0.082297,-0.055246,-0.074837,0.045260
-0.050000,-0.050000,0.000000,0.000000,0.000000,0.000000,0.000000,0.000000,0.000000,0.100000,0.100000,-0.102454,-0.535351,-0.050000,-0.050000,0.331326,-0.626528,0.000000,0.000000,-0.486641,0.702638,1.121879,0.428475,0.081922,0.212086,-0.080457,-0.052171,-0.076239,0.025467
-0.050000,-0.050000,0.000000,0.000000,0.000000,0.000000,0.000000,0.000000,0.000000,0.100000,0.100000,-0.099121,-0.535259,-0.050000,-0.050000,0.329377,-0.623480,0.000000,0.000000,-0.486442,0.688847,1.122811,0.467127,0.082335,0.195653,-0.078607,-0.049499,-0.077189,0.007299
-0.050000,-0.050000,0.000000,0.000000,0.000000,0.000000,0.000000,0.000000,0.000000,0.100000,0.100000,-0.096401,-0.534248,-0.050000,-0.050000,0.327301,-0.620769,0.000000,0.000000,-0.486702,0.674699,1.123563,0.502250,0.083423,0.181932,-0.076696,-0.046605,-0.077848,-0.009797
-0.050000,-0.050000,0.000000,0.000000,0.000000,0.000000,0.000000,0.000000,0.000000,0.100000,0.100000,-0.094686,-0.532016,-0.050000,-0.050000,0.324967,-0.617979,0.000000,0.000000,-0.487669,0.660409,1.123960,0.532266,0.085476,0.171923,-0.074786,-0.044099,-0.078109,-0.025442
-0.050000,-0.050000,0.000000,0.000000,0.000000,0.000000,0.000000,0.000000,0.000000,0.100000,0.100000,-0.094026,-0.528549,-0.050000,-0.050000,0.322538,-0.615280,0.000000,0.000000,-0.489310,0.646507,1.124123,0.555751,0.088540,0.165780,-0.072908,-0.042387,-0.077896,-0.039241
-0.050000,-0.050000,0.000000,0.000000,0.000000,0.000000,0.000000,0.000000,0.000000,0.100000,0.100000,-0.093888,-0.524183,-0.050000,-0.050000,0.320041,-0.613083,0.000000,0.000000,-0.491261,0.632680,1.124226,0.575224,0.092162,0.161884,-0.071049,-0.040718,-0.077417,-0.051969
-0.050000,-0.050000,0.000000,0.000000,0.000000,0.000000,0.000000,0.000000,0.000000,0.100000,0.100000,-0.095018,-0.518734,-0.050000,-0.050000,0.317678,-0.610847,0.000000,0.000000,-0.493920,0.620460,1.124135,0.585505,0.096891,0.162054,-0.069369,-0.040891,-0.076342,-0.061981
-0.050000,-0.050000,0.000000,0.000000,0.000000,0.000000,0.000000,0.000000,0.000000,0.100000,0.100000,-0.096531,-0.512581,-0.050000,-0.050000,0.315429,-0.609383,0.000000,0.000000,-0.496608,0.608963,1.124091,0.591041,0.102009,0.163962,-0.067815,-0.041276,-0.075011,-0.070626
-0.050000,-0.050000,0.000000,0.000000,0.000000,0.000000,0.000000,0.000000,0.000000,0.100000,0.100000,-0.098697,-0.505934,-0.050000,-0.050000,0.313414,-0.608251,0.000000,0.000000,-0.499518,0.599017,1.123993,0.590056,0.107641,0.167952,-0.066486,-0.042757,-0.073321,-0.077232
-0.050000,-0.050000,0.000000,0.000000,0.000000,0.000000,0.000000,0.000000,0.000000,0.100000,0.100000,-0.101352,-0.499197,-0.050000,-0.050000,0.311843,-0.607667,0.000000,0.000000,-0.502384,0.591068,1.123834,0.582520,0.113498,0.173537,-0.065481,-0.045290,-0.071303,-0.081563
-0.050000,-0.050000,0.000000,0.000000,0.000000,0.000000,0.000000,0.000000,0.000000,0.100000,0.100000,-0.104207,-0.492261,-0.050000,-0.050000,0.310454,-0.607615,0.000000,0.000000,-0.505069,0.584124,1.123643,0.571192,0.119450,0.180056,-0.064673,-0.048068,-0.069135,-0.084627
-0.050000,-0.050000,0.000000,0.000000,0.000000,0.000000,0.000000,0.000000,0.000000,0.100000,0.100000,-0.107487,-0.486210,-0.050000,-0.050000,0.309914,-0.608056,0.000000,0.000000,-0.507522,0.580251,1.123178,0.552553,0.125115,0.187784,-0.064400,-0.052279,-0.066653,-0.084666
-0.050000,-0.050000,0.000000,0.000000,0.000000,0.000000,0.000000,0.000000,0.000000,0.100000,0.100000,-0.110772,-0.480522,-0.050000,-0.050000,0.309700,-0.609106,0.000000,0.000000,-0.509494,0.577470,1.122514,0.530950,0.130411,0.196137,-0.064392,-0.056427,-0.064149,-0.083455
-0.050000,-0.050000,0.000000,0.000000,0.000000,0.000000,0.000000,0.000000,0.000000,0.100000,0.100000,-0.114153,-0.475856,-0.050000,-0.050000,0.310104,-0.610600,0.000000,0.000000,-0.511067,0.576599,1.121495,0.505373,0.135080,0.205115,-0.064772,-0.061037,-0.061584,-0.080368
-0.050000,-0.050000,0.000000,0.000000,0.000000,0.000000,0.000000,0.000000,0.000000,0.100000,0.100000,-0.117486,-0.472533,-0.050000,-0.050000,0.311144,-0.612616,0.000000,0.000000,-0.512061,0.577271,1.119966,0.476791,0.138691,0.214744,-0.065546,-0.065762,-0.059112,-0.075770
-0.050000,-0.050000,0.000000,0.000000,0.000000,0.000000,0.000000,0.000000,0.000000,0.100000,0.100000,-0.120789,-0.470029,-0.050000,-0.050000,0.312551,-0.614943,0.000000,0.000000,-0.512639,0.578764,1.118083,0.446597,0.141658,0.224842,-0.066515,-0.070345,-0.056754,-0.070291
-0.050000,-0.050000,0.000000,0.000000,0.000000,0.000000,0.000000,0.000000,0.000000,0.100000,0.100000,-0.123884,-0.469688,-0.050000,-0.050000,0.314709,-0.617792,0.000000,0.000000,-0.512500,0.581389,1.115382,0.414212,0.142709,0.235807,-0.067939,-0.074942,-0.054738,-0.063879
-0.050000,-0.050000,0.000000,0.000000,0.000000,0.000000,0.000000,0.000000,0.000000,0.100000,0.100000,-0.126884,-0.470369,-0.050000,-0.050000,0.317180,-0.620869,0.000000,0.000000,-0.511916,0.584071,1.112193,0.381433,0.142747,0.247404,-0.069475,-0.079208,-0.053047,-0.057470
-0.050000,-0.050000,0.000000,0.000000,0.000000,0.000000,0.000000,0.000000,0.000000,0.100000,0.100000,-0.129684,-0.472556,-0.050000,-0.050000,0.320032,-0.624197,0.000000,0.000000,-0.510820,0.586616,1.108376,0.348276,0.141254,0.259765,-0.071201,-0.083291,-0.051778,-0.051409
-0.050000,-0.050000,0.000000,0.000000,0.000000,0.000000,0.000000,0.000000,0.000000,0.100000,0.100000,-0.132219,-0.476109,-0.050000,-0.050000,0.323100,-0.627719,0.000000,0.000000,-0.509217,0.588035,1.103966,0.315616,0.138141,0.273071,-0.073014,-0.087196,-0.051040,-0.046839
-0.050000,-0.050000,0.000000,0.000000,0.000000,0.000000,0.000000,0.000000,0.000000,0.100000,0.100000,-0.134715,-0.480457,-0.050000,-0.050000,0.326363,-0.631229,0.000000,0.000000,-0.507413,0.588857,1.099165,0.283308,0.134072,0.286892,-0.074832,-0.091023,-0.050651,-0.043132
-0.050000,-0.050000,0.000000,0.000000,0.000000,0.000000,0.000000,0.000000,0.000000,0.100000,0.100000,-0.136670,-0.486111,-0.050000,-0.050000,0.329514,-0.634869,0.000000,0.000000,-0.504994,0.586451,1.093886,0.252815,0.128032,0.302101,-0.076609,-0.094980,-0.050941,-0.043420
-0.050000,-0.050000,0.000000,0.000000,0.000000,0.000000,0.000000,0.000000,0.000000,0.100000,0.100000,-0.138631,-0.492154,-0.050000,-0.050000,0.332702,-0.638343,0.000000,0.000000,-0.502591,0.582482,1.088421,0.223382,0.121231,0.317861,-0.078251,-0.099198,-0.051550,-0.045860
-0.050000,-0.050000,0.000000,0.000000,0.000000,0.000000,0.000000,0.000000,0.000000,0.100000,0.100000,-0.140260,-0.498644,-0.050000,-0.050000,0.335658,-0.641679,0.000000,0.000000,-0.499952,0.575439,1.082879,0.195804,0.113376,0.334534,-0.079715,-0.103900,-0.052552,-0.052100
-0.050000,-0.050000,0.000000,0.000000,0.000000,0.000000,0.000000,0.000000,0.000000,0.100000,0.100000,-0.141591,-0.505218,-0.050000,-0.050000,0.338300,-0.644777,0.000000,0.000000,-0.497255,0.564876,1.077534,0.170497,0.104874,0.352084,-0.080894,-0.109316,-0.053824,-0.062732
-0.050000,-0.050000,0.000000,0.000000,0.000000,0.000000,0.000000,0.000000,0.000000,0.100000,0.100000,-0.142905,-0.511715,-0.050000,-0.050000,0.340807,-0.647581,0.000000,0.000000,-0.494735,0.552361,1.072334,0.146491,0.096024,0.369928,-0.081905,-0.115471,-0.055224,-0.075889
-0.050000,-0.050000,0.000000,0.000000,0.000000,0.000000,0.000000,0.000000,0.000000,0.100000,0.100000,-0.143581,-0.517858,-0.050000,-0.050000,0.342669,-0.650065,0.000000,0.000000,-0.492110,0.534580,1.067967,0.126239,0.087086,0.388803,-0.082413,-0.122728,-0.056755,-0.095267
-0.050000,-0.050000,0.000000,0.000000,0.000000,0.000000,0.000000,0.000000,0.000000,0.100000,0.100000,-0.144320,-0.523609,-0.050000,-0.050000,0.344392,-0.652204,0.000000,0.000000,-0.489919,0.515007,1.064121,0.107639,0.078401,0.407631,-0.082718,-0.130938,-0.058237,-0.116922
-0.050000,-0.050000,0.000000,0.000000,0.000000,0.000000,0.000000,0.000000,0.000000,0.100000,0.100000,-0.144693,-0.528833,-0.050000,-0.050000,0.345710,-0.654025,0.000000,0.000000,-0.487895,0.492162,1.061218,0.092003,0.070223,0.426647,-0.082647,-0.140155,-0.059669,-0.142219
-0.050000,-0.050000,0.000000,0.000000,0.000000,0.000000,0.000000,0.000000,0.000000,0.100000,0.100000,-0.144826,-0.533404,-0.050000,-0.050000,0.346794,-0.655645,0.000000,0.000000,-0.486238,0.466936,1.059442,0.079510,0.063028,0.445356,-0.082215,-0.150113,-0.061000,-0.169999
-0.050000,-0.050000,0.000000,0.000000,0.000000,0.000000,0.000000,0.000000,0.000000,0.100000,0.100000,-0.144874,-0.537633,-0.050000,-0.050000,0.347707,-0.656992,0.000000,0.000000,-0.484903,0.440392,1.058403,0.068930,0.056484,0.463687,-0.081630,-0.160925,-0.062220,-0.199027
-0.050000,-0.050000,0.000000,0.000000,0.000000,0.000000,0.000000,0.000000,0.000000,0.100000,0.100000,-0.144505,-0.540859,-0.050000,-0.050000,0.348601,-0.658619,0.000000,0.000000,-0.483961,0.411973,1.059050,0.063149,0.051840,0.480994,-0.080534,-0.171538,-0.063388,-0.229330
-0.050000,-0.050000,0.000000,0.000000,0.000000,0.000000,0.000000,0.000000,0.000000,0.100000,0.100000,-0.144117,-0.543794,-0.050000,-0.050000,0.349519,-0.660253,0.000000,0.000000,-0.483400,0.383402,1.060473,0.059578,0.048227,0.497463,-0.079369,-0.182408,-0.064484,-0.259144
-0.050000,-0.050000,0.000000,0.000000,0.000000,0.000000,0.000000,0.000000,0.000000,0.100000,0.100000,-0.143532,-0.546016,-0.050000,-0.050000,0.350677,-0.662399,0.000000,0.000000,-0.483184,0.354737,1.063060,0.059673,0.046227,0.512701,-0.077941,-0.192622,-0.065602,-0.288024
-0.050000,-0.050000,0.000000,0.000000,0.000000,0.000000,0.000000,0.000000,0.000000,0.100000,0.100000,-0.142894,-0.547505,-0.050000,-0.050000,0.352303,-0.665335,0.000000,0.000000,-0.483355,0.327019,1.066569,0.063289,0.045864,0.526477,-0.076359,-0.201664,-0.066811,-0.314571
-0.050000,-0.050000,0.000000,0.000000,0.000000,0.000000,0.000000,0.000000,0.000000,0.100000,0.100000,-0.142141,-0.548758,-0.050000,-0.050000,0.354125,-0.668701,0.000000,0.000000,-0.483713,0.299868,1.070636,0.069251,0.046532,0.539491,-0.074725,-0.210163,-0.068082,-0.339393
-0.050000,-0.050000,0.000000,0.000000,0.000000,0.000000,0.000000,0.000000,0.000000,0.100000,0.100000,-0.141543,-0.548534,-0.050000,-0.050000,0.357138,-0.673872,0.000000,0.000000,-0.484549,0.275421,1.075438,0.079591,0.049237,0.550374,-0.072942,-0.215786,-0.069622,-0.359373
-0.050000,-0.050000,0.000000,0.000000,0.000000,0.000000,0.000000,0.000000,0.000000,0.100000,0.100000,-0.140864,-0.548064,-0.050000,-0.050000,0.360499,-0.679719,0.000000,0.000000,-0.485501,0.252198,1.080367,0.091960,0.052782,0.560683,-0.071205,-0.220435,-0.071326,-0.376424
-0.050000,-0.050000,0.000000,0.000000,0.000000,0.000000,0.000000,0.000000,0.000000,0.100000,0.100000,-0.140378,-0.546474,-0.050000,-0.050000,0.364892,-0.687067,0.000000,0.000000,-0.486725,0.231531,1.085374,0.107061,0.057542,0.569713,-0.069479,-0.222824,-0.073272,-0.388906
-0.050000,-0.050000,0.000000,0.000000,0.000000,0.000000,0.000000,0.000000,0.000000,0.100000,0.100000,-0.140109,-0.543884,-0.050000,-0.050000,0.370258,-0.695760,0.000000,0.000000,-0.488152,0.213411,1.090070,0.124071,0.063147,0.577807,-0.067867,-0.223252,-0.075471,-0.396595
-0.050000,-0.050000,0.000000,0.000000,0.000000,0.000000,0.000000,0.000000,0.000000,0.100000,0.100000,-0.139830,-0.540730,-0.050000,-0.050000,0.376178,-0.705286,0.000000,0.000000,-0.489631,0.196737,1.094480,0.142412,0.069251,0.585520,-0.066310,-0.222485,-0.077874,-0.401006
-0.050000,-0.050000,0.000000,0.000000,0.000000,0.000000,0.000000,0.000000,0.000000,0.100000,0.100000,-0.140218,-0.535867,-0.050000,-0.050000,0.383611,-0.716466,0.000000,0.000000,-0.491403,0.183781,1.097924,0.161647,0.075934,0.592000,-0.065057,-0.219395,-0.080514,-0.399064
-0.050000,-0.050000,0.000000,0.000000,0.000000,0.000000,0.000000,0.000000,0.000000,0.100000,0.100000,-0.140547,-0.530471,-0.050000,-0.050000,0.391474,-0.728122,0.000000,0.000000,-0.493133,0.171848,1.100674,0.181150,0.082664,0.598353,-0.063918,-0.215645,-0.083353,-0.394076
-0.050000,-0.050000,0.000000,0.000000,0.000000,0.000000,0.000000,0.000000,0.000000,0.100000,0.100000,-0.141348,-0.523872,-0.050000,-0.050000,0.400291,-0.740545,0.000000,0.000000,-0.494979,0.162164,1.102302,0.200262,0.089400,0.604053,-0.063075,-0.210873,-0.086316,-0.384768
-0.050000,-0.050000,0.000000,0.000000,0.000000,0.000000,0.000000,0.000000,0.000000,0.100000,0.100000,-0.142473,-0.516373,-0.050000,-0.050000,0.409692,-0.753154,0.000000,0.000000,-0.496823,0.153854,1.102609,0.218267,0.095815,0.609357,-0.062556,-0.205841,-0.089352,-0.372179
-0.050000,-0.050000,0.000000,0.000000,0.000000,0.000000,0.000000,0.000000,0.000000,0.100000,0.100000,-0.143688,-0.508110,-0.050000,-0.050000,0.419513,-0.765806,0.000000,0.000000,-0.498637,0.146239,1.101965,0.235450,0.101967,0.614353,-0.062188,-0.200652,-0.092460,-0.357506
-0.050000,-0.050000,0.000000,0.000000,0.000000,0.000000,0.000000,0.000000,0.000000,0.100000,0.100000,-0.145589,-0.498956,-0.050000,-0.050000,0.429669,-0.777777,0.000000,0.000000,-0.500428,0.139729,1.099135,0.249914,0.107332,0.618868,-0.062444,-0.196228,-0.095388,-0.340382
-0.050000,-0.050000,0.000000,0.000000,0.000000,0.000000,0.000000,0.000000,0.000000,0.100000,0.100000,-0.147437,-0.489149,-0.050000,-0.050000,0.439934,-0.789077,0.000000,0.000000,-0.502102,0.133025,1.095047,0.262921,0.112189,0.623123,-0.062842,-0.192343,-0.098248,-0.322836
-0.050000,-0.050000,0.000000,0.000000,0.000000,0.000000,0.000000,0.000000,0.000000,0.100000,0.100000,-0.149646,-0.478788,-0.050000,-0.050000,0.450097,-0.799046,0.000000,0.000000,-0.503687,0.126207,1.088859,0.273384,0.116267,0.627089,-0.063714,-0.189713,-0.100800,-0.305215
-0.050000,-0.050000,0.000000,0.000000,0.000000,0.000000,0.000000,0.000000,0.000000,0.100000,0.100000,-0.151981,-0.468010,-0.050000,-0.050000,0.459897,-0.807217,0.000000,0.000000,-0.505122,0.118594,1.080360,0.281496,0.119568,0.630831,-0.065001,-0.188594,-0.102923,-0.288990
-0.050000,-0.050000,0.000000,0.000000,0.000000,0.000000,0.000000,0.000000,0.000000,0.100000,0.100000,-0.154291,-0.456709,-0.050000,-0.050000,0.469617,-0.814062,0.000000,0.000000,-0.506469,0.110385,1.070194,0.287805,0.122339,0.634262,-0.066451,-0.188439,-0.104745,-0.274023
-0.050000,-0.050000,0.000000,0.000000,0.000000,0.000000,0.000000,0.000000,0.000000,0.100000,0.100000,-0.156789,-0.445449,-0.050000,-0.050000,0.478211,-0.817632,0.000000,0.000000,-0.507621,0.100535,1.056140,0.291445,0.124157,0.637582,-0.068695,-0.190761,-0.105651,-0.262933
-0.050000,-0.050000,0.000000,0.000000,0.000000,0.000000,0.000000,0.000000,0.000000,0.100000,0.100000,-0.159040,-0.433701,-0.050000,-0.050000,0.486701,-0.819480,0.000000,0.000000,-0.508693,0.089914,1.039932,0.293633,0.125575,0.640361,-0.071002,-0.193993,-0.106078,-0.254428
-0.050000,-0.050000,0.000000,0.000000,0.000000,0.000000,0.000000,0.000000,0.000000,0.100000,0.100000,-0.161211,-0.421956,-0.050000,-0.050000,0.494287,-0.818369,0.000000,0.000000,-0.509642,0.077936,1.020050,0.294247,0.126411,0.642744,-0.073864,-0.198890,-0.105656,-0.250001
-0.050000,-0.050000,0.000000,0.000000,0.000000,0.000000,0.000000,0.000000,0.000000,0.100000,0.100000,-0.163160,-0.410046,-0.050000,-0.050000,0.501251,-0.814617,0.000000,0.000000,-0.510547,0.065089,0.996479,0.293985,0.126877,0.644291,-0.077120,-0.204775,-0.104419,-0.249469
-0.050000,-0.050000,0.000000,0.000000,0.000000,0.000000,0.000000,0.000000,0.000000,0.100000,0.100000,-0.164801,-0.398006,-0.050000,-0.050000,0.507972,-0.808944,0.000000,0.000000,-0.511362,0.051740,0.970175,0.292996,0.127107,0.645032,-0.080483,-0.211254,-0.102659,-0.251804
-0.050000,-0.050000,0.000000,0.000000,0.000000,0.000000,0.000000,0.000000,0.000000,0.100000,0.100000,-0.166397,-0.385919,-0.050000,-0.050000,0.513589,-0.800099,0.000000,0.000000,-0.512269,0.038133,0.938534,0.292479,0.127053,0.644224,-0.084650,-0.217942,-0.099882,-0.258293
-0.050000,-0.050000,0.000000,0.000000,0.000000,0.000000,0.000000,0.000000,0.000000,0.100000,0.100000,-0.167617,-0.373730,-0.050000,-0.050000,0.519267,-0.789915,0.000000,0.000000,-0.513122,0.024963,0.904158,0.292130,0.126908,0.641981,-0.088716,-0.224230,-0.096778,-0.266631
-0.050000,-0.050000,0.000000,0.000000,0.000000,0.000000,0.000000,0.000000,0.000000,0.100000,0.100000,-0.168838,-0.361401,-0.050000,-0.050000,0.524361,-0.777846,0.000000,0.000000,-0.514050,0.012762,0.865573,0.293087,0.126618,0.637812,-0.093213,-0.229426,-0.093191,-0.276847
-0.050000,-0.050000,0.000000,0.000000,0.000000,0.000000,0.000000,0.000000,0.000000,0.100000,0.100000,-0.170081,-0.348864,-0.050000,-0.050000,0.529279,-0.764783,0.000000,0.000000,-0.515075,0.002375,0.823640,0.295717,0.126182,0.631417,-0.097781,-0.232729,-0.089475,-0.287397
-0.050000,-0.050000,0.000000,0.000000,0.000000,0.000000,0.000000,0.000000,0.000000,0.100000,0.100000,-0.171217,-0.336468,-0.050000,-0.050000,0.534062,-0.751057,0.000000,0.000000,-0.515934,-0.006580,0.779251,0.299679,0.125588,0.623435,-0.102277,-0.234568,-0.085819,-0.298019
-0.050000,-0.050000,0.000000,0.000000,0.000000,0.000000,0.000000,0.000000,0.000000,0.100000,0.100000,-0.173088,-0.323375,-0.050000,-0.050000,0.538535,-0.737107,0.000000,0.000000,-0.517153,-0.011566,0.731681,0.306881,0.124620,0.612276,-0.106832,-0.232481,-0.082491,-0.306260
-0.050000,-0.050000,0.000000,0.000000,0.000000,0.000000,0.000000,0.000000,0.000000,0.100000,0.100000,-0.174973,-0.310670,-0.050000,-0.050000,0.542897,-0.723291,0.000000,0.000000,-0.518102,-0.014430,0.682877,0.315781,0.123264,0.599636,-0.110982,-0.228393,-0.079671,-0.312787
-0.050000,-0.050000,0.000000,0.000000,0.000000,0.000000,0.000000,0.000000,0.000000,0.100000,0.100000,-0.177650,-0.297579,-0.050000,-0.050000,0.547013,-0.709944,0.000000,0.000000,-0.519155,-0.013198,0.632858,0.327472,0.121329,0.584550,-0.114792,-0.220732,-0.077625,-0.315592
-0.050000,-0.050000,0.000000,0.000000,0.000000,0.000000,0.000000,0.000000,0.000000,0.100000,0.100000,-0.180961,-0.284563,-0.050000,-0.050000,0.550862,-0.697256,0.000000,0.000000,-0.520136,-0.008264,0.582980,0.341339,0.118649,0.567641,-0.117959,-0.210169,-0.076561,-0.314310
-0.050000,-0.050000,0.000000,0.000000,0.000000,0.000000,0.000000,0.000000,0.000000,0.100000,0.100000,-0.184787,-0.271886,-0.050000,-0.050000,0.554306,-0.685086,0.000000,0.000000,-0.520823,-0.000525,0.533410,0.356928,0.115334,0.549474,-0.120690,-0.197680,-0.076306,-0.309742
-0.050000,-0.050000,0.000000,0.000000,0.000000,0.000000,0.000000,0.000000,0.000000,0.100000,0.100000,-0.189776,-0.259013,-0.050000,-0.050000,0.557429,-0.673789,0.000000,0.000000,-0.521717,0.012383,0.486271,0.374272,0.110930,0.529360,-0.122311,-0.182140,-0.077517,-0.298971
-0.050000,-0.050000,0.000000,0.000000,0.000000,0.000000,0.000000,0.000000,0.000000,0.100000,0.100000,-0.195284,-0.246883,-0.050000,-0.050000,0.559921,-0.662861,0.000000,0.000000,-0.522197,0.027465,0.441025,0.392425,0.105802,0.508637,-0.123470,-0.165883,-0.079543,-0.284999
-0.050000,-0.050000,0.000000,0.000000,0.000000,0.000000,0.000000,0.000000,0.000000,0.100000,0.100000,-0.201671,-0.235075,-0.050000,-0.050000,0.561948,-0.652363,0.000000,0.000000,-0.522654,0.046232,0.399403,0.410906,0.099778,0.486995,-0.123669,-0.148600,-0.082766,-0.266226
-0.050000,-0.050000,0.000000,0.000000,0.000000,0.000000,0.000000,0.000000,0.000000,0.100000,0.100000,-0.208641,-0.224042,-0.050000,-0.050000,0.563352,-0.641968,0.000000,0.000000,-0.522809,0.067279,0.361829,0.428874,0.093013,0.465245,-0.123164,-0.131574,-0.086874,-0.244041
-0.050000,-0.050000,0.000000,0.000000,0.000000,0.000000,0.000000,0.000000,0.000000,0.100000,0.100000,-0.216212,-0.213594,-0.050000,-0.050000,0.564144,-0.631607,0.000000,0.000000,-0.522706,0.090063,0.327575,0.446379,0.085750,0.443335,-0.122344,-0.115058,-0.091569,-0.219367
-0.050000,-0.050000,0.000000,0.000000,0.000000,0.000000,0.000000,0.000000,0.000000,0.100000,0.100000,-0.223948,-0.204284,-0.050000,-0.050000,0.564410,-0.621004,0.000000,0.000000,-0.522154,0.114444,0.299636,0.461491,0.077798,0.422550,-0.120515,-0.100242,-0.096994,-0.192011
-0.050000,-0.050000,0.000000,0.000000,0.000000,0.000000,0.000000,0.000000,0.000000,0.100000,0.100000,-0.232116,-0.195635,-0.050000,-0.050000,0.563995,-0.610291,0.000000,0.000000,-0.521144,0.139326,0.275258,0.475358,0.069557,0.402462,-0.118820,-0.086785,-0.102499,-0.163784
-0.050000,-0.050000,0.000000,0.000000,0.000000,0.000000,0.000000,0.000000,0.000000,0.100000,0.100000,-0.240083,-0.188200,-0.050000,-0.050000,0.563043,-0.599321,0.000000,0.000000,-0.519386,0.164221,0.256420,0.486465,0.060842,0.384290,-0.116667,-0.075619,-0.108025,-0.134981
-0.050000,-0.050000,0.000000,0.000000,0.000000,0.000000,0.000000,0.000000,0.000000,0.100000,0.100000,-0.247856,-0.181867,-0.050000,-0.050000,0.561444,-0.588286,0.000000,0.000000,-0.516634,0.188350,0.242102,0.495086,0.051611,0.368294,-0.114568,-0.066626,-0.113061,-0.106771
-0.050000,-0.050000,0.000000,0.000000,0.000000,0.000000,0.000000,0.000000,0.000000,0.100000,0.100000,-0.255563,-0.176306,-0.050000,-0.050000,0.559314,-0.577279,0.000000,0.000000,-0.513184,0.211911,0.231286,0.501749,0.042017,0.354069,-0.112670,-0.059245,-0.117632,-0.079182
-0.050000,-0.050000,0.000000,0.000000,0.000000,0.000000,0.000000,0.000000,0.000000,0.100000,0.100000,-0.262148,-0.172674,-0.050000,-0.050000,0.556423,-0.566500,0.000000,0.000000,-0.507658,0.232793,0.225606,0.504866,0.030981,0.343882,-0.110656,-0.054712,-0.120713,-0.054139
-0.050000,-0.050000,0.000000,0.000000,0.000000,0.000000,0.000000,0.000000,0.000000,0.100000,0.100000,-0.268694,-0.169730,-0.050000,-0.050000,0.552960,-0.556148,0.000000,0.000000,-0.501223,0.252651,0.222306,0.506348,0.019095,0.335821,-0.109130,-0.051250,-0.122823,-0.030647
-0.050000,-0.050000,0.000000,0.000000,0.000000,0.000000,0.000000,0.000000,0.000000,0.100000,0.100000,-0.274194,-0.168563,-0.050000,-0.050000,0.548692,-0.546409,0.000000,0.000000,-0.492612,0.269498,0.222413,0.505131,0.005083,0.331675,-0.107714,-0.049741,-0.123006,-0.010342
-0.050000,-0.050000,0.000000,0.000000,0.000000,0.000000,0.000000,0.000000,0.000000,0.100000,0.100000,-0.279140,-0.168768,-0.050000,-0.050000,0.543641,-0.537508,0.000000,0.000000,-0.482184,0.283867,0.224561,0.502027,-0.011387,0.330944,-0.106643,-0.049370,-0.121283,0.006888
-0.050000,-0.050000,0.000000,0.000000,0.000000,0.000000,0.000000,0.000000,0.000000,0.100000,0.100000,-0.283713,-0.170056,-0.050000,-0.050000,0.538005,-0.529342,0.000000,0.000000,-0.470380,0.296332,0.228172,0.497444,-0.029923,0.332955,-0.105889,-0.049746,-0.118071,0.021656
-0.050000,-0.050000,0.000000,0.000000,0.000000,0.000000,0.000000,0.000000,0.000000,0.100000,0.100000,-0.287239,-0.173581,-0.050000,-0.050000,0.531175,-0.522382,0.000000,0.000000,-0.455692,0.304435,0.233302,0.490878,-0.053405,0.339976,-0.105377,-0.051428,-0.111827,0.031489
-0.050000,-0.050000,0.000000,0.000000,0.000000,0.000000,0.000000,0.000000,0.000000,0.100000,0.100000,-0.290792,-0.178008,-0.050000,-0.050000,0.523894,-0.516260,0.000000,0.000000,-0.440053,0.311047,0.238748,0.483365,-0.079568,0.349554,-0.105272,-0.053368,-0.104269,0.038915
-0.050000,-0.050000,0.000000,0.000000,0.000000,0.000000,0.000000,0.000000,0.000000,0.100000,0.100000,-0.293722,-0.184336,-0.050000,-0.050000,0.515572,-0.511176,0.000000,0.000000,-0.422200,0.313880,0.244551,0.474562,-0.110912,0.363594,-0.105566,-0.056192,-0.094192,0.041871
-0.050000,-0.050000,0.000000,0.000000,0.000000,0.000000,0.000000,0.000000,0.000000,0.100000,0.100000,-0.296552,-0.192015,-0.050000,-0.050000,0.506611,-0.506947,0.000000,0.000000,-0.403143,0.314184,0.250021,0.464889,-0.146632,0.381217,-0.106373,-0.059576,-0.082440,0.041310
-0.050000,-0.050000,0.000000,0.000000,0.000000,0.000000,0.000000,0.000000,0.000000,0.100000,0.100000,-0.299374,-0.200755,-0.050000,-0.050000,0.497169,-0.503339,0.000000,0.000000,-0.383194,0.312480,0.255122,0.454529,-0.185935,0.401684,-0.107807,-0.063510,-0.069462,0.037964
-0.050000,-0.050000,0.000000,0.000000,0.000000,0.000000,0.000000,0.000000,0.000000,0.100000,0.100000,-0.301858,-0.211262,-0.050000,-0.050000,0.486892,-0.500395,0.000000,0.000000,-0.361970,0.307075,0.259244,0.443305,-0.230960,0.426786,-0.110033,-0.068665,-0.054701,0.029943
-0.050000,-0.050000,0.000000,0.000000,0.000000,0.000000,0.000000,0.000000,0.000000,0.100000,0.100000,-0.304554,-0.222407,-0.050000,-0.050000,0.476545,-0.497783,0.000000,0.000000,-0.340684,0.300516,0.262571,0.431613,-0.278535,0.453903,-0.113086,-0.074527,-0.039543,0.019931
-0.050000,-0.050000,0.000000,0.000000,0.000000,0.000000,0.000000,0.000000,0.000000,0.100000,0.100000,-0.307011,-0.234746,-0.050000,-0.050000,0.465799,-0.495397,0.000000,0.000000,-0.319012,0.291266,0.264688,0.419286,-0.329905,0.484244,-0.117157,-0.081834,-0.023699,0.006506
-0.050000,-0.050000,0.000000,0.000000,0.000000,0.000000,0.000000,0.000000,0.000000,0.100000,0.100000,-0.309402,-0.247659,-0.050000,-0.050000,0.455191,-0.493100,0.000000,0.000000,-0.297692,0.280654,0.265638,0.406517,-0.383014,0.516218,-0.122201,-0.090395,-0.008008,-0.008907
-0.050000,-0.050000,0.000000,0.000000,0.000000,0.000000,0.000000,0.000000,0.000000,0.100000,0.100000,-0.311686,-0.260968,-0.050000,-0.050000,0.444642,-0.490707,0.000000,0.000000,-0.276686,0.268930,0.265618,0.393387,-0.437327,0.549299,-0.128260,-0.100237,0.007373,-0.025760
-0.050000,-0.050000,0.000000,0.000000,0.000000,0.000000,0.000000,0.000000,0.000000,0.100000,0.100000,-0.313469,-0.274633,-0.050000,-0.050000,0.434729,-0.488329,0.000000,0.000000,-0.256679,0.255907,0.264153,0.379937,-0.491218,0.582714,-0.135153,-0.111635,0.021755,-0.044150
-0.050000,-0.050000,0.000000,0.000000,0.000000,0.000000,0.000000,0.000000,0.000000,0.100000,0.100000,-0.314997,-0.288154,-0.050000,-0.050000,0.425199,-0.485721,0.000000,0.000000,-0.237393,0.242619,0.261877,0.366382,-0.544221,0.615586,-0.142791,-0.124071,0.035236,-0.062754
-0.050000,-0.050000,0.000000,0.000000,0.000000,0.000000,0.000000,0.000000,0.000000,0.100000,0.100000,-0.315875,-0.301447,-0.050000,-0.050000,0.416701,-0.483155,0.000000,0.000000,-0.219500,0.229026,0.258530,0.352912,-0.594336,0.646810,-0.150819,-0.137518,0.047168,-0.081467
-0.050000,-0.050000,0.000000,0.000000,0.000000,0.000000,0.000000,0.000000,0.000000,0.100000,0.100000,-0.316121,-0.314128,-0.050000,-0.050000,0.409155,-0.480559,0.000000,0.000000,-0.202926,0.215742,0.254528,0.339862,-0.640825,0.675595,-0.158972,-0.151425,0.057623,-0.099515
-0.050000,-0.050000,0.000000,0.000000,0.000000,0.000000,0.000000,0.000000,0.000000,0.100000,0.100000,-0.315754,-0.326245,-0.050000,-0.050000,0.402341,-0.477869,0.000000,0.000000,-0.187448,0.202715,0.250009,0.327205,-0.684014,0.702114,-0.167169,-0.165695,0.066819,-0.116865
-0.050000,-0.050000,0.000000,0.000000,0.000000,0.000000,0.000000,0.000000,0.000000,0.100000,0.100000,-0.314390,-0.337061,-0.050000,-0.050000,0.397383,-0.475746,0.000000,0.000000,-0.174188,0.190976,0.245331,0.316049,-0.720205,0.723923,-0.174495,-0.179179,0.074053,-0.132612
-0.050000,-0.050000,0.000000,0.000000,0.000000,0.000000,0.000000,0.000000,0.000000,0.100000,0.100000,-0.312328,-0.347042,-0.050000,-0.050000,0.392876,-0.473454,0.000000,0.000000,-0.161898,0.179762,0.240615,0.305802,-0.752578,0.743083,-0.181425,-0.192321,0.080399,-0.147333
-0.050000,-0.050000,0.000000,0.000000,0.000000,0.000000,0.000000,0.000000,0.000000,0.100000,0.100000,-0.309264,-0.355407,-0.050000,-0.050000,0.390067,-0.471852,0.000000,0.000000,-0.151791,0.170233,0.236373,0.297751,-0.777805,0.757454,-0.186985,-0.203820,0.085278,-0.160292
-0.050000,-0.050000,0.000000,0.000000,0.000000,0.000000,0.000000,0.000000,0.000000,0.100000,0.100000,-0.305336,-0.362340,-0.050000,-0.050000,0.388054,-0.470462,0.000000,0.000000,-0.143247,0.161971,0.232817,0.291824,-0.797530,0.768230,-0.191342,-0.213779,0.089360,-0.171854
-0.050000,-0.050000,0.000000,0.000000,0.000000,0.000000,0.000000,0.000000,0.000000,0.100000,0.100000,-0.300663,-0.368033,-0.050000,-0.050000,0.386736,-0.469340,0.000000,0.000000,-0.136080,0.154835,0.229902,0.287808,-0.812498,0.775962,-0.194594,-0.222308,0.092855,-0.182228
-0.050000,-0.050000,0.000000,0.000000,0.000000,0.000000,0.000000,0.000000,0.000000,0.100000,0.100000,-0.294993,-0.371386,-0.050000,-0.050000,0.386738,-0.468915,0.000000,0.000000,-0.131409,0.150005,0.228646,0.287590,-0.820379,0.779335,-0.195661,-0.227836,0.095576,-0.190894
-0.050000,-0.050000,0.000000,0.000000,0.000000,0.000000,0.000000,0.000000,0.000000,0.100000,0.100000,-0.288750,-0.373664,-0.050000,-0.050000,0.386821,-0.468482,0.000000,0.000000,-0.127817,0.145994,0.228233,0.289318,-0.824709,0.780717,-0.195700,-0.231984,0.098134,-0.198647
-0.050000,-0.050000,0.000000,0.000000,0.000000,0.000000,0.000000,0.000000,0.000000,0.100000,0.100000,-0.281726,-0.373616,-0.050000,-0.050000,0.387853,-0.468576,0.000000,0.000000,-0.126616,0.144135,0.229627,0.294892,-0.823269,0.778858,-0.193580,-0.233128,0.100164,-0.204972
-0.050000,-0.050000,0.000000,0.000000,0.000000,0.000000,0.000000,0.000000,0.000000,0.100000,0.100000,-0.274201,-0.371934,-0.050000,-0.050000,0.389145,-0.468751,0.000000,0.000000,-0.127103,0.143556,0.232357,0.303270,-0.817840,0.775014,-0.189923,-0.232171,0.101833,-0.210181
-0.050000,-0.050000,0.000000,0.000000,0.000000,0.000000,0.000000,0.000000,0.000000,0.100000,0.100000,-0.266273,-0.368773,-0.050000,-0.050000,0.390721,-0.469037,0.000000,0.000000,-0.129143,0.144135,0.236266,0.314121,-0.808980,0.769493,-0.184913,-0.229346,0.103122,-0.214369
-0.050000,-0.050000,0.000000,0.000000,0.000000,0.000000,0.000000,0.000000,0.000000,0.100000,0.100000,-0.257974,-0.363099,-0.050000,-0.050000,0.393108,-0.469510,0.000000,0.000000,-0.133866,0.146651,0.241821,0.328660,-0.795021,0.761551,-0.177695,-0.223496,0.103319,-0.216961
-0.050000,-0.050000,0.000000,0.000000,0.000000,0.000000,0.000000,0.000000,0.000000,0.100000,0.100000,-0.249531,-0.356322,-0.050000,-0.050000,0.395578,-0.469847,0.000000,0.000000,-0.139841,0.149752,0.248129,0.344844,-0.778351,0.752414,-0.169542,-0.216362,0.102858,-0.218490
-0.050000,-0.050000,0.000000,0.000000,0.000000,0.000000,0.000000,0.000000,0.000000,0.100000,0.100000,-0.241026,-0.347220,-0.050000,-0.050000,0.399007,-0.470242,0.000000,0.000000,-0.148448,0.154442,0.255463,0.363899,-0.756785,0.740958,-0.159533,-0.206665,0.100714,-0.218239
-0.050000,-0.050000,0.000000,0.000000,0.000000,0.000000,0.000000,0.000000,0.000000,0.100000,0.100000,-0.232626,-0.336623,-0.050000,-0.050000,0.403027,-0.470469,0.000000,0.000000,-0.158851,0.159851,0.263221,0.384555,-0.731374,0.727652,-0.148472,-0.195476,0.096991,-0.216409
-0.050000,-0.050000,0.000000,0.000000,0.000000,0.000000,0.000000,0.000000,0.000000,0.100000,0.100000,-0.224360,-0.324611,-0.050000,-0.050000,0.407641,-0.470479,0.000000,0.000000,-0.170933,0.165929,0.271264,0.406566,-0.702430,0.712546,-0.136590,-0.183006,0.091649,-0.213085
-0.050000,-0.050000,0.000000,0.000000,0.000000,0.000000,0.000000,0.000000,0.000000,0.100000,0.100000,-0.216604,-0.310635,-0.050000,-0.050000,0.413697,-0.470396,0.000000,0.000000,-0.185556,0.173107,0.279112,0.430220,-0.667781,0.694442,-0.123657,-0.168850,0.083489,-0.207502
-0.050000,-0.050000,0.000000,0.000000,0.000000,0.000000,0.000000,0.000000,0.000000,0.100000,0.100000,-0.209108,-0.295757,-0.050000,-0.050000,0.420144,-0.469832,0.000000,0.000000,-0.201269,0.180426,0.286822,0.454481,-0.630160,0.674615,-0.110676,-0.154242,0.073680,-0.200553
-0.050000,-0.050000,0.000000,0.000000,0.000000,0.000000,0.000000,0.000000,0.000000,0.100000,0.100000,-0.202377,-0.279397,-0.050000,-0.050000,0.428015,-0.469033,0.000000,0.000000,-0.219068,0.188608,0.293821,0.479846,-0.587301,0.651788,-0.097523,-0.138758,0.060994,-0.191474
-0.050000,-0.050000,0.000000,0.000000,0.000000,0.000000,0.000000,0.000000,0.000000,0.100000,0.100000,-0.196234,-0.262339,-0.050000,-0.050000,0.436501,-0.467650,0.000000,0.000000,-0.237859,0.196993,0.300272,0.505812,-0.541270,0.626936,-0.084941,-0.123272,0.046387,-0.180937
-0.050000,-0.050000,0.000000,0.000000,0.000000,0.000000,0.000000,0.000000,0.000000,0.100000,0.100000,-0.190722,-0.244707,-0.050000,-0.050000,0.445629,-0.465730,0.000000,0.000000,-0.257592,0.205723,0.306155,0.532343,-0.492439,0.600192,-0.073205,-0.107964,0.029942,-0.169052
-0.050000,-0.050000,0.000000,0.000000,0.000000,0.000000,0.000000,0.000000,0.000000,0.100000,0.100000,-0.186253,-0.226847,-0.050000,-0.050000,0.455381,-0.463137,0.000000,0.000000,-0.277940,0.214804,0.311245,0.559758,-0.441281,0.571732,-0.062786,-0.093184,0.011971,-0.155918
-0.050000,-0.050000,0.000000,0.000000,0.000000,0.000000,0.000000,0.000000,0.000000,0.100000,0.100000,-0.182347,-0.209145,-0.050000,-0.050000,0.465204,-0.459818,0.000000,0.000000,-0.298403,0.223982,0.316085,0.587651,-0.389460,0.542444,-0.053784,-0.079236,-0.006777,-0.142070
-0.050000,-0.050000,0.000000,0.000000,0.000000,0.000000,0.000000,0.000000,0.000000,0.100000,0.100000,-0.179493,-0.192036,-0.050000,-0.050000,0.474932,-0.455668,0.000000,0.000000,-0.318476,0.233252,0.320573,0.616402,-0.338190,0.512952,-0.046546,-0.066397,-0.025508,-0.127800
-0.050000,-0.050000,0.000000,0.000000,0.000000,0.000000,0.000000,0.000000,0.000000,0.100000,0.100000,-0.177361,-0.175892,-0.050000,-0.050000,0.484162,-0.450712,0.000000,0.000000,-0.337741,0.242408,0.325221,0.645679,-0.289047,0.484159,-0.040919,-0.054827,-0.043422,-0.113566
-0.050000,-0.050000,0.000000,0.000000,0.000000,0.000000,0.000000,0.000000,0.000000,0.100000,0.100000,-0.175971,-0.160757,-0.050000,-0.050000,0.492896,-0.445080,0.000000,0.000000,-0.356178,0.251522,0.330081,0.675453,-0.242312,0.456249,-0.036744,-0.044453,-0.060286,-0.099502
-0.050000,-0.050000,0.000000,0.000000,0.000000,0.000000,0.000000,0.000000,0.000000,0.100000,0.100000,-0.175372,-0.147561,-0.050000,-0.050000,0.500172,-0.438573,0.000000,0.000000,-0.372291,0.259825,0.335846,0.705247,-0.201964,0.431505,-0.033916,-0.035734,-0.073873,-0.086559
-0.050000,-0.050000,0.000000,0.000000,0.000000,0.000000,0.000000,0.000000,0.000000,0.100000,0.100000,-0.175420,-0.135649,-0.050000,-0.050000,0.506873,-0.431752,0.000000,0.000000,-0.387375,0.268050,0.342206,0.734981,-0.165391,0.408562,-0.031957,-0.028084,-0.085610,-0.074210
-0.050000,-0.050000,0.000000,0.000000,0.000000,0.000000,0.000000,0.000000,0.000000,0.100000,0.100000,-0.176080,-0.126072,-0.050000,-0.050000,0.511774,-0.424375,0.000000,0.000000,-0.399340,0.274934,0.350009,0.763573,-0.137541,0.390327,-0.030649,-0.022103,-0.092768,-0.063595
-0.050000,-0.050000,0.000000,0.000000,0.000000,0.000000,0.000000,0.000000,0.000000,0.100000,0.100000,-0.177375,-0.118328,-0.050000,-0.050000,0.515738,-0.417042,0.000000,0.000000,-0.409250,0.281135,0.358915,0.790608,-0.116447,0.375834,-0.029705,-0.017355,-0.096497,-0.054321
-0.050000,-0.050000,0.000000,0.000000,0.000000,0.000000,0.000000,0.000000,0.000000,0.100000,0.100000,-0.179207,-0.112293,-0.050000,-0.050000,0.518706,-0.409804,0.000000,0.000000,-0.416978,0.286477,0.368936,0.815876,-0.102076,0.365154,-0.028929,-0.013664,-0.096810,-0.046430
-0.050000,-0.050000,0.000000,0.000000,0.000000,0.000000,0.000000,0.000000,0.000000,0.100000,0.100000,-0.181556,-0.108755,-0.050000,-0.050000,0.520451,-0.403017,0.000000,0.000000,-0.421039,0.290014,0.380457,0.836822,-0.097990,0.360631,-0.028310,-0.011848,-0.092032,-0.040734
-0.050000,-0.050000,0.000000,0.000000,0.000000,0.000000,0.000000,0.000000,0.000000,0.100000,0.100000,-0.184536,-0.106400,-0.050000,-0.050000,0.521980,-0.396901,0.000000,0.000000,-0.423629,0.293182,0.392626,0.855221,-0.099140,0.359314,-0.027838,-0.010640,-0.084866,-0.036227
-0.050000,-0.050000,0.000000,0.000000,0.000000,0.000000,0.000000,0.000000,0.000000,0.100000,0.100000,-0.188004,-0.106362,-0.050000,-0.050000,0.523011,-0.391725,0.000000,0.000000,-0.422577,0.294451,0.405806,0.867540,-0.109908,0.364177,-0.027742,-0.011458,-0.073326,-0.033947
-0.050000,-0.050000,0.000000,0.000000,0.000000,0.000000,0.000000,0.000000,0.000000,0.100000,0.100000,-0.192130,-0.107581,-0.050000,-0.050000,0.524464,-0.387670,0.000000,0.000000,-0.419714,0.295109,0.419181,0.875172,-0.126222,0.372872,-0.028149,-0.013279,-0.059682,-0.033195
-0.050000,-0.050000,0.000000,0.000000,0.000000,0.000000,0.000000,0.000000,0.000000,0.100000,0.100000,-0.196749,-0.109998,-0.050000,-0.050000,0.526322,-0.384593,0.000000,0.000000,-0.414888,0.294925,0.432658,0.877949,-0.147796,0.385283,-0.029172,-0.016210,-0.044144,-0.033933
-0.050000,-0.050000,0.000000,0.000000,0.000000,0.000000,0.000000,0.000000,0.000000,0.100000,0.100000,-0.202000,-0.114127,-0.050000,-0.050000,0.529587,-0.382979,0.000000,0.000000,-0.407956,0.293664,0.445558,0.873555,-0.174580,0.402016,-0.031183,-0.021080,-0.027181,-0.036641
-0.050000,-0.050000,0.000000,0.000000,0.000000,0.000000,0.000000,0.000000,0.000000,0.100000,0.100000,-0.207710,-0.118711,-0.050000,-0.050000,0.533839,-0.382181,0.000000,0.000000,-0.400213,0.292279,0.457878,0.865412,-0.203576,0.420715,-0.033864,-0.026425,-0.010042,-0.040473
-0.050000,-0.050000,0.000000,0.000000,0.000000,0.000000,0.000000,0.000000,0.000000,0.100000,0.100000,-0.214019,-0.124822,-0.050000,-0.050000,0.540381,-0.382766,0.000000,0.000000,-0.391527,0.290227,0.468767,0.850633,-0.234534,0.442129,-0.037536,-0.033574,0.006761,-0.046082
-0.050000,-0.050000,0.000000,0.000000,0.000000,0.000000,0.000000,0.000000,0.000000,0.100000,0.100000,-0.220789,-0.131446,-0.050000,-0.050000,0.548797,-0.384149,0.000000,0.000000,-0.382984,0.288292,0.478257,0.832257,-0.265037,0.464265,-0.041707,-0.041208,0.022350,-0.052848
-0.050000,-0.050000,0.000000,0.000000,0.000000,0.000000,0.000000,0.000000,0.000000,0.100000,0.100000,-0.227943,-0.138734,-0.050000,-0.050000,0.559122,-0.386204,0.000000,0.000000,-0.374720,0.286342,0.486279,0.810459,-0.294563,0.486793,-0.046272,-0.049549,0.036592,-0.060649
-0.050000,-0.050000,0.000000,0.000000,0.000000,0.000000,0.000000,0.000000,0.000000,0.100000,0.100000,-0.235740,-0.146979,-0.050000,-0.050000,0.572557,-0.389317,0.000000,0.000000,-0.368416,0.285002,0.491863,0.785861,-0.319694,0.508021,-0.050813,-0.058162,0.047965,-0.069555
-0.050000,-0.050000,0.000000,0.000000,0.000000,0.000000,0.000000,0.000000,0.000000,0.100000,0.100000,-0.243788,-0.155420,-0.050000,-0.050000,0.587433,-0.392558,0.000000,0.000000,-0.363081,0.283912,0.496046,0.760158,-0.342158,0.528076,-0.055112,-0.066700,0.057688,-0.078972
-0.050000,-0.050000,0.000000,0.000000,0.000000,0.000000,0.000000,0.000000,0.000000,0.100000,0.100000,-0.252607,-0.164699,-0.050000,-0.050000,0.605611,-0.396852,0.000000,0.000000,-0.361394,0.284152,0.497366,0.734120,-0.357115,0.544491,-0.058652,-0.074463,0.063633,-0.088939
-0.050000,-0.050000,0.000000,0.000000,0.000000,0.000000,0.000000,0.000000,0.000000,0.100000,0.100000,-0.261887,-0.174187,-0.050000,-0.050000,0.625492,-0.401356,0.000000,0.000000,-0.362249,0.285254,0.496722,0.709034,-0.366418,0.557535,-0.061320,-0.081163,0.066983,-0.098909
-0.050000,-0.050000,0.000000,0.000000,0.000000,0.000000,0.000000,0.000000,0.000000,0.100000,0.100000,-0.271759,-0.184017,-0.050000,-0.050000,0.647216,-0.406273,0.000000,0.000000,-0.366130,0.287422,0.494008,0.685285,-0.369520,0.566844,-0.063062,-0.086648,0.067595,-0.108742
-0.050000,-0.050000,0.000000,0.000000,0.000000,0.000000,0.000000,0.000000,0.000000,0.100000,0.100000,-0.282580,-0.194010,-0.050000,-0.050000,0.671110,-0.412001,0.000000,0.000000,-0.374950,0.291814,0.488311,0.665010,-0.363200,0.569773,-0.063537,-0.089524,0.064030,-0.117701
-0.050000,-0.050000,0.000000,0.000000,0.000000,0.000000,0.000000,0.000000,0.000000,0.100000,0.100000,-0.293923,-0.204112,-0.050000,-0.050000,0.695644,-0.417635,0.000000,0.000000,-0.386002,0.296809,0.481120,0.646797,-0.352144,0.569306,-0.063265,-0.091122,0.058491,-0.125980
-0.050000,-0.050000,0.000000,0.000000,0.000000,0.000000,0.000000,0.000000,0.000000,0.100000,0.100000,-0.306369,-0.214000,-0.050000,-0.050000,0.721534,-0.424097,0.000000,0.000000,-0.402387,0.304609,0.470802,0.633462,-0.331568,0.561461,-0.062054,-0.089422,0.048497,-0.132424
-0.050000,-0.050000,0.000000,0.000000,0.000000,0.000000,0.000000,0.000000,0.000000,0.100000,0.100000,-0.319428,-0.223677,-0.050000,-0.050000,0.747232,-0.430369,0.000000,0.000000,-0.421312,0.313444,0.458833,0.623425,-0.306003,0.549214,-0.060473,-0.085962,0.036103,-0.137261
-0.050000,-0.050000,0.000000,0.000000,0.000000,0.000000,0.000000,0.000000,0.000000,0.100000,0.100000,-0.333248,-0.233026,-0.050000,-0.050000,0.772785,-0.436737,0.000000,0.000000,-0.443188,0.323834,0.445049,0.616929,-0.275298,0.532281,-0.058827,-0.080581,0.021033,-0.140267
-0.050000,-0.050000,0.000000,0.000000,0.000000,0.000000,0.000000,0.000000,0.000000,0.100000,0.100000,-0.347423,-0.241464,-0.050000,-0.050000,0.796774,-0.442709,0.000000,0.000000,-0.467649,0.336114,0.429467,0.614960,-0.239840,0.509864,-0.057472,-0.073102,0.003103,-0.140560
-0.050000,-0.050000,0.000000,0.000000,0.000000,0.000000,0.000000,0.000000,0.000000,0.100000,0.100000,-0.361877,-0.249528,-0.050000,-0.050000,0.819561,-0.448215,0.000000,0.000000,-0.493159,0.348925,0.413180,0.615348,-0.202404,0.484875,-0.056683,-0.065064,-0.016134,-0.139234
-0.050000,-0.050000,0.000000,0.000000,0.000000,0.000000,0.000000,0.000000,0.000000,0.100000,0.100000,-0.375689,-0.256153,-0.050000,-0.050000,0.838898,-0.452493,0.000000,0.000000,-0.519180,0.363061,0.396164,0.619786,-0.163299,0.455925,-0.056728,-0.055972,-0.036968,-0.135110
-0.050000,-0.050000,0.000000,0.000000,0.000000,0.000000,0.000000,0.000000,0.000000,0.100000,0.100000,-0.388543,-0.261908,-0.050000,-0.050000,0.855259,-0.455563,0.000000,0.000000,-0.544257,0.377204,0.379500,0.626352,-0.124779,0.425691,-0.057582,-0.047236,-0.057904,-0.129398
-0.050000,-0.050000,0.000000,0.000000,0.000000,0.000000,0.000000,0.000000,0.000000,0.100000,0.100000,-0.400037,-0.266551,-0.050000,-0.050000,0.868220,-0.457309,0.000000,0.000000,-0.567929,0.391525,0.363331,0.635040,-0.087399,0.394387,-0.059263,-0.038918,-0.078700,-0.122121
-0.050000,-0.050000,0.000000,0.000000,0.000000,0.000000,0.000000,0.000000,0.000000,0.100000,0.100000,-0.408331,-0.269571,-0.050000,-0.050000,0.875349,-0.456474,0.000000,0.000000,-0.587347,0.404752,0.349216,0.645861,-0.054229,0.363898,-0.061298,-0.031670,-0.097694,-0.113612
-0.050000,-0.050000,0.000000,0.000000,0.000000,0.000000,0.000000,0.000000,0.000000,0.100000,0.100000,-0.414518,-0.271813,-0.050000,-0.050000,0.879513,-0.454683,0.000000,0.000000,-0.604298,0.417788,0.336182,0.657735,-0.023368,0.334033,-0.063829,-0.025462,-0.115572,-0.104468
-0.050000,-0.050000,0.000000,0.000000,0.000000,0.000000,0.000000,0.000000,0.000000,0.100000,0.100000,-0.415635,-0.272307,-0.050000,-0.050000,0.876282,-0.449543,0.000000,0.000000,-0.614118,0.428332,0.326698,0.671206,0.000186,0.307662,-0.065788,-0.020769,-0.129878,-0.094969
-0.050000,-0.050000,0.000000,0.000000,0.000000,0.000000,0.000000,0.000000,0.000000,0.100000,0.100000,-0.413046,-0.272004,-0.050000,-0.050000,0.868787,-0.443102,0.000000,0.000000,-0.619207,0.437839,0.319367,0.685415,0.018929,0.284083,-0.067476,-0.017312,-0.141695,-0.085456
-0.050000,-0.050000,0.000000,0.000000,0.000000,0.000000,0.000000,0.000000,0.000000,0.100000,0.100000,-0.406283,-0.270801,-0.050000,-0.050000,0.856215,-0.434834,0.000000,0.000000,-0.618609,0.445693,0.314639,0.700347,0.031806,0.264069,-0.068465,-0.015000,-0.150570,-0.076089
-0.050000,-0.050000,0.000000,0.000000,0.000000,0.000000,0.000000,0.000000,0.000000,0.100000,0.100000,-0.394352,-0.268685,-0.050000,-0.050000,0.837064,-0.424289,0.000000,0.000000,-0.610469,0.450624,0.313401,0.715831,0.035768,0.249721,-0.068207,-0.013884,-0.155392,-0.067131
-0.050000,-0.050000,0.000000,0.000000,0.000000,0.000000,0.000000,0.000000,0.000000,0.100000,0.100000,-0.379727,-0.266321,-0.050000,-0.050000,0.814749,-0.413390,0.000000,0.000000,-0.598737,0.455116,0.313549,0.731536,0.035387,0.238329,-0.067518,-0.013461,-0.158209,-0.058341
-0.050000,-0.050000,0.000000,0.000000,0.000000,0.000000,0.000000,0.000000,0.000000,0.100000,0.100000,-0.360730,-0.263346,-0.050000,-0.050000,0.785830,-0.400531,0.000000,0.000000,-0.579711,0.456081,0.316910,0.747265,0.024378,0.233652,-0.065543,-0.013966,-0.156928,-0.050014
-0.050000,-0.050000,0.000000,0.000000,0.000000,0.000000,0.000000,0.000000,0.000000,0.100000,0.100000,-0.340231,-0.260368,-0.050000,-0.050000,0.754063,-0.387830,0.000000,0.000000,-0.557916,0.456399,0.321230,0.762722,0.007694,0.232553,-0.063364,-0.014968,-0.153766,-0.041834
-0.050000,-0.050000,0.000000,0.000000,0.000000,0.000000,0.000000,0.000000,0.000000,0.100000,0.100000,-0.318525,-0.257295,-0.050000,-0.050000,0.718929,-0.374794,0.000000,0.000000,-0.533071,0.455104,0.326771,0.777751,-0.015839,0.235612,-0.060939,-0.016421,-0.148502,-0.033852
-0.050000,-0.050000,0.000000,0.000000,0.000000,0.000000,0.000000,0.000000,0.000000,0.100000,0.100000,-0.296750,-0.254279,-0.050000,-0.050000,0.681318,-0.361991,0.000000,0.000000,-0.506050,0.452096,0.333075,0.791774,-0.047234,0.243036,-0.058752,-0.018413,-0.141285,-0.026166
-0.050000,-0.050000,0.000000,0.000000,0.000000,0.000000,0.000000,0.000000,0.000000,0.100000,0.100000,-0.275987,-0.251348,-0.050000,-0.050000,0.642736,-0.349732,0.000000,0.000000,-0.478929,0.448654,0.339553,0.805150,-0.082622,0.252631,-0.057073,-0.020553,-0.133263,-0.018579
-0.050000,-0.050000,0.000000,0.000000,0.000000,0.000000,0.000000,0.000000,0.000000,0.100000,0.100000,-0.257126,-0.248638,-0.050000,-0.050000,0.603946,-0.338352,0.000000,0.000000,-0.451618,0.443799,0.346173,0.816990,-0.124647,0.265483,-0.056397,-0.023232,-0.123936,-0.011568
-0.050000,-0.050000,0.000000,0.000000,0.000000,0.000000,0.000000,0.000000,0.000000,0.100000,0.100000,-0.240732,-0.246127,-0.050000,-0.050000,0.566256,-0.327961,0.000000,0.000000,-0.425726,0.438813,0.352715,0.827878,-0.169244,0.279429,-0.056746,-0.026015,-0.114230,-0.004992
-0.050000,-0.050000,0.000000,0.000000,0.000000,0.000000,0.000000,0.000000,0.000000,0.100000,0.100000,-0.226988,-0.243865,-0.050000,-0.050000,0.530131,-0.318513,0.000000,0.000000,-0.401248,0.433436,0.359234,0.837689,-0.216311,0.294347,-0.058285,-0.028999,-0.104104,0.000951
-0.050000,-0.050000,0.000000,0.000000,0.000000,0.000000,0.000000,0.000000,0.000000,0.100000,0.100000,-0.216914,-0.242064,-0.050000,-0.050000,0.497811,-0.310587,0.000000,0.000000,-0.379294,0.428415,0.365822,0.846530,-0.263666,0.309045,-0.061125,-0.032150,-0.093445,0.005705
-0.050000,-0.050000,0.000000,0.000000,0.000000,0.000000,0.000000,0.000000,0.000000,0.100000,0.100000,-0.209222,-0.240519,-0.050000,-0.050000,0.467503,-0.303182,0.000000,0.000000,-0.358939,0.423377,0.372701,0.854866,-0.311004,0.323478,-0.065004,-0.035257,-0.082603,0.009777
-0.050000,-0.050000,0.000000,0.000000,0.000000,0.000000,0.000000,0.000000,0.000000,0.100000,0.100000,-0.205709,-0.239675,-0.050000,-0.050000,0.443257,-0.297623,0.000000,0.000000,-0.341860,0.419554,0.380162,0.862939,-0.355065,0.335914,-0.069968,-0.038343,-0.070812,0.012034
-0.050000,-0.050000,0.000000,0.000000,0.000000,0.000000,0.000000,0.000000,0.000000,0.100000,0.100000,-0.204715,-0.239293,-0.050000,-0.050000,0.422332,-0.292547,0.000000,0.000000,-0.326682,0.416234,0.388458,0.871195,-0.396392,0.346722,-0.075688,-0.041200,-0.058396,0.013170
-0.050000,-0.050000,0.000000,0.000000,0.000000,0.000000,0.000000,0.000000,0.000000,0.100000,0.100000,-0.206468,-0.239493,-0.050000,-0.050000,0.405833,-0.288385,0.000000,0.000000,-0.313742,0.413861,0.397676,0.879898,-0.433758,0.355280,-0.082033,-0.043816,-0.045112,0.012928
-0.050000,-0.050000,0.000000,0.000000,0.000000,0.000000,0.000000,0.000000,0.000000,0.100000,0.100000,-0.211066,-0.240372,-0.050000,-0.050000,0.394964,-0.285358,0.000000,0.000000,-0.303482,0.412912,0.408344,0.889770,-0.464716,0.360293,-0.088546,-0.045882,-0.030513,0.011031
-0.050000,-0.050000,0.000000,0.000000,0.000000,0.000000,0.000000,0.000000,0.000000,0.100000,0.100000,-0.217191,-0.241716,-0.050000,-0.050000,0.386675,-0.282410,0.000000,0.000000,-0.294491,0.412396,0.419929,0.900322,-0.492243,0.363341,-0.095320,-0.047666,-0.015284,0.008264
-0.050000,-0.050000,0.000000,0.000000,0.000000,0.000000,0.000000,0.000000,0.000000,0.100000,0.100000,-0.225569,-0.243660,-0.050000,-0.050000,0.384843,-0.280954,0.000000,0.000000,-0.288577,0.413656,0.433304,0.912783,-0.510992,0.361561,-0.101448,-0.048551,0.001212,0.003940
-0.050000,-0.050000,0.000000,0.000000,0.000000,0.000000,0.000000,0.000000,0.000000,0.100000,0.100000,-0.234792,-0.245948,-0.050000,-0.050000,0.385656,-0.279593,0.000000,0.000000,-0.284108,0.415323,0.447664,0.926263,-0.524925,0.357102,-0.107136,-0.048961,0.017973,-0.000977
-0.050000,-0.050000,0.000000,0.000000,0.000000,0.000000,0.000000,0.000000,0.000000,0.100000,0.100000,-0.244785,-0.248474,-0.050000,-0.050000,0.390196,-0.278968,0.000000,0.000000,-0.281669,0.417815,0.463113,0.941050,-0.532660,0.349255,-0.111945,-0.048709,0.034912,-0.006516
-0.050000,-0.050000,0.000000,0.000000,0.000000,0.000000,0.000000,0.000000,0.000000,0.100000,0.100000,-0.254738,-0.250992,-0.050000,-0.050000,0.398710,-0.279336,0.000000,0.000000,-0.281890,0.421006,0.479585,0.957115,-0.532710,0.337514,-0.115251,-0.047687,0.050860,-0.012234
-0.050000,-0.050000,0.000000,0.000000,0.000000,0.000000,0.000000,0.000000,0.000000,0.100000,0.100000,-0.264584,-0.253424,-0.050000,-0.050000,0.408929,-0.279857,0.000000,0.000000,-0.283365,0.424259,0.496481,0.973767,-0.528724,0.323723,-0.117654,-0.046296,0.066174,-0.017953
-0.050000,-0.050000,0.000000,0.000000,0.000000,0.000000,0.000000,0.000000,0.000000,0.100000,0.100000,-0.273051,-0.255356,-0.050000,-0.050000,0.423187,-0.281938,0.000000,0.000000,-0.288423,0.427958,0.514076,0.991254,-0.515650,0.306067,-0.117859,-0.044178,0.078401,-0.023099
-0.050000,-0.050000,0.000000,0.000000,0.000000,0.000000,0.000000,0.000000,0.000000,0.100000,0.100000,-0.280383,-0.256735,-0.050000,-0.050000,0.438653,-0.284353,0.000000,0.000000,-0.295038,0.431288,0.531757,1.008774,-0.498058,0.286827,-0.116907,-0.041841,0.088441,-0.027651
-0.050000,-0.050000,0.000000,0.000000,0.000000,0.000000,0.000000,0.000000,0.000000,0.100000,0.100000,-0.286052,-0.257396,-0.050000,-0.050000,0.455921,-0.287700,0.000000,0.000000,-0.303991,0.434416,0.549571,1.026271,-0.474676,0.265773,-0.114551,-0.039247,0.095336,-0.031392
-0.050000,-0.050000,0.000000,0.000000,0.000000,0.000000,0.000000,0.000000,0.000000,0.100000,0.100000,-0.289138,-0.257055,-0.050000,-0.050000,0.474304,-0.292034,0.000000,0.000000,-0.315370,0.436844,0.567512,1.043242,-0.445140,0.243685,-0.110899,-0.036618,0.097847,-0.033909
-0.050000,-0.050000,0.000000,0.000000,0.000000,0.000000,0.000000,0.000000,0.000000,0.100000,0.100000,-0.290769,-0.255884,-0.050000,-0.050000,0.492925,-0.296794,0.000000,0.000000,-0.327769,0.438775,0.585428,1.059786,-0.412398,0.221147,-0.106837,-0.033999,0.097951,-0.035716
-0.050000,-0.050000,0.000000,0.000000,0.000000,0.000000,0.000000,0.000000,0.000000,0.100000,0.100000,-0.288695,-0.253489,-0.050000,-0.050000,0.511301,-0.302548,0.000000,0.000000,-0.342197,0.439424,0.603882,1.075281,-0.373989,0.199058,-0.102081,-0.031649,0.092815,-0.036011
