RRGGZZ/g1_deploy_sonic/data/example_scalelab/qwen_audio/g1_ref_en/case_test10/joint_pos.csv
joint_0,joint_1,joint_2,joint_3,joint_4,joint_5,joint_6,joint_7,joint_8,joint_9,joint_10,joint_11,joint_12,joint_13,joint_14,joint_15,joint_16,joint_17,joint_18,joint_19,joint_20,joint_21,joint_22,joint_23,joint_24,joint_25,joint_26,joint_27,joint_28
-0.050000,-0.050000,0.000000,0.000000,0.000000,0.000000,0.000000,0.000000,0.000000,0.100000,0.100000,-0.106797,-0.603180,-0.050000,-0.050000,0.431810,-0.762505,0.000000,0.000000,-0.463974,0.240442,1.157056,0.078046,0.197461,-0.322526,-0.035597,0.004985,0.063238,-0.553577
-0.050000,-0.050000,0.000000,0.000000,0.000000,0.000000,0.000000,0.000000,0.000000,0.100000,0.100000,-0.119744,-0.615808,-0.050000,-0.050000,0.418493,-0.763525,0.000000,0.000000,-0.461149,0.247421,1.176520,0.092994,0.194789,-0.318661,-0.047284,-0.000297,0.069811,-0.561901
-0.050000,-0.050000,0.000000,0.000000,0.000000,0.000000,0.000000,0.000000,0.000000,0.100000,0.100000,-0.130800,-0.625424,-0.050000,-0.050000,0.407155,-0.763870,0.000000,0.000000,-0.458098,0.252421,1.192425,0.106098,0.192331,-0.314784,-0.056802,-0.005118,0.075574,-0.568999
-0.050000,-0.050000,0.000000,0.000000,0.000000,0.000000,0.000000,0.000000,0.000000,0.100000,0.100000,-0.138073,-0.629018,-0.050000,-0.050000,0.399775,-0.762867,0.000000,0.000000,-0.454598,0.253462,1.201212,0.115515,0.190303,-0.310885,-0.061983,-0.009014,0.079718,-0.573646
-0.050000,-0.050000,0.000000,0.000000,0.000000,0.000000,0.000000,0.000000,0.000000,0.100000,0.100000,-0.143454,-0.628904,-0.050000,-0.050000,0.394653,-0.761505,0.000000,0.000000,-0.451072,0.252500,1.206451,0.123349,0.188706,-0.306856,-0.065077,-0.012054,0.083375,-0.576888
-0.050000,-0.050000,0.000000,0.000000,0.000000,0.000000,0.000000,0.000000,0.000000,0.100000,0.100000,-0.147889,-0.626936,-0.050000,-0.050000,0.390661,-0.759964,0.000000,0.000000,-0.447533,0.250535,1.209917,0.130392,0.187323,-0.302763,-0.067127,-0.014666,0.086790,-0.579428
-0.050000,-0.050000,0.000000,0.000000,0.000000,0.000000,0.000000,0.000000,0.000000,0.100000,0.100000,-0.151066,-0.621316,-0.050000,-0.050000,0.389249,-0.758919,0.000000,0.000000,-0.443881,0.247210,1.209932,0.136499,0.186794,-0.298392,-0.067797,-0.016432,0.090561,-0.580562
-0.050000,-0.050000,0.000000,0.000000,0.000000,0.000000,0.000000,0.000000,0.000000,0.100000,0.100000,-0.154148,-0.614859,-0.050000,-0.050000,0.388716,-0.758256,0.000000,0.000000,-0.440122,0.243763,1.208879,0.142506,0.186599,-0.293953,-0.068328,-0.018045,0.094709,-0.581374
-0.050000,-0.050000,0.000000,0.000000,0.000000,0.000000,0.000000,0.000000,0.000000,0.100000,0.100000,-0.157037,-0.606725,-0.050000,-0.050000,0.389944,-0.758357,0.000000,0.000000,-0.436147,0.240075,1.205694,0.148310,0.187074,-0.289379,-0.068581,-0.019353,0.099612,-0.581541
-0.050000,-0.050000,0.000000,0.000000,0.000000,0.000000,0.000000,0.000000,0.000000,0.100000,0.100000,-0.160216,-0.597420,-0.050000,-0.050000,0.393255,-0.759423,0.000000,0.000000,-0.431824,0.236540,1.200032,0.154112,0.188228,-0.284736,-0.068931,-0.020546,0.105705,-0.581324
-0.050000,-0.050000,0.000000,0.000000,0.000000,0.000000,0.000000,0.000000,0.000000,0.100000,0.100000,-0.163539,-0.587531,-0.050000,-0.050000,0.397608,-0.760972,0.000000,0.000000,-0.427328,0.233082,1.193132,0.159914,0.189722,-0.280059,-0.069331,-0.021681,0.112393,-0.580916
-0.050000,-0.050000,0.000000,0.000000,0.000000,0.000000,0.000000,0.000000,0.000000,0.100000,0.100000,-0.167918,-0.576499,-0.050000,-0.050000,0.405715,-0.763977,0.000000,0.000000,-0.422164,0.230134,1.181710,0.165938,0.192096,-0.275271,-0.070171,-0.022806,0.121437,-0.580325
-0.050000,-0.050000,0.000000,0.000000,0.000000,0.000000,0.000000,0.000000,0.000000,0.100000,0.100000,-0.172827,-0.565284,-0.050000,-0.050000,0.415262,-0.767390,0.000000,0.000000,-0.416742,0.227367,1.168517,0.172120,0.194674,-0.270386,-0.071174,-0.023944,0.131425,-0.579803
-0.050000,-0.050000,0.000000,0.000000,0.000000,0.000000,0.000000,0.000000,0.000000,0.100000,0.100000,-0.178798,-0.553698,-0.050000,-0.050000,0.427691,-0.771621,0.000000,0.000000,-0.410801,0.224963,1.151781,0.178617,0.197659,-0.265307,-0.072504,-0.025106,0.143302,-0.579421
-0.050000,-0.050000,0.000000,0.000000,0.000000,0.000000,0.000000,0.000000,0.000000,0.100000,0.100000,-0.186095,-0.542149,-0.050000,-0.050000,0.443221,-0.776416,0.000000,0.000000,-0.404278,0.222822,1.131132,0.185595,0.200812,-0.259829,-0.074049,-0.026260,0.157281,-0.579412
-0.050000,-0.050000,0.000000,0.000000,0.000000,0.000000,0.000000,0.000000,0.000000,0.100000,0.100000,-0.194056,-0.530616,-0.050000,-0.050000,0.460302,-0.781492,0.000000,0.000000,-0.397464,0.220814,1.108526,0.192814,0.204049,-0.254149,-0.075702,-0.027410,0.172312,-0.579591
-0.050000,-0.050000,0.000000,0.000000,0.000000,0.000000,0.000000,0.000000,0.000000,0.100000,0.100000,-0.204208,-0.519751,-0.050000,-0.050000,0.482002,-0.786979,0.000000,0.000000,-0.389677,0.218960,1.079882,0.200903,0.207160,-0.247543,-0.077368,-0.028454,0.190601,-0.580608
-0.050000,-0.050000,0.000000,0.000000,0.000000,0.000000,0.000000,0.000000,0.000000,0.100000,0.100000,-0.215080,-0.509303,-0.050000,-0.050000,0.505093,-0.792469,0.000000,0.000000,-0.381537,0.217075,1.049321,0.209258,0.210128,-0.240561,-0.078928,-0.029438,0.209922,-0.581956
-0.050000,-0.050000,0.000000,0.000000,0.000000,0.000000,0.000000,0.000000,0.000000,0.100000,0.100000,-0.227392,-0.499688,-0.050000,-0.050000,0.530964,-0.797967,0.000000,0.000000,-0.372692,0.215131,1.014925,0.218145,0.212814,-0.232828,-0.080277,-0.030301,0.231307,-0.583965
-0.050000,-0.050000,0.000000,0.000000,0.000000,0.000000,0.000000,0.000000,0.000000,0.100000,0.100000,-0.240971,-0.491239,-0.050000,-0.050000,0.559062,-0.803281,0.000000,0.000000,-0.363122,0.213026,0.977173,0.227320,0.215148,-0.224381,-0.081270,-0.031038,0.254469,-0.586639
-0.050000,-0.050000,0.000000,0.000000,0.000000,0.000000,0.000000,0.000000,0.000000,0.100000,0.100000,-0.255184,-0.483373,-0.050000,-0.050000,0.588273,-0.808504,0.000000,0.000000,-0.353189,0.210840,0.937744,0.236637,0.217306,-0.215576,-0.082085,-0.031712,0.278520,-0.589645
-0.050000,-0.050000,0.000000,0.000000,0.000000,0.000000,0.000000,0.000000,0.000000,0.100000,0.100000,-0.270863,-0.477611,-0.050000,-0.050000,0.619739,-0.813313,0.000000,0.000000,-0.342257,0.208412,0.894320,0.245722,0.219128,-0.206062,-0.082358,-0.032281,0.304586,-0.593507
-0.050000,-0.050000,0.000000,0.000000,0.000000,0.000000,0.000000,0.000000,0.000000,0.100000,0.100000,-0.286854,-0.472604,-0.050000,-0.050000,0.651564,-0.817988,0.000000,0.000000,-0.331071,0.205958,0.849966,0.254437,0.221014,-0.196531,-0.082518,-0.032870,0.331064,-0.597573
-0.050000,-0.050000,0.000000,0.000000,0.000000,0.000000,0.000000,0.000000,0.000000,0.100000,0.100000,-0.303469,-0.469108,-0.050000,-0.050000,0.684109,-0.822395,0.000000,0.000000,-0.319377,0.203452,0.803749,0.262417,0.223023,-0.186966,-0.082456,-0.033499,0.358366,-0.602050
-0.050000,-0.050000,0.000000,0.000000,0.000000,0.000000,0.000000,0.000000,0.000000,0.100000,0.100000,-0.320342,-0.467079,-0.050000,-0.050000,0.716635,-0.826614,0.000000,0.000000,-0.307433,0.201085,0.756470,0.269041,0.225680,-0.177939,-0.082401,-0.034308,0.385956,-0.606757
-0.050000,-0.050000,0.000000,0.000000,0.000000,0.000000,0.000000,0.000000,0.000000,0.100000,0.100000,-0.337344,-0.465784,-0.050000,-0.050000,0.749152,-0.830740,0.000000,0.000000,-0.295365,0.198787,0.708659,0.274988,0.228659,-0.169181,-0.082351,-0.035206,0.413690,-0.611579
-0.050000,-0.050000,0.000000,0.000000,0.000000,0.000000,0.000000,0.000000,0.000000,0.100000,0.100000,-0.354233,-0.466390,-0.050000,-0.050000,0.780702,-0.834749,0.000000,0.000000,-0.283397,0.197025,0.660343,0.278087,0.233471,-0.162141,-0.082680,-0.036572,0.441102,-0.616515
-0.050000,-0.050000,0.000000,0.000000,0.000000,0.000000,0.000000,0.000000,0.000000,0.100000,0.100000,-0.370947,-0.467465,-0.050000,-0.050000,0.811682,-0.838770,0.000000,0.000000,-0.271625,0.195527,0.612173,0.280055,0.239129,-0.155937,-0.083222,-0.038138,0.468188,-0.621438
-0.050000,-0.050000,0.000000,0.000000,0.000000,0.000000,0.000000,0.000000,0.000000,0.100000,0.100000,-0.387310,-0.469478,-0.050000,-0.050000,0.841524,-0.842812,0.000000,0.000000,-0.260242,0.194562,0.564297,0.279758,0.246480,-0.151404,-0.084190,-0.040108,0.494619,-0.626333
-0.050000,-0.050000,0.000000,0.000000,0.000000,0.000000,0.000000,0.000000,0.000000,0.100000,0.100000,-0.403113,-0.472020,-0.050000,-0.050000,0.869851,-0.846935,0.000000,0.000000,-0.249525,0.194204,0.517281,0.277075,0.255743,-0.148873,-0.085637,-0.042501,0.520011,-0.631140
-0.050000,-0.050000,0.000000,0.000000,0.000000,0.000000,0.000000,0.000000,0.000000,0.100000,0.100000,-0.418636,-0.474827,-0.050000,-0.050000,0.897422,-0.851097,0.000000,0.000000,-0.239141,0.194150,0.470695,0.273198,0.265962,-0.147343,-0.087325,-0.045105,0.544884,-0.635902
-0.050000,-0.050000,0.000000,0.000000,0.000000,0.000000,0.000000,0.000000,0.000000,0.100000,0.100000,-0.433098,-0.477796,-0.050000,-0.050000,0.922319,-0.855394,0.000000,0.000000,-0.230046,0.194932,0.426228,0.265952,0.278879,-0.148900,-0.089615,-0.048251,0.567670,-0.640461
-0.050000,-0.050000,0.000000,0.000000,0.000000,0.000000,0.000000,0.000000,0.000000,0.100000,0.100000,-0.447159,-0.480635,-0.050000,-0.050000,0.946245,-0.859722,0.000000,0.000000,-0.221433,0.195907,0.382757,0.257778,0.292476,-0.151361,-0.092012,-0.051503,0.589588,-0.644920
-0.050000,-0.050000,0.000000,0.000000,0.000000,0.000000,0.000000,0.000000,0.000000,0.100000,0.100000,-0.460421,-0.483216,-0.050000,-0.050000,0.968227,-0.864110,0.000000,0.000000,-0.213781,0.197265,0.341275,0.247746,0.307433,-0.155630,-0.094623,-0.054966,0.609770,-0.649177
-0.050000,-0.050000,0.000000,0.000000,0.000000,0.000000,0.000000,0.000000,0.000000,0.100000,0.100000,-0.472835,-0.485278,-0.050000,-0.050000,0.988231,-0.868516,0.000000,0.000000,-0.207103,0.198742,0.302381,0.236441,0.323066,-0.161186,-0.097193,-0.058422,0.627871,-0.653133
-0.050000,-0.050000,0.000000,0.000000,0.000000,0.000000,0.000000,0.000000,0.000000,0.100000,0.100000,-0.484826,-0.487081,-0.050000,-0.050000,1.007244,-0.872931,0.000000,0.000000,-0.200911,0.200279,0.264781,0.224499,0.339037,-0.167385,-0.099741,-0.061874,0.644931,-0.656938
-0.050000,-0.050000,0.000000,0.000000,0.000000,0.000000,0.000000,0.000000,0.000000,0.100000,0.100000,-0.495525,-0.487913,-0.050000,-0.050000,1.023429,-0.877324,0.000000,0.000000,-0.196068,0.201526,0.231901,0.211694,0.354821,-0.174472,-0.101817,-0.064925,0.658393,-0.660106
-0.050000,-0.050000,0.000000,0.000000,0.000000,0.000000,0.000000,0.000000,0.000000,0.100000,0.100000,-0.505797,-0.488419,-0.050000,-0.050000,1.038771,-0.881705,0.000000,0.000000,-0.191595,0.202520,0.200808,0.198959,0.370145,-0.181486,-0.103613,-0.067714,0.670539,-0.663008
-0.050000,-0.050000,0.000000,0.000000,0.000000,0.000000,0.000000,0.000000,0.000000,0.100000,0.100000,-0.515213,-0.488274,-0.050000,-0.050000,1.052430,-0.886065,0.000000,0.000000,-0.187862,0.203008,0.173288,0.186364,0.384550,-0.188356,-0.104852,-0.069978,0.680057,-0.665378
-0.050000,-0.050000,0.000000,0.000000,0.000000,0.000000,0.000000,0.000000,0.000000,0.100000,0.100000,-0.523775,-0.487566,-0.050000,-0.050000,1.064661,-0.890426,0.000000,0.000000,-0.184636,0.202715,0.149537,0.174539,0.397351,-0.194456,-0.105364,-0.071515,0.686878,-0.667173
-0.050000,-0.050000,0.000000,0.000000,0.000000,0.000000,0.000000,0.000000,0.000000,0.100000,0.100000,-0.531912,-0.486575,-0.050000,-0.050000,1.076177,-0.894788,0.000000,0.000000,-0.181663,0.202031,0.127671,0.163100,0.409348,-0.200170,-0.105512,-0.072688,0.692352,-0.668680
-0.050000,-0.050000,0.000000,0.000000,0.000000,0.000000,0.000000,0.000000,0.000000,0.100000,0.100000,-0.538734,-0.484939,-0.050000,-0.050000,1.085909,-0.899221,0.000000,0.000000,-0.179014,0.199867,0.111319,0.153501,0.418174,-0.204139,-0.104477,-0.072610,0.694018,-0.669411
-0.050000,-0.050000,0.000000,0.000000,0.000000,0.000000,0.000000,0.000000,0.000000,0.100000,0.100000,-0.545089,-0.483150,-0.050000,-0.050000,1.095127,-0.903706,0.000000,0.000000,-0.176320,0.197152,0.096620,0.144632,0.425795,-0.207479,-0.103075,-0.072126,0.694607,-0.669965
-0.050000,-0.050000,0.000000,0.000000,0.000000,0.000000,0.000000,0.000000,0.000000,0.100000,0.100000,-0.550508,-0.481060,-0.050000,-0.050000,1.103318,-0.908293,0.000000,0.000000,-0.173537,0.193334,0.085225,0.137224,0.431003,-0.209558,-0.100941,-0.070830,0.693044,-0.670166
-0.050000,-0.050000,0.000000,0.000000,0.000000,0.000000,0.000000,0.000000,0.000000,0.100000,0.100000,-0.554904,-0.478764,-0.050000,-0.050000,1.110553,-0.913035,0.000000,0.000000,-0.170403,0.188414,0.076570,0.131291,0.433728,-0.210565,-0.098244,-0.068871,0.689891,-0.670245
-0.050000,-0.050000,0.000000,0.000000,0.000000,0.000000,0.000000,0.000000,0.000000,0.100000,0.100000,-0.558787,-0.476365,-0.050000,-0.050000,1.117309,-0.917853,0.000000,0.000000,-0.167094,0.182943,0.069285,0.126096,0.435211,-0.211035,-0.095264,-0.066581,0.685942,-0.670264
-0.050000,-0.050000,0.000000,0.000000,0.000000,0.000000,0.000000,0.000000,0.000000,0.100000,0.100000,-0.561010,-0.473752,-0.050000,-0.050000,1.122639,-0.922955,0.000000,0.000000,-0.163034,0.176005,0.065174,0.122889,0.433193,-0.210462,-0.091813,-0.063659,0.680538,-0.670453
-0.050000,-0.050000,0.000000,0.000000,0.000000,0.000000,0.000000,0.000000,0.000000,0.100000,0.100000,-0.562668,-0.471095,-0.050000,-0.050000,1.127491,-0.928158,0.000000,0.000000,-0.158733,0.168705,0.061848,0.120230,0.430179,-0.209755,-0.088345,-0.060665,0.674923,-0.670783
-0.050000,-0.050000,0.000000,0.000000,0.000000,0.000000,0.000000,0.000000,0.000000,0.100000,0.100000,-0.563196,-0.468350,-0.050000,-0.050000,1.131391,-0.933560,0.000000,0.000000,-0.153952,0.160679,0.060090,0.118670,0.425177,-0.208776,-0.084843,-0.057528,0.668886,-0.671394
-0.050000,-0.050000,0.000000,0.000000,0.000000,0.000000,0.000000,0.000000,0.000000,0.100000,0.100000,-0.562681,-0.465597,-0.050000,-0.050000,1.134400,-0.939141,0.000000,0.000000,-0.148904,0.152287,0.059523,0.117987,0.418677,-0.207854,-0.081559,-0.054499,0.662797,-0.672334
-0.050000,-0.050000,0.000000,0.000000,0.000000,0.000000,0.000000,0.000000,0.000000,0.100000,0.100000,-0.561645,-0.462838,-0.050000,-0.050000,1.136962,-0.944812,0.000000,0.000000,-0.143723,0.143711,0.059552,0.117743,0.411429,-0.206960,-0.078384,-0.051524,0.656680,-0.673439
-0.050000,-0.050000,0.000000,0.000000,0.000000,0.000000,0.000000,0.000000,0.000000,0.100000,0.100000,-0.559396,-0.460259,-0.050000,-0.050000,1.138444,-0.950668,0.000000,0.000000,-0.138733,0.135216,0.061089,0.118587,0.402787,-0.206344,-0.075812,-0.048986,0.650698,-0.674930
-0.050000,-0.050000,0.000000,0.000000,0.000000,0.000000,0.000000,0.000000,0.000000,0.100000,0.100000,-0.556928,-0.457827,-0.050000,-0.050000,1.139712,-0.956543,0.000000,0.000000,-0.134061,0.126958,0.063106,0.119758,0.393959,-0.205778,-0.073485,-0.046644,0.644734,-0.676471
-0.050000,-0.050000,0.000000,0.000000,0.000000,0.000000,0.000000,0.000000,0.000000,0.100000,0.100000,-0.554023,-0.455687,-0.050000,-0.050000,1.140553,-0.962454,0.000000,0.000000,-0.130023,0.119174,0.066086,0.121584,0.384758,-0.205314,-0.071650,-0.044694,0.638807,-0.678113
-0.050000,-0.050000,0.000000,0.000000,0.000000,0.000000,0.000000,0.000000,0.000000,0.100000,0.100000,-0.551140,-0.454019,-0.050000,-0.050000,1.141334,-0.968288,0.000000,0.000000,-0.127130,0.112211,0.070035,0.124060,0.375652,-0.204718,-0.070312,-0.043171,0.632762,-0.679685
-0.050000,-0.050000,0.000000,0.000000,0.000000,0.000000,0.000000,0.000000,0.000000,0.100000,0.100000,-0.548269,-0.452587,-0.050000,-0.050000,1.142087,-0.974084,0.000000,0.000000,-0.124808,0.105658,0.074468,0.126860,0.366592,-0.204057,-0.069222,-0.041862,0.626659,-0.681221
-0.050000,-0.050000,0.000000,0.000000,0.000000,0.000000,0.000000,0.000000,0.000000,0.100000,0.100000,-0.546113,-0.452051,-0.050000,-0.050000,1.143290,-0.979563,0.000000,0.000000,-0.124770,0.100643,0.080297,0.130649,0.358154,-0.202792,-0.068805,-0.041183,0.620169,-0.682480
-0.050000,-0.050000,0.000000,0.000000,0.000000,0.000000,0.000000,0.000000,0.000000,0.100000,0.100000,-0.544361,-0.451815,-0.050000,-0.050000,1.144764,-0.984858,0.000000,0.000000,-0.125558,0.096145,0.086512,0.134755,0.350000,-0.201228,-0.068576,-0.040702,0.613540,-0.683642
-0.050000,-0.050000,0.000000,0.000000,0.000000,0.000000,0.000000,0.000000,0.000000,0.100000,0.100000,-0.543418,-0.452182,-0.050000,-0.050000,1.146779,-0.989786,0.000000,0.000000,-0.127997,0.092685,0.093501,0.139496,0.342413,-0.199063,-0.068723,-0.040618,0.606631,-0.684610
-0.050000,-0.050000,0.000000,0.000000,0.000000,0.000000,0.000000,0.000000,0.000000,0.100000,0.100000,-0.543393,-0.452990,-0.050000,-0.050000,1.149363,-0.994175,0.000000,0.000000,-0.131892,0.090068,0.100970,0.144771,0.335393,-0.196233,-0.069172,-0.040900,0.599594,-0.685486
-0.050000,-0.050000,0.000000,0.000000,0.000000,0.000000,0.000000,0.000000,0.000000,0.100000,0.100000,-0.543828,-0.454020,-0.050000,-0.050000,1.152231,-0.998293,0.000000,0.000000,-0.136516,0.087874,0.108681,0.150313,0.328656,-0.193071,-0.069771,-0.041365,0.592493,-0.686316
-0.050000,-0.050000,0.000000,0.000000,0.000000,0.000000,0.000000,0.000000,0.000000,0.100000,0.100000,-0.545380,-0.455216,-0.050000,-0.050000,1.155615,-1.001315,0.000000,0.000000,-0.142563,0.086398,0.116527,0.156373,0.322587,-0.189022,-0.070714,-0.042317,0.585664,-0.687283
-0.050000,-0.050000,0.000000,0.000000,0.000000,0.000000,0.000000,0.000000,0.000000,0.100000,0.100000,-0.547083,-0.456238,-0.050000,-0.050000,1.158941,-1.003870,0.000000,0.000000,-0.148714,0.084932,0.124208,0.162476,0.316648,-0.184762,-0.071732,-0.043400,0.579125,-0.688391
-0.050000,-0.050000,0.000000,0.000000,0.000000,0.000000,0.000000,0.000000,0.000000,0.100000,0.100000,-0.549084,-0.456911,-0.050000,-0.050000,1.162154,-1.005493,0.000000,0.000000,-0.155077,0.083483,0.131560,0.168664,0.310967,-0.180080,-0.072902,-0.044743,0.573166,-0.689782
-0.050000,-0.050000,0.000000,0.000000,0.000000,0.000000,0.000000,0.000000,0.000000,0.100000,0.100000,-0.550745,-0.456727,-0.050000,-0.050000,1.164651,-1.005983,0.000000,0.000000,-0.160827,0.081602,0.138216,0.174642,0.305351,-0.175183,-0.074137,-0.046249,0.568172,-0.691581
-0.050000,-0.050000,0.000000,0.000000,0.000000,0.000000,0.000000,0.000000,0.000000,0.100000,0.100000,-0.552234,-0.456115,-0.050000,-0.050000,1.166790,-1.005906,0.000000,0.000000,-0.166271,0.079504,0.144523,0.180515,0.299768,-0.170178,-0.075404,-0.047837,0.563658,-0.693583
-0.050000,-0.050000,0.000000,0.000000,0.000000,0.000000,0.000000,0.000000,0.000000,0.100000,0.100000,-0.552164,-0.453550,-0.050000,-0.050000,1.166918,-1.003871,0.000000,0.000000,-0.169674,0.076279,0.149387,0.185639,0.294073,-0.165156,-0.076638,-0.049480,0.560986,-0.696195
-0.050000,-0.050000,0.000000,0.000000,0.000000,0.000000,0.000000,0.000000,0.000000,0.100000,0.100000,-0.551278,-0.450199,-0.050000,-0.050000,1.166121,-1.001128,0.000000,0.000000,-0.172134,0.072633,0.153693,0.190390,0.288322,-0.160217,-0.077822,-0.051074,0.558964,-0.698935
-0.050000,-0.050000,0.000000,0.000000,0.000000,0.000000,0.000000,0.000000,0.000000,0.100000,0.100000,-0.548758,-0.445277,-0.050000,-0.050000,1.163474,-0.996969,0.000000,0.000000,-0.172712,0.068147,0.156883,0.194392,0.282461,-0.155443,-0.078906,-0.052569,0.558247,-0.701930
-0.050000,-0.050000,0.000000,0.000000,0.000000,0.000000,0.000000,0.000000,0.000000,0.100000,0.100000,-0.544268,-0.438774,-0.050000,-0.050000,1.158713,-0.991394,0.000000,0.000000,-0.171212,0.063012,0.158898,0.197453,0.276580,-0.150982,-0.079832,-0.053859,0.558710,-0.704914
-0.050000,-0.050000,0.000000,0.000000,0.000000,0.000000,0.000000,0.000000,0.000000,0.100000,0.100000,-0.538792,-0.431481,-0.050000,-0.050000,1.152897,-0.985111,0.000000,0.000000,-0.168673,0.057554,0.160325,0.200042,0.270690,-0.146679,-0.080681,-0.055046,0.559763,-0.707891
-0.050000,-0.050000,0.000000,0.000000,0.000000,0.000000,0.000000,0.000000,0.000000,0.100000,0.100000,-0.530390,-0.422239,-0.050000,-0.050000,1.144057,-0.976937,0.000000,0.000000,-0.163282,0.051796,0.159985,0.201011,0.265090,-0.143021,-0.081245,-0.055862,0.562170,-0.710376
-0.050000,-0.050000,0.000000,0.000000,0.000000,0.000000,0.000000,0.000000,0.000000,0.100000,0.100000,-0.521213,-0.412612,-0.050000,-0.050000,1.134471,-0.968300,0.000000,0.000000,-0.157195,0.046237,0.159073,0.201398,0.259735,-0.139618,-0.081708,-0.056577,0.564850,-0.712558
-0.050000,-0.050000,0.000000,0.000000,0.000000,0.000000,0.000000,0.000000,0.000000,0.100000,0.100000,-0.510483,-0.402214,-0.050000,-0.050000,1.123395,-0.958740,0.000000,0.000000,-0.149714,0.041075,0.157020,0.200618,0.254869,-0.136725,-0.081967,-0.057093,0.568079,-0.714135
-0.050000,-0.050000,0.000000,0.000000,0.000000,0.000000,0.000000,0.000000,0.000000,0.100000,0.100000,-0.498906,-0.391718,-0.050000,-0.050000,1.111771,-0.948764,0.000000,0.000000,-0.141560,0.036886,0.153900,0.198633,0.250816,-0.134369,-0.082017,-0.057550,0.571518,-0.714943
-0.050000,-0.050000,0.000000,0.000000,0.000000,0.000000,0.000000,0.000000,0.000000,0.100000,0.100000,-0.486905,-0.381174,-0.050000,-0.050000,1.099875,-0.938582,0.000000,0.000000,-0.133071,0.033184,0.150247,0.196045,0.247169,-0.132281,-0.081964,-0.057977,0.575063,-0.715367
-0.050000,-0.050000,0.000000,0.000000,0.000000,0.000000,0.000000,0.000000,0.000000,0.100000,0.100000,-0.474927,-0.371515,-0.050000,-0.050000,1.089036,-0.928721,0.000000,0.000000,-0.124711,0.031511,0.145169,0.191659,0.245169,-0.130935,-0.081611,-0.058630,0.578565,-0.714623
-0.050000,-0.050000,0.000000,0.000000,0.000000,0.000000,0.000000,0.000000,0.000000,0.100000,0.100000,-0.463377,-0.362443,-0.050000,-0.050000,1.079220,-0.919296,0.000000,0.000000,-0.116701,0.030546,0.139689,0.186696,0.243814,-0.129777,-0.081175,-0.059478,0.582004,-0.713558
-0.050000,-0.050000,0.000000,0.000000,0.000000,0.000000,0.000000,0.000000,0.000000,0.100000,0.100000,-0.452682,-0.354541,-0.050000,-0.050000,1.071448,-0.910740,0.000000,0.000000,-0.109389,0.030996,0.133406,0.180581,0.243748,-0.128994,-0.080572,-0.060714,0.585317,-0.711853
-0.050000,-0.050000,0.000000,0.000000,0.000000,0.000000,0.000000,0.000000,0.000000,0.100000,0.100000,-0.443495,-0.348204,-0.050000,-0.050000,1.066860,-0.903621,0.000000,0.000000,-0.103102,0.032581,0.126459,0.173391,0.245022,-0.128403,-0.079867,-0.062553,0.588556,-0.709753
-0.050000,-0.050000,0.000000,0.000000,0.000000,0.000000,0.000000,0.000000,0.000000,0.100000,0.100000,-0.435063,-0.342649,-0.050000,-0.050000,1.063864,-0.897222,0.000000,0.000000,-0.097327,0.034733,0.119181,0.165663,0.246966,-0.127910,-0.079111,-0.064693,0.591758,-0.707456
-0.050000,-0.050000,0.000000,0.000000,0.000000,0.000000,0.000000,0.000000,0.000000,0.100000,0.100000,-0.429435,-0.339692,-0.050000,-0.050000,1.066633,-0.893537,0.000000,0.000000,-0.093081,0.037757,0.111058,0.156482,0.250744,-0.127397,-0.078354,-0.067950,0.595113,-0.705033
-0.050000,-0.050000,0.000000,0.000000,0.000000,0.000000,0.000000,0.000000,0.000000,0.100000,0.100000,-0.424751,-0.337571,-0.050000,-0.050000,1.071322,-0.890803,0.000000,0.000000,-0.089195,0.040723,0.102680,0.146881,0.254993,-0.126792,-0.077653,-0.071602,0.598643,-0.702733
-0.050000,-0.050000,0.000000,0.000000,0.000000,0.000000,0.000000,0.000000,0.000000,0.100000,0.100000,-0.421956,-0.337120,-0.050000,-0.050000,1.079854,-0.889973,0.000000,0.000000,-0.086031,0.043576,0.093794,0.136442,0.260183,-0.126000,-0.077065,-0.076042,0.602525,-0.700680
-0.050000,-0.050000,0.000000,0.000000,0.000000,0.000000,0.000000,0.000000,0.000000,0.100000,0.100000,-0.420735,-0.338067,-0.050000,-0.050000,1.091529,-0.890830,0.000000,0.000000,-0.083099,0.045622,0.084446,0.125321,0.265900,-0.124936,-0.076696,-0.081214,0.607031,-0.699206
-0.050000,-0.050000,0.000000,0.000000,0.000000,0.000000,0.000000,0.000000,0.000000,0.100000,0.100000,-0.420303,-0.339712,-0.050000,-0.050000,1.104778,-0.892530,0.000000,0.000000,-0.080284,0.047264,0.074865,0.113858,0.271880,-0.123735,-0.076437,-0.086752,0.611849,-0.698022
-0.050000,-0.050000,0.000000,0.000000,0.000000,0.000000,0.000000,0.000000,0.000000,0.100000,0.100000,-0.421324,-0.342767,-0.050000,-0.050000,1.120833,-0.896005,0.000000,0.000000,-0.076974,0.046832,0.064745,0.101645,0.277939,-0.122173,-0.076616,-0.093189,0.617951,-0.698167
-0.050000,-0.050000,0.000000,0.000000,0.000000,0.000000,0.000000,0.000000,0.000000,0.100000,0.100000,-0.422417,-0.345996,-0.050000,-0.050000,1.137011,-0.899712,0.000000,0.000000,-0.073238,0.045516,0.054556,0.089285,0.283799,-0.120565,-0.076959,-0.099836,0.624547,-0.698884
-0.050000,-0.050000,0.000000,0.000000,0.000000,0.000000,0.000000,0.000000,0.000000,0.100000,0.100000,-0.423656,-0.349571,-0.050000,-0.050000,1.153433,-0.903884,0.000000,0.000000,-0.068650,0.042433,0.044231,0.076631,0.289262,-0.118867,-0.077631,-0.106904,0.632130,-0.700743
-0.050000,-0.050000,0.000000,0.000000,0.000000,0.000000,0.000000,0.000000,0.000000,0.100000,0.100000,-0.424101,-0.352831,-0.050000,-0.050000,1.168379,-0.907699,0.000000,0.000000,-0.062805,0.037428,0.034146,0.063911,0.293989,-0.117314,-0.078639,-0.114194,0.640678,-0.703901
-0.050000,-0.050000,0.000000,0.000000,0.000000,0.000000,0.000000,0.000000,0.000000,0.100000,0.100000,-0.424148,-0.355934,-0.050000,-0.050000,1.182587,-0.911335,0.000000,0.000000,-0.056332,0.031461,0.024179,0.051158,0.298349,-0.115835,-0.079816,-0.121597,0.649708,-0.707708
-0.050000,-0.050000,0.000000,0.000000,0.000000,0.000000,0.000000,0.000000,0.000000,0.100000,0.100000,-0.421597,-0.357610,-0.050000,-0.050000,1.192198,-0.913220,0.000000,0.000000,-0.047612,0.022733,0.015311,0.038680,0.301342,-0.114972,-0.081484,-0.129031,0.659876,-0.713475
-0.050000,-0.050000,0.000000,0.000000,0.000000,0.000000,0.000000,0.000000,0.000000,0.100000,0.100000,-0.417771,-0.358556,-0.050000,-0.050000,1.199630,-0.914176,0.000000,0.000000,-0.038108,0.013239,0.007070,0.026429,0.303875,-0.114425,-0.083307,-0.136374,0.670230,-0.719810
-0.050000,-0.050000,0.000000,0.000000,0.000000,0.000000,0.000000,0.000000,0.000000,0.100000,0.100000,-0.411396,-0.358044,-0.050000,-0.050000,1.202705,-0.913272,0.000000,0.000000,-0.027036,0.002213,0.000081,0.014631,0.305487,-0.114508,-0.085440,-0.143535,0.680958,-0.727278
-0.050000,-0.050000,0.000000,0.000000,0.000000,0.000000,0.000000,0.000000,0.000000,0.100000,0.100000,-0.401890,-0.355790,-0.050000,-0.050000,1.200511,-0.910012,0.000000,0.000000,-0.014491,-0.009820,-0.005227,0.003571,0.306289,-0.115321,-0.087851,-0.150307,0.691543,-0.735527
-0.050000,-0.050000,0.000000,0.000000,0.000000,0.000000,0.000000,0.000000,0.000000,0.100000,0.100000,-0.390820,-0.352665,-0.050000,-0.050000,1.195683,-0.905573,0.000000,0.000000,-0.001211,-0.022357,-0.009695,-0.007121,0.306684,-0.116499,-0.090400,-0.156886,0.702056,-0.744168
-0.050000,-0.050000,0.000000,0.000000,0.000000,0.000000,0.000000,0.000000,0.000000,0.100000,0.100000,-0.374690,-0.346922,-0.050000,-0.050000,1.182222,-0.897199,0.000000,0.000000,0.013878,-0.035344,-0.011298,-0.016262,0.306088,-0.118651,-0.093285,-0.162576,0.711491,-0.753245
-0.050000,-0.050000,0.000000,0.000000,0.000000,0.000000,0.000000,0.000000,0.000000,0.100000,0.100000,-0.356966,-0.340441,-0.050000,-0.050000,1.165869,-0.887499,0.000000,0.000000,0.029335,-0.048060,-0.011950,-0.024737,0.305216,-0.120990,-0.096235,-0.167876,0.720287,-0.762190
-0.050000,-0.050000,0.000000,0.000000,0.000000,0.000000,0.000000,0.000000,0.000000,0.100000,0.100000,-0.336054,-0.332487,-0.050000,-0.050000,1.143729,-0.875147,0.000000,0.000000,0.045527,-0.060237,-0.010702,-0.031879,0.303793,-0.123702,-0.099317,-0.172396,0.727806,-0.770871
-0.050000,-0.050000,0.000000,0.000000,0.000000,0.000000,0.000000,0.000000,0.000000,0.100000,0.100000,-0.310462,-0.323904,-0.050000,-0.050000,1.114708,-0.860035,0.000000,0.000000,0.065504,-0.071912,-0.009280,-0.038867,0.302834,-0.127770,-0.103567,-0.176212,0.734122,-0.779385
-0.050000,-0.050000,0.000000,0.000000,0.000000,0.000000,0.000000,0.000000,0.000000,0.100000,0.100000,-0.282530,-0.315006,-0.050000,-0.050000,1.082245,-0.843544,0.000000,0.000000,0.087374,-0.083336,-0.007771,-0.045779,0.302107,-0.132516,-0.108403,-0.179675,0.739836,-0.787816
-0.050000,-0.050000,0.000000,0.000000,0.000000,0.000000,0.000000,0.000000,0.000000,0.100000,0.100000,-0.253493,-0.305728,-0.050000,-0.050000,1.044525,-0.824523,0.000000,0.000000,0.104528,-0.088858,-0.003079,-0.047997,0.299589,-0.134695,-0.111483,-0.180855,0.740817,-0.793176
-0.050000,-0.050000,0.000000,0.000000,0.000000,0.000000,0.000000,0.000000,0.000000,0.100000,0.100000,-0.224861,-0.296544,-0.050000,-0.050000,1.005638,-0.804790,0.000000,0.000000,0.120198,-0.092919,0.002454,-0.048886,0.296610,-0.136175,-0.114197,-0.181520,0.740661,-0.797730
-0.050000,-0.050000,0.000000,0.000000,0.000000,0.000000,0.000000,0.000000,0.000000,0.100000,0.100000,-0.197040,-0.287551,-0.050000,-0.050000,0.964416,-0.783635,0.000000,0.000000,0.132901,-0.094056,0.009671,-0.047115,0.292713,-0.136257,-0.116180,-0.181154,0.738236,-0.800673
-0.050000,-0.050000,0.000000,0.000000,0.000000,0.000000,0.000000,0.000000,0.000000,0.100000,0.100000,-0.171078,-0.278927,-0.050000,-0.050000,0.922818,-0.761792,0.000000,0.000000,0.142316,-0.092589,0.018239,-0.043003,0.288056,-0.134928,-0.117424,-0.179877,0.733788,-0.801895
-0.050000,-0.050000,0.000000,0.000000,0.000000,0.000000,0.000000,0.000000,0.000000,0.100000,0.100000,-0.146047,-0.270488,-0.050000,-0.050000,0.881032,-0.739606,0.000000,0.000000,0.150088,-0.089818,0.027484,-0.037720,0.283020,-0.132893,-0.118297,-0.178145,0.728329,-0.802256
-0.050000,-0.050000,0.000000,0.000000,0.000000,0.000000,0.000000,0.000000,0.000000,0.100000,0.100000,-0.124640,-0.262770,-0.050000,-0.050000,0.841925,-0.717685,0.000000,0.000000,0.152948,-0.083698,0.038058,-0.029698,0.277267,-0.129057,-0.118070,-0.175297,0.720433,-0.800060
-0.050000,-0.050000,0.000000,0.000000,0.000000,0.000000,0.000000,0.000000,0.000000,0.100000,0.100000,-0.104512,-0.255345,-0.050000,-0.050000,0.804744,-0.696306,0.000000,0.000000,0.154369,-0.076692,0.048739,-0.021142,0.271525,-0.124912,-0.117548,-0.172201,0.712016,-0.797109
-0.050000,-0.050000,0.000000,0.000000,0.000000,0.000000,0.000000,0.000000,0.000000,0.100000,0.100000,-0.086940,-0.248506,-0.050000,-0.050000,0.771415,-0.676008,0.000000,0.000000,0.152908,-0.067916,0.059634,-0.011516,0.265803,-0.120151,-0.116436,-0.168609,0.702554,-0.792651
-0.050000,-0.050000,0.000000,0.000000,0.000000,0.000000,0.000000,0.000000,0.000000,0.100000,0.100000,-0.071834,-0.242362,-0.050000,-0.050000,0.743654,-0.657661,0.000000,0.000000,0.149183,-0.057874,0.069931,-0.001728,0.260775,-0.115676,-0.115010,-0.164822,0.692752,-0.787060
-0.050000,-0.050000,0.000000,0.000000,0.000000,0.000000,0.000000,0.000000,0.000000,0.100000,0.100000,-0.057961,-0.236567,-0.050000,-0.050000,0.718677,-0.640288,0.000000,0.000000,0.144326,-0.047199,0.079929,0.008140,0.256095,-0.111346,-0.113426,-0.160937,0.682780,-0.780902
-0.050000,-0.050000,0.000000,0.000000,0.000000,0.000000,0.000000,0.000000,0.000000,0.100000,0.100000,-0.045339,-0.229119,-0.050000,-0.050000,0.703290,-0.627673,0.000000,0.000000,0.136837,-0.036021,0.086371,0.015337,0.253564,-0.108779,-0.111699,-0.157578,0.674157,-0.774132
-0.050000,-0.050000,0.000000,0.000000,0.000000,0.000000,0.000000,0.000000,0.000000,0.100000,0.100000,-0.034094,-0.222557,-0.050000,-0.050000,0.691414,-0.616611,0.000000,0.000000,0.128943,-0.024498,0.091982,0.022029,0.252062,-0.107331,-0.110177,-0.154299,0.665780,-0.767188
-0.050000,-0.050000,0.000000,0.000000,0.000000,0.000000,0.000000,0.000000,0.000000,0.100000,0.100000,-0.025601,-0.217768,-0.050000,-0.050000,0.686559,-0.608657,0.000000,0.000000,0.120240,-0.012285,0.095931,0.027710,0.252619,-0.108116,-0.109064,-0.151178,0.657895,-0.759898
-0.050000,-0.050000,0.000000,0.000000,0.000000,0.000000,0.000000,0.000000,0.000000,0.100000,0.100000,-0.019797,-0.214576,-0.050000,-0.050000,0.688944,-0.604414,0.000000,0.000000,0.111149,-0.000085,0.097808,0.031834,0.255450,-0.111627,-0.108479,-0.148556,0.651343,-0.752966
-0.050000,-0.050000,0.000000,0.000000,0.000000,0.000000,0.000000,0.000000,0.000000,0.100000,0.100000,-0.015337,-0.212182,-0.050000,-0.050000,0.694950,-0.602027,0.000000,0.000000,0.101864,0.012109,0.098648,0.035181,0.259419,-0.116502,-0.108158,-0.146183,0.645457,-0.746213
-0.050000,-0.050000,0.000000,0.000000,0.000000,0.000000,0.000000,0.000000,0.000000,0.100000,0.100000,-0.014957,-0.212088,-0.050000,-0.050000,0.710883,-0.605243,0.000000,0.000000,0.092338,0.023728,0.096376,0.036027,0.266689,-0.125563,-0.108633,-0.144662,0.642021,-0.740589
-0.050000,-0.050000,0.000000,0.000000,0.000000,0.000000,0.000000,0.000000,0.000000,0.100000,0.100000,-0.015996,-0.212797,-0.050000,-0.050000,0.729595,-0.610185,0.000000,0.000000,0.082768,0.035065,0.093227,0.036189,0.274884,-0.135822,-0.109296,-0.143356,0.639363,-0.735418
-0.050000,-0.050000,0.000000,0.000000,0.000000,0.000000,0.000000,0.000000,0.000000,0.100000,0.100000,-0.019874,-0.215111,-0.050000,-0.050000,0.753864,-0.618578,0.000000,0.000000,0.073111,0.045836,0.088322,0.034984,0.284931,-0.148478,-0.110334,-0.142481,0.638261,-0.731151
-0.050000,-0.050000,0.000000,0.000000,0.000000,0.000000,0.000000,0.000000,0.000000,0.100000,0.100000,-0.026686,-0.219159,-0.050000,-0.050000,0.782372,-0.629879,0.000000,0.000000,0.063290,0.056075,0.082207,0.033038,0.296271,-0.162762,-0.111495,-0.141775,0.638360,-0.727694
-0.050000,-0.050000,0.000000,0.000000,0.000000,0.000000,0.000000,0.000000,0.000000,0.100000,0.100000,-0.034965,-0.224073,-0.050000,-0.050000,0.813000,-0.642635,0.000000,0.000000,0.053388,0.066048,0.075487,0.030721,0.308257,-0.177862,-0.112717,-0.141153,0.639061,-0.724643
-0.050000,-0.050000,0.000000,0.000000,0.000000,0.000000,0.000000,0.000000,0.000000,0.100000,0.100000,-0.047635,-0.231769,-0.050000,-0.050000,0.847868,-0.658669,0.000000,0.000000,0.042983,0.075532,0.067904,0.028489,0.321215,-0.193963,-0.113758,-0.140359,0.640815,-0.722373
-0.050000,-0.050000,0.000000,0.000000,0.000000,0.000000,0.000000,0.000000,0.000000,0.100000,0.100000,-0.061690,-0.240419,-0.050000,-0.050000,0.883455,-0.675399,0.000000,0.000000,0.032319,0.085002,0.060342,0.026684,0.334181,-0.209923,-0.114660,-0.139403,0.642670,-0.720171
-0.050000,-0.050000,0.000000,0.000000,0.000000,0.000000,0.000000,0.000000,0.000000,0.100000,0.100000,-0.078513,-0.250978,-0.050000,-0.050000,0.920480,-0.693520,0.000000,0.000000,0.021137,0.094441,0.052822,0.025732,0.347164,-0.225599,-0.115283,-0.138122,0.644727,-0.718104
-0.050000,-0.050000,0.000000,0.000000,0.000000,0.000000,0.000000,0.000000,0.000000,0.100000,0.100000,-0.097773,-0.263391,-0.050000,-0.050000,0.957668,-0.712272,0.000000,0.000000,0.009331,0.104119,0.045884,0.026262,0.359613,-0.240209,-0.115587,-0.136440,0.646615,-0.715823
-0.050000,-0.050000,0.000000,0.000000,0.000000,0.000000,0.000000,0.000000,0.000000,0.100000,0.100000,-0.118251,-0.276732,-0.050000,-0.050000,0.994937,-0.731339,0.000000,0.000000,-0.002788,0.113916,0.039237,0.027533,0.371794,-0.254286,-0.115732,-0.134558,0.648417,-0.713434
-0.050000,-0.050000,0.000000,0.000000,0.000000,0.000000,0.000000,0.000000,0.000000,0.100000,0.100000,-0.141633,-0.292567,-0.050000,-0.050000,1.030782,-0.750375,0.000000,0.000000,-0.015786,0.124270,0.034128,0.031550,0.382486,-0.265974,-0.115480,-0.132156,0.649705,-0.710451
-0.050000,-0.050000,0.000000,0.000000,0.000000,0.000000,0.000000,0.000000,0.000000,0.100000,0.100000,-0.165667,-0.309067,-0.050000,-0.050000,1.065691,-0.769149,0.000000,0.000000,-0.028970,0.134769,0.029708,0.036481,0.392495,-0.276737,-0.115147,-0.129658,0.650843,-0.707308
-0.050000,-0.050000,0.000000,0.000000,0.000000,0.000000,0.000000,0.000000,0.000000,0.100000,0.100000,-0.191005,-0.326896,-0.050000,-0.050000,1.098731,-0.787398,0.000000,0.000000,-0.042526,0.145560,0.026667,0.043244,0.401135,-0.285652,-0.114654,-0.126965,0.651679,-0.703847
-0.050000,-0.050000,0.000000,0.000000,0.000000,0.000000,0.000000,0.000000,0.000000,0.100000,0.100000,-0.216941,-0.345590,-0.050000,-0.050000,1.129173,-0.804758,0.000000,0.000000,-0.056075,0.156338,0.025254,0.051490,0.408095,-0.292684,-0.114104,-0.124269,0.652427,-0.700415
-0.050000,-0.050000,0.000000,0.000000,0.000000,0.000000,0.000000,0.000000,0.000000,0.100000,0.100000,-0.243177,-0.364717,-0.050000,-0.050000,1.158316,-0.821675,0.000000,0.000000,-0.069622,0.167108,0.024655,0.060478,0.414216,-0.298776,-0.113526,-0.121571,0.653132,-0.696998
-0.050000,-0.050000,0.000000,0.000000,0.000000,0.000000,0.000000,0.000000,0.000000,0.100000,0.100000,-0.269237,-0.384311,-0.050000,-0.050000,1.182728,-0.836882,0.000000,0.000000,-0.082401,0.177131,0.026644,0.070718,0.417454,-0.302238,-0.112988,-0.119145,0.654199,-0.694441
-0.050000,-0.050000,0.000000,0.000000,0.000000,0.000000,0.000000,0.000000,0.000000,0.100000,0.100000,-0.294901,-0.403760,-0.050000,-0.050000,1.205350,-0.851426,0.000000,0.000000,-0.094637,0.186620,0.029436,0.080945,0.419661,-0.304943,-0.112497,-0.116887,0.655574,-0.692468
-0.050000,-0.050000,0.000000,0.000000,0.000000,0.000000,0.000000,0.000000,0.000000,0.100000,0.100000,-0.319769,-0.422918,-0.050000,-0.050000,1.224393,-0.864644,0.000000,0.000000,-0.105785,0.195041,0.033831,0.091146,0.419805,-0.306138,-0.112097,-0.114968,0.657568,-0.691663
-0.050000,-0.050000,0.000000,0.000000,0.000000,0.000000,0.000000,0.000000,0.000000,0.100000,0.100000,-0.343219,-0.441186,-0.050000,-0.050000,1.239525,-0.876366,0.000000,0.000000,-0.115253,0.201857,0.039435,0.100369,0.417901,-0.306162,-0.111856,-0.113513,0.660553,-0.692503
-0.050000,-0.050000,0.000000,0.000000,0.000000,0.000000,0.000000,0.000000,0.000000,0.100000,0.100000,-0.365959,-0.459009,-0.050000,-0.050000,1.252701,-0.887340,0.000000,0.000000,-0.123881,0.207869,0.045643,0.109102,0.414974,-0.305602,-0.111696,-0.112292,0.664034,-0.694166
-0.050000,-0.050000,0.000000,0.000000,0.000000,0.000000,0.000000,0.000000,0.000000,0.100000,0.100000,-0.385684,-0.474660,-0.050000,-0.050000,1.259602,-0.895786,0.000000,0.000000,-0.129160,0.210866,0.052688,0.115007,0.409303,-0.303966,-0.111927,-0.111925,0.669492,-0.698649
-0.050000,-0.050000,0.000000,0.000000,0.000000,0.000000,0.000000,0.000000,0.000000,0.100000,0.100000,-0.404107,-0.489349,-0.050000,-0.050000,1.264300,-0.903278,0.000000,0.000000,-0.133090,0.212762,0.059608,0.119607,0.402940,-0.302254,-0.112361,-0.111886,0.675723,-0.704038
-0.050000,-0.050000,0.000000,0.000000,0.000000,0.000000,0.000000,0.000000,0.000000,0.100000,0.100000,-0.419926,-0.502112,-0.050000,-0.050000,1.264592,-0.908860,0.000000,0.000000,-0.134323,0.212455,0.066276,0.121599,0.395194,-0.300389,-0.113201,-0.112501,0.683498,-0.711239
-0.050000,-0.050000,0.000000,0.000000,0.000000,0.000000,0.000000,0.000000,0.000000,0.100000,0.100000,-0.432519,-0.512582,-0.050000,-0.050000,1.260306,-0.912285,0.000000,0.000000,-0.132535,0.209998,0.071895,0.120561,0.386706,-0.299007,-0.114623,-0.113816,0.692882,-0.719901
-0.050000,-0.050000,0.000000,0.000000,0.000000,0.000000,0.000000,0.000000,0.000000,0.100000,0.100000,-0.443499,-0.521904,-0.050000,-0.050000,1.253731,-0.914632,0.000000,0.000000,-0.129237,0.206468,0.076988,0.118009,0.377847,-0.297866,-0.116337,-0.115482,0.703071,-0.729294
-0.050000,-0.050000,0.000000,0.000000,0.000000,0.000000,0.000000,0.000000,0.000000,0.100000,0.100000,-0.448702,-0.527446,-0.050000,-0.050000,1.240160,-0.913403,0.000000,0.000000,-0.121216,0.200176,0.079580,0.110844,0.369007,-0.298355,-0.119163,-0.118179,0.715421,-0.740030
-0.050000,-0.050000,0.000000,0.000000,0.000000,0.000000,0.000000,0.000000,0.000000,0.100000,0.100000,-0.451711,-0.531698,-0.050000,-0.050000,1.224280,-0.910915,0.000000,0.000000,-0.111693,0.193239,0.081179,0.102312,0.360543,-0.299605,-0.122403,-0.121174,0.728266,-0.750870
-0.050000,-0.050000,0.000000,0.000000,0.000000,0.000000,0.000000,0.000000,0.000000,0.100000,0.100000,-0.450333,-0.533370,-0.050000,-0.050000,1.203784,-0.905904,0.000000,0.000000,-0.099162,0.185011,0.080793,0.091048,0.352833,-0.302376,-0.126470,-0.124764,0.742101,-0.761915
-0.050000,-0.050000,0.000000,0.000000,0.000000,0.000000,0.000000,0.000000,0.000000,0.100000,0.100000,-0.444271,-0.532587,-0.050000,-0.050000,1.178941,-0.898391,0.000000,0.000000,-0.084112,0.176249,0.078434,0.077740,0.346470,-0.306802,-0.131324,-0.128780,0.756193,-0.772439
-0.050000,-0.050000,0.000000,0.000000,0.000000,0.000000,0.000000,0.000000,0.000000,0.100000,0.100000,-0.435867,-0.530576,-0.050000,-0.050000,1.151924,-0.889626,0.000000,0.000000,-0.067801,0.167221,0.075089,0.063411,0.340780,-0.312054,-0.136573,-0.133007,0.770414,-0.782701
-0.050000,-0.050000,0.000000,0.000000,0.000000,0.000000,0.000000,0.000000,0.000000,0.100000,0.100000,-0.420617,-0.525333,-0.050000,-0.050000,1.119291,-0.877453,0.000000,0.000000,-0.049048,0.158758,0.069237,0.047451,0.337625,-0.319428,-0.142734,-0.137534,0.783603,-0.791140
-0.050000,-0.050000,0.000000,0.000000,0.000000,0.000000,0.000000,0.000000,0.000000,0.100000,0.100000,-0.402129,-0.519325,-0.050000,-0.050000,1.084320,-0.864436,0.000000,0.000000,-0.027999,0.150377,0.061602,0.030469,0.336197,-0.328294,-0.149517,-0.141961,0.796358,-0.798838
-0.050000,-0.050000,0.000000,0.000000,0.000000,0.000000,0.000000,0.000000,0.000000,0.100000,0.100000,-0.377169,-0.511787,-0.050000,-0.050000,1.044675,-0.849730,0.000000,0.000000,-0.002358,0.142161,0.050401,0.011442,0.338222,-0.340143,-0.157541,-0.146186,0.808246,-0.805053
-0.050000,-0.050000,0.000000,0.000000,0.000000,0.000000,0.000000,0.000000,0.000000,0.100000,0.100000,-0.350165,-0.503177,-0.050000,-0.050000,1.005188,-0.833793,0.000000,0.000000,0.019599,0.137932,0.039736,-0.004795,0.340829,-0.350228,-0.164570,-0.150066,0.816072,-0.808248
-0.050000,-0.050000,0.000000,0.000000,0.000000,0.000000,0.000000,0.000000,0.000000,0.100000,0.100000,-0.322139,-0.494032,-0.050000,-0.050000,0.965781,-0.817241,0.000000,0.000000,0.039715,0.135695,0.029338,-0.019637,0.343726,-0.359429,-0.171103,-0.153774,0.821866,-0.809932
-0.050000,-0.050000,0.000000,0.000000,0.000000,0.000000,0.000000,0.000000,0.000000,0.100000,0.100000,-0.293942,-0.484363,-0.050000,-0.050000,0.928946,-0.800412,0.000000,0.000000,0.053916,0.138012,0.020680,-0.029795,0.347671,-0.366455,-0.176642,-0.157042,0.822615,-0.807987
-0.050000,-0.050000,0.000000,0.000000,0.000000,0.000000,0.000000,0.000000,0.000000,0.100000,0.100000,-0.266405,-0.474760,-0.050000,-0.050000,0.894195,-0.784098,0.000000,0.000000,0.065863,0.141694,0.012956,-0.038162,0.351905,-0.372505,-0.181789,-0.160118,0.821701,-0.804855
-0.050000,-0.050000,0.000000,0.000000,0.000000,0.000000,0.000000,0.000000,0.000000,0.100000,0.100000,-0.240188,-0.465290,-0.050000,-0.050000,0.863611,-0.768816,0.000000,0.000000,0.073300,0.148107,0.007102,-0.042948,0.356715,-0.376601,-0.186150,-0.162807,0.817462,-0.799346
-0.050000,-0.050000,0.000000,0.000000,0.000000,0.000000,0.000000,0.000000,0.000000,0.100000,0.100000,-0.216359,-0.456444,-0.050000,-0.050000,0.839560,-0.755680,0.000000,0.000000,0.076271,0.156759,0.003449,-0.044148,0.362005,-0.378364,-0.189636,-0.165085,0.810250,-0.791651
-0.050000,-0.050000,0.000000,0.000000,0.000000,0.000000,0.000000,0.000000,0.000000,0.100000,0.100000,-0.193724,-0.447908,-0.050000,-0.050000,0.818776,-0.743618,0.000000,0.000000,0.077009,0.166531,0.000897,-0.043553,0.367535,-0.378961,-0.192685,-0.167157,0.801551,-0.782864
-0.050000,-0.050000,0.000000,0.000000,0.000000,0.000000,0.000000,0.000000,0.000000,0.100000,0.100000,-0.175767,-0.441012,-0.050000,-0.050000,0.810383,-0.736094,0.000000,0.000000,0.072073,0.178553,0.001424,-0.038436,0.373791,-0.375991,-0.194467,-0.168663,0.789392,-0.771354
-0.050000,-0.050000,0.000000,0.000000,0.000000,0.000000,0.000000,0.000000,0.000000,0.100000,0.100000,-0.158937,-0.433921,-0.050000,-0.050000,0.806159,-0.730540,0.000000,0.000000,0.065738,0.190796,0.002311,-0.032988,0.380187,-0.372317,-0.195774,-0.169921,0.776904,-0.759596
-0.050000,-0.050000,0.000000,0.000000,0.000000,0.000000,0.000000,0.000000,0.000000,0.100000,0.100000,-0.144359,-0.426437,-0.050000,-0.050000,0.810274,-0.728929,0.000000,0.000000,0.056602,0.203486,0.003920,-0.026881,0.386860,-0.367237,-0.196127,-0.170685,0.763760,-0.747344
-0.050000,-0.050000,0.000000,0.000000,0.000000,0.000000,0.000000,0.000000,0.000000,0.100000,0.100000,-0.133394,-0.421250,-0.050000,-0.050000,0.822697,-0.730747,0.000000,0.000000,0.046568,0.216023,0.006164,-0.019686,0.394655,-0.360614,-0.196076,-0.171175,0.749475,-0.733918
-0.050000,-0.050000,0.000000,0.000000,0.000000,0.000000,0.000000,0.000000,0.000000,0.100000,0.100000,-0.124234,-0.417212,-0.050000,-0.050000,0.839273,-0.734280,0.000000,0.000000,0.036085,0.228485,0.008726,-0.011948,0.403010,-0.353221,-0.195822,-0.171530,0.734619,-0.719904
-0.050000,-0.050000,0.000000,0.000000,0.000000,0.000000,0.000000,0.000000,0.000000,0.100000,0.100000,-0.120539,-0.416432,-0.050000,-0.050000,0.866298,-0.742884,0.000000,0.000000,0.025731,0.239357,0.011386,-0.004553,0.412008,-0.344281,-0.194858,-0.171547,0.720013,-0.705846
-0.050000,-0.050000,0.000000,0.000000,0.000000,0.000000,0.000000,0.000000,0.000000,0.100000,0.100000,-0.118461,-0.416564,-0.050000,-0.050000,0.895637,-0.752901,0.000000,0.000000,0.015863,0.249329,0.013812,0.002192,0.420991,-0.335160,-0.193657,-0.171439,0.705945,-0.692204
-0.050000,-0.050000,0.000000,0.000000,0.000000,0.000000,0.000000,0.000000,0.000000,0.100000,0.100000,-0.119618,-0.418521,-0.050000,-0.050000,0.929601,-0.765745,0.000000,0.000000,0.006970,0.257501,0.015772,0.007637,0.429941,-0.325675,-0.191981,-0.171080,0.692955,-0.679392
-0.050000,-0.050000,0.000000,0.000000,0.000000,0.000000,0.000000,0.000000,0.000000,0.100000,0.100000,-0.123301,-0.421818,-0.050000,-0.050000,0.965388,-0.780626,0.000000,0.000000,-0.000267,0.263322,0.016898,0.011130,0.438437,-0.316504,-0.189779,-0.170394,0.681664,-0.668124
-0.050000,-0.050000,0.000000,0.000000,0.000000,0.000000,0.000000,0.000000,0.000000,0.100000,0.100000,-0.128247,-0.425785,-0.050000,-0.050000,1.002087,-0.796526,0.000000,0.000000,-0.006676,0.267969,0.017607,0.013648,0.446708,-0.307489,-0.187314,-0.169544,0.671222,-0.657628
-0.050000,-0.050000,0.000000,0.000000,0.000000,0.000000,0.000000,0.000000,0.000000,0.100000,0.100000,-0.135553,-0.430858,-0.050000,-0.050000,1.037380,-0.814133,0.000000,0.000000,-0.009993,0.268652,0.016890,0.012985,0.453751,-0.299815,-0.183963,-0.168068,0.663795,-0.650271
-0.050000,-0.050000,0.000000,0.000000,0.000000,0.000000,0.000000,0.000000,0.000000,0.100000,0.100000,-0.143104,-0.435976,-0.050000,-0.050000,1.071064,-0.831860,0.000000,0.000000,-0.012223,0.267991,0.015756,0.011396,0.460263,-0.292790,-0.180318,-0.166351,0.657364,-0.644129
-0.050000,-0.050000,0.000000,0.000000,0.000000,0.000000,0.000000,0.000000,0.000000,0.100000,0.100000,-0.151149,-0.441185,-0.050000,-0.050000,1.101528,-0.849828,0.000000,0.000000,-0.012281,0.264640,0.013790,0.007952,0.465709,-0.287065,-0.176085,-0.164149,0.652929,-0.640418
-0.050000,-0.050000,0.000000,0.000000,0.000000,0.000000,0.000000,0.000000,0.000000,0.100000,0.100000,-0.158619,-0.445886,-0.050000,-0.050000,1.127241,-0.867234,0.000000,0.000000,-0.010328,0.258762,0.011259,0.003217,0.469993,-0.282807,-0.171396,-0.161443,0.650174,-0.639224
-0.050000,-0.050000,0.000000,0.000000,0.000000,0.000000,0.000000,0.000000,0.000000,0.100000,0.100000,-0.165802,-0.450334,-0.050000,-0.050000,1.150577,-0.884360,0.000000,0.000000,-0.007371,0.251620,0.008446,-0.002162,0.473695,-0.279284,-0.166479,-0.158487,0.648260,-0.639289
-0.050000,-0.050000,0.000000,0.000000,0.000000,0.000000,0.000000,0.000000,0.000000,0.100000,0.100000,-0.170736,-0.453325,-0.050000,-0.050000,1.165718,-0.899698,0.000000,0.000000,-0.001984,0.241187,0.005249,-0.008442,0.475704,-0.277814,-0.161278,-0.154835,0.648054,-0.642872
-0.050000,-0.050000,0.000000,0.000000,0.000000,0.000000,0.000000,0.000000,0.000000,0.100000,0.100000,-0.174574,-0.455689,-0.050000,-0.050000,1.178124,-0.914228,0.000000,0.000000,0.003942,0.229893,0.002048,-0.014691,0.477200,-0.276856,-0.156156,-0.151002,0.648090,-0.647423
-0.050000,-0.050000,0.000000,0.000000,0.000000,0.000000,0.000000,0.000000,0.000000,0.100000,0.100000,-0.176223,-0.456795,-0.050000,-0.050000,1.185061,-0.927141,0.000000,0.000000,0.010944,0.216874,-0.001160,-0.020875,0.477670,-0.276921,-0.151195,-0.146805,0.648609,-0.653908
-0.050000,-0.050000,0.000000,0.000000,0.000000,0.000000,0.000000,0.000000,0.000000,0.100000,0.100000,-0.175287,-0.456535,-0.050000,-0.050000,1.187000,-0.938221,0.000000,0.000000,0.018402,0.202703,-0.004230,-0.026461,0.477206,-0.277478,-0.146754,-0.142405,0.648960,-0.661735
-0.050000,-0.050000,0.000000,0.000000,0.000000,0.000000,0.000000,0.000000,0.000000,0.100000,0.100000,-0.173060,-0.455591,-0.050000,-0.050000,1.186440,-0.948385,0.000000,0.000000,0.026087,0.187956,-0.007231,-0.031749,0.476277,-0.278282,-0.142574,-0.137903,0.649227,-0.670232
-0.050000,-0.050000,0.000000,0.000000,0.000000,0.000000,0.000000,0.000000,0.000000,0.100000,0.100000,-0.166848,-0.452636,-0.050000,-0.050000,1.179419,-0.955729,0.000000,0.000000,0.033502,0.172429,-0.009955,-0.035598,0.473976,-0.278923,-0.139632,-0.133410,0.648429,-0.679686
-0.050000,-0.050000,0.000000,0.000000,0.000000,0.000000,0.000000,0.000000,0.000000,0.100000,0.100000,-0.159423,-0.449066,-0.050000,-0.050000,1.170601,-0.962170,0.000000,0.000000,0.040528,0.156964,-0.012593,-0.038875,0.471178,-0.279236,-0.137205,-0.129043,0.647091,-0.689092
-0.050000,-0.050000,0.000000,0.000000,0.000000,0.000000,0.000000,0.000000,0.000000,0.100000,0.100000,-0.149576,-0.444267,-0.050000,-0.050000,1.158185,-0.966806,0.000000,0.000000,0.046775,0.141622,-0.015060,-0.041007,0.467388,-0.278891,-0.135809,-0.124929,0.644671,-0.698403
-0.050000,-0.050000,0.000000,0.000000,0.000000,0.000000,0.000000,0.000000,0.000000,0.100000,0.100000,-0.137797,-0.438398,-0.050000,-0.050000,1.142788,-0.969777,0.000000,0.000000,0.051723,0.127001,-0.017380,-0.041954,0.462452,-0.277507,-0.135537,-0.121318,0.640980,-0.706928
-0.050000,-0.050000,0.000000,0.000000,0.000000,0.000000,0.000000,0.000000,0.000000,0.100000,0.100000,-0.125052,-0.431994,-0.050000,-0.050000,1.125900,-0.971916,0.000000,0.000000,0.056021,0.112741,-0.019628,-0.042307,0.456944,-0.275602,-0.135827,-0.117960,0.636653,-0.715062
-0.050000,-0.050000,0.000000,0.000000,0.000000,0.000000,0.000000,0.000000,0.000000,0.100000,0.100000,-0.110397,-0.424276,-0.050000,-0.050000,1.105302,-0.971821,0.000000,0.000000,0.057746,0.100328,-0.021656,-0.040983,0.449479,-0.271917,-0.137783,-0.115684,0.630350,-0.721150
-0.050000,-0.050000,0.000000,0.000000,0.000000,0.000000,0.000000,0.000000,0.000000,0.100000,0.100000,-0.095464,-0.416244,-0.050000,-0.050000,1.083704,-0.971077,0.000000,0.000000,0.058465,0.088725,-0.023588,-0.039166,0.441319,-0.267685,-0.140245,-0.113836,0.623401,-0.726341
-0.050000,-0.050000,0.000000,0.000000,0.000000,0.000000,0.000000,0.000000,0.000000,0.100000,0.100000,-0.079976,-0.407581,-0.050000,-0.050000,1.060102,-0.969033,0.000000,0.000000,0.057170,0.078743,-0.025330,-0.036364,0.431769,-0.262358,-0.143719,-0.112849,0.615162,-0.729741
-0.050000,-0.050000,0.000000,0.000000,0.000000,0.000000,0.000000,0.000000,0.000000,0.100000,0.100000,-0.064605,-0.398620,-0.050000,-0.050000,1.035037,-0.965897,0.000000,0.000000,0.053673,0.070644,-0.026790,-0.032734,0.420887,-0.256212,-0.148046,-0.112750,0.605665,-0.731103
-0.050000,-0.050000,0.000000,0.000000,0.000000,0.000000,0.000000,0.000000,0.000000,0.100000,0.100000,-0.049292,-0.389509,-0.050000,-0.050000,1.009239,-0.962215,0.000000,0.000000,0.049075,0.063487,-0.028110,-0.028691,0.409338,-0.249655,-0.152799,-0.113095,0.595539,-0.731444
-0.050000,-0.050000,0.000000,0.000000,0.000000,0.000000,0.000000,0.000000,0.000000,0.100000,0.100000,-0.034979,-0.380620,-0.050000,-0.050000,0.982304,-0.957243,0.000000,0.000000,0.041023,0.059373,-0.028814,-0.023614,0.396124,-0.242394,-0.158545,-0.114631,0.583489,-0.728636
-0.050000,-0.050000,0.000000,0.000000,0.000000,0.000000,0.000000,0.000000,0.000000,0.100000,0.100000,-0.021197,-0.372087,-0.050000,-0.050000,0.955445,-0.951976,0.000000,0.000000,0.031803,0.056298,-0.029231,-0.018233,0.382531,-0.235055,-0.164515,-0.116461,0.570747,-0.724833
-0.050000,-0.050000,0.000000,0.000000,0.000000,0.000000,0.000000,0.000000,0.000000,0.100000,0.100000,-0.008475,-0.364268,-0.050000,-0.050000,0.928737,-0.946115,0.000000,0.000000,0.020245,0.055298,-0.029073,-0.012245,0.368180,-0.227560,-0.170937,-0.118878,0.556622,-0.719042
-0.050000,-0.050000,0.000000,0.000000,0.000000,0.000000,0.000000,0.000000,0.000000,0.100000,0.100000,0.002931,-0.357811,-0.050000,-0.050000,0.903229,-0.939955,0.000000,0.000000,0.006372,0.056335,-0.028140,-0.005657,0.353471,-0.220098,-0.177582,-0.121597,0.540955,-0.711518
-0.050000,-0.050000,0.000000,0.000000,0.000000,0.000000,0.000000,0.000000,0.000000,0.100000,0.100000,0.013678,-0.352035,-0.050000,-0.050000,0.878323,-0.933645,0.000000,0.000000,-0.008659,0.058391,-0.026820,0.001230,0.338584,-0.212653,-0.184340,-0.124467,0.524518,-0.703127
-0.050000,-0.050000,0.000000,0.000000,0.000000,0.000000,0.000000,0.000000,0.000000,0.100000,0.100000,0.022199,-0.349281,-0.050000,-0.050000,0.856749,-0.927329,0.000000,0.000000,-0.027018,0.063320,-0.023958,0.009101,0.323687,-0.205302,-0.191059,-0.127317,0.505547,-0.692662
-0.050000,-0.050000,0.000000,0.000000,0.000000,0.000000,0.000000,0.000000,0.000000,0.100000,0.100000,0.029915,-0.347808,-0.050000,-0.050000,0.836665,-0.921138,0.000000,0.000000,-0.046380,0.069097,-0.020419,0.017334,0.308899,-0.197931,-0.197625,-0.130015,0.485710,-0.681707
-0.050000,-0.050000,0.000000,0.000000,0.000000,0.000000,0.000000,0.000000,0.000000,0.100000,0.100000,0.036020,-0.348899,-0.050000,-0.050000,0.819560,-0.915199,0.000000,0.000000,-0.067744,0.076572,-0.015525,0.026293,0.294330,-0.190518,-0.203884,-0.132412,0.464141,-0.669772
-0.050000,-0.050000,0.000000,0.000000,0.000000,0.000000,0.000000,0.000000,0.000000,0.100000,0.100000,0.040412,-0.352897,-0.050000,-0.050000,0.805701,-0.909683,0.000000,0.000000,-0.090731,0.085420,-0.008857,0.035993,0.280058,-0.182900,-0.209534,-0.134302,0.441015,-0.657275
-0.050000,-0.050000,0.000000,0.000000,0.000000,0.000000,0.000000,0.000000,0.000000,0.100000,0.100000,0.043947,-0.358348,-0.050000,-0.050000,0.793465,-0.904378,0.000000,0.000000,-0.114530,0.094953,-0.001302,0.046064,0.265934,-0.175180,-0.214878,-0.135937,0.417110,-0.644498
-0.050000,-0.050000,0.000000,0.000000,0.000000,0.000000,0.000000,0.000000,0.000000,0.100000,0.100000,0.044835,-0.368248,-0.050000,-0.050000,0.785564,-0.899789,0.000000,0.000000,-0.139912,0.105894,0.009703,0.057091,0.252211,-0.166970,-0.218846,-0.136684,0.391560,-0.631529
-0.050000,-0.050000,0.000000,0.000000,0.000000,0.000000,0.000000,0.000000,0.000000,0.100000,0.100000,0.044865,-0.379500,-0.050000,-0.050000,0.778633,-0.895407,0.000000,0.000000,-0.165460,0.117044,0.022162,0.068309,0.238587,-0.158597,-0.222223,-0.137159,0.365839,-0.618729
-0.050000,-0.050000,0.000000,0.000000,0.000000,0.000000,0.000000,0.000000,0.000000,0.100000,0.100000,0.043178,-0.393457,-0.050000,-0.050000,0.773641,-0.891439,0.000000,0.000000,-0.191340,0.128614,0.037530,0.079908,0.225162,-0.149901,-0.224416,-0.137088,0.339779,-0.606263
-0.050000,-0.050000,0.000000,0.000000,0.000000,0.000000,0.000000,0.000000,0.000000,0.100000,0.100000,0.039963,-0.409551,-0.050000,-0.050000,0.769228,-0.887724,0.000000,0.000000,-0.216748,0.140040,0.056444,0.091506,0.211896,-0.141046,-0.225245,-0.136629,0.314342,-0.594642
-0.050000,-0.050000,0.000000,0.000000,0.000000,0.000000,0.000000,0.000000,0.000000,0.100000,0.100000,0.035984,-0.426713,-0.050000,-0.050000,0.765105,-0.884136,0.000000,0.000000,-0.241921,0.151395,0.077132,0.103103,0.198710,-0.132111,-0.225393,-0.135977,0.289216,-0.583441
-0.050000,-0.050000,0.000000,0.000000,0.000000,0.000000,0.000000,0.000000,0.000000,0.100000,0.100000,0.030201,-0.445846,-0.050000,-0.050000,0.759646,-0.880605,0.000000,0.000000,-0.265224,0.161725,0.103966,0.114041,0.185798,-0.123375,-0.223414,-0.135065,0.266517,-0.574297
-0.050000,-0.050000,0.000000,0.000000,0.000000,0.000000,0.000000,0.000000,0.000000,0.100000,0.100000,0.024022,-0.465145,-0.050000,-0.050000,0.753115,-0.876976,0.000000,0.000000,-0.287584,0.171487,0.133003,0.124565,0.173013,-0.114868,-0.220770,-0.134168,0.245026,-0.566067
-0.050000,-0.050000,0.000000,0.000000,0.000000,0.000000,0.000000,0.000000,0.000000,0.100000,0.100000,0.017051,-0.484778,-0.050000,-0.050000,0.744439,-0.873153,0.000000,0.000000,-0.308059,0.180113,0.166444,0.134261,0.160485,-0.106818,-0.216798,-0.133300,0.225952,-0.559664
-0.050000,-0.050000,0.000000,0.000000,0.000000,0.000000,0.000000,0.000000,0.000000,0.100000,0.100000,0.009696,-0.503728,-0.050000,-0.050000,0.732844,-0.868921,0.000000,0.000000,-0.326228,0.187311,0.204187,0.142885,0.148309,-0.099463,-0.211709,-0.132577,0.209698,-0.555336
-0.050000,-0.050000,0.000000,0.000000,0.000000,0.000000,0.000000,0.000000,0.000000,0.100000,0.100000,0.002150,-0.522336,-0.050000,-0.050000,0.719790,-0.864484,0.000000,0.000000,-0.343246,0.193796,0.244080,0.150974,0.136307,-0.092456,-0.206063,-0.131926,0.194853,-0.552046
-0.050000,-0.050000,0.000000,0.000000,0.000000,0.000000,0.000000,0.000000,0.000000,0.100000,0.100000,-0.005492,-0.538550,-0.050000,-0.050000,0.702138,-0.859174,0.000000,0.000000,-0.356564,0.198032,0.289473,0.157404,0.124971,-0.086578,-0.199195,-0.131477,0.184089,-0.551707
-0.050000,-0.050000,0.000000,0.000000,0.000000,0.000000,0.000000,0.000000,0.000000,0.100000,0.100000,-0.013073,-0.553616,-0.050000,-0.050000,0.683202,-0.853517,0.000000,0.000000,-0.368689,0.201611,0.336104,0.163371,0.113901,-0.081001,-0.192089,-0.131027,0.174403,-0.552081
-0.050000,-0.050000,0.000000,0.000000,0.000000,0.000000,0.000000,0.000000,0.000000,0.100000,0.100000,-0.020533,-0.566385,-0.050000,-0.050000,0.661695,-0.847168,0.000000,0.000000,-0.378431,0.203876,0.385212,0.168410,0.103363,-0.076025,-0.184509,-0.130577,0.166873,-0.553884
-0.050000,-0.050000,0.000000,0.000000,0.000000,0.000000,0.000000,0.000000,0.000000,0.100000,0.100000,-0.027821,-0.576452,-0.050000,-0.050000,0.638637,-0.840094,0.000000,0.000000,-0.386061,0.205268,0.435147,0.172853,0.093456,-0.071330,-0.176788,-0.129917,0.160637,-0.556172
-0.050000,-0.050000,0.000000,0.000000,0.000000,0.000000,0.000000,0.000000,0.000000,0.100000,0.100000,-0.035024,-0.585166,-0.050000,-0.050000,0.614802,-0.832658,0.000000,0.000000,-0.392633,0.206223,0.485494,0.177000,0.083865,-0.066776,-0.168998,-0.129152,0.155047,-0.558704
-0.050000,-0.050000,0.000000,0.000000,0.000000,0.000000,0.000000,0.000000,0.000000,0.100000,0.100000,-0.042025,-0.589691,-0.050000,-0.050000,0.590644,-0.824196,0.000000,0.000000,-0.396617,0.206838,0.534204,0.180843,0.075389,-0.062059,-0.161432,-0.127756,0.150005,-0.560178
-0.050000,-0.050000,0.000000,0.000000,0.000000,0.000000,0.000000,0.000000,0.000000,0.100000,0.100000,-0.048995,-0.592922,-0.050000,-0.050000,0.567080,-0.815441,0.000000,0.000000,-0.399953,0.207717,0.581403,0.184759,0.067335,-0.057115,-0.154049,-0.126075,0.144764,-0.560693
-0.050000,-0.050000,0.000000,0.000000,0.000000,0.000000,0.000000,0.000000,0.000000,0.100000,0.100000,-0.055904,-0.593566,-0.050000,-0.050000,0.544707,-0.806098,0.000000,0.000000,-0.401993,0.209123,0.625581,0.188822,0.060125,-0.051717,-0.147031,-0.123823,0.139124,-0.559291
-0.050000,-0.050000,0.000000,0.000000,0.000000,0.000000,0.000000,0.000000,0.000000,0.100000,0.100000,-0.062826,-0.592058,-0.050000,-0.050000,0.524757,-0.796276,0.000000,0.000000,-0.403152,0.211789,0.665066,0.193253,0.053806,-0.045653,-0.140501,-0.120941,0.132635,-0.554985
-0.050000,-0.050000,0.000000,0.000000,0.000000,0.000000,0.000000,0.000000,0.000000,0.100000,0.100000,-0.069754,-0.589475,-0.050000,-0.050000,0.506018,-0.786214,0.000000,0.000000,-0.403872,0.215084,0.702204,0.197868,0.047933,-0.039257,-0.134214,-0.117744,0.125722,-0.549227
-0.050000,-0.050000,0.000000,0.000000,0.000000,0.000000,0.000000,0.000000,0.000000,0.100000,0.100000,-0.076802,-0.584523,-0.050000,-0.050000,0.492222,-0.775549,0.000000,0.000000,-0.403799,0.221121,0.730519,0.203117,0.043316,-0.031806,-0.128694,-0.113649,0.117406,-0.538257
-0.050000,-0.050000,0.000000,0.000000,0.000000,0.000000,0.000000,0.000000,0.000000,0.100000,0.100000,-0.083926,-0.579085,-0.050000,-0.050000,0.480284,-0.764696,0.000000,0.000000,-0.403588,0.228216,0.755604,0.208523,0.039034,-0.024056,-0.123401,-0.109302,0.108732,-0.525517
-0.050000,-0.050000,0.000000,0.000000,0.000000,0.000000,0.000000,0.000000,0.000000,0.100000,0.100000,-0.091202,-0.572675,-0.050000,-0.050000,0.472061,-0.753463,0.000000,0.000000,-0.403098,0.237428,0.774228,0.214243,0.035419,-0.015711,-0.118559,-0.104453,0.099343,-0.509237
-0.050000,-0.050000,0.000000,0.000000,0.000000,0.000000,0.000000,0.000000,0.000000,0.100000,0.100000,-0.098711,-0.565850,-0.050000,-0.050000,0.467517,-0.741827,0.000000,0.000000,-0.402454,0.248692,0.786422,0.220051,0.032210,-0.006954,-0.114053,-0.099239,0.089649,-0.489845
-0.050000,-0.050000,0.000000,0.000000,0.000000,0.000000,0.000000,0.000000,0.000000,0.100000,0.100000,-0.106337,-0.558816,-0.050000,-0.050000,0.464813,-0.729988,0.000000,0.000000,-0.401733,0.260983,0.795400,0.225902,0.029205,0.002008,-0.109716,-0.093842,0.079802,-0.468897
-0.050000,-0.050000,0.000000,0.000000,0.000000,0.000000,0.000000,0.000000,0.000000,0.100000,0.100000,-0.114436,-0.551826,-0.050000,-0.050000,0.467016,-0.717496,0.000000,0.000000,-0.400776,0.275717,0.795521,0.231436,0.026359,0.011301,-0.105686,-0.088139,0.070197,-0.444514
-0.050000,-0.050000,0.000000,0.000000,0.000000,0.000000,0.000000,0.000000,0.000000,0.100000,0.100000,-0.122719,-0.545007,-0.050000,-0.050000,0.470522,-0.704792,0.000000,0.000000,-0.399691,0.290903,0.793104,0.236701,0.023428,0.020630,-0.101710,-0.082426,0.060882,-0.419527
-0.050000,-0.050000,0.000000,0.000000,0.000000,0.000000,0.000000,0.000000,0.000000,0.100000,0.100000,-0.131369,-0.538529,-0.050000,-0.050000,0.476636,-0.691667,0.000000,0.000000,-0.398350,0.306994,0.785615,0.241425,0.020324,0.030034,-0.097839,-0.076693,0.052147,-0.393331
-0.050000,-0.050000,0.000000,0.000000,0.000000,0.000000,0.000000,0.000000,0.000000,0.100000,0.100000,-0.140372,-0.532574,-0.050000,-0.050000,0.484563,-0.678222,0.000000,0.000000,-0.396600,0.323087,0.773995,0.245272,0.016819,0.039426,-0.094045,-0.071148,0.044309,-0.367114
-0.050000,-0.050000,0.000000,0.000000,0.000000,0.000000,0.000000,0.000000,0.000000,0.100000,0.100000,-0.149551,-0.526882,-0.050000,-0.050000,0.493398,-0.664617,0.000000,0.000000,-0.394644,0.339180,0.760311,0.248681,0.013114,0.048813,-0.090289,-0.065697,0.036920,-0.340887
-0.050000,-0.050000,0.000000,0.000000,0.000000,0.000000,0.000000,0.000000,0.000000,0.100000,0.100000,-0.159105,-0.522103,-0.050000,-0.050000,0.503726,-0.650823,0.000000,0.000000,-0.391839,0.353896,0.741782,0.250280,0.008523,0.058146,-0.086726,-0.060880,0.031186,-0.316346
-0.050000,-0.050000,0.000000,0.000000,0.000000,0.000000,0.000000,0.000000,0.000000,0.100000,0.100000,-0.168688,-0.517644,-0.050000,-0.050000,0.514169,-0.637091,0.000000,0.000000,-0.388687,0.367764,0.722029,0.251133,0.003546,0.067473,-0.083284,-0.056391,0.026063,-0.292853
-0.050000,-0.050000,0.000000,0.000000,0.000000,0.000000,0.000000,0.000000,0.000000,0.100000,0.100000,-0.178333,-0.513822,-0.050000,-0.050000,0.524839,-0.623484,0.000000,0.000000,-0.384841,0.379940,0.699826,0.250493,-0.002205,0.076791,-0.080088,-0.052559,0.022160,-0.271455
-0.050000,-0.050000,0.000000,0.000000,0.000000,0.000000,0.000000,0.000000,0.000000,0.100000,0.100000,-0.187795,-0.510649,-0.050000,-0.050000,0.535060,-0.610247,0.000000,0.000000,-0.380234,0.389935,0.675824,0.248172,-0.008945,0.086161,-0.077274,-0.049569,0.019530,-0.252834
-0.050000,-0.050000,0.000000,0.000000,0.000000,0.000000,0.000000,0.000000,0.000000,0.100000,0.100000,-0.197165,-0.507799,-0.050000,-0.050000,0.545057,-0.597197,0.000000,0.000000,-0.375246,0.398840,0.650923,0.245011,-0.016180,0.095557,-0.074651,-0.047001,0.017537,-0.235600
-0.050000,-0.050000,0.000000,0.000000,0.000000,0.000000,0.000000,0.000000,0.000000,0.100000,0.100000,-0.205889,-0.505940,-0.050000,-0.050000,0.553541,-0.584975,0.000000,0.000000,-0.369124,0.404289,0.624166,0.239296,-0.025267,0.105147,-0.072763,-0.045833,0.017461,-0.223014
-0.050000,-0.050000,0.000000,0.000000,0.000000,0.000000,0.000000,0.000000,0.000000,0.100000,0.100000,-0.214295,-0.504423,-0.050000,-0.050000,0.561310,-0.573069,0.000000,0.000000,-0.362671,0.408709,0.597052,0.232825,-0.035091,0.114837,-0.071142,-0.045111,0.018003,-0.211947
-0.050000,-0.050000,0.000000,0.000000,0.000000,0.000000,0.000000,0.000000,0.000000,0.100000,0.100000,-0.222068,-0.503586,-0.050000,-0.050000,0.567649,-0.561795,0.000000,0.000000,-0.355556,0.411071,0.569224,0.224841,-0.046389,0.124727,-0.070054,-0.045280,0.019780,-0.203919
-0.050000,-0.050000,0.000000,0.000000,0.000000,0.000000,0.000000,0.000000,0.000000,0.100000,0.100000,-0.229085,-0.503443,-0.050000,-0.050000,0.572296,-0.551134,0.000000,0.000000,-0.347969,0.411918,0.541202,0.215747,-0.059315,0.134859,-0.069465,-0.046171,0.022689,-0.198531
-0.050000,-0.050000,0.000000,0.000000,0.000000,0.000000,0.000000,0.000000,0.000000,0.100000,0.100000,-0.235725,-0.503646,-0.050000,-0.050000,0.576098,-0.540780,0.000000,0.000000,-0.340145,0.412009,0.513082,0.206099,-0.073056,0.145113,-0.069127,-0.047424,0.026164,-0.194464
-0.050000,-0.050000,0.000000,0.000000,0.000000,0.000000,0.000000,0.000000,0.000000,0.100000,0.100000,-0.241201,-0.504868,-0.050000,-0.050000,0.577244,-0.531212,0.000000,0.000000,-0.332029,0.410915,0.485452,0.195629,-0.089234,0.155735,-0.069398,-0.049366,0.031076,-0.193373
-0.050000,-0.050000,0.000000,0.000000,0.000000,0.000000,0.000000,0.000000,0.000000,0.100000,0.100000,-0.246327,-0.506395,-0.050000,-0.050000,0.577558,-0.521851,0.000000,0.000000,-0.323985,0.409806,0.458235,0.185198,-0.106116,0.166458,-0.069808,-0.051389,0.036343,-0.192876
-0.050000,-0.050000,0.000000,0.000000,0.000000,0.000000,0.000000,0.000000,0.000000,0.100000,0.100000,-0.250752,-0.508534,-0.050000,-0.050000,0.576212,-0.512904,0.000000,0.000000,-0.316085,0.408665,0.431840,0.174845,-0.124408,0.177386,-0.070496,-0.053572,0.042319,-0.193567
-0.050000,-0.050000,0.000000,0.000000,0.000000,0.000000,0.000000,0.000000,0.000000,0.100000,0.100000,-0.254625,-0.511153,-0.050000,-0.050000,0.573489,-0.504274,0.000000,0.000000,-0.308685,0.408147,0.406707,0.165152,-0.143682,0.188432,-0.071328,-0.055634,0.048689,-0.194628
-0.050000,-0.050000,0.000000,0.000000,0.000000,0.000000,0.000000,0.000000,0.000000,0.100000,0.100000,-0.258223,-0.514013,-0.050000,-0.050000,0.570078,-0.495803,0.000000,0.000000,-0.301536,0.407940,0.382203,0.155789,-0.163448,0.199537,-0.072230,-0.057636,0.055256,-0.195874
-0.050000,-0.050000,0.000000,0.000000,0.000000,0.000000,0.000000,0.000000,0.000000,0.100000,0.100000,-0.261283,-0.517294,-0.050000,-0.050000,0.565225,-0.487723,0.000000,0.000000,-0.295617,0.409329,0.360095,0.148076,-0.183808,0.210632,-0.073152,-0.059123,0.061887,-0.196589
-0.050000,-0.050000,0.000000,0.000000,0.000000,0.000000,0.000000,0.000000,0.000000,0.100000,0.100000,-0.264266,-0.520589,-0.050000,-0.050000,0.560129,-0.479766,0.000000,0.000000,-0.290224,0.411336,0.338892,0.141031,-0.204037,0.221644,-0.074023,-0.060370,0.068365,-0.196859
-0.050000,-0.050000,0.000000,0.000000,0.000000,0.000000,0.000000,0.000000,0.000000,0.100000,0.100000,-0.267093,-0.523913,-0.050000,-0.050000,0.554546,-0.472055,0.000000,0.000000,-0.285882,0.414580,0.319498,0.135324,-0.224004,0.232489,-0.074792,-0.061133,0.074538,-0.196240
-0.050000,-0.050000,0.000000,0.000000,0.000000,0.000000,0.000000,0.000000,0.000000,0.100000,0.100000,-0.269940,-0.526990,-0.050000,-0.050000,0.548935,-0.464614,0.000000,0.000000,-0.282705,0.418970,0.301989,0.130974,-0.243082,0.242985,-0.075361,-0.061363,0.080108,-0.194444
-0.050000,-0.050000,0.000000,0.000000,0.000000,0.000000,0.000000,0.000000,0.000000,0.100000,0.100000,-0.272797,-0.529945,-0.050000,-0.050000,0.543310,-0.457306,0.000000,0.000000,-0.280111,0.423931,0.285424,0.127301,-0.261716,0.253305,-0.075831,-0.061325,0.085377,-0.192061
-0.050000,-0.050000,0.000000,0.000000,0.000000,0.000000,0.000000,0.000000,0.000000,0.100000,0.100000,-0.275863,-0.532143,-0.050000,-0.050000,0.538201,-0.450477,0.000000,0.000000,-0.279241,0.430156,0.271616,0.125398,-0.278264,0.262819,-0.075902,-0.060537,0.089434,-0.187881
-0.050000,-0.050000,0.000000,0.000000,0.000000,0.000000,0.000000,0.000000,0.000000,0.100000,0.100000,-0.279020,-0.533990,-0.050000,-0.050000,0.533382,-0.443841,0.000000,0.000000,-0.278881,0.436591,0.258654,0.123928,-0.293958,0.271979,-0.075827,-0.059553,0.093043,-0.183204
-0.050000,-0.050000,0.000000,0.000000,0.000000,0.000000,0.000000,0.000000,0.000000,0.100000,0.100000,-0.282358,-0.535134,-0.050000,-0.050000,0.529145,-0.437592,0.000000,0.000000,-0.279540,0.443443,0.247382,0.123325,-0.307949,0.280432,-0.075459,-0.058174,0.095755,-0.177536
-0.050000,-0.050000,0.000000,0.000000,0.000000,0.000000,0.000000,0.000000,0.000000,0.100000,0.100000,-0.285837,-0.535467,-0.050000,-0.050000,0.525574,-0.431806,0.000000,0.000000,-0.281003,0.450268,0.237588,0.123210,-0.320138,0.288056,-0.074820,-0.056557,0.097597,-0.171231
-0.050000,-0.050000,0.000000,0.000000,0.000000,0.000000,0.000000,0.000000,0.000000,0.100000,0.100000,-0.289386,-0.535394,-0.050000,-0.050000,0.522336,-0.426251,0.000000,0.000000,-0.282868,0.457080,0.228531,0.123339,-0.331426,0.295264,-0.074046,-0.054821,0.099004,-0.164608
-0.050000,-0.050000,0.000000,0.000000,0.000000,0.000000,0.000000,0.000000,0.000000,0.100000,0.100000,-0.292969,-0.534106,-0.050000,-0.050000,0.520016,-0.421507,0.000000,0.000000,-0.285537,0.463289,0.221322,0.123644,-0.340185,0.301143,-0.072963,-0.052991,0.099282,-0.157646
-0.050000,-0.050000,0.000000,0.000000,0.000000,0.000000,0.000000,0.000000,0.000000,0.100000,0.100000,-0.296477,-0.532467,-0.050000,-0.050000,0.517922,-0.417068,0.000000,0.000000,-0.288334,0.469172,0.214602,0.123852,-0.348244,0.306589,-0.071825,-0.051210,0.099271,-0.150759
-0.050000,-0.050000,0.000000,0.000000,0.000000,0.000000,0.000000,0.000000,0.000000,0.100000,0.100000,-0.299839,-0.530126,-0.050000,-0.050000,0.516280,-0.413237,0.000000,0.000000,-0.291387,0.474405,0.208864,0.123869,-0.354903,0.311169,-0.070573,-0.049523,0.098680,-0.144023
-0.050000,-0.050000,0.000000,0.000000,0.000000,0.000000,0.000000,0.000000,0.000000,0.100000,0.100000,-0.302865,-0.527278,-0.050000,-0.050000,0.514880,-0.410068,0.000000,0.000000,-0.294435,0.478888,0.203872,0.123475,-0.360555,0.314972,-0.069304,-0.048045,0.097699,-0.137727
-0.050000,-0.050000,0.000000,0.000000,0.000000,0.000000,0.000000,0.000000,0.000000,0.100000,0.100000,-0.305724,-0.524177,-0.050000,-0.050000,0.513601,-0.407228,0.000000,0.000000,-0.297480,0.482996,0.199251,0.122876,-0.365704,0.318386,-0.068025,-0.046670,0.096523,-0.131649
-0.050000,-0.050000,0.000000,0.000000,0.000000,0.000000,0.000000,0.000000,0.000000,0.100000,0.100000,-0.307833,-0.520691,-0.050000,-0.050000,0.512381,-0.405423,0.000000,0.000000,-0.300197,0.486032,0.195424,0.121476,-0.369976,0.320837,-0.066834,-0.045680,0.095023,-0.126498
-0.050000,-0.050000,0.000000,0.000000,0.000000,0.000000,0.000000,0.000000,0.000000,0.100000,0.100000,-0.309638,-0.517211,-0.050000,-0.050000,0.511106,-0.403963,0.000000,0.000000,-0.302730,0.488777,0.191762,0.119786,-0.374142,0.323045,-0.065696,-0.044813,0.093487,-0.121692
-0.050000,-0.050000,0.000000,0.000000,0.000000,0.000000,0.000000,0.000000,0.000000,0.100000,0.100000,-0.310834,-0.513744,-0.050000,-0.050000,0.509724,-0.403193,0.000000,0.000000,-0.304893,0.490939,0.188430,0.117518,-0.378098,0.324767,-0.064663,-0.044193,0.091879,-0.117579
-0.050000,-0.050000,0.000000,0.000000,0.000000,0.000000,0.000000,0.000000,0.000000,0.100000,0.100000,-0.311392,-0.510538,-0.050000,-0.050000,0.508171,-0.403075,0.000000,0.000000,-0.306605,0.492695,0.185248,0.114680,-0.382109,0.326151,-0.063755,-0.043768,0.090309,-0.114153
-0.050000,-0.050000,0.000000,0.000000,0.000000,0.000000,0.000000,0.000000,0.000000,0.100000,0.100000,-0.311632,-0.507463,-0.050000,-0.050000,0.506534,-0.403283,0.000000,0.000000,-0.308092,0.494248,0.182141,0.111558,-0.386147,0.327366,-0.062910,-0.043442,0.088758,-0.111070
-0.050000,-0.050000,0.000000,0.000000,0.000000,0.000000,0.000000,0.000000,0.000000,0.100000,0.100000,-0.310999,-0.505085,-0.050000,-0.050000,0.504685,-0.404344,0.000000,0.000000,-0.308874,0.495460,0.179013,0.107652,-0.390464,0.328260,-0.062270,-0.043315,0.087390,-0.108935
-0.050000,-0.050000,0.000000,0.000000,0.000000,0.000000,0.000000,0.000000,0.000000,0.100000,0.100000,-0.310138,-0.503007,-0.050000,-0.050000,0.502814,-0.405622,0.000000,0.000000,-0.309433,0.496632,0.175812,0.103519,-0.394875,0.329092,-0.061707,-0.043229,0.086119,-0.107078
-0.050000,-0.050000,0.000000,0.000000,0.000000,0.000000,0.000000,0.000000,0.000000,0.100000,0.100000,-0.308823,-0.501528,-0.050000,-0.050000,0.500897,-0.407333,0.000000,0.000000,-0.309548,0.497725,0.172464,0.098933,-0.399473,0.329802,-0.061299,-0.043224,0.085041,-0.105777
-0.050000,-0.050000,0.000000,0.000000,0.000000,0.000000,0.000000,0.000000,0.000000,0.100000,0.100000,-0.307223,-0.500707,-0.050000,-0.050000,0.499058,-0.409289,0.000000,0.000000,-0.309268,0.498846,0.168875,0.093992,-0.404162,0.330445,-0.061087,-0.043278,0.084230,-0.104966
-0.050000,-0.050000,0.000000,0.000000,0.000000,0.000000,0.000000,0.000000,0.000000,0.100000,0.100000,-0.305481,-0.500216,-0.050000,-0.050000,0.497258,-0.411368,0.000000,0.000000,-0.308792,0.499981,0.165165,0.088872,-0.408898,0.331055,-0.060972,-0.043361,0.083551,-0.104398
-0.050000,-0.050000,0.000000,0.000000,0.000000,0.000000,0.000000,0.000000,0.000000,0.100000,0.100000,-0.303584,-0.500683,-0.050000,-0.050000,0.495739,-0.413468,0.000000,0.000000,-0.307807,0.501261,0.161033,0.083406,-0.413551,0.331599,-0.061250,-0.043539,0.083392,-0.104504
-0.050000,-0.050000,0.000000,0.000000,0.000000,0.000000,0.000000,0.000000,0.000000,0.100000,0.100000,-0.301715,-0.501427,-0.050000,-0.050000,0.494344,-0.415450,0.000000,0.000000,-0.306677,0.502609,0.156765,0.077903,-0.418101,0.332119,-0.061701,-0.043761,0.083449,-0.104828
-0.050000,-0.050000,0.000000,0.000000,0.000000,0.000000,0.000000,0.000000,0.000000,0.100000,0.100000,-0.299902,-0.502725,-0.050000,-0.050000,0.493196,-0.417196,0.000000,0.000000,-0.305258,0.504096,0.152229,0.072327,-0.422442,0.332589,-0.062498,-0.044071,0.083937,-0.105591
-0.050000,-0.050000,0.000000,0.000000,0.000000,0.000000,0.000000,0.000000,0.000000,0.100000,0.100000,-0.298256,-0.504438,-0.050000,-0.050000,0.492296,-0.418463,0.000000,0.000000,-0.303589,0.505749,0.147486,0.066858,-0.426448,0.332978,-0.063720,-0.044496,0.084932,-0.106800
-0.050000,-0.050000,0.000000,0.000000,0.000000,0.000000,0.000000,0.000000,0.000000,0.100000,0.100000,-0.296694,-0.506359,-0.050000,-0.050000,0.491520,-0.419491,0.000000,0.000000,-0.301796,0.507486,0.142639,0.061443,-0.430286,0.333327,-0.065154,-0.044980,0.086180,-0.108232
-0.050000,-0.050000,0.000000,0.000000,0.000000,0.000000,0.000000,0.000000,0.000000,0.100000,0.100000,-0.295462,-0.508658,-0.050000,-0.050000,0.491034,-0.419499,0.000000,0.000000,-0.299682,0.509504,0.137633,0.056483,-0.433491,0.333491,-0.067295,-0.045655,0.088261,-0.110336
-0.050000,-0.050000,0.000000,0.000000,0.000000,0.000000,0.000000,0.000000,0.000000,0.100000,0.100000,-0.294335,-0.511002,-0.050000,-0.050000,0.490604,-0.419099,0.000000,0.000000,-0.297478,0.511626,0.132636,0.051770,-0.436465,0.333571,-0.069665,-0.046387,0.090625,-0.112649
-0.050000,-0.050000,0.000000,0.000000,0.000000,0.000000,0.000000,0.000000,0.000000,0.100000,0.100000,-0.293419,-0.513435,-0.050000,-0.050000,0.490286,-0.417882,0.000000,0.000000,-0.295096,0.513954,0.127655,0.047552,-0.438979,0.333485,-0.072494,-0.047232,0.093551,-0.115381
-0.050000,-0.050000,0.000000,0.000000,0.000000,0.000000,0.000000,0.000000,0.000000,0.100000,0.100000,-0.292653,-0.515827,-0.050000,-0.050000,0.489995,-0.415797,0.000000,0.000000,-0.292576,0.516501,0.122825,0.043998,-0.441036,0.333201,-0.075692,-0.048138,0.097001,-0.118459
-0.050000,-0.050000,0.000000,0.000000,0.000000,0.000000,0.000000,0.000000,0.000000,0.100000,0.100000,-0.291963,-0.518198,-0.050000,-0.050000,0.489718,-0.413277,0.000000,0.000000,-0.289987,0.519157,0.118071,0.040775,-0.442866,0.332817,-0.079075,-0.049076,0.100713,-0.121710
-0.050000,-0.050000,0.000000,0.000000,0.000000,0.000000,0.000000,0.000000,0.000000,0.100000,0.100000,-0.291353,-0.520394,-0.050000,-0.050000,0.489394,-0.409502,0.000000,0.000000,-0.287256,0.522152,0.113738,0.038743,-0.444079,0.332124,-0.082765,-0.049982,0.105094,-0.125313
-0.050000,-0.050000,0.000000,0.000000,0.000000,0.000000,0.000000,0.000000,0.000000,0.100000,0.100000,-0.290710,-0.522526,-0.050000,-0.050000,0.489042,-0.405364,0.000000,0.000000,-0.284499,0.525263,0.109604,0.037144,-0.445128,0.331335,-0.086447,-0.050827,0.109650,-0.128963
-0.050000,-0.050000,0.000000,0.000000,0.000000,0.000000,0.000000,0.000000,0.000000,0.100000,0.100000,-0.290004,-0.524531,-0.050000,-0.050000,0.488633,-0.400502,0.000000,0.000000,-0.281690,0.528603,0.105867,0.036411,-0.445849,0.330354,-0.090115,-0.051547,0.114552,-0.132709
-0.050000,-0.050000,0.000000,0.000000,0.000000,0.000000,0.000000,0.000000,0.000000,0.100000,0.100000,-0.289112,-0.526460,-0.050000,-0.050000,0.488174,-0.395093,0.000000,0.000000,-0.278863,0.532179,0.102620,0.036548,-0.446365,0.329212,-0.093530,-0.052035,0.119697,-0.136406
-0.050000,-0.050000,0.000000,0.000000,0.000000,0.000000,0.000000,0.000000,0.000000,0.100000,0.100000,-0.288128,-0.528351,-0.050000,-0.050000,0.487689,-0.389411,0.000000,0.000000,-0.276029,0.535873,0.099618,0.037121,-0.446779,0.327989,-0.096820,-0.052406,0.124962,-0.140077
-0.050000,-0.050000,0.000000,0.000000,0.000000,0.000000,0.000000,0.000000,0.000000,0.100000,0.100000,-0.286705,-0.530267,-0.050000,-0.050000,0.487167,-0.383244,0.000000,0.000000,-0.273209,0.539939,0.097433,0.038889,-0.447130,0.326586,-0.099418,-0.052281,0.130434,-0.143456
-0.050000,-0.050000,0.000000,0.000000,0.000000,0.000000,0.000000,0.000000,0.000000,0.100000,0.100000,-0.285096,-0.532240,-0.050000,-0.050000,0.486644,-0.377040,0.000000,0.000000,-0.270405,0.544137,0.095528,0.040980,-0.447556,0.325142,-0.101713,-0.051957,0.135920,-0.146664
-0.050000,-0.050000,0.000000,0.000000,0.000000,0.000000,0.000000,0.000000,0.000000,0.100000,0.100000,-0.283116,-0.534327,-0.050000,-0.050000,0.486122,-0.370764,0.000000,0.000000,-0.267630,0.548597,0.094182,0.043718,-0.448131,0.323615,-0.103405,-0.051233,0.141434,-0.149534
-0.050000,-0.050000,0.000000,0.000000,0.000000,0.000000,0.000000,0.000000,0.000000,0.100000,0.100000,-0.280726,-0.536596,-0.050000,-0.050000,0.485617,-0.364671,0.000000,0.000000,-0.264905,0.553323,0.093362,0.046884,-0.449048,0.322036,-0.104439,-0.050084,0.146849,-0.151920
-0.050000,-0.050000,0.000000,0.000000,0.000000,0.000000,0.000000,0.000000,0.000000,0.100000,0.100000,-0.278131,-0.538956,-0.050000,-0.050000,0.485120,-0.358668,0.000000,0.000000,-0.262204,0.558183,0.092804,0.050264,-0.450136,0.320431,-0.105146,-0.048723,0.152216,-0.154065
-0.050000,-0.050000,0.000000,0.000000,0.000000,0.000000,0.000000,0.000000,0.000000,0.100000,0.100000,-0.274941,-0.541597,-0.050000,-0.050000,0.484651,-0.353297,0.000000,0.000000,-0.259612,0.563403,0.092920,0.053882,-0.451974,0.318770,-0.104930,-0.046767,0.157204,-0.155281
-0.050000,-0.050000,0.000000,0.000000,0.000000,0.000000,0.000000,0.000000,0.000000,0.100000,0.100000,-0.271582,-0.544298,-0.050000,-0.050000,0.484187,-0.348236,0.000000,0.000000,-0.257072,0.568703,0.093205,0.057432,-0.454101,0.317092,-0.104465,-0.044658,0.161976,-0.156135
-0.050000,-0.050000,0.000000,0.000000,0.000000,0.000000,0.000000,0.000000,0.000000,0.100000,0.100000,-0.267888,-0.547119,-0.050000,-0.050000,0.483731,-0.343795,0.000000,0.000000,-0.254637,0.574166,0.093829,0.060847,-0.456808,0.315378,-0.103500,-0.042243,0.166317,-0.156262
-0.050000,-0.050000,0.000000,0.000000,0.000000,0.000000,0.000000,0.000000,0.000000,0.100000,0.100000,-0.263958,-0.549925,-0.050000,-0.050000,0.483270,-0.340114,0.000000,0.000000,-0.252350,0.579652,0.094665,0.063836,-0.460071,0.313617,-0.102193,-0.039666,0.170040,-0.155615
-0.050000,-0.050000,0.000000,0.000000,0.000000,0.000000,0.000000,0.000000,0.000000,0.100000,0.100000,-0.259911,-0.552723,-0.050000,-0.050000,0.482806,-0.336812,0.000000,0.000000,-0.250135,0.585149,0.095607,0.066614,-0.463612,0.311834,-0.100713,-0.037009,0.173455,-0.154581
-0.050000,-0.050000,0.000000,0.000000,0.000000,0.000000,0.000000,0.000000,0.000000,0.100000,0.100000,-0.255693,-0.555236,-0.050000,-0.050000,0.482313,-0.334748,0.000000,0.000000,-0.248215,0.590386,0.096694,0.068387,-0.467796,0.309959,-0.098948,-0.034374,0.175703,-0.152442
-0.050000,-0.050000,0.000000,0.000000,0.000000,0.000000,0.000000,0.000000,0.000000,0.100000,0.100000,-0.251481,-0.557567,-0.050000,-0.050000,0.481807,-0.333088,0.000000,0.000000,-0.246417,0.595422,0.097786,0.069746,-0.472093,0.308050,-0.097144,-0.031833,0.177511,-0.149999
-0.050000,-0.050000,0.000000,0.000000,0.000000,0.000000,0.000000,0.000000,0.000000,0.100000,0.100000,-0.247280,-0.559536,-0.050000,-0.050000,0.481274,-0.332236,0.000000,0.000000,-0.244864,0.600057,0.098890,0.070274,-0.476618,0.306073,-0.095262,-0.029482,0.178437,-0.146949
-0.050000,-0.050000,0.000000,0.000000,0.000000,0.000000,0.000000,0.000000,0.000000,0.100000,0.100000,-0.243200,-0.561008,-0.050000,-0.050000,0.480714,-0.332095,0.000000,0.000000,-0.243597,0.604061,0.099971,0.069932,-0.481141,0.304044,-0.093360,-0.027451,0.178456,-0.143496
-0.050000,-0.050000,0.000000,0.000000,0.000000,0.000000,0.000000,0.000000,0.000000,0.100000,0.100000,-0.239181,-0.562231,-0.050000,-0.050000,0.480141,-0.332309,0.000000,0.000000,-0.242472,0.607750,0.101040,0.069155,-0.485662,0.301988,-0.091446,-0.025579,0.178022,-0.139840
-0.050000,-0.050000,0.000000,0.000000,0.000000,0.000000,0.000000,0.000000,0.000000,0.100000,0.100000,-0.235476,-0.562613,-0.050000,-0.050000,0.479536,-0.333347,0.000000,0.000000,-0.241809,0.610209,0.102098,0.067218,-0.489872,0.299931,-0.089500,-0.024275,0.176306,-0.135930
-0.050000,-0.050000,0.000000,0.000000,0.000000,0.000000,0.000000,0.000000,0.000000,0.100000,0.100000,-0.231911,-0.562720,-0.050000,-0.050000,0.478928,-0.334558,0.000000,0.000000,-0.241301,0.612195,0.103180,0.065007,-0.493903,0.297918,-0.087524,-0.023148,0.174218,-0.132043
-0.050000,-0.050000,0.000000,0.000000,0.000000,0.000000,0.000000,0.000000,0.000000,0.100000,0.100000,-0.228621,-0.562281,-0.050000,-0.050000,0.478312,-0.336116,0.000000,0.000000,-0.241100,0.613234,0.104308,0.062247,-0.497579,0.295996,-0.085490,-0.022375,0.171387,-0.128202
-0.050000,-0.050000,0.000000,0.000000,0.000000,0.000000,0.000000,0.000000,0.000000,0.100000,0.100000,-0.225655,-0.561377,-0.050000,-0.050000,0.477704,-0.337814,0.000000,0.000000,-0.241181,0.613280,0.105550,0.059248,-0.500826,0.294296,-0.083358,-0.021871,0.167956,-0.124568
-0.050000,-0.050000,0.000000,0.000000,0.000000,0.000000,0.000000,0.000000,0.000000,0.100000,0.100000,-0.222849,-0.560240,-0.050000,-0.050000,0.477101,-0.339582,0.000000,0.000000,-0.241404,0.612828,0.106850,0.056130,-0.503858,0.292707,-0.081178,-0.021503,0.164224,-0.121037
-0.050000,-0.050000,0.000000,0.000000,0.000000,0.000000,0.000000,0.000000,0.000000,0.100000,0.100000,-0.220573,-0.558597,-0.050000,-0.050000,0.476533,-0.341291,0.000000,0.000000,-0.241978,0.610925,0.108398,0.053144,-0.506243,0.291687,-0.078832,-0.021374,0.159809,-0.117950
-0.050000,-0.050000,0.000000,0.000000,0.000000,0.000000,0.000000,0.000000,0.000000,0.100000,0.100000,-0.218478,-0.556852,-0.050000,-0.050000,0.475985,-0.342920,0.000000,0.000000,-0.242640,0.608580,0.110034,0.050336,-0.508435,0.290937,-0.076445,-0.021281,0.155232,-0.115027
-0.050000,-0.050000,0.000000,0.000000,0.000000,0.000000,0.000000,0.000000,0.000000,0.100000,0.100000,-0.216747,-0.554907,-0.050000,-0.050000,0.475473,-0.344388,0.000000,0.000000,-0.243479,0.605353,0.111847,0.047886,-0.510244,0.290728,-0.073976,-0.021258,0.150330,-0.112430
-0.050000,-0.050000,0.000000,0.000000,0.000000,0.000000,0.000000,0.000000,0.000000,0.100000,0.100000,-0.215373,-0.552878,-0.050000,-0.050000,0.475006,-0.345642,0.000000,0.000000,-0.244442,0.601367,0.113797,0.045948,-0.511739,0.291195,-0.071497,-0.021264,0.145212,-0.110156
-0.050000,-0.050000,0.000000,0.000000,0.000000,0.000000,0.000000,0.000000,0.000000,0.100000,0.100000,-0.214176,-0.550806,-0.050000,-0.050000,0.474562,-0.346788,0.000000,0.000000,-0.245467,0.597003,0.115815,0.044266,-0.513079,0.292000,-0.069014,-0.021284,0.139986,-0.108043
-0.050000,-0.050000,0.000000,0.000000,0.000000,0.000000,0.000000,0.000000,0.000000,0.100000,0.100000,-0.213475,-0.548721,-0.050000,-0.050000,0.474195,-0.347629,0.000000,0.000000,-0.246628,0.591715,0.117907,0.043374,-0.514056,0.293937,-0.066667,-0.021376,0.134570,-0.106403
-0.050000,-0.050000,0.000000,0.000000,0.000000,0.000000,0.000000,0.000000,0.000000,0.100000,0.100000,-0.212917,-0.546643,-0.050000,-0.050000,0.473857,-0.348397,0.000000,0.000000,-0.247835,0.586194,0.119965,0.042692,-0.514938,0.296251,-0.064416,-0.021526,0.129125,-0.104924
-0.050000,-0.050000,0.000000,0.000000,0.000000,0.000000,0.000000,0.000000,0.000000,0.100000,0.100000,-0.212650,-0.544582,-0.050000,-0.050000,0.473579,-0.349018,0.000000,0.000000,-0.249133,0.580204,0.121955,0.042430,-0.515629,0.299322,-0.062359,-0.021790,0.123621,-0.103770
-0.050000,-0.050000,0.000000,0.000000,0.000000,0.000000,0.000000,0.000000,0.000000,0.100000,0.100000,-0.212629,-0.542520,-0.050000,-0.050000,0.473378,-0.349571,0.000000,0.000000,-0.250557,0.573886,0.123759,0.042408,-0.516145,0.303065,-0.060582,-0.022254,0.118113,-0.102973
-0.050000,-0.050000,0.000000,0.000000,0.000000,0.000000,0.000000,0.000000,0.000000,0.100000,0.100000,-0.212731,-0.540457,-0.050000,-0.050000,0.473215,-0.350089,0.000000,0.000000,-0.252045,0.567405,0.125470,0.042507,-0.516575,0.307144,-0.058944,-0.022818,0.112601,-0.102355
-0.050000,-0.050000,0.000000,0.000000,0.000000,0.000000,0.000000,0.000000,0.000000,0.100000,0.100000,-0.213153,-0.538330,-0.050000,-0.050000,0.473213,-0.350622,0.000000,0.000000,-0.253818,0.560632,0.126764,0.042702,-0.516723,0.311989,-0.057800,-0.023788,0.107133,-0.102349
-0.050000,-0.050000,0.000000,0.000000,0.000000,0.000000,0.000000,0.000000,0.000000,0.100000,0.100000,-0.213675,-0.536158,-0.050000,-0.050000,0.473284,-0.351192,0.000000,0.000000,-0.255724,0.553821,0.127900,0.042873,-0.516758,0.316978,-0.056824,-0.024905,0.101693,-0.102571
-0.050000,-0.050000,0.000000,0.000000,0.000000,0.000000,0.000000,0.000000,0.000000,0.100000,0.100000,-0.214398,-0.533899,-0.050000,-0.050000,0.473502,-0.351836,0.000000,0.000000,-0.257892,0.546935,0.128720,0.042997,-0.516568,0.322256,-0.056186,-0.026315,0.096304,-0.103248
-0.050000,-0.050000,0.000000,0.000000,0.000000,0.000000,0.000000,0.000000,0.000000,0.100000,0.100000,-0.215333,-0.531526,-0.050000,-0.050000,0.473909,-0.352605,0.000000,0.000000,-0.260377,0.540087,0.129250,0.043066,-0.516114,0.327567,-0.055857,-0.027974,0.090983,-0.104392
-0.050000,-0.050000,0.000000,0.000000,0.000000,0.000000,0.000000,0.000000,0.000000,0.100000,0.100000,-0.216373,-0.529096,-0.050000,-0.050000,0.474411,-0.353436,0.000000,0.000000,-0.263021,0.533258,0.129635,0.043109,-0.515528,0.332893,-0.055683,-0.029758,0.085695,-0.105771
-0.050000,-0.050000,0.000000,0.000000,0.000000,0.000000,0.000000,0.000000,0.000000,0.100000,0.100000,-0.217772,-0.526498,-0.050000,-0.050000,0.475246,-0.354521,0.000000,0.000000,-0.266153,0.526636,0.129720,0.043221,-0.514516,0.337871,-0.055898,-0.031741,0.080525,-0.107765
-0.050000,-0.050000,0.000000,0.000000,0.000000,0.000000,0.000000,0.000000,0.000000,0.100000,0.100000,-0.219306,-0.523860,-0.050000,-0.050000,0.476197,-0.355712,0.000000,0.000000,-0.269420,0.520129,0.129774,0.043440,-0.513373,0.342612,-0.056217,-0.033708,0.075399,-0.109889
-0.050000,-0.050000,0.000000,0.000000,0.000000,0.000000,0.000000,0.000000,0.000000,0.100000,0.100000,-0.221109,-0.521144,-0.050000,-0.050000,0.477380,-0.357117,0.000000,0.000000,-0.272956,0.513849,0.129763,0.043873,-0.511970,0.346877,-0.056744,-0.035643,0.070361,-0.112272
-0.050000,-0.050000,0.000000,0.000000,0.000000,0.000000,0.000000,0.000000,0.000000,0.100000,0.100000,-0.223200,-0.518403,-0.050000,-0.050000,0.478774,-0.358779,0.000000,0.000000,-0.276630,0.507876,0.129840,0.044697,-0.510388,0.350476,-0.057443,-0.037368,0.065422,-0.114670
-0.050000,-0.050000,0.000000,0.000000,0.000000,0.000000,0.000000,0.000000,0.000000,0.100000,0.100000,-0.225434,-0.515651,-0.050000,-0.050000,0.480273,-0.360569,0.000000,0.000000,-0.280373,0.502055,0.129961,0.045717,-0.508718,0.353742,-0.058228,-0.038987,0.060533,-0.117074
-0.050000,-0.050000,0.000000,0.000000,0.000000,0.000000,0.000000,0.000000,0.000000,0.100000,0.100000,-0.228081,-0.512961,-0.050000,-0.050000,0.482005,-0.362794,0.000000,0.000000,-0.284032,0.496785,0.130422,0.047506,-0.507007,0.355841,-0.059267,-0.040080,0.055813,-0.119036
-0.050000,-0.050000,0.000000,0.000000,0.000000,0.000000,0.000000,0.000000,0.000000,0.100000,0.100000,-0.230842,-0.510323,-0.050000,-0.050000,0.483773,-0.365166,0.000000,0.000000,-0.287546,0.491722,0.131049,0.049562,-0.505387,0.357546,-0.060404,-0.040966,0.051161,-0.120699
-0.050000,-0.050000,0.000000,0.000000,0.000000,0.000000,0.000000,0.000000,0.000000,0.100000,0.100000,-0.233829,-0.507790,-0.050000,-0.050000,0.485611,-0.367830,0.000000,0.000000,-0.290769,0.487074,0.132004,0.052155,-0.503950,0.358462,-0.061737,-0.041440,0.046646,-0.121761
-0.050000,-0.050000,0.000000,0.000000,0.000000,0.000000,0.000000,0.000000,0.000000,0.100000,0.100000,-0.236961,-0.505417,-0.050000,-0.050000,0.487418,-0.370739,0.000000,0.000000,-0.293463,0.482871,0.133347,0.055205,-0.502937,0.358688,-0.063311,-0.041544,0.042310,-0.122002
-0.050000,-0.050000,0.000000,0.000000,0.000000,0.000000,0.000000,0.000000,0.000000,0.100000,0.100000,-0.240165,-0.503125,-0.050000,-0.050000,0.489208,-0.373771,0.000000,0.000000,-0.295894,0.478892,0.134883,0.058483,-0.502138,0.358568,-0.065006,-0.041462,0.038064,-0.121833
-0.050000,-0.050000,0.000000,0.000000,0.000000,0.000000,0.000000,0.000000,0.000000,0.100000,0.100000,-0.243426,-0.501148,-0.050000,-0.050000,0.490792,-0.377007,0.000000,0.000000,-0.297228,0.475609,0.137026,0.062210,-0.502322,0.357707,-0.067117,-0.041030,0.034190,-0.120325
-0.050000,-0.050000,0.000000,0.000000,0.000000,0.000000,0.000000,0.000000,0.000000,0.100000,0.100000,-0.246649,-0.499301,-0.050000,-0.050000,0.492259,-0.380231,0.000000,0.000000,-0.298127,0.472561,0.139365,0.065994,-0.502918,0.356737,-0.069369,-0.040575,0.030489,-0.118425
-0.050000,-0.050000,0.000000,0.000000,0.000000,0.000000,0.000000,0.000000,0.000000,0.100000,0.100000,-0.249799,-0.497711,-0.050000,-0.050000,0.493495,-0.383430,0.000000,0.000000,-0.298159,0.469984,0.142098,0.069891,-0.504340,0.355548,-0.071903,-0.040076,0.027134,-0.115743
-0.050000,-0.050000,0.000000,0.000000,0.000000,0.000000,0.000000,0.000000,0.000000,0.100000,0.100000,-0.252774,-0.496427,-0.050000,-0.050000,0.494433,-0.386411,0.000000,0.000000,-0.297271,0.467870,0.145197,0.073738,-0.506651,0.354466,-0.074673,-0.039724,0.024246,-0.112542
-0.050000,-0.050000,0.000000,0.000000,0.000000,0.000000,0.000000,0.000000,0.000000,0.100000,0.100000,-0.255662,-0.495296,-0.050000,-0.050000,0.495221,-0.389282,0.000000,0.000000,-0.295922,0.465988,0.148480,0.077560,-0.509405,0.353436,-0.077561,-0.039444,0.021592,-0.109082
-0.050000,-0.050000,0.000000,0.000000,0.000000,0.000000,0.000000,0.000000,0.000000,0.100000,0.100000,-0.258178,-0.494690,-0.050000,-0.050000,0.495514,-0.391538,0.000000,0.000000,-0.293240,0.464766,0.152252,0.081149,-0.513404,0.353085,-0.080670,-0.039593,0.019834,-0.105374
-0.050000,-0.050000,0.000000,0.000000,0.000000,0.000000,0.000000,0.000000,0.000000,0.100000,0.100000,-0.260547,-0.494274,-0.050000,-0.050000,0.495644,-0.393510,0.000000,0.000000,-0.290163,0.463744,0.156158,0.084639,-0.517732,0.353129,-0.083800,-0.039915,0.018440,-0.101762
-0.050000,-0.050000,0.000000,0.000000,0.000000,0.000000,0.000000,0.000000,0.000000,0.100000,0.100000,-0.262623,-0.494238,-0.050000,-0.050000,0.495447,-0.394916,0.000000,0.000000,-0.286298,0.463122,0.160333,0.087933,-0.522721,0.353964,-0.086969,-0.040583,0.017770,-0.098342
-0.050000,-0.050000,0.000000,0.000000,0.000000,0.000000,0.000000,0.000000,0.000000,0.100000,0.100000,-0.264386,-0.494581,-0.050000,-0.050000,0.494956,-0.395658,0.000000,0.000000,-0.281791,0.462845,0.164700,0.091046,-0.528145,0.355897,-0.090079,-0.041583,0.017934,-0.095394
-0.050000,-0.050000,0.000000,0.000000,0.000000,0.000000,0.000000,0.000000,0.000000,0.100000,0.100000,-0.265993,-0.495113,-0.050000,-0.050000,0.494318,-0.396069,0.000000,0.000000,-0.276963,0.462742,0.169162,0.094068,-0.533785,0.358379,-0.093160,-0.042748,0.018515,-0.092684
-0.050000,-0.050000,0.000000,0.000000,0.000000,0.000000,0.000000,0.000000,0.000000,0.100000,0.100000,-0.267125,-0.496147,-0.050000,-0.050000,0.493308,-0.395447,0.000000,0.000000,-0.271425,0.463065,0.173773,0.096893,-0.539754,0.362871,-0.096057,-0.044302,0.020458,-0.090927
-0.050000,-0.050000,0.000000,0.000000,0.000000,0.000000,0.000000,0.000000,0.000000,0.100000,0.100000,-0.268100,-0.497305,-0.050000,-0.050000,0.492199,-0.394504,0.000000,0.000000,-0.265734,0.463501,0.178389,0.099690,-0.545766,0.368106,-0.098884,-0.045934,0.022866,-0.089505
-0.050000,-0.050000,0.000000,0.000000,0.000000,0.000000,0.000000,0.000000,0.000000,0.100000,0.100000,-0.268761,-0.498707,-0.050000,-0.050000,0.490889,-0.392919,0.000000,0.000000,-0.259738,0.464165,0.183016,0.102428,-0.551860,0.374828,-0.101568,-0.047725,0.026209,-0.088750
-0.050000,-0.050000,0.000000,0.000000,0.000000,0.000000,0.000000,0.000000,0.000000,0.100000,0.100000,-0.269114,-0.500233,-0.050000,-0.050000,0.489412,-0.390798,0.000000,0.000000,-0.253590,0.465014,0.187598,0.105206,-0.558021,0.383051,-0.104126,-0.049570,0.030449,-0.088582
-0.050000,-0.050000,0.000000,0.000000,0.000000,0.000000,0.000000,0.000000,0.000000,0.100000,0.100000,-0.269314,-0.501820,-0.050000,-0.050000,0.487851,-0.388409,0.000000,0.000000,-0.247366,0.465956,0.192159,0.108006,-0.564214,0.392023,-0.106621,-0.051442,0.035139,-0.088708
-0.050000,-0.050000,0.000000,0.000000,0.000000,0.000000,0.000000,0.000000,0.000000,0.100000,0.100000,-0.269075,-0.503384,-0.050000,-0.050000,0.486062,-0.385441,0.000000,0.000000,-0.241091,0.467131,0.196658,0.111071,-0.570663,0.403033,-0.108979,-0.053250,0.041022,-0.089472
-0.050000,-0.050000,0.000000,0.000000,0.000000,0.000000,0.000000,0.000000,0.000000,0.100000,0.100000,-0.268708,-0.504876,-0.050000,-0.050000,0.484193,-0.382368,0.000000,0.000000,-0.234834,0.468370,0.201169,0.114318,-0.577291,0.414573,-0.111313,-0.054996,0.047218,-0.090347
-0.050000,-0.050000,0.000000,0.000000,0.000000,0.000000,0.000000,0.000000,0.000000,0.100000,0.100000,-0.268082,-0.506220,-0.050000,-0.050000,0.482164,-0.379086,0.000000,0.000000,-0.228613,0.469735,0.205707,0.117928,-0.584280,0.427173,-0.113599,-0.056617,0.054038,-0.091443
-0.050000,-0.050000,0.000000,0.000000,0.000000,0.000000,0.000000,0.000000,0.000000,0.100000,0.100000,-0.267259,-0.507306,-0.050000,-0.050000,0.479957,-0.375780,0.000000,0.000000,-0.222438,0.471171,0.210385,0.122131,-0.591850,0.440423,-0.115887,-0.058050,0.061254,-0.092547
-0.050000,-0.050000,0.000000,0.000000,0.000000,0.000000,0.000000,0.000000,0.000000,0.100000,0.100000,-0.266337,-0.508261,-0.050000,-0.050000,0.477660,-0.372462,0.000000,0.000000,-0.216284,0.472643,0.215131,0.126630,-0.599710,0.453997,-0.118176,-0.059389,0.068669,-0.093654
-0.050000,-0.050000,0.000000,0.000000,0.000000,0.000000,0.000000,0.000000,0.000000,0.100000,0.100000,-0.265250,-0.508686,-0.050000,-0.050000,0.475063,-0.369386,0.000000,0.000000,-0.210113,0.474046,0.220258,0.132385,-0.608726,0.467872,-0.120559,-0.060394,0.076280,-0.094490
-0.050000,-0.050000,0.000000,0.000000,0.000000,0.000000,0.000000,0.000000,0.000000,0.100000,0.100000,-0.264163,-0.508892,-0.050000,-0.050000,0.472363,-0.366477,0.000000,0.000000,-0.203879,0.475325,0.225544,0.138664,-0.618185,0.481650,-0.123011,-0.061295,0.083820,-0.095172
-0.050000,-0.050000,0.000000,0.000000,0.000000,0.000000,0.000000,0.000000,0.000000,0.100000,0.100000,-0.263075,-0.508660,-0.050000,-0.050000,0.469460,-0.363903,0.000000,0.000000,-0.197521,0.476355,0.231148,0.145990,-0.628529,0.495236,-0.125604,-0.061987,0.091217,-0.095547
-0.050000,-0.050000,0.000000,0.000000,0.000000,0.000000,0.000000,0.000000,0.000000,0.100000,0.100000,-0.262096,-0.507907,-0.050000,-0.050000,0.466389,-0.361823,0.000000,0.000000,-0.190898,0.476840,0.237050,0.154487,-0.639773,0.508383,-0.128426,-0.062545,0.098226,-0.095580
-0.050000,-0.050000,0.000000,0.000000,0.000000,0.000000,0.000000,0.000000,0.000000,0.100000,0.100000,-0.261173,-0.506892,-0.050000,-0.050000,0.463234,-0.359990,0.000000,0.000000,-0.184142,0.477053,0.243101,0.163570,-0.651468,0.521309,-0.131364,-0.063035,0.105040,-0.095441
-0.050000,-0.050000,0.000000,0.000000,0.000000,0.000000,0.000000,0.000000,0.000000,0.100000,0.100000,-0.260557,-0.504963,-0.050000,-0.050000,0.459977,-0.359120,0.000000,0.000000,-0.176786,0.475878,0.249431,0.174408,-0.664380,0.533502,-0.134780,-0.063540,0.110990,-0.094908
-0.050000,-0.050000,0.000000,0.000000,0.000000,0.000000,0.000000,0.000000,0.000000,0.100000,0.100000,-0.260073,-0.502687,-0.050000,-0.050000,0.456772,-0.358638,0.000000,0.000000,-0.169181,0.474029,0.255767,0.185760,-0.677610,0.545527,-0.138390,-0.064152,0.116602,-0.094340
-0.050000,-0.050000,0.000000,0.000000,0.000000,0.000000,0.000000,0.000000,0.000000,0.100000,0.100000,-0.259852,-0.499716,-0.050000,-0.050000,0.453671,-0.358931,0.000000,0.000000,-0.161081,0.470831,0.262118,0.198142,-0.691475,0.557216,-0.142386,-0.064977,0.121540,-0.093703
-0.050000,-0.050000,0.000000,0.000000,0.000000,0.000000,0.000000,0.000000,0.000000,0.100000,0.100000,-0.259903,-0.495987,-0.050000,-0.050000,0.450909,-0.360115,0.000000,0.000000,-0.152443,0.465861,0.268312,0.211295,-0.705729,0.568880,-0.146802,-0.066254,0.125810,-0.093279
-0.050000,-0.050000,0.000000,0.000000,0.000000,0.000000,0.000000,0.000000,0.000000,0.100000,0.100000,-0.260090,-0.491878,-0.050000,-0.050000,0.448317,-0.361743,0.000000,0.000000,-0.143538,0.460005,0.274427,0.224834,-0.720178,0.580533,-0.151428,-0.067757,0.129745,-0.092962
-0.050000,-0.050000,0.000000,0.000000,0.000000,0.000000,0.000000,0.000000,0.000000,0.100000,0.100000,-0.260613,-0.486592,-0.050000,-0.050000,0.446633,-0.364829,0.000000,0.000000,-0.133848,0.450949,0.280151,0.239025,-0.734791,0.592739,-0.156665,-0.070298,0.132849,-0.093442
-0.050000,-0.050000,0.000000,0.000000,0.000000,0.000000,0.000000,0.000000,0.000000,0.100000,0.100000,-0.261196,-0.480925,-0.050000,-0.050000,0.445370,-0.368414,0.000000,0.000000,-0.123923,0.440704,0.285752,0.253255,-0.749318,0.605321,-0.162080,-0.073288,0.135778,-0.094334
-0.050000,-0.050000,0.000000,0.000000,0.000000,0.000000,0.000000,0.000000,0.000000,0.100000,0.100000,-0.261900,-0.474497,-0.050000,-0.050000,0.444950,-0.373001,0.000000,0.000000,-0.113526,0.428081,0.291106,0.267566,-0.763672,0.618654,-0.167847,-0.077176,0.138358,-0.096049
-0.050000,-0.050000,0.000000,0.000000,0.000000,0.000000,0.000000,0.000000,0.000000,0.100000,0.100000,-0.262575,-0.467379,-0.050000,-0.050000,0.445527,-0.378546,0.000000,0.000000,-0.102724,0.413000,0.296361,0.281642,-0.777614,0.633028,-0.173876,-0.082096,0.140858,-0.098792
-0.050000,-0.050000,0.000000,0.000000,0.000000,0.000000,0.000000,0.000000,0.000000,0.100000,0.100000,-0.263235,-0.459918,-0.050000,-0.050000,0.446602,-0.384572,0.000000,0.000000,-0.091718,0.396691,0.301568,0.295600,-0.791350,0.647923,-0.180035,-0.087533,0.143319,-0.102050
-0.050000,-0.050000,0.000000,0.000000,0.000000,0.000000,0.000000,0.000000,0.000000,0.100000,0.100000,-0.263577,-0.451588,-0.050000,-0.050000,0.449197,-0.391851,0.000000,0.000000,-0.080203,0.376873,0.307016,0.308868,-0.804223,0.664577,-0.186390,-0.094573,0.146098,-0.106971
-0.050000,-0.050000,0.000000,0.000000,0.000000,0.000000,0.000000,0.000000,0.000000,0.100000,0.100000,-0.263713,-0.443033,-0.050000,-0.050000,0.452230,-0.399448,0.000000,0.000000,-0.068546,0.356045,0.312704,0.321854,-0.816777,0.681792,-0.192727,-0.102105,0.149120,-0.112422
-0.050000,-0.050000,0.000000,0.000000,0.000000,0.000000,0.000000,0.000000,0.000000,0.100000,0.100000,-0.263438,-0.434030,-0.050000,-0.050000,0.456139,-0.407680,0.000000,0.000000,-0.056609,0.333200,0.318872,0.334275,-0.828697,0.700128,-0.199027,-0.110622,0.152625,-0.118933
-0.050000,-0.050000,0.000000,0.000000,0.000000,0.000000,0.000000,0.000000,0.000000,0.100000,0.100000,-0.262563,-0.424705,-0.050000,-0.050000,0.460648,-0.416289,0.000000,0.000000,-0.044449,0.308837,0.325834,0.346148,-0.840036,0.719356,-0.205090,-0.119916,0.156822,-0.126347
