RRGGZZ/g1_deploy_sonic/data/example_scalelab/qwen_50fps_waist/case_test03_waist/joint_pos.csv
joint_0,joint_1,joint_2,joint_3,joint_4,joint_5,joint_6,joint_7,joint_8,joint_9,joint_10,joint_11,joint_12,joint_13,joint_14,joint_15,joint_16,joint_17,joint_18,joint_19,joint_20,joint_21,joint_22,joint_23,joint_24,joint_25,joint_26,joint_27,joint_28
-0.050000,-0.050000,-0.051022,0.000000,0.000000,-0.042926,0.000000,0.000000,0.270470,0.100000,0.100000,-0.207649,-0.607328,-0.050000,-0.050000,0.437030,-0.746585,0.000000,0.000000,-0.540998,0.265873,1.120044,-0.101264,0.187963,-0.367864,-0.079037,-0.053577,0.009946,-0.592640
-0.050000,-0.050000,-0.049542,0.000000,0.000000,-0.037079,0.000000,0.000000,0.278035,0.100000,0.100000,-0.212905,-0.617801,-0.050000,-0.050000,0.422296,-0.754312,0.000000,0.000000,-0.540371,0.265802,1.145064,-0.087352,0.191546,-0.366732,-0.091035,-0.055083,0.012746,-0.596614
-0.050000,-0.050000,-0.049321,0.000000,0.000000,-0.032975,0.000000,0.000000,0.282787,0.100000,0.100000,-0.212095,-0.623176,-0.050000,-0.050000,0.413819,-0.759304,0.000000,0.000000,-0.537916,0.261373,1.159797,-0.077691,0.196034,-0.366033,-0.096937,-0.054923,0.012729,-0.597155
-0.050000,-0.050000,-0.049365,0.000000,0.000000,-0.029936,0.000000,0.000000,0.285738,0.100000,0.100000,-0.207949,-0.625674,-0.050000,-0.050000,0.408293,-0.763096,0.000000,0.000000,-0.534750,0.254619,1.169744,-0.070204,0.200530,-0.365597,-0.099644,-0.053549,0.011332,-0.596119
-0.050000,-0.050000,-0.049377,0.000000,0.000000,-0.027476,0.000000,0.000000,0.287742,0.100000,0.100000,-0.202062,-0.626492,-0.050000,-0.050000,0.404184,-0.766309,0.000000,0.000000,-0.531408,0.246626,1.177357,-0.063903,0.204929,-0.365291,-0.100759,-0.051464,0.009281,-0.594314
-0.050000,-0.050000,-0.049120,0.000000,0.000000,-0.025266,0.000000,0.000000,0.289422,0.100000,0.100000,-0.195163,-0.626397,-0.050000,-0.050000,0.400800,-0.769675,0.000000,0.000000,-0.527555,0.237649,1.183868,-0.058178,0.208856,-0.364735,-0.100830,-0.048847,0.007107,-0.592323
-0.050000,-0.050000,-0.048705,0.000000,0.000000,-0.023200,0.000000,0.000000,0.290921,0.100000,0.100000,-0.187965,-0.625822,-0.050000,-0.050000,0.397780,-0.773096,0.000000,0.000000,-0.523635,0.228296,1.189685,-0.052978,0.212491,-0.363955,-0.100398,-0.046076,0.004921,-0.590346
-0.050000,-0.050000,-0.048073,0.000000,0.000000,-0.021206,0.000000,0.000000,0.292427,0.100000,0.100000,-0.180725,-0.625039,-0.050000,-0.050000,0.395006,-0.776782,0.000000,0.000000,-0.519441,0.218689,1.195064,-0.048234,0.215622,-0.362790,-0.099569,-0.043272,0.002908,-0.588687
-0.050000,-0.050000,-0.047252,0.000000,0.000000,-0.019293,0.000000,0.000000,0.293981,0.100000,0.100000,-0.173792,-0.624242,-0.050000,-0.050000,0.392454,-0.780670,0.000000,0.000000,-0.515076,0.209116,1.199982,-0.044164,0.218171,-0.361135,-0.098493,-0.040684,0.001183,-0.587670
-0.050000,-0.050000,-0.046332,0.000000,0.000000,-0.017427,0.000000,0.000000,0.295610,0.100000,0.100000,-0.167079,-0.623459,-0.050000,-0.050000,0.390031,-0.784701,0.000000,0.000000,-0.510628,0.199570,1.204611,-0.040476,0.220326,-0.359143,-0.097241,-0.038236,-0.000383,-0.587106
-0.050000,-0.050000,-0.045208,0.000000,0.000000,-0.015727,0.000000,0.000000,0.297270,0.100000,0.100000,-0.161186,-0.622909,-0.050000,-0.050000,0.387931,-0.788746,0.000000,0.000000,-0.506088,0.190481,1.208581,-0.037996,0.221689,-0.356448,-0.095933,-0.036429,-0.001413,-0.587866
-0.050000,-0.050000,-0.044055,0.000000,0.000000,-0.014133,0.000000,0.000000,0.298994,0.100000,0.100000,-0.155710,-0.622482,-0.050000,-0.050000,0.386015,-0.792735,0.000000,0.000000,-0.501596,0.181649,1.212192,-0.036032,0.222650,-0.353396,-0.094578,-0.034939,-0.002226,-0.589397
-0.050000,-0.050000,-0.042816,0.000000,0.000000,-0.012720,0.000000,0.000000,0.300690,0.100000,0.100000,-0.150955,-0.622290,-0.050000,-0.050000,0.384382,-0.796506,0.000000,0.000000,-0.497205,0.173336,1.215242,-0.034997,0.223092,-0.349859,-0.093292,-0.034039,-0.002624,-0.592100
-0.050000,-0.050000,-0.041555,0.000000,0.000000,-0.011523,0.000000,0.000000,0.302307,0.100000,0.100000,-0.146941,-0.622330,-0.050000,-0.050000,0.383048,-0.799880,0.000000,0.000000,-0.493051,0.165652,1.217708,-0.034782,0.223110,-0.345919,-0.092156,-0.033727,-0.002586,-0.596016
-0.050000,-0.050000,-0.040303,0.000000,0.000000,-0.010487,0.000000,0.000000,0.303893,0.100000,0.100000,-0.143347,-0.622539,-0.050000,-0.050000,0.381936,-0.802979,0.000000,0.000000,-0.489021,0.158382,1.219820,-0.034994,0.222832,-0.341754,-0.091097,-0.033788,-0.002286,-0.600761
-0.050000,-0.050000,-0.039063,0.000000,0.000000,-0.009761,0.000000,0.000000,0.305194,0.100000,0.100000,-0.140806,-0.623039,-0.050000,-0.050000,0.381200,-0.805272,0.000000,0.000000,-0.485525,0.152189,1.221102,-0.036043,0.222203,-0.337248,-0.090396,-0.034582,-0.001304,-0.606966
-0.050000,-0.050000,-0.037891,0.000000,0.000000,-0.009225,0.000000,0.000000,0.306393,0.100000,0.100000,-0.138619,-0.623701,-0.050000,-0.050000,0.380693,-0.807143,0.000000,0.000000,-0.482231,0.146545,1.222055,-0.037131,0.221360,-0.332702,-0.089814,-0.035639,-0.000016,-0.613905
-0.050000,-0.050000,-0.036787,0.000000,0.000000,-0.008928,0.000000,0.000000,0.307319,0.100000,0.100000,-0.137130,-0.624571,-0.050000,-0.050000,0.380455,-0.808324,0.000000,0.000000,-0.479389,0.141826,1.222413,-0.038333,0.220321,-0.328094,-0.089498,-0.037081,0.001795,-0.621732
-0.050000,-0.050000,-0.035785,0.000000,0.000000,-0.008847,0.000000,0.000000,0.307969,0.100000,0.100000,-0.136247,-0.625597,-0.050000,-0.050000,0.380452,-0.808856,0.000000,0.000000,-0.476986,0.138042,1.222228,-0.039165,0.219095,-0.323560,-0.089389,-0.038673,0.004097,-0.630164
-0.050000,-0.050000,-0.034867,0.000000,0.000000,-0.008918,0.000000,0.000000,0.308431,0.100000,0.100000,-0.135682,-0.626834,-0.050000,-0.050000,0.380617,-0.808954,0.000000,0.000000,-0.474846,0.134932,1.221703,-0.039617,0.217719,-0.319109,-0.089390,-0.040384,0.006716,-0.639021
-0.050000,-0.050000,-0.034098,0.000000,0.000000,-0.009192,0.000000,0.000000,0.308482,0.100000,0.100000,-0.136024,-0.628116,-0.050000,-0.050000,0.380990,-0.808308,0.000000,0.000000,-0.473380,0.133124,1.220374,-0.038908,0.216117,-0.314827,-0.089607,-0.041860,0.009926,-0.648001
-0.050000,-0.050000,-0.033419,0.000000,0.000000,-0.009564,0.000000,0.000000,0.308349,0.100000,0.100000,-0.136626,-0.629655,-0.050000,-0.050000,0.381476,-0.807365,0.000000,0.000000,-0.472191,0.132009,1.218688,-0.037277,0.214310,-0.310664,-0.089824,-0.043173,0.013352,-0.656981
-0.050000,-0.050000,-0.032875,0.000000,0.000000,-0.010034,0.000000,0.000000,0.307932,0.100000,0.100000,-0.137871,-0.631285,-0.050000,-0.050000,0.382065,-0.806023,0.000000,0.000000,-0.471496,0.131906,1.216342,-0.034238,0.212264,-0.306611,-0.090096,-0.044039,0.017080,-0.665604
-0.050000,-0.050000,-0.032449,0.000000,0.000000,-0.010552,0.000000,0.000000,0.307289,0.100000,0.100000,-0.139676,-0.633046,-0.050000,-0.050000,0.382714,-0.804467,0.000000,0.000000,-0.471272,0.132706,1.213336,-0.029631,0.209942,-0.302617,-0.090347,-0.044316,0.020946,-0.673560
-0.050000,-0.050000,-0.032100,0.000000,0.000000,-0.011080,0.000000,0.000000,0.306498,0.100000,0.100000,-0.141812,-0.635058,-0.050000,-0.050000,0.383396,-0.802806,0.000000,0.000000,-0.471363,0.134150,1.209862,-0.023887,0.207396,-0.298622,-0.090531,-0.044226,0.024864,-0.681043
-0.050000,-0.050000,-0.031911,0.000000,0.000000,-0.011602,0.000000,0.000000,0.305491,0.100000,0.100000,-0.144805,-0.636981,-0.050000,-0.050000,0.384058,-0.801116,0.000000,0.000000,-0.472111,0.136615,1.205373,-0.016098,0.204532,-0.294618,-0.090732,-0.043153,0.028746,-0.687071
-0.050000,-0.050000,-0.031762,0.000000,0.000000,-0.012062,0.000000,0.000000,0.304402,0.100000,0.100000,-0.148055,-0.639200,-0.050000,-0.050000,0.384695,-0.799543,0.000000,0.000000,-0.473183,0.139552,1.200376,-0.007350,0.201455,-0.290562,-0.090843,-0.041737,0.032505,-0.692379
-0.050000,-0.050000,-0.031727,0.000000,0.000000,-0.012457,0.000000,0.000000,0.303212,0.100000,0.100000,-0.151873,-0.641395,-0.050000,-0.050000,0.385249,-0.798150,0.000000,0.000000,-0.474731,0.143130,1.194566,0.002662,0.198183,-0.286502,-0.090988,-0.039725,0.036096,-0.696446
-0.050000,-0.050000,-0.031770,0.000000,0.000000,-0.012759,0.000000,0.000000,0.301958,0.100000,0.100000,-0.156065,-0.643629,-0.050000,-0.050000,0.385688,-0.797062,0.000000,0.000000,-0.476687,0.147152,1.188069,0.013396,0.194804,-0.282534,-0.091205,-0.037429,0.039481,-0.699451
-0.050000,-0.050000,-0.031854,0.000000,0.000000,-0.012961,0.000000,0.000000,0.300669,0.100000,0.100000,-0.160492,-0.645893,-0.050000,-0.050000,0.386019,-0.796207,0.000000,0.000000,-0.478905,0.151440,1.181098,0.024568,0.191355,-0.278637,-0.091460,-0.034977,0.042708,-0.701712
-0.050000,-0.050000,-0.032064,0.000000,0.000000,-0.013075,0.000000,0.000000,0.299314,0.100000,0.100000,-0.165250,-0.647957,-0.050000,-0.050000,0.386124,-0.795863,0.000000,0.000000,-0.481537,0.156128,1.173442,0.035776,0.188023,-0.275191,-0.092030,-0.032666,0.045728,-0.702881
-0.050000,-0.050000,-0.032289,0.000000,0.000000,-0.013073,0.000000,0.000000,0.297923,0.100000,0.100000,-0.170030,-0.649944,-0.050000,-0.050000,0.386057,-0.795795,0.000000,0.000000,-0.484297,0.160895,1.165577,0.046790,0.184781,-0.272024,-0.092732,-0.030589,0.048641,-0.703586
-0.050000,-0.050000,-0.032585,0.000000,0.000000,-0.013010,0.000000,0.000000,0.296464,0.100000,0.100000,-0.174845,-0.651717,-0.050000,-0.050000,0.385751,-0.796133,0.000000,0.000000,-0.487226,0.165860,1.157494,0.057265,0.181788,-0.269394,-0.093743,-0.029023,0.051452,-0.703725
-0.050000,-0.050000,-0.032903,0.000000,0.000000,-0.012895,0.000000,0.000000,0.294924,0.100000,0.100000,-0.179518,-0.653294,-0.050000,-0.050000,0.385190,-0.796777,0.000000,0.000000,-0.490174,0.170965,1.149516,0.067081,0.179095,-0.267257,-0.095006,-0.028089,0.054171,-0.703441
-0.050000,-0.050000,-0.033248,0.000000,0.000000,-0.012734,0.000000,0.000000,0.293305,0.100000,0.100000,-0.184078,-0.654673,-0.050000,-0.050000,0.384412,-0.797605,0.000000,0.000000,-0.493096,0.176153,1.141682,0.076408,0.176649,-0.265481,-0.096484,-0.027618,0.056844,-0.702851
-0.050000,-0.050000,-0.033538,0.000000,0.000000,-0.012633,0.000000,0.000000,0.291559,0.100000,0.100000,-0.188251,-0.655919,-0.050000,-0.050000,0.383329,-0.798626,0.000000,0.000000,-0.495868,0.181688,1.134505,0.085042,0.174647,-0.264046,-0.098113,-0.027983,0.059274,-0.701549
-0.050000,-0.050000,-0.033819,0.000000,0.000000,-0.012530,0.000000,0.000000,0.289712,0.100000,0.100000,-0.192217,-0.657064,-0.050000,-0.050000,0.382019,-0.799614,0.000000,0.000000,-0.498455,0.187400,1.127832,0.093562,0.172883,-0.262607,-0.099813,-0.028650,0.061539,-0.699692
-0.050000,-0.050000,-0.033984,0.000000,0.000000,-0.012521,0.000000,0.000000,0.287761,0.100000,0.100000,-0.195802,-0.658234,-0.050000,-0.050000,0.380469,-0.800493,0.000000,0.000000,-0.500776,0.193524,1.122045,0.102117,0.171407,-0.260902,-0.101401,-0.029660,0.063399,-0.696791
-0.050000,-0.050000,-0.034006,0.000000,0.000000,-0.012597,0.000000,0.000000,0.285741,0.100000,0.100000,-0.199054,-0.659512,-0.050000,-0.050000,0.378706,-0.801061,0.000000,0.000000,-0.502760,0.200088,1.117226,0.111275,0.170078,-0.258467,-0.102693,-0.030619,0.064693,-0.692476
-0.050000,-0.050000,-0.033962,0.000000,0.000000,-0.012749,0.000000,0.000000,0.283660,0.100000,0.100000,-0.202092,-0.661017,-0.050000,-0.050000,0.376800,-0.801379,0.000000,0.000000,-0.504465,0.207036,1.113133,0.120976,0.168841,-0.255394,-0.103760,-0.031499,0.065536,-0.687031
-0.050000,-0.050000,-0.033563,0.000000,0.000000,-0.013008,0.000000,0.000000,0.281660,0.100000,0.100000,-0.204689,-0.662741,-0.050000,-0.050000,0.374699,-0.800950,0.000000,0.000000,-0.505641,0.214625,1.110468,0.132293,0.167486,-0.250551,-0.103965,-0.031663,0.065235,-0.678941
-0.050000,-0.050000,-0.033110,0.000000,0.000000,-0.013321,0.000000,0.000000,0.279682,0.100000,0.100000,-0.207165,-0.664872,-0.050000,-0.050000,0.372535,-0.800127,0.000000,0.000000,-0.506484,0.222582,1.108476,0.144520,0.166004,-0.244642,-0.103745,-0.031409,0.064303,-0.669373
-0.050000,-0.050000,-0.032384,0.000000,0.000000,-0.013647,0.000000,0.000000,0.277913,0.100000,0.100000,-0.209351,-0.667249,-0.050000,-0.050000,0.370272,-0.798537,0.000000,0.000000,-0.506808,0.230974,1.107573,0.158237,0.164190,-0.237003,-0.102658,-0.030303,0.062317,-0.657452
-0.050000,-0.050000,-0.031505,0.000000,0.000000,-0.013908,0.000000,0.000000,0.276396,0.100000,0.100000,-0.211339,-0.669871,-0.050000,-0.050000,0.367976,-0.796281,0.000000,0.000000,-0.506645,0.239581,1.107491,0.172935,0.161953,-0.227924,-0.100828,-0.028547,0.059476,-0.643716
-0.050000,-0.050000,-0.030539,0.000000,0.000000,-0.014124,0.000000,0.000000,0.275094,0.100000,0.100000,-0.213208,-0.672678,-0.050000,-0.050000,0.365679,-0.793522,0.000000,0.000000,-0.506107,0.248308,1.107976,0.188269,0.159377,-0.217830,-0.098440,-0.026261,0.056003,-0.628654
-0.050000,-0.050000,-0.029398,0.000000,0.000000,-0.013998,0.000000,0.000000,0.274360,0.100000,0.100000,-0.214689,-0.675315,-0.050000,-0.050000,0.363358,-0.789907,0.000000,0.000000,-0.504891,0.256807,1.109378,0.203757,0.156075,-0.206446,-0.095206,-0.023668,0.051783,-0.612366
-0.050000,-0.050000,-0.028284,0.000000,0.000000,-0.013719,0.000000,0.000000,0.273905,0.100000,0.100000,-0.216052,-0.677826,-0.050000,-0.050000,0.361091,-0.785970,0.000000,0.000000,-0.503367,0.265035,1.111110,0.218794,0.152417,-0.194721,-0.091668,-0.021057,0.047327,-0.595842
-0.050000,-0.050000,-0.027156,0.000000,0.000000,-0.012998,0.000000,0.000000,0.274009,0.100000,0.100000,-0.217017,-0.679897,-0.050000,-0.050000,0.358850,-0.781518,0.000000,0.000000,-0.501331,0.272649,1.113408,0.232664,0.148169,-0.182713,-0.087755,-0.018902,0.042740,-0.579684
-0.050000,-0.050000,-0.026122,0.000000,0.000000,-0.011845,0.000000,0.000000,0.274582,0.100000,0.100000,-0.217601,-0.681435,-0.050000,-0.050000,0.356673,-0.776811,0.000000,0.000000,-0.498947,0.279510,1.116073,0.244712,0.143500,-0.170989,-0.083788,-0.017620,0.038370,-0.564787
-0.050000,-0.050000,-0.025142,0.000000,0.000000,-0.010362,0.000000,0.000000,0.275513,0.100000,0.100000,-0.217888,-0.682327,-0.050000,-0.050000,0.354532,-0.771925,0.000000,0.000000,-0.496337,0.285695,1.119017,0.255186,0.138537,-0.159606,-0.079846,-0.017020,0.034241,-0.551021
-0.050000,-0.050000,-0.024365,0.000000,0.000000,-0.008132,0.000000,0.000000,0.277066,0.100000,0.100000,-0.217418,-0.682622,-0.050000,-0.050000,0.352510,-0.766931,0.000000,0.000000,-0.493408,0.290712,1.122399,0.262474,0.133207,-0.149138,-0.076210,-0.018383,0.030842,-0.540341
-0.050000,-0.050000,-0.023659,0.000000,0.000000,-0.005607,0.000000,0.000000,0.278873,0.100000,0.100000,-0.216626,-0.682155,-0.050000,-0.050000,0.350518,-0.761921,0.000000,0.000000,-0.490430,0.295076,1.125983,0.268088,0.127804,-0.139310,-0.072866,-0.020552,0.027886,-0.531315
-0.050000,-0.050000,-0.023106,0.000000,0.000000,-0.002488,0.000000,0.000000,0.281091,0.100000,0.100000,-0.215137,-0.681266,-0.050000,-0.050000,0.348648,-0.756935,0.000000,0.000000,-0.487395,0.298529,1.129898,0.271226,0.122337,-0.130399,-0.069973,-0.024282,0.025632,-0.525125
-0.050000,-0.050000,-0.022626,0.000000,0.000000,0.001015,0.000000,0.000000,0.283557,0.100000,0.100000,-0.213131,-0.679998,-0.050000,-0.050000,0.346863,-0.751982,0.000000,0.000000,-0.484438,0.301429,1.134049,0.272932,0.116993,-0.122203,-0.067505,-0.028832,0.023877,-0.520924
-0.050000,-0.050000,-0.022190,0.000000,0.000000,0.004809,0.000000,0.000000,0.286191,0.100000,0.100000,-0.210716,-0.678499,-0.050000,-0.050000,0.345139,-0.747045,0.000000,0.000000,-0.481562,0.303958,1.138389,0.273662,0.111774,-0.114533,-0.065377,-0.033947,0.022492,-0.518183
-0.050000,-0.050000,-0.021749,0.000000,0.000000,0.008974,0.000000,0.000000,0.289008,0.100000,0.100000,-0.207678,-0.677254,-0.050000,-0.050000,0.343580,-0.742120,0.000000,0.000000,-0.478946,0.306333,1.142952,0.274243,0.106960,-0.107349,-0.063619,-0.039105,0.021360,-0.516656
-0.050000,-0.050000,-0.021274,0.000000,0.000000,0.013241,0.000000,0.000000,0.291854,0.100000,0.100000,-0.204418,-0.676159,-0.050000,-0.050000,0.342055,-0.737152,0.000000,0.000000,-0.476453,0.308875,1.147577,0.275249,0.102402,-0.100297,-0.062042,-0.043926,0.020266,-0.515231
-0.050000,-0.050000,-0.020695,0.000000,0.000000,0.017629,0.000000,0.000000,0.294716,0.100000,0.100000,-0.200832,-0.675604,-0.050000,-0.050000,0.340648,-0.732129,0.000000,0.000000,-0.474229,0.311851,1.152256,0.277645,0.098319,-0.093227,-0.060575,-0.047722,0.018999,-0.513162
-0.050000,-0.050000,-0.019997,0.000000,0.000000,0.021987,0.000000,0.000000,0.297505,0.100000,0.100000,-0.197151,-0.675604,-0.050000,-0.050000,0.339294,-0.727016,0.000000,0.000000,-0.472186,0.315541,1.156844,0.281896,0.094658,-0.085906,-0.059096,-0.050168,0.017383,-0.509485
-0.050000,-0.050000,-0.019235,0.000000,0.000000,0.026318,0.000000,0.000000,0.300227,0.100000,0.100000,-0.193399,-0.676235,-0.050000,-0.050000,0.337986,-0.721823,0.000000,0.000000,-0.470242,0.319876,1.161322,0.287791,0.091335,-0.078300,-0.057557,-0.051463,0.015433,-0.504299
-0.050000,-0.050000,-0.018267,0.000000,0.000000,0.030422,0.000000,0.000000,0.302752,0.100000,0.100000,-0.189823,-0.677356,-0.050000,-0.050000,0.336714,-0.716516,0.000000,0.000000,-0.468490,0.325483,1.165450,0.296605,0.088576,-0.070170,-0.055857,-0.050473,0.012727,-0.495358
-0.050000,-0.050000,-0.017298,0.000000,0.000000,0.034426,0.000000,0.000000,0.305152,0.100000,0.100000,-0.186320,-0.679066,-0.050000,-0.050000,0.335450,-0.711143,0.000000,0.000000,-0.466693,0.331751,1.169301,0.306798,0.086071,-0.061679,-0.054032,-0.048466,0.009590,-0.484274
-0.050000,-0.050000,-0.016235,0.000000,0.000000,0.038147,0.000000,0.000000,0.307334,0.100000,0.100000,-0.183159,-0.680908,-0.050000,-0.050000,0.334171,-0.705701,0.000000,0.000000,-0.464899,0.339102,1.172644,0.318866,0.083979,-0.052776,-0.052084,-0.044811,0.005740,-0.469400
-0.050000,-0.050000,-0.015204,0.000000,0.000000,0.041641,0.000000,0.000000,0.309316,0.100000,0.100000,-0.180293,-0.682784,-0.050000,-0.050000,0.332863,-0.700248,0.000000,0.000000,-0.462978,0.347075,1.175469,0.331550,0.082147,-0.043584,-0.050098,-0.040411,0.001347,-0.451593
-0.050000,-0.050000,-0.014205,0.000000,0.000000,0.044945,0.000000,0.000000,0.311141,0.100000,0.100000,-0.177673,-0.684510,-0.050000,-0.050000,0.331538,-0.694802,0.000000,0.000000,-0.460935,0.355445,1.177848,0.344500,0.080525,-0.034242,-0.048092,-0.035426,-0.003485,-0.431415
-0.050000,-0.050000,-0.013307,0.000000,0.000000,0.047868,0.000000,0.000000,0.312687,0.100000,0.100000,-0.175616,-0.685490,-0.050000,-0.050000,0.330124,-0.689444,0.000000,0.000000,-0.458670,0.364157,1.179412,0.356234,0.079138,-0.024658,-0.046334,-0.030721,-0.008836,-0.408204
-0.050000,-0.050000,-0.012490,0.000000,0.000000,0.050635,0.000000,0.000000,0.314102,0.100000,0.100000,-0.173731,-0.685916,-0.050000,-0.050000,0.328705,-0.684209,0.000000,0.000000,-0.456256,0.372618,1.180564,0.366773,0.077858,-0.015014,-0.044703,-0.026286,-0.014428,-0.383738
-0.050000,-0.050000,-0.011804,0.000000,0.000000,0.053066,0.000000,0.000000,0.315282,0.100000,0.100000,-0.172318,-0.685351,-0.050000,-0.050000,0.327199,-0.679134,0.000000,0.000000,-0.453642,0.380751,1.180982,0.374613,0.076695,-0.005111,-0.043494,-0.023096,-0.020251,-0.357869
-0.050000,-0.050000,-0.011218,0.000000,0.000000,0.055258,0.000000,0.000000,0.316302,0.100000,0.100000,-0.171170,-0.683880,-0.050000,-0.050000,0.325646,-0.674249,0.000000,0.000000,-0.450902,0.388143,1.180887,0.379631,0.075594,0.005074,-0.042668,-0.021222,-0.026133,-0.331734
-0.050000,-0.050000,-0.010669,0.000000,0.000000,0.057232,0.000000,0.000000,0.317183,0.100000,0.100000,-0.170259,-0.681505,-0.050000,-0.050000,0.324066,-0.669550,0.000000,0.000000,-0.448114,0.394826,1.180377,0.382108,0.074541,0.015543,-0.042190,-0.020425,-0.032024,-0.305560
-0.050000,-0.050000,-0.010240,0.000000,0.000000,0.058874,0.000000,0.000000,0.317853,0.100000,0.100000,-0.169699,-0.678392,-0.050000,-0.050000,0.322341,-0.664956,0.000000,0.000000,-0.445290,0.400252,1.179273,0.380367,0.073539,0.026746,-0.042309,-0.022046,-0.037719,-0.280620
-0.050000,-0.050000,-0.009759,0.000000,0.000000,0.060335,0.000000,0.000000,0.318447,0.100000,0.100000,-0.169289,-0.674529,-0.050000,-0.050000,0.320623,-0.660510,0.000000,0.000000,-0.442559,0.404793,1.177978,0.376461,0.072592,0.038344,-0.042689,-0.024499,-0.043266,-0.256607
-0.050000,-0.050000,-0.009301,0.000000,0.000000,0.061517,0.000000,0.000000,0.318864,0.100000,0.100000,-0.169140,-0.670386,-0.050000,-0.050000,0.318763,-0.656004,0.000000,0.000000,-0.439988,0.407992,1.176347,0.369235,0.071737,0.050732,-0.043482,-0.028866,-0.048461,-0.234832
-0.050000,-0.050000,-0.008779,0.000000,0.000000,0.062486,0.000000,0.000000,0.319185,0.100000,0.100000,-0.169189,-0.666026,-0.050000,-0.050000,0.316858,-0.651412,0.000000,0.000000,-0.437664,0.410057,1.174631,0.360027,0.071015,0.063689,-0.044447,-0.034197,-0.053296,-0.215365
-0.050000,-0.050000,-0.008179,0.000000,0.000000,0.063265,0.000000,0.000000,0.319418,0.100000,0.100000,-0.169433,-0.661596,-0.050000,-0.050000,0.314908,-0.646674,0.000000,0.000000,-0.435593,0.411182,1.172869,0.349257,0.070416,0.077146,-0.045533,-0.040302,-0.057795,-0.198016
-0.050000,-0.050000,-0.007557,0.000000,0.000000,0.063809,0.000000,0.000000,0.319475,0.100000,0.100000,-0.169938,-0.657708,-0.050000,-0.050000,0.312869,-0.641524,0.000000,0.000000,-0.433967,0.410744,1.171175,0.337142,0.070103,0.091200,-0.046554,-0.047321,-0.061670,-0.184856
-0.050000,-0.050000,-0.006817,0.000000,0.000000,0.064186,0.000000,0.000000,0.319499,0.100000,0.100000,-0.170688,-0.653945,-0.050000,-0.050000,0.310882,-0.636124,0.000000,0.000000,-0.432644,0.409605,1.169600,0.324631,0.069950,0.105478,-0.047471,-0.054496,-0.065163,-0.174047
-0.050000,-0.050000,-0.006068,0.000000,0.000000,0.064373,0.000000,0.000000,0.319345,0.100000,0.100000,-0.171717,-0.650948,-0.050000,-0.050000,0.308913,-0.630260,0.000000,0.000000,-0.431796,0.407026,1.168234,0.311999,0.070103,0.120030,-0.048086,-0.061951,-0.067994,-0.167653
-0.050000,-0.050000,-0.005251,0.000000,0.000000,0.064385,0.000000,0.000000,0.319095,0.100000,0.100000,-0.173059,-0.648486,-0.050000,-0.050000,0.307092,-0.624068,0.000000,0.000000,-0.431335,0.403467,1.167071,0.299765,0.070465,0.134592,-0.048382,-0.069305,-0.070257,-0.164790
-0.050000,-0.050000,-0.004383,0.000000,0.000000,0.064247,0.000000,0.000000,0.318750,0.100000,0.100000,-0.174673,-0.646576,-0.050000,-0.050000,0.305408,-0.617561,0.000000,0.000000,-0.431220,0.399043,1.166081,0.287984,0.070997,0.149091,-0.048377,-0.076600,-0.072017,-0.165078
-0.050000,-0.050000,-0.003547,0.000000,0.000000,0.063927,0.000000,0.000000,0.318171,0.100000,0.100000,-0.176612,-0.645571,-0.050000,-0.050000,0.304062,-0.610934,0.000000,0.000000,-0.431523,0.393079,1.165295,0.277321,0.071705,0.163324,-0.047904,-0.083522,-0.072969,-0.170188
-0.050000,-0.050000,-0.002604,0.000000,0.000000,0.063461,0.000000,0.000000,0.317543,0.100000,0.100000,-0.178814,-0.645016,-0.050000,-0.050000,0.302961,-0.604202,0.000000,0.000000,-0.432099,0.386546,1.164565,0.267257,0.072444,0.177231,-0.047205,-0.090315,-0.073487,-0.177715
-0.050000,-0.050000,-0.001685,0.000000,0.000000,0.062828,0.000000,0.000000,0.316670,0.100000,0.100000,-0.181234,-0.645257,-0.050000,-0.050000,0.302314,-0.597765,0.000000,0.000000,-0.432947,0.378644,1.163868,0.258334,0.073175,0.190586,-0.046212,-0.096711,-0.073285,-0.189139
-0.050000,-0.050000,-0.000670,0.000000,0.000000,0.062045,0.000000,0.000000,0.315665,0.100000,0.100000,-0.183799,-0.646024,-0.050000,-0.050000,0.302070,-0.591730,0.000000,0.000000,-0.433992,0.369970,1.163061,0.250121,0.073804,0.203288,-0.045135,-0.102899,-0.072592,-0.202941
-0.050000,-0.050000,0.000408,0.000000,0.000000,0.061150,0.000000,0.000000,0.314521,0.100000,0.100000,-0.186437,-0.647250,-0.050000,-0.050000,0.302184,-0.586141,0.000000,0.000000,-0.435186,0.360558,1.162125,0.242521,0.074316,0.215356,-0.044022,-0.108936,-0.071480,-0.218740
-0.050000,-0.050000,0.001541,0.000000,0.000000,0.060082,0.000000,0.000000,0.313111,0.100000,0.100000,-0.188940,-0.649024,-0.050000,-0.050000,0.302874,-0.581823,0.000000,0.000000,-0.436396,0.350109,1.160870,0.235564,0.074602,0.226267,-0.043137,-0.114745,-0.069844,-0.236667
-0.050000,-0.050000,0.002791,0.000000,0.000000,0.058960,0.000000,0.000000,0.311613,0.100000,0.100000,-0.191337,-0.650996,-0.050000,-0.050000,0.303814,-0.578120,0.000000,0.000000,-0.437696,0.339262,1.159374,0.228783,0.074763,0.236438,-0.042431,-0.120597,-0.067994,-0.255456
-0.050000,-0.050000,0.004084,0.000000,0.000000,0.057704,0.000000,0.000000,0.309862,0.100000,0.100000,-0.193328,-0.653200,-0.050000,-0.050000,0.305221,-0.576017,0.000000,0.000000,-0.438875,0.327645,1.157494,0.222151,0.074742,0.245268,-0.042202,-0.126471,-0.065833,-0.275266
-0.050000,-0.050000,0.005437,0.000000,0.000000,0.056412,0.000000,0.000000,0.307972,0.100000,0.100000,-0.194891,-0.655320,-0.050000,-0.050000,0.306845,-0.575078,0.000000,0.000000,-0.439995,0.315626,1.155308,0.215341,0.074663,0.253035,-0.042412,-0.132569,-0.063569,-0.295405
-0.050000,-0.050000,0.006815,0.000000,0.000000,0.055097,0.000000,0.000000,0.305922,0.100000,0.100000,-0.195997,-0.657266,-0.050000,-0.050000,0.308647,-0.575283,0.000000,0.000000,-0.441021,0.303221,1.152858,0.208292,0.074560,0.259785,-0.043053,-0.138902,-0.061229,-0.315753
-0.050000,-0.050000,0.008092,0.000000,0.000000,0.053725,0.000000,0.000000,0.303691,0.100000,0.100000,-0.196267,-0.658647,-0.050000,-0.050000,0.310615,-0.577290,0.000000,0.000000,-0.441780,0.290331,1.150149,0.200650,0.074569,0.265158,-0.044335,-0.145752,-0.058915,-0.336081
-0.050000,-0.050000,0.009335,0.000000,0.000000,0.052426,0.000000,0.000000,0.301335,0.100000,0.100000,-0.196031,-0.659446,-0.050000,-0.050000,0.312542,-0.580102,0.000000,0.000000,-0.442476,0.277191,1.147306,0.192567,0.074704,0.269822,-0.045961,-0.152957,-0.056653,-0.356326
-0.050000,-0.050000,0.010334,0.000000,0.000000,0.051118,0.000000,0.000000,0.298850,0.100000,0.100000,-0.194898,-0.659205,-0.050000,-0.050000,0.314443,-0.584438,0.000000,0.000000,-0.442889,0.263611,1.144401,0.183748,0.075099,0.273508,-0.048062,-0.160805,-0.054541,-0.376348
-0.050000,-0.050000,0.011130,0.000000,0.000000,0.049907,0.000000,0.000000,0.296265,0.100000,0.100000,-0.193110,-0.657858,-0.050000,-0.050000,0.316167,-0.589568,0.000000,0.000000,-0.443171,0.249706,1.141528,0.174382,0.075734,0.276818,-0.050397,-0.169135,-0.052584,-0.396112
-0.050000,-0.050000,0.011707,0.000000,0.000000,0.048763,0.000000,0.000000,0.293582,0.100000,0.100000,-0.190705,-0.655410,-0.050000,-0.050000,0.317720,-0.595425,0.000000,0.000000,-0.443321,0.235468,1.138731,0.164507,0.076591,0.279853,-0.052900,-0.177917,-0.050778,-0.415598
-0.050000,-0.050000,0.011834,0.000000,0.000000,0.047718,0.000000,0.000000,0.290908,0.100000,0.100000,-0.187564,-0.651292,-0.050000,-0.050000,0.318957,-0.601946,0.000000,0.000000,-0.443257,0.220758,1.136210,0.154274,0.077657,0.283313,-0.055366,-0.187178,-0.049249,-0.434486
-0.050000,-0.050000,0.011779,0.000000,0.000000,0.046778,0.000000,0.000000,0.288145,0.100000,0.100000,-0.184024,-0.646090,-0.050000,-0.050000,0.319954,-0.608681,0.000000,0.000000,-0.443164,0.205744,1.133855,0.143831,0.078812,0.287184,-0.057767,-0.196699,-0.047867,-0.452877
-0.050000,-0.050000,0.011260,0.000000,0.000000,0.045961,0.000000,0.000000,0.285472,0.100000,0.100000,-0.179983,-0.639234,-0.050000,-0.050000,0.320556,-0.615522,0.000000,0.000000,-0.442930,0.190264,1.131922,0.133526,0.079923,0.292430,-0.059827,-0.206411,-0.046790,-0.470275
-0.050000,-0.050000,0.010496,0.000000,0.000000,0.045258,0.000000,0.000000,0.282809,0.100000,0.100000,-0.175685,-0.631234,-0.050000,-0.050000,0.320836,-0.622188,0.000000,0.000000,-0.442694,0.174443,1.130337,0.123507,0.080858,0.299117,-0.061540,-0.216159,-0.045946,-0.486605
-0.050000,-0.050000,0.009484,0.000000,0.000000,0.044651,0.000000,0.000000,0.280202,0.100000,0.100000,-0.171197,-0.622218,-0.050000,-0.050000,0.320815,-0.628608,0.000000,0.000000,-0.442458,0.158284,1.129119,0.113897,0.081555,0.307347,-0.062869,-0.225918,-0.045339,-0.501797
-0.050000,-0.050000,0.008164,0.000000,0.000000,0.044184,0.000000,0.000000,0.277781,0.100000,0.100000,-0.166619,-0.612107,-0.050000,-0.050000,0.320351,-0.634314,0.000000,0.000000,-0.442257,0.141811,1.128516,0.105258,0.081717,0.318213,-0.063535,-0.235363,-0.045138,-0.515157
-0.050000,-0.050000,0.006731,0.000000,0.000000,0.043763,0.000000,0.000000,0.275395,0.100000,0.100000,-0.162039,-0.601554,-0.050000,-0.050000,0.319687,-0.639660,0.000000,0.000000,-0.442149,0.125092,1.128280,0.097183,0.081552,0.330649,-0.063833,-0.244768,-0.045177,-0.527185
-0.050000,-0.050000,0.005094,0.000000,0.000000,0.043462,0.000000,0.000000,0.273243,0.100000,0.100000,-0.157527,-0.590459,-0.050000,-0.050000,0.318626,-0.644049,0.000000,0.000000,-0.442188,0.108199,1.128741,0.090295,0.080809,0.345686,-0.063454,-0.253727,-0.045713,-0.537194
-0.050000,-0.050000,0.003370,0.000000,0.000000,0.043187,0.000000,0.000000,0.271197,0.100000,0.100000,-0.153123,-0.579360,-0.050000,-0.050000,0.317389,-0.647853,0.000000,0.000000,-0.442417,0.091182,1.129736,0.084203,0.079763,0.362285,-0.062653,-0.262480,-0.046639,-0.545622
-0.050000,-0.050000,0.001561,0.000000,0.000000,0.042948,0.000000,0.000000,0.269301,0.100000,0.100000,-0.148847,-0.568355,-0.050000,-0.050000,0.315974,-0.651007,0.000000,0.000000,-0.442831,0.074109,1.131268,0.078922,0.078480,0.380232,-0.061460,-0.271001,-0.047973,-0.552594
-0.050000,-0.050000,-0.000341,0.000000,0.000000,0.042735,0.000000,0.000000,0.267590,0.100000,0.100000,-0.144690,-0.557844,-0.050000,-0.050000,0.314429,-0.653377,0.000000,0.000000,-0.443628,0.057138,1.133550,0.074512,0.077280,0.398912,-0.059828,-0.279091,-0.049926,-0.558071
-0.050000,-0.050000,-0.002310,0.000000,0.000000,0.042498,0.000000,0.000000,0.265979,0.100000,0.100000,-0.140673,-0.547833,-0.050000,-0.050000,0.312876,-0.655369,0.000000,0.000000,-0.444590,0.040238,1.136272,0.070599,0.076261,0.417641,-0.058026,-0.287037,-0.052226,-0.562693
-0.050000,-0.050000,-0.004386,0.000000,0.000000,0.042250,0.000000,0.000000,0.264527,0.100000,0.100000,-0.136721,-0.538761,-0.050000,-0.050000,0.311397,-0.656868,0.000000,0.000000,-0.446035,0.023668,1.139691,0.067254,0.075971,0.435299,-0.055989,-0.294532,-0.055135,-0.566554
-0.050000,-0.050000,-0.006566,0.000000,0.000000,0.041960,0.000000,0.000000,0.263173,0.100000,0.100000,-0.132863,-0.530582,-0.050000,-0.050000,0.310080,-0.658188,0.000000,0.000000,-0.447729,0.007456,1.143535,0.064248,0.076486,0.451222,-0.053936,-0.301713,-0.058393,-0.570255
-0.050000,-0.050000,-0.008865,0.000000,0.000000,0.041644,0.000000,0.000000,0.261927,0.100000,0.100000,-0.129055,-0.523341,-0.050000,-0.050000,0.308945,-0.659361,0.000000,0.000000,-0.449689,-0.008291,1.147771,0.061524,0.077930,0.464993,-0.051904,-0.308521,-0.061975,-0.574059
-0.050000,-0.050000,-0.011320,0.000000,0.000000,0.041273,0.000000,0.000000,0.260779,0.100000,0.100000,-0.125276,-0.517401,-0.050000,-0.050000,0.308273,-0.660808,0.000000,0.000000,-0.452091,-0.023187,1.152332,0.059161,0.080891,0.474711,-0.050040,-0.314610,-0.065788,-0.578487
-0.050000,-0.050000,-0.013903,0.000000,0.000000,0.040911,0.000000,0.000000,0.259735,0.100000,0.100000,-0.121562,-0.512380,-0.050000,-0.050000,0.307794,-0.662256,0.000000,0.000000,-0.454542,-0.037367,1.157010,0.057097,0.084762,0.481590,-0.048367,-0.320165,-0.069651,-0.583701
-0.050000,-0.050000,-0.016646,0.000000,0.000000,0.040505,0.000000,0.000000,0.258800,0.100000,0.100000,-0.117934,-0.508699,-0.050000,-0.050000,0.307967,-0.664393,0.000000,0.000000,-0.457360,-0.050194,1.161688,0.055677,0.090156,0.483378,-0.047060,-0.324552,-0.073371,-0.590089
-0.050000,-0.050000,-0.019504,0.000000,0.000000,0.040144,0.000000,0.000000,0.257996,0.100000,0.100000,-0.114450,-0.506107,-0.050000,-0.050000,0.308497,-0.666890,0.000000,0.000000,-0.460200,-0.061679,1.166165,0.055026,0.096398,0.481348,-0.046125,-0.327808,-0.076788,-0.597696
-0.050000,-0.050000,-0.022495,0.000000,0.000000,0.039817,0.000000,0.000000,0.257328,0.100000,0.100000,-0.111122,-0.504623,-0.050000,-0.050000,0.309467,-0.669934,0.000000,0.000000,-0.463090,-0.071659,1.170368,0.055278,0.103392,0.475512,-0.045575,-0.329772,-0.079809,-0.606459
-0.050000,-0.050000,-0.025498,0.000000,0.000000,0.039537,0.000000,0.000000,0.256850,0.100000,0.100000,-0.108247,-0.504328,-0.050000,-0.050000,0.311156,-0.673951,0.000000,0.000000,-0.466072,-0.079223,1.173898,0.057358,0.110823,0.465315,-0.045620,-0.329575,-0.082025,-0.616208
-0.050000,-0.050000,-0.028609,0.000000,0.000000,0.039374,0.000000,0.000000,0.256535,0.100000,0.100000,-0.105584,-0.505227,-0.050000,-0.050000,0.313116,-0.678410,0.000000,0.000000,-0.468954,-0.085013,1.176945,0.060813,0.118293,0.452644,-0.046017,-0.327905,-0.083728,-0.626706
-0.050000,-0.050000,-0.031593,0.000000,0.000000,0.039288,0.000000,0.000000,0.256471,0.100000,0.100000,-0.103739,-0.507300,-0.050000,-0.050000,0.315923,-0.684019,0.000000,0.000000,-0.471890,-0.087507,1.178935,0.067099,0.125366,0.436844,-0.047082,-0.323424,-0.084375,-0.637197
-0.050000,-0.050000,-0.034560,0.000000,0.000000,0.039351,0.000000,0.000000,0.256620,0.100000,0.100000,-0.102449,-0.510805,-0.050000,-0.050000,0.319187,-0.690311,0.000000,0.000000,-0.474777,-0.087273,1.180073,0.075876,0.131741,0.419681,-0.048565,-0.316863,-0.084342,-0.647238
-0.050000,-0.050000,-0.037466,0.000000,0.000000,0.039536,0.000000,0.000000,0.257007,0.100000,0.100000,-0.101893,-0.515696,-0.050000,-0.050000,0.323044,-0.697417,0.000000,0.000000,-0.477632,-0.084014,1.180258,0.087471,0.137251,0.401592,-0.050477,-0.308142,-0.083601,-0.656219
-0.050000,-0.050000,-0.040051,0.000000,0.000000,0.039844,0.000000,0.000000,0.257670,0.100000,0.100000,-0.102674,-0.522074,-0.050000,-0.050000,0.327870,-0.705453,0.000000,0.000000,-0.480620,-0.076451,1.179074,0.102965,0.141320,0.383494,-0.052949,-0.296596,-0.082081,-0.662545
-0.050000,-0.050000,-0.042665,0.000000,0.000000,0.040290,0.000000,0.000000,0.258545,0.100000,0.100000,-0.104115,-0.530311,-0.050000,-0.050000,0.333208,-0.714091,0.000000,0.000000,-0.483578,-0.066105,1.177042,0.121294,0.144316,0.366042,-0.055644,-0.283682,-0.080261,-0.666666
-0.050000,-0.050000,-0.044803,0.000000,0.000000,0.040830,0.000000,0.000000,0.259697,0.100000,0.100000,-0.107438,-0.540210,-0.050000,-0.050000,0.339849,-0.723437,0.000000,0.000000,-0.486797,-0.050757,1.173459,0.143853,0.145572,0.350122,-0.058839,-0.268334,-0.077968,-0.666123
-0.050000,-0.050000,-0.046860,0.000000,0.000000,0.041473,0.000000,0.000000,0.261061,0.100000,0.100000,-0.111951,-0.552273,-0.050000,-0.050000,0.347379,-0.733165,0.000000,0.000000,-0.490086,-0.032051,1.168835,0.169503,0.145468,0.336121,-0.062195,-0.252083,-0.075666,-0.661546
-0.050000,-0.050000,-0.048713,0.000000,0.000000,0.042177,0.000000,0.000000,0.262662,0.100000,0.100000,-0.118011,-0.566276,-0.050000,-0.050000,0.355984,-0.743067,0.000000,0.000000,-0.493480,-0.009684,1.163065,0.198183,0.143991,0.324173,-0.065732,-0.235069,-0.073385,-0.652405
-0.050000,-0.050000,-0.050206,0.000000,0.000000,0.042918,0.000000,0.000000,0.264447,0.100000,0.100000,-0.126427,-0.582218,-0.050000,-0.050000,0.366157,-0.752765,0.000000,0.000000,-0.497043,0.016883,1.155880,0.229507,0.140812,0.315222,-0.069443,-0.217728,-0.071229,-0.637367
-0.050000,-0.050000,-0.051723,0.000000,0.000000,0.043652,0.000000,0.000000,0.266472,0.100000,0.100000,-0.136213,-0.600106,-0.050000,-0.050000,0.377258,-0.762109,0.000000,0.000000,-0.500507,0.045753,1.147817,0.262625,0.136405,0.308299,-0.073084,-0.200864,-0.069343,-0.618423
-0.050000,-0.050000,-0.052891,0.000000,0.000000,0.044373,0.000000,0.000000,0.268621,0.100000,0.100000,-0.149085,-0.619435,-0.050000,-0.050000,0.390145,-0.770438,0.000000,0.000000,-0.503904,0.078025,1.138245,0.296672,0.130028,0.304825,-0.076773,-0.184921,-0.067546,-0.593815
-0.050000,-0.050000,-0.054111,0.000000,0.000000,0.045014,0.000000,0.000000,0.270995,0.100000,0.100000,-0.163999,-0.640045,-0.050000,-0.050000,0.404108,-0.777729,0.000000,0.000000,-0.506918,0.111550,1.127680,0.330806,0.121945,0.303771,-0.080256,-0.170448,-0.065875,-0.565970
-0.050000,-0.050000,-0.055267,0.000000,0.000000,0.045564,0.000000,0.000000,0.273544,0.100000,0.100000,-0.181400,-0.661320,-0.050000,-0.050000,0.419220,-0.783659,0.000000,0.000000,-0.509542,0.146110,1.116010,0.364225,0.111995,0.305203,-0.083570,-0.157578,-0.064134,-0.535240
-0.050000,-0.050000,-0.056450,0.000000,0.000000,0.046061,0.000000,0.000000,0.276169,0.100000,0.100000,-0.202091,-0.682559,-0.050000,-0.050000,0.435396,-0.787728,0.000000,0.000000,-0.511114,0.180338,1.102927,0.395086,0.099091,0.310013,-0.086656,-0.147376,-0.061783,-0.502911
-0.050000,-0.050000,-0.057676,0.000000,0.000000,0.046368,0.000000,0.000000,0.279054,0.100000,0.100000,-0.224801,-0.703365,-0.050000,-0.050000,0.452144,-0.790466,0.000000,0.000000,-0.512183,0.213603,1.088978,0.423925,0.084125,0.316656,-0.089445,-0.138748,-0.059058,-0.470179
-0.050000,-0.050000,-0.059034,0.000000,0.000000,0.046690,0.000000,0.000000,0.281899,0.100000,0.100000,-0.251195,-0.722787,-0.050000,-0.050000,0.469196,-0.790991,0.000000,0.000000,-0.511342,0.244031,1.073331,0.447891,0.064848,0.327151,-0.092031,-0.133566,-0.054764,-0.438884
-0.050000,-0.050000,-0.060463,0.000000,0.000000,0.046843,0.000000,0.000000,0.284969,0.100000,0.100000,-0.279800,-0.740456,-0.050000,-0.050000,0.486117,-0.790084,0.000000,0.000000,-0.509411,0.271369,1.056540,0.467866,0.042296,0.339796,-0.094366,-0.130384,-0.049218,-0.409831
-0.050000,-0.050000,-0.061943,0.000000,0.000000,0.046933,0.000000,0.000000,0.288089,0.100000,0.100000,-0.310834,-0.755980,-0.050000,-0.050000,0.502515,-0.787605,0.000000,0.000000,-0.505994,0.294906,1.038378,0.483077,0.015927,0.354956,-0.096646,-0.129518,-0.041946,-0.383891
-0.050000,-0.050000,-0.063615,0.000000,0.000000,0.047097,0.000000,0.000000,0.291220,0.100000,0.100000,-0.344301,-0.768825,-0.050000,-0.050000,0.517387,-0.783183,0.000000,0.000000,-0.499981,0.312875,1.018291,0.492182,-0.015718,0.373002,-0.099095,-0.131798,-0.031952,-0.363290
-0.050000,-0.050000,-0.065215,0.000000,0.000000,0.047121,0.000000,0.000000,0.294509,0.100000,0.100000,-0.379055,-0.779129,-0.050000,-0.050000,0.531248,-0.777743,0.000000,0.000000,-0.493057,0.327123,0.997007,0.496926,-0.050387,0.392320,-0.101831,-0.135428,-0.020198,-0.346267
-0.050000,-0.050000,-0.067054,0.000000,0.000000,0.047392,0.000000,0.000000,0.297730,0.100000,0.100000,-0.415349,-0.786537,-0.050000,-0.050000,0.542135,-0.770008,0.000000,0.000000,-0.482578,0.334593,0.973199,0.495080,-0.090871,0.414026,-0.105500,-0.142598,-0.004814,-0.336262
-0.050000,-0.050000,-0.068849,0.000000,0.000000,0.047633,0.000000,0.000000,0.301120,0.100000,0.100000,-0.451920,-0.791292,-0.050000,-0.050000,0.551047,-0.761005,0.000000,0.000000,-0.470692,0.337986,0.947692,0.488657,-0.134171,0.436166,-0.110204,-0.151303,0.012898,-0.330706
-0.050000,-0.050000,-0.070683,0.000000,0.000000,0.047991,0.000000,0.000000,0.304522,0.100000,0.100000,-0.488437,-0.793671,-0.050000,-0.050000,0.557226,-0.750279,0.000000,0.000000,-0.456531,0.336761,0.920141,0.477622,-0.180473,0.458753,-0.116495,-0.162117,0.033264,-0.330055
-0.050000,-0.050000,-0.072576,0.000000,0.000000,0.048542,0.000000,0.000000,0.308052,0.100000,0.100000,-0.523891,-0.793840,-0.050000,-0.050000,0.559920,-0.737363,0.000000,0.000000,-0.439737,0.330847,0.889968,0.461968,-0.228988,0.480984,-0.124963,-0.175241,0.056545,-0.334591
-0.050000,-0.050000,-0.074425,0.000000,0.000000,0.049114,0.000000,0.000000,0.311649,0.100000,0.100000,-0.558103,-0.792150,-0.050000,-0.050000,0.560453,-0.723120,0.000000,0.000000,-0.421637,0.322460,0.858100,0.443174,-0.277772,0.502213,-0.135478,-0.189504,0.081420,-0.341998
-0.050000,-0.050000,-0.076286,0.000000,0.000000,0.049898,0.000000,0.000000,0.315456,0.100000,0.100000,-0.589672,-0.788943,-0.050000,-0.050000,0.557067,-0.706291,0.000000,0.000000,-0.401038,0.310371,0.823333,0.420705,-0.326088,0.521827,-0.148854,-0.205817,0.108538,-0.353424
-0.050000,-0.050000,-0.078076,0.000000,0.000000,0.050701,0.000000,0.000000,0.319378,0.100000,0.100000,-0.618694,-0.784384,-0.050000,-0.050000,0.551523,-0.688010,0.000000,0.000000,-0.379475,0.297022,0.786737,0.395912,-0.372053,0.539410,-0.164496,-0.222843,0.136440,-0.366514
-0.050000,-0.050000,-0.079795,0.000000,0.000000,0.051551,0.000000,0.000000,0.323430,0.100000,0.100000,-0.644710,-0.778883,-0.050000,-0.050000,0.543434,-0.667959,0.000000,0.000000,-0.356749,0.282383,0.748215,0.369110,-0.414929,0.554869,-0.182443,-0.240668,0.164829,-0.381023
-0.050000,-0.050000,-0.081340,0.000000,0.000000,0.052388,0.000000,0.000000,0.327761,0.100000,0.100000,-0.666804,-0.772686,-0.050000,-0.050000,0.533033,-0.646262,0.000000,0.000000,-0.333752,0.267383,0.708019,0.340800,-0.452647,0.567773,-0.202150,-0.258792,0.192875,-0.395976
-0.050000,-0.050000,-0.082800,0.000000,0.000000,0.053182,0.000000,0.000000,0.332065,0.100000,0.100000,-0.686001,-0.765860,-0.050000,-0.050000,0.521050,-0.623447,0.000000,0.000000,-0.310318,0.252496,0.666663,0.311584,-0.486186,0.578765,-0.223164,-0.276948,0.220306,-0.410864
-0.050000,-0.050000,-0.083940,0.000000,0.000000,0.053864,0.000000,0.000000,0.336782,0.100000,0.100000,-0.700555,-0.758789,-0.050000,-0.050000,0.507377,-0.599475,0.000000,0.000000,-0.288041,0.238562,0.624738,0.281960,-0.512745,0.587457,-0.244347,-0.294607,0.245893,-0.424664
-0.050000,-0.050000,-0.084899,0.000000,0.000000,0.054410,0.000000,0.000000,0.341437,0.100000,0.100000,-0.711971,-0.751368,-0.050000,-0.050000,0.492603,-0.574851,0.000000,0.000000,-0.266327,0.225640,0.582654,0.252507,-0.534423,0.594846,-0.265329,-0.311691,0.269802,-0.437298
-0.050000,-0.050000,-0.085589,0.000000,0.000000,0.054806,0.000000,0.000000,0.346225,0.100000,0.100000,-0.719994,-0.743844,-0.050000,-0.050000,0.476924,-0.549805,0.000000,0.000000,-0.245980,0.214136,0.541048,0.223645,-0.550986,0.601229,-0.285315,-0.327977,0.291455,-0.448308
-0.050000,-0.050000,-0.085911,0.000000,0.000000,0.054969,0.000000,0.000000,0.351196,0.100000,0.100000,-0.724459,-0.736303,-0.050000,-0.050000,0.460674,-0.524802,0.000000,0.000000,-0.227986,0.204608,0.501207,0.196378,-0.562818,0.607384,-0.303081,-0.342972,0.309963,-0.457141
-0.050000,-0.050000,-0.086004,0.000000,0.000000,0.054974,0.000000,0.000000,0.356015,0.100000,0.100000,-0.726864,-0.728774,-0.050000,-0.050000,0.443875,-0.499814,0.000000,0.000000,-0.211214,0.196358,0.462607,0.170600,-0.571955,0.613800,-0.319366,-0.357212,0.326208,-0.464311
-0.050000,-0.050000,-0.085726,0.000000,0.000000,0.054736,0.000000,0.000000,0.361782,0.100000,0.100000,-0.726266,-0.721650,-0.050000,-0.050000,0.427160,-0.475724,0.000000,0.000000,-0.197932,0.190551,0.427493,0.147738,-0.578316,0.621413,-0.331808,-0.369607,0.338495,-0.469004
-0.050000,-0.050000,-0.086100,0.000000,0.000000,0.054810,0.000000,0.000000,0.373308,0.100000,0.100000,-0.726967,-0.717095,-0.050000,-0.050000,0.411146,-0.452463,0.000000,0.000000,-0.184746,0.184953,0.390742,0.124148,-0.583177,0.629910,-0.341426,-0.381491,0.350027,-0.472586
-0.050000,-0.050000,-0.085411,0.000000,0.000000,0.054137,0.000000,0.000000,0.380052,0.100000,0.100000,-0.724280,-0.711547,-0.050000,-0.050000,0.394686,-0.430281,0.000000,0.000000,-0.175655,0.182336,0.362606,0.108523,-0.589369,0.641666,-0.347854,-0.391002,0.355906,-0.473363
-0.050000,-0.050000,-0.084085,0.000000,0.000000,0.053201,0.000000,0.000000,0.385805,0.100000,0.100000,-0.720164,-0.705966,-0.050000,-0.050000,0.378673,-0.409648,0.000000,0.000000,-0.169835,0.181532,0.341004,0.098941,-0.598243,0.657014,-0.351819,-0.399160,0.357234,-0.471751
-0.050000,-0.050000,-0.082389,0.000000,0.000000,0.052177,0.000000,0.000000,0.391157,0.100000,0.100000,-0.715902,-0.700797,-0.050000,-0.050000,0.363118,-0.390154,0.000000,0.000000,-0.165754,0.181549,0.323576,0.093329,-0.609389,0.674964,-0.354648,-0.406766,0.355661,-0.468372
-0.050000,-0.050000,-0.080296,0.000000,0.000000,0.050967,0.000000,0.000000,0.396585,0.100000,0.100000,-0.710974,-0.695949,-0.050000,-0.050000,0.348669,-0.372918,0.000000,0.000000,-0.164649,0.183052,0.313486,0.094484,-0.624581,0.696703,-0.354472,-0.412090,0.350310,-0.463439
-0.050000,-0.050000,-0.077943,0.000000,0.000000,0.049738,0.000000,0.000000,0.401976,0.100000,0.100000,-0.706478,-0.691717,-0.050000,-0.050000,0.335036,-0.357111,0.000000,0.000000,-0.164634,0.184900,0.307801,0.099896,-0.642779,0.720993,-0.353539,-0.416615,0.342699,-0.457147
-0.050000,-0.050000,-0.075374,0.000000,0.000000,0.048466,0.000000,0.000000,0.407540,0.100000,0.100000,-0.702047,-0.687892,-0.050000,-0.050000,0.322458,-0.343090,0.000000,0.000000,-0.165928,0.187249,0.307269,0.110201,-0.664202,0.747824,-0.351297,-0.419660,0.333018,-0.449808
-0.050000,-0.050000,-0.072647,0.000000,0.000000,0.047217,0.000000,0.000000,0.413249,0.100000,0.100000,-0.697646,-0.684338,-0.050000,-0.050000,0.311202,-0.331073,0.000000,0.000000,-0.167885,0.189707,0.311729,0.125341,-0.688720,0.776725,-0.348234,-0.421167,0.321907,-0.441628
-0.050000,-0.050000,-0.069819,0.000000,0.000000,0.046033,0.000000,0.000000,0.419046,0.100000,0.100000,-0.693545,-0.681228,-0.050000,-0.050000,0.300802,-0.320314,0.000000,0.000000,-0.170071,0.192068,0.319355,0.143533,-0.715214,0.807004,-0.344964,-0.421823,0.309805,-0.432582
-0.050000,-0.050000,-0.066958,0.000000,0.000000,0.044971,0.000000,0.000000,0.424950,0.100000,0.100000,-0.688919,-0.677953,-0.050000,-0.050000,0.292170,-0.311914,0.000000,0.000000,-0.171905,0.193982,0.331276,0.165919,-0.743806,0.837987,-0.341438,-0.420772,0.297579,-0.423172
-0.050000,-0.050000,-0.064110,0.000000,0.000000,0.044065,0.000000,0.000000,0.430800,0.100000,0.100000,-0.684229,-0.674897,-0.050000,-0.050000,0.284472,-0.304708,0.000000,0.000000,-0.173215,0.195423,0.345194,0.190205,-0.773220,0.869110,-0.338233,-0.418994,0.285285,-0.413201
-0.050000,-0.050000,-0.061325,0.000000,0.000000,0.043338,0.000000,0.000000,0.436577,0.100000,0.100000,-0.678955,-0.671673,-0.050000,-0.050000,0.278065,-0.299079,0.000000,0.000000,-0.173618,0.196190,0.361071,0.216343,-0.803033,0.899670,-0.335332,-0.416220,0.273544,-0.403046
-0.050000,-0.050000,-0.058677,0.000000,0.000000,0.042863,0.000000,0.000000,0.442065,0.100000,0.100000,-0.672781,-0.668185,-0.050000,-0.050000,0.273089,-0.295099,0.000000,0.000000,-0.172650,0.196002,0.378156,0.243470,-0.832362,0.928744,-0.333054,-0.412702,0.262872,-0.392880
-0.050000,-0.050000,-0.056157,0.000000,0.000000,0.042568,0.000000,0.000000,0.447315,0.100000,0.100000,-0.665994,-0.664528,-0.050000,-0.050000,0.268853,-0.291995,0.000000,0.000000,-0.170809,0.195270,0.395718,0.270934,-0.861123,0.956633,-0.331060,-0.408578,0.252940,-0.382790
-0.050000,-0.050000,-0.053889,0.000000,0.000000,0.042622,0.000000,0.000000,0.451897,0.100000,0.100000,-0.657701,-0.660405,-0.050000,-0.050000,0.266445,-0.290898,0.000000,0.000000,-0.166940,0.193128,0.413570,0.298155,-0.887977,0.981570,-0.329921,-0.404089,0.244901,-0.373113
-0.050000,-0.050000,-0.051827,0.000000,0.000000,0.042882,0.000000,0.000000,0.455992,0.100000,0.100000,-0.648566,-0.656032,-0.050000,-0.050000,0.264685,-0.290558,0.000000,0.000000,-0.162102,0.190398,0.431096,0.324728,-0.913339,1.004585,-0.328969,-0.399270,0.238001,-0.363902
-0.050000,-0.050000,-0.050007,0.000000,0.000000,0.043403,0.000000,0.000000,0.459392,0.100000,0.100000,-0.638295,-0.651343,-0.050000,-0.050000,0.264074,-0.291497,0.000000,0.000000,-0.155865,0.186693,0.448237,0.350336,-0.936630,1.025034,-0.328357,-0.394328,0.232658,-0.355296
-0.050000,-0.050000,-0.048466,0.000000,0.000000,0.044187,0.000000,0.000000,0.461920,0.100000,0.100000,-0.626962,-0.646463,-0.050000,-0.050000,0.264655,-0.293753,0.000000,0.000000,-0.148346,0.182013,0.464808,0.374579,-0.957367,1.042757,-0.327880,-0.389441,0.228993,-0.347454
-0.050000,-0.050000,-0.047110,0.000000,0.000000,0.045126,0.000000,0.000000,0.463875,0.100000,0.100000,-0.614946,-0.641364,-0.050000,-0.050000,0.265785,-0.296669,0.000000,0.000000,-0.140068,0.176810,0.480810,0.397755,-0.976294,1.058599,-0.327296,-0.384460,0.226552,-0.340337
-0.050000,-0.050000,-0.046070,0.000000,0.000000,0.046332,0.000000,0.000000,0.464615,0.100000,0.100000,-0.602081,-0.636352,-0.050000,-0.050000,0.268615,-0.301370,0.000000,0.000000,-0.130631,0.170467,0.496289,0.419086,-0.991880,1.071519,-0.326561,-0.379878,0.226053,-0.334182
-0.050000,-0.050000,-0.045173,0.000000,0.000000,0.047631,0.000000,0.000000,0.464748,0.100000,0.100000,-0.588922,-0.631273,-0.050000,-0.050000,0.271985,-0.306669,0.000000,0.000000,-0.120788,0.163730,0.511255,0.439244,-1.005513,1.082857,-0.325417,-0.375304,0.226790,-0.328890
-0.050000,-0.050000,-0.044452,0.000000,0.000000,0.049052,0.000000,0.000000,0.464006,0.100000,0.100000,-0.575530,-0.626330,-0.050000,-0.050000,0.276498,-0.313111,0.000000,0.000000,-0.110483,0.156361,0.525875,0.457993,-1.016713,1.092403,-0.323831,-0.370981,0.228915,-0.324464
-0.050000,-0.050000,-0.043866,0.000000,0.000000,0.050536,0.000000,0.000000,0.462392,0.100000,0.100000,-0.562257,-0.621603,-0.050000,-0.050000,0.282219,-0.320645,0.000000,0.000000,-0.100028,0.148497,0.540235,0.475331,-1.025497,1.100425,-0.321647,-0.366933,0.232366,-0.320954
-0.050000,-0.050000,-0.043323,0.000000,0.000000,0.052027,0.000000,0.000000,0.460278,0.100000,0.100000,-0.549132,-0.616939,-0.050000,-0.050000,0.288569,-0.328745,0.000000,0.000000,-0.089499,0.140326,0.554369,0.491697,-1.032715,1.107443,-0.318994,-0.362991,0.236744,-0.318149
-0.050000,-0.050000,-0.042888,0.000000,0.000000,0.053511,0.000000,0.000000,0.457134,0.100000,0.100000,-0.536646,-0.612646,-0.050000,-0.050000,0.296649,-0.338206,0.000000,0.000000,-0.079292,0.131759,0.568384,0.506441,-1.037326,1.113145,-0.315633,-0.359538,0.242317,-0.316255
-0.050000,-0.050000,-0.042418,0.000000,0.000000,0.054915,0.000000,0.000000,0.453621,0.100000,0.100000,-0.524640,-0.608357,-0.050000,-0.050000,0.305304,-0.348040,0.000000,0.000000,-0.069328,0.123018,0.582215,0.520245,-1.040640,1.118126,-0.311841,-0.356236,0.248538,-0.314976
-0.050000,-0.050000,-0.041959,0.000000,0.000000,0.056234,0.000000,0.000000,0.449515,0.100000,0.100000,-0.513302,-0.604166,-0.050000,-0.050000,0.315025,-0.358598,0.000000,0.000000,-0.059856,0.114128,0.595871,0.532823,-1.042304,1.122292,-0.307609,-0.353289,0.255335,-0.314281
-0.050000,-0.050000,-0.041493,0.000000,0.000000,0.057412,0.000000,0.000000,0.444934,0.100000,0.100000,-0.502762,-0.599926,-0.050000,-0.050000,0.325641,-0.369671,0.000000,0.000000,-0.051104,0.105222,0.609221,0.544093,-1.042369,1.125638,-0.303061,-0.350744,0.262429,-0.314035
-0.050000,-0.050000,-0.040974,0.000000,0.000000,0.058470,0.000000,0.000000,0.440101,0.100000,0.100000,-0.492722,-0.595510,-0.050000,-0.050000,0.336713,-0.380959,0.000000,0.000000,-0.042838,0.096267,0.622351,0.554423,-1.041376,1.128360,-0.298306,-0.348440,0.269678,-0.314129
-0.050000,-0.050000,-0.040516,0.000000,0.000000,0.059310,0.000000,0.000000,0.434824,0.100000,0.100000,-0.483715,-0.590825,-0.050000,-0.050000,0.348639,-0.392659,0.000000,0.000000,-0.035953,0.087658,0.634803,0.562988,-1.038216,1.129882,-0.293461,-0.346748,0.276617,-0.314335
-0.050000,-0.050000,-0.040002,0.000000,0.000000,0.059992,0.000000,0.000000,0.429450,0.100000,0.100000,-0.475153,-0.585697,-0.050000,-0.050000,0.360667,-0.404275,0.000000,0.000000,-0.029858,0.079190,0.646875,0.570498,-1.033757,1.130531,-0.288573,-0.345306,0.283309,-0.314670
-0.050000,-0.050000,-0.039531,0.000000,0.000000,0.060477,0.000000,0.000000,0.423911,0.100000,0.100000,-0.467231,-0.580081,-0.050000,-0.050000,0.372895,-0.415870,0.000000,0.000000,-0.025101,0.071201,0.658285,0.576603,-1.027321,1.129942,-0.283706,-0.344237,0.289379,-0.314905
-0.050000,-0.050000,-0.039121,0.000000,0.000000,0.060739,0.000000,0.000000,0.418331,0.100000,0.100000,-0.459886,-0.573850,-0.050000,-0.050000,0.385010,-0.427214,0.000000,0.000000,-0.022049,0.063974,0.668988,0.581312,-1.018373,1.127784,-0.278838,-0.343419,0.294531,-0.314875
-0.050000,-0.050000,-0.038706,0.000000,0.000000,0.060854,0.000000,0.000000,0.412718,0.100000,0.100000,-0.452841,-0.567044,-0.050000,-0.050000,0.396913,-0.438285,0.000000,0.000000,-0.020158,0.057206,0.679233,0.585024,-1.007558,1.124423,-0.273951,-0.342718,0.299073,-0.314769
-0.050000,-0.050000,-0.038484,0.000000,0.000000,0.060654,0.000000,0.000000,0.407204,0.100000,0.100000,-0.446513,-0.559545,-0.050000,-0.050000,0.408298,-0.448792,0.000000,0.000000,-0.021419,0.052279,0.688612,0.587275,-0.992277,1.118464,-0.268807,-0.341900,0.301824,-0.313930
-0.050000,-0.050000,-0.038251,0.000000,0.000000,0.060307,0.000000,0.000000,0.401713,0.100000,0.100000,-0.440407,-0.551454,-0.050000,-0.050000,0.419139,-0.458812,0.000000,0.000000,-0.024327,0.048203,0.697735,0.588827,-0.974245,1.110859,-0.263420,-0.340822,0.303734,-0.312966
-0.050000,-0.050000,-0.038138,0.000000,0.000000,0.059727,0.000000,0.000000,0.396334,0.100000,0.100000,-0.434753,-0.542861,-0.050000,-0.050000,0.429286,-0.468210,0.000000,0.000000,-0.030116,0.045930,0.706495,0.589682,-0.952012,1.100868,-0.257529,-0.339161,0.304079,-0.311478
-0.050000,-0.050000,-0.038116,0.000000,0.000000,0.058917,0.000000,0.000000,0.391082,0.100000,0.100000,-0.429524,-0.533891,-0.050000,-0.050000,0.438569,-0.476882,0.000000,0.000000,-0.039165,0.045822,0.715272,0.590348,-0.924972,1.088166,-0.250817,-0.336453,0.302716,-0.309475
-0.050000,-0.050000,-0.038113,0.000000,0.000000,0.057973,0.000000,0.000000,0.385868,0.100000,0.100000,-0.424594,-0.524659,-0.050000,-0.050000,0.447144,-0.485027,0.000000,0.000000,-0.050342,0.047086,0.724149,0.590978,-0.894542,1.073504,-0.243624,-0.332951,0.300147,-0.307205
-0.050000,-0.050000,-0.038269,0.000000,0.000000,0.056710,0.000000,0.000000,0.380905,0.100000,0.100000,-0.420275,-0.515475,-0.050000,-0.050000,0.454424,-0.492153,0.000000,0.000000,-0.066745,0.052281,0.733788,0.592628,-0.856981,1.054654,-0.234701,-0.327026,0.294777,-0.303982
-0.050000,-0.050000,-0.038398,0.000000,0.000000,0.055346,0.000000,0.000000,0.375958,0.100000,0.100000,-0.416294,-0.506407,-0.050000,-0.050000,0.460796,-0.498724,0.000000,0.000000,-0.085296,0.059108,0.744131,0.595164,-0.815877,1.033461,-0.225162,-0.319726,0.287974,-0.300422
-0.050000,-0.050000,-0.038592,0.000000,0.000000,0.053787,0.000000,0.000000,0.371185,0.100000,0.100000,-0.412765,-0.497737,-0.050000,-0.050000,0.465949,-0.504495,0.000000,0.000000,-0.107642,0.069098,0.755606,0.599398,-0.769573,1.008703,-0.214408,-0.310066,0.278729,-0.295998
-0.050000,-0.050000,-0.038804,0.000000,0.000000,0.052069,0.000000,0.000000,0.366571,0.100000,0.100000,-0.409617,-0.489703,-0.050000,-0.050000,0.469703,-0.509428,0.000000,0.000000,-0.133299,0.082196,0.768618,0.606044,-0.718636,0.980087,-0.202544,-0.297750,0.267039,-0.290611
-0.050000,-0.050000,-0.039048,0.000000,0.000000,0.050274,0.000000,0.000000,0.362066,0.100000,0.100000,-0.406773,-0.482314,-0.050000,-0.050000,0.472341,-0.513749,0.000000,0.000000,-0.160936,0.097342,0.782760,0.614509,-0.664703,0.948734,-0.190533,-0.283783,0.253371,-0.284304
-0.050000,-0.050000,-0.039306,0.000000,0.000000,0.048281,0.000000,0.000000,0.357915,0.100000,0.100000,-0.404099,-0.476075,-0.050000,-0.050000,0.472773,-0.516727,0.000000,0.000000,-0.192322,0.116976,0.799432,0.627462,-0.606073,0.911441,-0.177120,-0.265762,0.236508,-0.276205
-0.050000,-0.050000,-0.039644,0.000000,0.000000,0.046279,0.000000,0.000000,0.353930,0.100000,0.100000,-0.401514,-0.470800,-0.050000,-0.050000,0.471839,-0.518904,0.000000,0.000000,-0.224488,0.138344,0.817402,0.642855,-0.545973,0.871164,-0.164326,-0.246406,0.217937,-0.266784
-0.050000,-0.050000,-0.040046,0.000000,0.000000,0.044195,0.000000,0.000000,0.350306,0.100000,0.100000,-0.398760,-0.466590,-0.050000,-0.050000,0.468906,-0.519756,0.000000,0.000000,-0.258071,0.162676,0.837271,0.662076,-0.484153,0.826161,-0.151642,-0.224685,0.197259,-0.255427
-0.050000,-0.050000,-0.040558,0.000000,0.000000,0.042092,0.000000,0.000000,0.347071,0.100000,0.100000,-0.395623,-0.463389,-0.050000,-0.050000,0.463919,-0.519105,0.000000,0.000000,-0.291793,0.189265,0.858792,0.685104,-0.422276,0.776689,-0.139605,-0.201325,0.175244,-0.242124
-0.050000,-0.050000,-0.041244,0.000000,0.000000,0.039997,0.000000,0.000000,0.344143,0.100000,0.100000,-0.392076,-0.460984,-0.050000,-0.050000,0.457416,-0.517145,0.000000,0.000000,-0.325282,0.217374,0.881336,0.710693,-0.360622,0.723998,-0.128775,-0.177660,0.152346,-0.227003
-0.050000,-0.050000,-0.042070,0.000000,0.000000,0.037933,0.000000,0.000000,0.341861,0.100000,0.100000,-0.387535,-0.459159,-0.050000,-0.050000,0.448215,-0.512764,0.000000,0.000000,-0.357127,0.247305,0.905439,0.741161,-0.302078,0.665993,-0.118486,-0.152743,0.129567,-0.209861
-0.050000,-0.050000,-0.043123,0.000000,0.000000,0.035861,0.000000,0.000000,0.339674,0.100000,0.100000,-0.381829,-0.457115,-0.050000,-0.050000,0.438043,-0.506970,0.000000,0.000000,-0.387674,0.277817,0.929393,0.773010,-0.246200,0.606434,-0.109514,-0.129086,0.107350,-0.191507
-0.050000,-0.050000,-0.043885,0.000000,0.000000,0.033338,0.000000,0.000000,0.336282,0.100000,0.100000,-0.371679,-0.450934,-0.050000,-0.050000,0.427765,-0.500003,0.000000,0.000000,-0.416979,0.309401,0.950499,0.804079,-0.198210,0.548624,-0.100878,-0.106789,0.087352,-0.173188
-0.050000,-0.050000,-0.045165,0.000000,0.000000,0.031456,0.000000,0.000000,0.334256,0.100000,0.100000,-0.363161,-0.446879,-0.050000,-0.050000,0.414898,-0.490155,0.000000,0.000000,-0.442445,0.339172,0.973778,0.839539,-0.151431,0.485507,-0.093064,-0.085249,0.068374,-0.153796
-0.050000,-0.050000,-0.046853,0.000000,0.000000,0.029783,0.000000,0.000000,0.333138,0.100000,0.100000,-0.354825,-0.443286,-0.050000,-0.050000,0.400964,-0.478587,0.000000,0.000000,-0.465406,0.367973,0.997517,0.876798,-0.107754,0.421022,-0.086190,-0.065768,0.050875,-0.133990
-0.050000,-0.050000,-0.048991,0.000000,0.000000,0.028395,0.000000,0.000000,0.332849,0.100000,0.100000,-0.345837,-0.438325,-0.050000,-0.050000,0.386265,-0.464997,0.000000,0.000000,-0.483154,0.393387,1.020400,0.915416,-0.072084,0.358525,-0.079928,-0.048848,0.037076,-0.115735
-0.050000,-0.050000,-0.051468,0.000000,0.000000,0.027088,0.000000,0.000000,0.332919,0.100000,0.100000,-0.336350,-0.432448,-0.050000,-0.050000,0.371753,-0.450380,0.000000,0.000000,-0.498842,0.417125,1.042238,0.953837,-0.040430,0.297745,-0.074068,-0.034294,0.025212,-0.098498
-0.050000,-0.050000,-0.054297,0.000000,0.000000,0.025951,0.000000,0.000000,0.333328,0.100000,0.100000,-0.326293,-0.424801,-0.050000,-0.050000,0.357659,-0.434769,0.000000,0.000000,-0.510683,0.437255,1.062474,0.991715,-0.014982,0.240985,-0.068510,-0.022060,0.016378,-0.083566
-0.050000,-0.050000,-0.057456,0.000000,0.000000,0.024922,0.000000,0.000000,0.333937,0.100000,0.100000,-0.315833,-0.415416,-0.050000,-0.050000,0.344615,-0.418777,0.000000,0.000000,-0.519414,0.453733,1.080806,1.028109,0.005157,0.189337,-0.063257,-0.011936,0.010204,-0.071234
-0.050000,-0.050000,-0.060778,0.000000,0.000000,0.023921,0.000000,0.000000,0.334671,0.100000,0.100000,-0.305077,-0.404630,-0.050000,-0.050000,0.332550,-0.402635,0.000000,0.000000,-0.526165,0.467625,1.097550,1.063026,0.021559,0.141747,-0.058148,-0.003255,0.005860,-0.060913
-0.050000,-0.050000,-0.064504,0.000000,0.000000,0.023038,0.000000,0.000000,0.335440,0.100000,0.100000,-0.294235,-0.391782,-0.050000,-0.050000,0.322705,-0.387200,0.000000,0.000000,-0.528936,0.475904,1.111630,1.094832,0.032143,0.102962,-0.053684,0.003557,0.004563,-0.054307
-0.050000,-0.050000,-0.068225,0.000000,0.000000,0.022074,0.000000,0.000000,0.336262,0.100000,0.100000,-0.283337,-0.377835,-0.050000,-0.050000,0.314331,-0.372348,0.000000,0.000000,-0.530729,0.482170,1.124049,1.124344,0.040359,0.068648,-0.049430,0.009573,0.004369,-0.049386
-0.050000,-0.050000,-0.072124,0.000000,0.000000,0.021100,0.000000,0.000000,0.336998,0.100000,0.100000,-0.272573,-0.362629,-0.050000,-0.050000,0.308098,-0.358665,0.000000,0.000000,-0.530315,0.484676,1.134386,1.150711,0.045427,0.041223,-0.045795,0.014536,0.005830,-0.046815
-0.050000,-0.050000,-0.076041,0.000000,0.000000,0.020035,0.000000,0.000000,0.337653,0.100000,0.100000,-0.262070,-0.346585,-0.050000,-0.050000,0.303932,-0.346328,0.000000,0.000000,-0.528694,0.484630,1.142918,1.173923,0.048557,0.019505,-0.042751,0.018714,0.008260,-0.045810
-0.050000,-0.050000,-0.079909,0.000000,0.000000,0.018890,0.000000,0.000000,0.338255,0.100000,0.100000,-0.251784,-0.329964,-0.050000,-0.050000,0.301300,-0.335043,0.000000,0.000000,-0.526342,0.482924,1.150104,1.194661,0.050448,0.001879,-0.040120,0.022447,0.011238,-0.045769
-0.050000,-0.050000,-0.083775,0.000000,0.000000,0.017610,0.000000,0.000000,0.338599,0.100000,0.100000,-0.242197,-0.313084,-0.050000,-0.050000,0.301178,-0.325805,0.000000,0.000000,-0.522964,0.478841,1.155563,1.211575,0.051209,-0.009849,-0.038402,0.025189,0.014813,-0.046723
-0.050000,-0.050000,-0.087452,0.000000,0.000000,0.016232,0.000000,0.000000,0.338930,0.100000,0.100000,-0.233009,-0.296111,-0.050000,-0.050000,0.302177,-0.317561,0.000000,0.000000,-0.519569,0.474321,1.160150,1.226411,0.051696,-0.019167,-0.036979,0.027725,0.018305,-0.047768
-0.050000,-0.050000,-0.090994,0.000000,0.000000,0.014740,0.000000,0.000000,0.339051,0.100000,0.100000,-0.224579,-0.279429,-0.050000,-0.050000,0.304705,-0.310806,0.000000,0.000000,-0.516002,0.469072,1.163826,1.238638,0.052067,-0.025479,-0.036102,0.029680,0.021715,-0.048844
-0.050000,-0.050000,-0.094301,0.000000,0.000000,0.013150,0.000000,0.000000,0.339045,0.100000,0.100000,-0.216963,-0.263263,-0.050000,-0.050000,0.308215,-0.305205,0.000000,0.000000,-0.512642,0.463857,1.166937,1.248867,0.052623,-0.030032,-0.035541,0.031293,0.024754,-0.049606
-0.050000,-0.050000,-0.097422,0.000000,0.000000,0.011512,0.000000,0.000000,0.338966,0.100000,0.100000,-0.210034,-0.247585,-0.050000,-0.050000,0.312339,-0.300430,0.000000,0.000000,-0.509452,0.458755,1.169712,1.257682,0.053359,-0.033446,-0.035170,0.032707,0.027445,-0.050058
-0.050000,-0.050000,-0.100161,0.000000,0.000000,0.009774,0.000000,0.000000,0.338628,0.100000,0.100000,-0.204433,-0.233180,-0.050000,-0.050000,0.317057,-0.296824,0.000000,0.000000,-0.506847,0.454300,1.172212,1.264732,0.054562,-0.035806,-0.034983,0.033736,0.029473,-0.049996
-0.050000,-0.050000,-0.102672,0.000000,0.000000,0.008051,0.000000,0.000000,0.338295,0.100000,0.100000,-0.199626,-0.219518,-0.050000,-0.050000,0.321799,-0.293696,0.000000,0.000000,-0.504512,0.450207,1.174664,1.271050,0.055933,-0.037743,-0.034773,0.034760,0.031076,-0.049644
-0.050000,-0.050000,-0.104809,0.000000,0.000000,0.006310,0.000000,0.000000,0.337788,0.100000,0.100000,-0.196004,-0.207171,-0.050000,-0.050000,0.326452,-0.291195,0.000000,0.000000,-0.502743,0.446774,1.177060,1.276499,0.057580,-0.039269,-0.034519,0.035656,0.032127,-0.049051
-0.050000,-0.050000,-0.106592,0.000000,0.000000,0.004609,0.000000,0.000000,0.337180,0.100000,0.100000,-0.193463,-0.196101,-0.050000,-0.050000,0.330724,-0.289087,0.000000,0.000000,-0.501446,0.443817,1.179408,1.281451,0.059331,-0.040446,-0.034148,0.036551,0.032736,-0.048436
-0.050000,-0.050000,-0.108088,0.000000,0.000000,0.002970,0.000000,0.000000,0.336525,0.100000,0.100000,-0.191815,-0.186103,-0.050000,-0.050000,0.334616,-0.287266,0.000000,0.000000,-0.500523,0.441179,1.181715,1.286100,0.061124,-0.041323,-0.033669,0.037459,0.033033,-0.047880
-0.050000,-0.050000,-0.109064,0.000000,0.000000,0.001410,0.000000,0.000000,0.335604,0.100000,0.100000,-0.191468,-0.177979,-0.050000,-0.050000,0.337663,-0.285792,0.000000,0.000000,-0.500300,0.438972,1.183660,1.290337,0.062871,-0.041628,-0.033056,0.038373,0.032938,-0.047784
-0.050000,-0.050000,-0.109774,0.000000,0.000000,-0.000011,0.000000,0.000000,0.334682,0.100000,0.100000,-0.191882,-0.170902,-0.050000,-0.050000,0.340192,-0.284523,0.000000,0.000000,-0.500402,0.436810,1.185372,1.294467,0.064522,-0.041516,-0.032352,0.039331,0.032694,-0.048017
-0.050000,-0.050000,-0.110060,0.000000,0.000000,-0.001297,0.000000,0.000000,0.333541,0.100000,0.100000,-0.193230,-0.165401,-0.050000,-0.050000,0.341917,-0.283528,0.000000,0.000000,-0.501074,0.434756,1.186470,1.298309,0.066045,-0.040790,-0.031622,0.040282,0.032267,-0.048882
-0.050000,-0.050000,-0.109997,0.000000,0.000000,-0.002398,0.000000,0.000000,0.332253,0.100000,0.100000,-0.195304,-0.161242,-0.050000,-0.050000,0.342966,-0.282825,0.000000,0.000000,-0.502232,0.432662,1.186828,1.301877,0.067446,-0.039479,-0.030930,0.041208,0.031736,-0.050360
-0.050000,-0.050000,-0.109651,0.000000,0.000000,-0.003326,0.000000,0.000000,0.330859,0.100000,0.100000,-0.197926,-0.158148,-0.050000,-0.050000,0.343493,-0.282393,0.000000,0.000000,-0.503787,0.430513,1.186502,1.305195,0.068758,-0.037702,-0.030279,0.042098,0.031129,-0.052331
-0.050000,-0.050000,-0.108881,0.000000,0.000000,-0.004009,0.000000,0.000000,0.329132,0.100000,0.100000,-0.201178,-0.156719,-0.050000,-0.050000,0.343283,-0.282452,0.000000,0.000000,-0.506016,0.428312,1.184710,1.307815,0.070021,-0.035271,-0.029941,0.042804,0.030415,-0.055100
-0.050000,-0.050000,-0.107889,0.000000,0.000000,-0.004474,0.000000,0.000000,0.327347,0.100000,0.100000,-0.204728,-0.156084,-0.050000,-0.050000,0.342775,-0.282867,0.000000,0.000000,-0.508568,0.426049,1.182061,1.310038,0.071271,-0.032537,-0.029724,0.043413,0.029642,-0.058202
-0.050000,-0.050000,-0.106589,0.000000,0.000000,-0.004696,0.000000,0.000000,0.325303,0.100000,0.100000,-0.208591,-0.156647,-0.050000,-0.050000,0.341873,-0.283797,0.000000,0.000000,-0.511627,0.423808,1.177987,1.311428,0.072577,-0.029475,-0.029904,0.043756,0.028785,-0.061782
-0.050000,-0.050000,-0.105053,0.000000,0.000000,-0.004667,0.000000,0.000000,0.323107,0.100000,0.100000,-0.212608,-0.158067,-0.050000,-0.050000,0.340796,-0.285223,0.000000,0.000000,-0.515028,0.421647,1.172680,1.311988,0.073959,-0.026295,-0.030451,0.043826,0.027879,-0.065612
-0.050000,-0.050000,-0.103341,0.000000,0.000000,-0.004431,0.000000,0.000000,0.320788,0.100000,0.100000,-0.216700,-0.160134,-0.050000,-0.050000,0.339618,-0.287066,0.000000,0.000000,-0.518662,0.419583,1.166357,1.311804,0.075406,-0.023084,-0.031309,0.043660,0.026941,-0.069590
-0.050000,-0.050000,-0.101377,0.000000,0.000000,-0.003891,0.000000,0.000000,0.318246,0.100000,0.100000,-0.220821,-0.163155,-0.050000,-0.050000,0.338433,-0.289511,0.000000,0.000000,-0.522566,0.417866,1.158590,1.310258,0.076955,-0.020100,-0.032838,0.042962,0.026080,-0.073667
-0.050000,-0.050000,-0.099327,0.000000,0.000000,-0.003159,0.000000,0.000000,0.315662,0.100000,0.100000,-0.224870,-0.166530,-0.050000,-0.050000,0.337308,-0.292295,0.000000,0.000000,-0.526453,0.416355,1.150158,1.307974,0.078497,-0.017332,-0.034648,0.042033,0.025309,-0.077683
-0.050000,-0.050000,-0.097135,0.000000,0.000000,-0.002168,0.000000,0.000000,0.312950,0.100000,0.100000,-0.228829,-0.170519,-0.050000,-0.050000,0.336295,-0.295482,0.000000,0.000000,-0.530300,0.415288,1.140925,1.304517,0.079997,-0.015038,-0.036999,0.040629,0.024790,-0.081593
-0.050000,-0.050000,-0.094895,0.000000,0.000000,-0.000952,0.000000,0.000000,0.310194,0.100000,0.100000,-0.232640,-0.174894,-0.050000,-0.050000,0.335399,-0.298930,0.000000,0.000000,-0.533908,0.414640,1.131376,1.300164,0.081326,-0.013269,-0.039710,0.038885,0.024610,-0.085309
-0.050000,-0.050000,-0.092650,0.000000,0.000000,0.000447,0.000000,0.000000,0.307405,0.100000,0.100000,-0.236316,-0.179583,-0.050000,-0.050000,0.334578,-0.302558,0.000000,0.000000,-0.537253,0.414380,1.121719,1.295097,0.082465,-0.011983,-0.042708,0.036875,0.024765,-0.088831
-0.050000,-0.050000,-0.090405,0.000000,0.000000,0.002150,0.000000,0.000000,0.304601,0.100000,0.100000,-0.239751,-0.184757,-0.050000,-0.050000,0.333843,-0.306271,0.000000,0.000000,-0.540040,0.414764,1.112489,1.289127,0.083089,-0.011551,-0.045956,0.034481,0.025598,-0.091970
-0.050000,-0.050000,-0.088282,0.000000,0.000000,0.004004,0.000000,0.000000,0.301822,0.100000,0.100000,-0.243039,-0.190150,-0.050000,-0.050000,0.333057,-0.309997,0.000000,0.000000,-0.542409,0.415511,1.103797,1.282812,0.083351,-0.011572,-0.049266,0.031996,0.026840,-0.094828
-0.050000,-0.050000,-0.086268,0.000000,0.000000,0.006124,0.000000,0.000000,0.299090,0.100000,0.100000,-0.246085,-0.195921,-0.050000,-0.050000,0.332184,-0.313611,0.000000,0.000000,-0.544142,0.416791,1.096220,1.276095,0.082946,-0.012259,-0.052475,0.029374,0.028716,-0.097227
-0.050000,-0.050000,-0.084449,0.000000,0.000000,0.008451,0.000000,0.000000,0.296440,0.100000,0.100000,-0.248932,-0.201977,-0.050000,-0.050000,0.331102,-0.317060,0.000000,0.000000,-0.545305,0.418461,1.089976,1.269293,0.081898,-0.013348,-0.055415,0.026785,0.031071,-0.099149
-0.050000,-0.050000,-0.082816,0.000000,0.000000,0.010960,0.000000,0.000000,0.293874,0.100000,0.100000,-0.251635,-0.208296,-0.050000,-0.050000,0.329780,-0.320345,0.000000,0.000000,-0.545983,0.420456,1.085027,1.262498,0.080277,-0.014693,-0.058070,0.024255,0.033809,-0.100623
-0.050000,-0.050000,-0.081459,0.000000,0.000000,0.013762,0.000000,0.000000,0.291506,0.100000,0.100000,-0.254010,-0.214922,-0.050000,-0.050000,0.328047,-0.323261,0.000000,0.000000,-0.545965,0.422741,1.082374,1.255932,0.077679,-0.016062,-0.059884,0.021948,0.036904,-0.101272
-0.050000,-0.050000,-0.080335,0.000000,0.000000,0.016710,0.000000,0.000000,0.289270,0.100000,0.100000,-0.256331,-0.221748,-0.050000,-0.050000,0.325950,-0.326013,0.000000,0.000000,-0.545601,0.425178,1.081129,1.249582,0.074573,-0.017206,-0.061277,0.019795,0.040128,-0.101388
-0.050000,-0.050000,-0.079486,0.000000,0.000000,0.019908,0.000000,0.000000,0.287297,0.100000,0.100000,-0.258380,-0.228749,-0.050000,-0.050000,0.323398,-0.328441,0.000000,0.000000,-0.544734,0.427627,1.082022,1.243572,0.070648,-0.017723,-0.061740,0.017906,0.043345,-0.100616
-0.050000,-0.050000,-0.078882,0.000000,0.000000,0.023292,0.000000,0.000000,0.285579,0.100000,0.100000,-0.260293,-0.235843,-0.050000,-0.050000,0.320431,-0.330675,0.000000,0.000000,-0.543529,0.429962,1.084542,1.237819,0.066123,-0.017292,-0.061492,0.016203,0.046392,-0.099034
-0.050000,-0.050000,-0.078468,0.000000,0.000000,0.026846,0.000000,0.000000,0.284112,0.100000,0.100000,-0.262089,-0.242983,-0.050000,-0.050000,0.317127,-0.332780,0.000000,0.000000,-0.542040,0.432129,1.088389,1.232242,0.061082,-0.015847,-0.060635,0.014642,0.049219,-0.096712
-0.050000,-0.050000,-0.078303,0.000000,0.000000,0.030636,0.000000,0.000000,0.283092,0.100000,0.100000,-0.263571,-0.249997,-0.050000,-0.050000,0.313481,-0.334734,0.000000,0.000000,-0.540109,0.433682,1.093730,1.226717,0.055317,-0.012290,-0.058900,0.013175,0.051500,-0.093226
-0.050000,-0.050000,-0.078234,0.000000,0.000000,0.034558,0.000000,0.000000,0.282332,0.100000,0.100000,-0.265020,-0.256930,-0.050000,-0.050000,0.309693,-0.336776,0.000000,0.000000,-0.537944,0.434889,1.099591,1.221060,0.049152,-0.007282,-0.056875,0.011693,0.053444,-0.089075
-0.050000,-0.050000,-0.078302,0.000000,0.000000,0.038677,0.000000,0.000000,0.282027,0.100000,0.100000,-0.266207,-0.263595,-0.050000,-0.050000,0.305858,-0.338915,0.000000,0.000000,-0.535288,0.435224,1.105850,1.215025,0.042350,0.000232,-0.054452,0.010087,0.054816,-0.083948
-0.050000,-0.050000,-0.078405,0.000000,0.000000,0.042937,0.000000,0.000000,0.282087,0.100000,0.100000,-0.267284,-0.269999,-0.050000,-0.050000,0.302179,-0.341346,0.000000,0.000000,-0.532156,0.434764,1.111776,1.208386,0.034963,0.010037,-0.052016,0.008268,0.055766,-0.078140
-0.050000,-0.050000,-0.078520,0.000000,0.000000,0.047320,0.000000,0.000000,0.282489,0.100000,0.100000,-0.268242,-0.276132,-0.050000,-0.050000,0.298751,-0.344098,0.000000,0.000000,-0.528534,0.433519,1.117126,1.201072,0.026983,0.021989,-0.049647,0.006245,0.056359,-0.071790
-0.050000,-0.050000,-0.078612,0.000000,0.000000,0.051851,0.000000,0.000000,0.283367,0.100000,0.100000,-0.269112,-0.281846,-0.050000,-0.050000,0.295944,-0.347462,0.000000,0.000000,-0.523844,0.430759,1.120843,1.192443,0.017862,0.037336,-0.047808,0.003701,0.056666,-0.064986
-0.050000,-0.050000,-0.078639,0.000000,0.000000,0.056448,0.000000,0.000000,0.284531,0.100000,0.100000,-0.269982,-0.287304,-0.050000,-0.050000,0.293701,-0.351349,0.000000,0.000000,-0.518528,0.427206,1.123194,1.182840,0.007893,0.054683,-0.046323,0.000926,0.056865,-0.058087
-0.050000,-0.050000,-0.078590,0.000000,0.000000,0.061123,0.000000,0.000000,0.286070,0.100000,0.100000,-0.270969,-0.292410,-0.050000,-0.050000,0.292372,-0.356015,0.000000,0.000000,-0.511860,0.422045,1.123176,1.171665,-0.003654,0.075176,-0.045686,-0.002403,0.057179,-0.051393
-0.050000,-0.050000,-0.078449,0.000000,0.000000,0.065813,0.000000,0.000000,0.287892,0.100000,0.100000,-0.272171,-0.297266,-0.050000,-0.050000,0.291980,-0.361437,0.000000,0.000000,-0.504003,0.415608,1.120899,1.159058,-0.016835,0.098131,-0.045761,-0.006128,0.057783,-0.045275
-0.050000,-0.050000,-0.078236,0.000000,0.000000,0.070495,0.000000,0.000000,0.289963,0.100000,0.100000,-0.273613,-0.301901,-0.050000,-0.050000,0.292480,-0.367528,0.000000,0.000000,-0.494967,0.407943,1.116466,1.145098,-0.031684,0.123318,-0.046506,-0.010224,0.058756,-0.039891
-0.050000,-0.050000,-0.077932,0.000000,0.000000,0.075095,0.000000,0.000000,0.292232,0.100000,0.100000,-0.275718,-0.306321,-0.050000,-0.050000,0.294311,-0.374669,0.000000,0.000000,-0.483812,0.398189,1.108895,1.129199,-0.049519,0.151673,-0.048393,-0.015021,0.060693,-0.036277
-0.050000,-0.050000,-0.077582,0.000000,0.000000,0.079604,0.000000,0.000000,0.294698,0.100000,0.100000,-0.278174,-0.310591,-0.050000,-0.050000,0.296981,-0.382337,0.000000,0.000000,-0.471587,0.387390,1.099473,1.112087,-0.069272,0.181758,-0.050735,-0.020131,0.063205,-0.033948
-0.050000,-0.050000,-0.077192,0.000000,0.000000,0.083925,0.000000,0.000000,0.297214,0.100000,0.100000,-0.281435,-0.314693,-0.050000,-0.050000,0.300814,-0.390860,0.000000,0.000000,-0.457256,0.374564,1.087465,1.093286,-0.092283,0.214497,-0.054026,-0.025972,0.066938,-0.034044
-0.050000,-0.050000,-0.076794,0.000000,0.000000,0.088037,0.000000,0.000000,0.299791,0.100000,0.100000,-0.285305,-0.318636,-0.050000,-0.050000,0.305483,-0.399882,0.000000,0.000000,-0.441497,0.360317,1.073738,1.073216,-0.117925,0.249077,-0.057856,-0.032379,0.071652,-0.036337
-0.050000,-0.050000,-0.076399,0.000000,0.000000,0.091924,0.000000,0.000000,0.302364,0.100000,0.100000,-0.289743,-0.322397,-0.050000,-0.050000,0.310825,-0.409256,0.000000,0.000000,-0.424412,0.344724,1.058611,1.052033,-0.145977,0.285237,-0.062250,-0.039457,0.077320,-0.040778
-0.050000,-0.050000,-0.076051,0.000000,0.000000,0.095423,0.000000,0.000000,0.304735,0.100000,0.100000,-0.294998,-0.325895,-0.050000,-0.050000,0.316908,-0.419088,0.000000,0.000000,-0.405509,0.327187,1.042189,1.029597,-0.177281,0.323400,-0.067325,-0.047487,0.084373,-0.048438
-0.050000,-0.050000,-0.075718,0.000000,0.000000,0.098671,0.000000,0.000000,0.307061,0.100000,0.100000,-0.300575,-0.329129,-0.050000,-0.050000,0.323260,-0.428853,0.000000,0.000000,-0.385992,0.308835,1.025332,1.006439,-0.210119,0.362337,-0.072800,-0.056251,0.092086,-0.057884
-0.050000,-0.050000,-0.075456,0.000000,0.000000,0.101486,0.000000,0.000000,0.309062,0.100000,0.100000,-0.306613,-0.331973,-0.050000,-0.050000,0.329886,-0.438653,0.000000,0.000000,-0.365394,0.289068,1.008312,0.982548,-0.245012,0.402373,-0.078819,-0.066035,0.100801,-0.069991
-0.050000,-0.050000,-0.075229,0.000000,0.000000,0.103962,0.000000,0.000000,0.310839,0.100000,0.100000,-0.312757,-0.334403,-0.050000,-0.050000,0.336473,-0.448136,0.000000,0.000000,-0.344600,0.268696,0.991757,0.958287,-0.280649,0.442627,-0.085217,-0.076670,0.109985,-0.083707
-0.050000,-0.050000,-0.075035,0.000000,0.000000,0.106108,0.000000,0.000000,0.312331,0.100000,0.100000,-0.318899,-0.336388,-0.050000,-0.050000,0.342906,-0.457228,0.000000,0.000000,-0.323755,0.247848,0.975922,0.933845,-0.316596,0.482809,-0.092020,-0.088188,0.119489,-0.098685
-0.050000,-0.050000,-0.074909,0.000000,0.000000,0.107804,0.000000,0.000000,0.313435,0.100000,0.100000,-0.324704,-0.337773,-0.050000,-0.050000,0.348933,-0.465739,0.000000,0.000000,-0.303477,0.226930,0.961856,0.909732,-0.351787,0.522311,-0.098897,-0.100325,0.129057,-0.114702
-0.050000,-0.050000,-0.074771,0.000000,0.000000,0.109256,0.000000,0.000000,0.314261,0.100000,0.100000,-0.330185,-0.338678,-0.050000,-0.050000,0.354522,-0.473598,0.000000,0.000000,-0.283909,0.206303,0.949220,0.885999,-0.385852,0.560795,-0.105994,-0.113039,0.138408,-0.130822
-0.050000,-0.050000,-0.074672,0.000000,0.000000,0.110335,0.000000,0.000000,0.314762,0.100000,0.100000,-0.334914,-0.338956,-0.050000,-0.050000,0.359415,-0.480646,0.000000,0.000000,-0.265818,0.186562,0.939246,0.863439,-0.417454,0.597485,-0.112740,-0.125783,0.147235,-0.146675
-0.050000,-0.050000,-0.074559,0.000000,0.000000,0.111181,0.000000,0.000000,0.314993,0.100000,0.100000,-0.338939,-0.338711,-0.050000,-0.050000,0.363585,-0.486862,0.000000,0.000000,-0.249276,0.167997,0.931772,0.842288,-0.446316,0.632099,-0.119151,-0.138361,0.155363,-0.161631
-0.050000,-0.050000,-0.074438,0.000000,0.000000,0.111817,0.000000,0.000000,0.314984,0.100000,0.100000,-0.342217,-0.338003,-0.050000,-0.050000,0.367020,-0.492286,0.000000,0.000000,-0.234379,0.150776,0.926913,0.822833,-0.472212,0.664489,-0.125047,-0.150519,0.162721,-0.175463
-0.050000,-0.050000,-0.074305,0.000000,0.000000,0.112225,0.000000,0.000000,0.314872,0.100000,0.100000,-0.344301,-0.336734,-0.050000,-0.050000,0.369360,-0.496659,0.000000,0.000000,-0.222360,0.136205,0.926054,0.806613,-0.493194,0.693188,-0.129556,-0.161066,0.168806,-0.187263
-0.050000,-0.050000,-0.074151,0.000000,0.000000,0.112525,0.000000,0.000000,0.314523,0.100000,0.100000,-0.345741,-0.335231,-0.050000,-0.050000,0.370922,-0.500320,0.000000,0.000000,-0.211993,0.123295,0.927812,0.792888,-0.510896,0.719295,-0.133352,-0.170625,0.174025,-0.197489
-0.050000,-0.050000,-0.073974,0.000000,0.000000,0.112693,0.000000,0.000000,0.314223,0.100000,0.100000,-0.346015,-0.333371,-0.050000,-0.050000,0.371315,-0.502992,0.000000,0.000000,-0.204891,0.113745,0.933730,0.783643,-0.523078,0.740933,-0.135286,-0.177619,0.177808,-0.205266
-0.050000,-0.050000,-0.073782,0.000000,0.000000,0.112806,0.000000,0.000000,0.313814,0.100000,0.100000,-0.345545,-0.331480,-0.050000,-0.050000,0.370741,-0.504920,0.000000,0.000000,-0.200136,0.106824,0.942795,0.778556,-0.530837,0.758729,-0.135862,-0.182444,0.180448,-0.210998
-0.050000,-0.050000,-0.073589,0.000000,0.000000,0.112883,0.000000,0.000000,0.313401,0.100000,0.100000,-0.344339,-0.329660,-0.050000,-0.050000,0.369216,-0.506157,0.000000,0.000000,-0.197846,0.102712,0.954893,0.777901,-0.534111,0.772496,-0.134951,-0.184844,0.181933,-0.214740
-0.050000,-0.050000,-0.073371,0.000000,0.000000,0.112960,0.000000,0.000000,0.313143,0.100000,0.100000,-0.342177,-0.327938,-0.050000,-0.050000,0.366464,-0.506500,0.000000,0.000000,-0.199250,0.102852,0.970696,0.783788,-0.531114,0.780004,-0.131803,-0.183360,0.181758,-0.215968
-0.050000,-0.050000,-0.073186,0.000000,0.000000,0.113061,0.000000,0.000000,0.312770,0.100000,0.100000,-0.339524,-0.326723,-0.050000,-0.050000,0.362870,-0.506286,0.000000,0.000000,-0.202516,0.105355,0.988565,0.794164,-0.524166,0.783348,-0.127540,-0.179613,0.180567,-0.215578
-0.050000,-0.050000,-0.072991,0.000000,0.000000,0.113223,0.000000,0.000000,0.312600,0.100000,0.100000,-0.336025,-0.325835,-0.050000,-0.050000,0.358145,-0.505212,0.000000,0.000000,-0.209446,0.112210,1.009137,0.811390,-0.510966,0.779450,-0.121251,-0.171813,0.177622,-0.212957
-0.050000,-0.050000,-0.072833,0.000000,0.000000,0.113453,0.000000,0.000000,0.312377,0.100000,0.100000,-0.331935,-0.325562,-0.050000,-0.050000,0.352553,-0.503423,0.000000,0.000000,-0.218578,0.121879,1.031111,0.833753,-0.493195,0.769694,-0.113860,-0.161333,0.173374,-0.208708
-0.050000,-0.050000,-0.072708,0.000000,0.000000,0.113756,0.000000,0.000000,0.312201,0.100000,0.100000,-0.327192,-0.325763,-0.050000,-0.050000,0.346131,-0.500819,0.000000,0.000000,-0.230002,0.134451,1.054110,0.860989,-0.470894,0.753736,-0.105467,-0.148285,0.167761,-0.202864
-0.050000,-0.050000,-0.072593,0.000000,0.000000,0.114148,0.000000,0.000000,0.312105,0.100000,0.100000,-0.321593,-0.326184,-0.050000,-0.050000,0.338858,-0.497183,0.000000,0.000000,-0.244320,0.150593,1.077516,0.893722,-0.443130,0.729361,-0.096074,-0.132153,0.160282,-0.195183
-0.050000,-0.050000,-0.072540,0.000000,0.000000,0.114586,0.000000,0.000000,0.311911,0.100000,0.100000,-0.315286,-0.326869,-0.050000,-0.050000,0.330989,-0.492570,0.000000,0.000000,-0.259775,0.168322,1.100668,0.929348,-0.412256,0.699584,-0.086527,-0.114941,0.151731,-0.186247
-0.050000,-0.050000,-0.072505,0.000000,0.000000,0.115054,0.000000,0.000000,0.311764,0.100000,0.100000,-0.308041,-0.327124,-0.050000,-0.050000,0.322544,-0.486764,0.000000,0.000000,-0.277259,0.188606,1.122821,0.968340,-0.377296,0.661907,-0.076827,-0.096071,0.141464,-0.175727
-0.050000,-0.050000,-0.072527,0.000000,0.000000,0.115493,0.000000,0.000000,0.311501,0.100000,0.100000,-0.299916,-0.326809,-0.050000,-0.050000,0.313760,-0.479833,0.000000,0.000000,-0.295293,0.209698,1.143604,1.008500,-0.340316,0.619111,-0.067568,-0.077220,0.130202,-0.164153
-0.050000,-0.050000,-0.072583,0.000000,0.000000,0.115861,0.000000,0.000000,0.311168,0.100000,0.100000,-0.290934,-0.325481,-0.050000,-0.050000,0.304768,-0.471807,0.000000,0.000000,-0.313798,0.231412,1.162741,1.049104,-0.301855,0.571685,-0.058924,-0.058796,0.118029,-0.151679
-0.050000,-0.050000,-0.072697,0.000000,0.000000,0.116050,0.000000,0.000000,0.310738,0.100000,0.100000,-0.281067,-0.322373,-0.050000,-0.050000,0.295781,-0.462799,0.000000,0.000000,-0.331939,0.252809,1.179332,1.088652,-0.263276,0.520590,-0.051364,-0.041612,0.105165,-0.138709
-0.050000,-0.050000,-0.072840,0.000000,0.000000,0.116068,0.000000,0.000000,0.310157,0.100000,0.100000,-0.270448,-0.317703,-0.050000,-0.050000,0.286923,-0.453023,0.000000,0.000000,-0.349512,0.273380,1.194107,1.126573,-0.225375,0.468061,-0.044702,-0.026067,0.092148,-0.125664
-0.050000,-0.050000,-0.073061,0.000000,0.000000,0.115760,0.000000,0.000000,0.309442,0.100000,0.100000,-0.259233,-0.310651,-0.050000,-0.050000,0.278416,-0.442791,0.000000,0.000000,-0.365405,0.291980,1.206078,1.161233,-0.189984,0.415754,-0.039428,-0.012880,0.079365,-0.113184
-0.050000,-0.050000,-0.073318,0.000000,0.000000,0.115159,0.000000,0.000000,0.308568,0.100000,0.100000,-0.247569,-0.301571,-0.050000,-0.050000,0.270347,-0.432378,0.000000,0.000000,-0.379763,0.308494,1.216040,1.192556,-0.157456,0.365376,-0.035166,-0.001890,0.067210,-0.101626
-0.050000,-0.050000,-0.073614,0.000000,0.000000,0.114238,0.000000,0.000000,0.307543,0.100000,0.100000,-0.235673,-0.290501,-0.050000,-0.050000,0.262767,-0.422043,0.000000,0.000000,-0.392304,0.322618,1.224034,1.220222,-0.128407,0.318044,-0.031894,0.006963,0.055936,-0.091296
-0.050000,-0.050000,-0.074018,0.000000,0.000000,0.112889,0.000000,0.000000,0.306335,0.100000,0.100000,-0.223881,-0.277376,-0.050000,-0.050000,0.255916,-0.412300,0.000000,0.000000,-0.401902,0.332992,1.229903,1.242967,-0.104777,0.276815,-0.029698,0.013240,0.046345,-0.082983
-0.050000,-0.050000,-0.074404,0.000000,0.000000,0.111291,0.000000,0.000000,0.305033,0.100000,0.100000,-0.212233,-0.262910,-0.050000,-0.050000,0.249606,-0.403051,0.000000,0.000000,-0.410100,0.341281,1.234568,1.262351,-0.084700,0.239977,-0.027994,0.018144,0.037913,-0.076114
-0.050000,-0.050000,-0.074897,0.000000,0.000000,0.109308,0.000000,0.000000,0.303525,0.100000,0.100000,-0.201210,-0.247257,-0.050000,-0.050000,0.244136,-0.394908,0.000000,0.000000,-0.415240,0.345555,1.237752,1.276961,-0.070546,0.211128,-0.026993,0.020993,0.031662,-0.071518
-0.050000,-0.050000,-0.075368,0.000000,0.000000,0.107138,0.000000,0.000000,0.301959,0.100000,0.100000,-0.190852,-0.231096,-0.050000,-0.050000,0.239308,-0.387669,0.000000,0.000000,-0.418980,0.347688,1.240202,1.288388,-0.060243,0.187934,-0.026224,0.022881,0.026914,-0.068434
-0.050000,-0.050000,-0.075851,0.000000,0.000000,0.104805,0.000000,0.000000,0.300297,0.100000,0.100000,-0.181333,-0.214845,-0.050000,-0.050000,0.235139,-0.381442,0.000000,0.000000,-0.421103,0.347482,1.242066,1.296821,-0.053826,0.170646,-0.025662,0.023849,0.023774,-0.066800
-0.050000,-0.050000,-0.076338,0.000000,0.000000,0.102380,0.000000,0.000000,0.298498,0.100000,0.100000,-0.173106,-0.199318,-0.050000,-0.050000,0.231856,-0.376566,0.000000,0.000000,-0.421682,0.344926,1.243573,1.302311,-0.051432,0.159955,-0.025213,0.023958,0.022490,-0.066561
-0.050000,-0.050000,-0.076774,0.000000,0.000000,0.099984,0.000000,0.000000,0.296766,0.100000,0.100000,-0.165907,-0.184547,-0.050000,-0.050000,0.229082,-0.372523,0.000000,0.000000,-0.421811,0.341512,1.244998,1.306205,-0.051130,0.152917,-0.024739,0.023829,0.022192,-0.066970
-0.050000,-0.050000,-0.077182,0.000000,0.000000,0.097690,0.000000,0.000000,0.294898,0.100000,0.100000,-0.160316,-0.171640,-0.050000,-0.050000,0.227255,-0.369824,0.000000,0.000000,-0.421271,0.336846,1.246442,1.308232,-0.053343,0.150685,-0.024260,0.023240,0.023302,-0.068065
-0.050000,-0.050000,-0.077533,0.000000,0.000000,0.095576,0.000000,0.000000,0.293135,0.100000,0.100000,-0.156050,-0.160424,-0.050000,-0.050000,0.226001,-0.367942,0.000000,0.000000,-0.420891,0.332137,1.248000,1.309424,-0.056499,0.150743,-0.023729,0.022606,0.025029,-0.069271
-0.050000,-0.050000,-0.077848,0.000000,0.000000,0.093674,0.000000,0.000000,0.291394,0.100000,0.100000,-0.153168,-0.151233,-0.050000,-0.050000,0.225414,-0.366903,0.000000,0.000000,-0.420732,0.327464,1.249680,1.309931,-0.060277,0.152758,-0.023184,0.021873,0.027296,-0.070475
-0.050000,-0.050000,-0.078110,0.000000,0.000000,0.092109,0.000000,0.000000,0.289643,0.100000,0.100000,-0.151955,-0.144789,-0.050000,-0.050000,0.225664,-0.366726,0.000000,0.000000,-0.421377,0.323479,1.251424,1.309921,-0.063885,0.155995,-0.022679,0.021069,0.029835,-0.071411
-0.050000,-0.050000,-0.078370,0.000000,0.000000,0.090768,0.000000,0.000000,0.288049,0.100000,0.100000,-0.151899,-0.140245,-0.050000,-0.050000,0.226375,-0.366981,0.000000,0.000000,-0.422555,0.320071,1.253177,1.309786,-0.067094,0.159692,-0.022223,0.020256,0.032359,-0.072072
-0.050000,-0.050000,-0.078604,0.000000,0.000000,0.089817,0.000000,0.000000,0.286418,0.100000,0.100000,-0.153446,-0.138632,-0.050000,-0.050000,0.227926,-0.367799,0.000000,0.000000,-0.425031,0.317907,1.254725,1.309318,-0.069082,0.163478,-0.021960,0.019317,0.034653,-0.072302
-0.050000,-0.050000,-0.078866,0.000000,0.000000,0.089092,0.000000,0.000000,0.284930,0.100000,0.100000,-0.156068,-0.138956,-0.050000,-0.050000,0.229943,-0.368790,0.000000,0.000000,-0.428286,0.316570,1.256001,1.308775,-0.070001,0.167123,-0.021879,0.018291,0.036577,-0.072229
-0.050000,-0.050000,-0.079156,0.000000,0.000000,0.088610,0.000000,0.000000,0.283489,0.100000,0.100000,-0.159747,-0.141259,-0.050000,-0.050000,0.232494,-0.369899,0.000000,0.000000,-0.432521,0.316186,1.256862,1.308028,-0.069620,0.170503,-0.022051,0.017108,0.038042,-0.071893
-0.050000,-0.050000,-0.079494,0.000000,0.000000,0.088372,0.000000,0.000000,0.282065,0.100000,0.100000,-0.164493,-0.145556,-0.050000,-0.050000,0.235602,-0.370946,0.000000,0.000000,-0.437950,0.316847,1.256976,1.306904,-0.067570,0.173526,-0.022632,0.015681,0.038835,-0.071380
-0.050000,-0.050000,-0.079878,0.000000,0.000000,0.088226,0.000000,0.000000,0.280740,0.100000,0.100000,-0.169869,-0.150996,-0.050000,-0.050000,0.239040,-0.371844,0.000000,0.000000,-0.443947,0.318022,1.256525,1.305604,-0.064497,0.176379,-0.023474,0.014109,0.039151,-0.070819
-0.050000,-0.050000,-0.080331,0.000000,0.000000,0.088229,0.000000,0.000000,0.279396,0.100000,0.100000,-0.176056,-0.157838,-0.050000,-0.050000,0.242917,-0.372427,0.000000,0.000000,-0.451049,0.319997,1.254969,1.303745,-0.059834,0.178963,-0.024855,0.012252,0.038733,-0.070325
-0.050000,-0.050000,-0.080824,0.000000,0.000000,0.088236,0.000000,0.000000,0.278130,0.100000,0.100000,-0.182649,-0.165297,-0.050000,-0.050000,0.247040,-0.372695,0.000000,0.000000,-0.458594,0.322265,1.252584,1.301600,-0.054328,0.181430,-0.026560,0.010272,0.037853,-0.069980
-0.050000,-0.050000,-0.081360,0.000000,0.000000,0.088242,0.000000,0.000000,0.276891,0.100000,0.100000,-0.189632,-0.173257,-0.050000,-0.050000,0.251382,-0.372600,0.000000,0.000000,-0.466693,0.324863,1.249209,1.299058,-0.047976,0.183723,-0.028662,0.008159,0.036516,-0.069842
-0.050000,-0.050000,-0.081929,0.000000,0.000000,0.088189,0.000000,0.000000,0.275702,0.100000,0.100000,-0.196938,-0.181412,-0.050000,-0.050000,0.255874,-0.372056,0.000000,0.000000,-0.475266,0.327725,1.244589,1.296105,-0.040932,0.185702,-0.031231,0.005981,0.034776,-0.070015
-0.050000,-0.050000,-0.082495,0.000000,0.000000,0.088052,0.000000,0.000000,0.274571,0.100000,0.100000,-0.204376,-0.189529,-0.050000,-0.050000,0.260473,-0.371193,0.000000,0.000000,-0.484054,0.330721,1.239109,1.292920,-0.033583,0.187347,-0.034044,0.003836,0.032831,-0.070417
-0.050000,-0.050000,-0.083052,0.000000,0.000000,0.087775,0.000000,0.000000,0.273535,0.100000,0.100000,-0.212027,-0.197360,-0.050000,-0.050000,0.265079,-0.369876,0.000000,0.000000,-0.493136,0.334009,1.232233,1.289445,-0.025958,0.188204,-0.037310,0.001799,0.030718,-0.071148
-0.050000,-0.050000,-0.083569,0.000000,0.000000,0.087360,0.000000,0.000000,0.272588,0.100000,0.100000,-0.219712,-0.204822,-0.050000,-0.050000,0.269703,-0.368266,0.000000,0.000000,-0.502299,0.337506,1.224424,1.285841,-0.018340,0.188242,-0.040771,-0.000060,0.028601,-0.072076
-0.050000,-0.050000,-0.084033,0.000000,0.000000,0.086786,0.000000,0.000000,0.271751,0.100000,0.100000,-0.227467,-0.211807,-0.050000,-0.050000,0.274270,-0.366355,0.000000,0.000000,-0.511534,0.341324,1.215571,1.282141,-0.010807,0.187183,-0.044471,-0.001696,0.026552,-0.073173
-0.050000,-0.050000,-0.084399,0.000000,0.000000,0.086004,0.000000,0.000000,0.271085,0.100000,0.100000,-0.235280,-0.218123,-0.050000,-0.050000,0.278705,-0.364154,0.000000,0.000000,-0.520740,0.345669,1.205583,1.278438,-0.003531,0.184464,-0.048399,-0.002999,0.024727,-0.074361
-0.050000,-0.050000,-0.084705,0.000000,0.000000,0.085070,0.000000,0.000000,0.270518,0.100000,0.100000,-0.243056,-0.223954,-0.050000,-0.050000,0.283055,-0.361762,0.000000,0.000000,-0.529878,0.350366,1.194874,1.274724,0.003506,0.180472,-0.052401,-0.004051,0.023105,-0.075573
-0.050000,-0.050000,-0.084847,0.000000,0.000000,0.083878,0.000000,0.000000,0.270182,0.100000,0.100000,-0.250856,-0.228968,-0.050000,-0.050000,0.287135,-0.359133,0.000000,0.000000,-0.538791,0.355852,1.183183,1.271147,0.010079,0.174234,-0.056543,-0.004691,0.021928,-0.076690
-0.050000,-0.050000,-0.084912,0.000000,0.000000,0.082513,0.000000,0.000000,0.269964,0.100000,0.100000,-0.258533,-0.233452,-0.050000,-0.050000,0.291017,-0.356351,0.000000,0.000000,-0.547446,0.361795,1.171032,1.267648,0.016279,0.166458,-0.060647,-0.005061,0.021113,-0.077697
-0.050000,-0.050000,-0.084851,0.000000,0.000000,0.080943,0.000000,0.000000,0.269910,0.100000,0.100000,-0.266097,-0.237320,-0.050000,-0.050000,0.294592,-0.353412,0.000000,0.000000,-0.555727,0.368326,1.158507,1.264323,0.022019,0.156952,-0.064696,-0.005131,0.020758,-0.078528
-0.050000,-0.050000,-0.084630,0.000000,0.000000,0.079135,0.000000,0.000000,0.270043,0.100000,0.100000,-0.273399,-0.240523,-0.050000,-0.050000,0.297714,-0.350297,0.000000,0.000000,-0.563384,0.375447,1.145964,1.261289,0.027148,0.145662,-0.068538,-0.004891,0.021006,-0.079114
-0.050000,-0.050000,-0.084350,0.000000,0.000000,0.077182,0.000000,0.000000,0.270265,0.100000,0.100000,-0.280421,-0.243308,-0.050000,-0.050000,0.300459,-0.347057,0.000000,0.000000,-0.570517,0.382862,1.133649,1.258484,0.031838,0.133328,-0.072156,-0.004461,0.021699,-0.079540
-0.050000,-0.050000,-0.083870,0.000000,0.000000,0.074979,0.000000,0.000000,0.270686,0.100000,0.100000,-0.286868,-0.245444,-0.050000,-0.050000,0.302494,-0.343601,0.000000,0.000000,-0.576579,0.390622,1.122173,1.256224,0.035709,0.119730,-0.075239,-0.003733,0.023126,-0.079703
-0.050000,-0.050000,-0.083345,0.000000,0.000000,0.072658,0.000000,0.000000,0.271167,0.100000,0.100000,-0.292778,-0.247245,-0.050000,-0.050000,0.303953,-0.339995,0.000000,0.000000,-0.581813,0.398399,1.111674,1.254391,0.039021,0.105732,-0.077854,-0.002849,0.025045,-0.079744
-0.050000,-0.050000,-0.082707,0.000000,0.000000,0.070194,0.000000,0.000000,0.271752,0.100000,0.100000,-0.297977,-0.248669,-0.050000,-0.050000,0.304701,-0.336205,0.000000,0.000000,-0.585962,0.406086,1.102551,1.253147,0.041619,0.091553,-0.079822,-0.001770,0.027504,-0.079658
-0.050000,-0.050000,-0.081956,0.000000,0.000000,0.067607,0.000000,0.000000,0.272436,0.100000,0.100000,-0.302144,-0.249764,-0.050000,-0.050000,0.304582,-0.332193,0.000000,0.000000,-0.588702,0.413355,1.095465,1.252671,0.043324,0.077796,-0.080858,-0.000464,0.030481,-0.079498
-0.050000,-0.050000,-0.081175,0.000000,0.000000,0.064978,0.000000,0.000000,0.273146,0.100000,0.100000,-0.305580,-0.250696,-0.050000,-0.050000,0.303787,-0.328053,0.000000,0.000000,-0.590468,0.420311,1.089991,1.252755,0.044429,0.064609,-0.081275,0.000961,0.033787,-0.079313
-0.050000,-0.050000,-0.080260,0.000000,0.000000,0.062278,0.000000,0.000000,0.273965,0.100000,0.100000,-0.307517,-0.251423,-0.050000,-0.050000,0.302022,-0.323690,0.000000,0.000000,-0.590439,0.426326,1.087355,1.253749,0.044408,0.052884,-0.080420,0.002655,0.037397,-0.079135
-0.050000,-0.050000,-0.079336,0.000000,0.000000,0.059604,0.000000,0.000000,0.274788,0.100000,0.100000,-0.308557,-0.252123,-0.050000,-0.050000,0.299591,-0.319258,0.000000,0.000000,-0.589378,0.431814,1.086621,1.255261,0.043741,0.042415,-0.078898,0.004443,0.041110,-0.078979
-0.050000,-0.050000,-0.078351,0.000000,0.000000,0.056959,0.000000,0.000000,0.275665,0.100000,0.100000,-0.308383,-0.252816,-0.050000,-0.050000,0.296495,-0.314764,0.000000,0.000000,-0.587009,0.436475,1.088115,1.257300,0.042249,0.033610,-0.076507,0.006366,0.044805,-0.078853
-0.050000,-0.050000,-0.077313,0.000000,0.000000,0.054392,0.000000,0.000000,0.276596,0.100000,0.100000,-0.306840,-0.253602,-0.050000,-0.050000,0.292822,-0.310299,0.000000,0.000000,-0.583327,0.440189,1.091867,1.259672,0.039919,0.026877,-0.073289,0.008363,0.048277,-0.078764
-0.050000,-0.050000,-0.076269,0.000000,0.000000,0.051919,0.000000,0.000000,0.277538,0.100000,0.100000,-0.304465,-0.254484,-0.050000,-0.050000,0.288793,-0.305943,0.000000,0.000000,-0.578880,0.443409,1.097027,1.262119,0.037105,0.021638,-0.069696,0.010343,0.051529,-0.078689
-0.050000,-0.050000,-0.075167,0.000000,0.000000,0.049602,0.000000,0.000000,0.278562,0.100000,0.100000,-0.300567,-0.255623,-0.050000,-0.050000,0.284506,-0.301835,0.000000,0.000000,-0.573287,0.445612,1.104067,1.264327,0.033605,0.018815,-0.065542,0.012208,0.054230,-0.078655
-0.050000,-0.050000,-0.074072,0.000000,0.000000,0.047434,0.000000,0.000000,0.279597,0.100000,0.100000,-0.295975,-0.256929,-0.050000,-0.050000,0.280164,-0.298031,0.000000,0.000000,-0.567295,0.447529,1.111880,1.266095,0.029919,0.017403,-0.061398,0.013893,0.056536,-0.078638
-0.050000,-0.050000,-0.072961,0.000000,0.000000,0.045449,0.000000,0.000000,0.280683,0.100000,0.100000,-0.290469,-0.258488,-0.050000,-0.050000,0.275908,-0.294626,0.000000,0.000000,-0.560888,0.448997,1.120424,1.267157,0.026105,0.017580,-0.057290,0.015300,0.058322,-0.078671
-0.050000,-0.050000,-0.071846,0.000000,0.000000,0.043698,0.000000,0.000000,0.281817,0.100000,0.100000,-0.284187,-0.260359,-0.050000,-0.050000,0.271942,-0.291772,0.000000,0.000000,-0.554408,0.450233,1.129270,1.267143,0.022492,0.019164,-0.053513,0.016273,0.059541,-0.078801
-0.050000,-0.050000,-0.070738,0.000000,0.000000,0.042128,0.000000,0.000000,0.282976,0.100000,0.100000,-0.277484,-0.262387,-0.050000,-0.050000,0.268237,-0.289376,0.000000,0.000000,-0.548026,0.451455,1.138127,1.266253,0.019184,0.021582,-0.050089,0.016938,0.060370,-0.079013
-0.050000,-0.050000,-0.069649,0.000000,0.000000,0.040883,0.000000,0.000000,0.284186,0.100000,0.100000,-0.270267,-0.264824,-0.050000,-0.050000,0.265124,-0.287752,0.000000,0.000000,-0.542154,0.452752,1.146727,1.263841,0.016686,0.024921,-0.047343,0.016952,0.060650,-0.079458
-0.050000,-0.050000,-0.068576,0.000000,0.000000,0.039855,0.000000,0.000000,0.285417,0.100000,0.100000,-0.262948,-0.267368,-0.050000,-0.050000,0.262397,-0.286666,0.000000,0.000000,-0.536761,0.454267,1.154990,1.260487,0.014883,0.028559,-0.045081,0.016641,0.060647,-0.080064
-0.050000,-0.050000,-0.067541,0.000000,0.000000,0.039108,0.000000,0.000000,0.286670,0.100000,0.100000,-0.255604,-0.270140,-0.050000,-0.050000,0.260182,-0.286220,0.000000,0.000000,-0.532098,0.456066,1.162830,1.256058,0.014030,0.032356,-0.043377,0.015892,0.060360,-0.080913
-0.050000,-0.050000,-0.066566,0.000000,0.000000,0.038674,0.000000,0.000000,0.287935,0.100000,0.100000,-0.248503,-0.273093,-0.050000,-0.050000,0.258518,-0.286450,0.000000,0.000000,-0.528374,0.458260,1.170188,1.250737,0.014312,0.035994,-0.042194,0.014771,0.059880,-0.082044
-0.050000,-0.050000,-0.065625,0.000000,0.000000,0.038470,0.000000,0.000000,0.289212,0.100000,0.100000,-0.241675,-0.276101,-0.050000,-0.050000,0.257204,-0.287149,0.000000,0.000000,-0.525307,0.460691,1.177219,1.244935,0.015394,0.039411,-0.041300,0.013477,0.059302,-0.083362
-0.050000,-0.050000,-0.064813,0.000000,0.000000,0.038641,0.000000,0.000000,0.290473,0.100000,0.100000,-0.235568,-0.279230,-0.050000,-0.050000,0.256502,-0.288558,0.000000,0.000000,-0.523452,0.463594,1.183785,1.238793,0.017752,0.042233,-0.040738,0.011993,0.058692,-0.084981
-0.050000,-0.050000,-0.064046,0.000000,0.000000,0.039036,0.000000,0.000000,0.291736,0.100000,0.100000,-0.230015,-0.282315,-0.050000,-0.050000,0.256074,-0.290343,0.000000,0.000000,-0.522198,0.466611,1.190103,1.232758,0.020722,0.044644,-0.040225,0.010543,0.058111,-0.086717
-0.050000,-0.050000,-0.063385,0.000000,0.000000,0.039702,0.000000,0.000000,0.292972,0.100000,0.100000,-0.225263,-0.285352,-0.050000,-0.050000,0.256035,-0.292570,0.000000,0.000000,-0.521734,0.469812,1.196117,1.227079,0.024371,0.046512,-0.039726,0.009183,0.057623,-0.088576
-0.050000,-0.050000,-0.062841,0.000000,0.000000,0.040627,0.000000,0.000000,0.294163,0.100000,0.100000,-0.221464,-0.288219,-0.050000,-0.050000,0.256367,-0.295186,0.000000,0.000000,-0.521930,0.473042,1.201783,1.222159,0.028443,0.047864,-0.039133,0.008056,0.057303,-0.090475
-0.050000,-0.050000,-0.062351,0.000000,0.000000,0.041727,0.000000,0.000000,0.295326,0.100000,0.100000,-0.218381,-0.290956,-0.050000,-0.050000,0.256944,-0.298039,0.000000,0.000000,-0.522519,0.476167,1.207135,1.217933,0.032653,0.048891,-0.038429,0.007104,0.057123,-0.092353
-0.050000,-0.050000,-0.062022,0.000000,0.000000,0.043070,0.000000,0.000000,0.296369,0.100000,0.100000,-0.216540,-0.293261,-0.050000,-0.050000,0.257983,-0.301248,0.000000,0.000000,-0.523575,0.479071,1.211836,1.215077,0.036808,0.049542,-0.037610,0.006564,0.057257,-0.094136
-0.050000,-0.050000,-0.061715,0.000000,0.000000,0.044529,0.000000,0.000000,0.297349,0.100000,0.100000,-0.215393,-0.295339,-0.050000,-0.050000,0.259272,-0.304597,0.000000,0.000000,-0.524788,0.481636,1.215978,1.213108,0.040677,0.050083,-0.036715,0.006189,0.057577,-0.095809
-0.050000,-0.050000,-0.061486,0.000000,0.000000,0.046109,0.000000,0.000000,0.298196,0.100000,0.100000,-0.215150,-0.296978,-0.050000,-0.050000,0.260929,-0.308135,0.000000,0.000000,-0.526110,0.483781,1.219304,1.212267,0.044096,0.050579,-0.035844,0.006062,0.058173,-0.097337
-0.050000,-0.050000,-0.061306,0.000000,0.000000,0.047771,0.000000,0.000000,0.298869,0.100000,0.100000,-0.215756,-0.298112,-0.050000,-0.050000,0.262963,-0.311826,0.000000,0.000000,-0.527393,0.485350,1.221571,1.212483,0.046845,0.051194,-0.035136,0.006096,0.059052,-0.098703
-0.050000,-0.050000,-0.061125,0.000000,0.000000,0.049469,0.000000,0.000000,0.299406,0.100000,0.100000,-0.216900,-0.298896,-0.050000,-0.050000,0.265291,-0.315601,0.000000,0.000000,-0.528638,0.486434,1.222944,1.213388,0.049024,0.051958,-0.034585,0.006154,0.060106,-0.099949
-0.050000,-0.050000,-0.060991,0.000000,0.000000,0.051188,0.000000,0.000000,0.299640,0.100000,0.100000,-0.218908,-0.298958,-0.050000,-0.050000,0.268026,-0.319515,0.000000,0.000000,-0.529585,0.486663,1.222744,1.215177,0.050212,0.053141,-0.034576,0.006224,0.061467,-0.101031
-0.050000,-0.050000,-0.060811,0.000000,0.000000,0.052888,0.000000,0.000000,0.299702,0.100000,0.100000,-0.221226,-0.298696,-0.050000,-0.050000,0.271004,-0.323462,0.000000,0.000000,-0.530413,0.486327,1.221532,1.217288,0.050769,0.054638,-0.034889,0.006141,0.062905,-0.102024
-0.050000,-0.050000,-0.060624,0.000000,0.000000,0.054549,0.000000,0.000000,0.299499,0.100000,0.100000,-0.223978,-0.297943,-0.050000,-0.050000,0.274197,-0.327447,0.000000,0.000000,-0.530944,0.485249,1.219055,1.219708,0.050545,0.056626,-0.035755,0.005885,0.064453,-0.102918
-0.050000,-0.050000,-0.060410,0.000000,0.000000,0.056148,0.000000,0.000000,0.299029,0.100000,0.100000,-0.227003,-0.296794,-0.050000,-0.050000,0.277486,-0.331414,0.000000,0.000000,-0.531154,0.483396,1.215397,1.222216,0.049574,0.059215,-0.037220,0.005369,0.066010,-0.103716
-0.050000,-0.050000,-0.060158,0.000000,0.000000,0.057689,0.000000,0.000000,0.298369,0.100000,0.100000,-0.230128,-0.295397,-0.050000,-0.050000,0.280798,-0.335336,0.000000,0.000000,-0.531152,0.480968,1.210952,1.224713,0.048076,0.062312,-0.039098,0.004638,0.067508,-0.104428
