RRGGZZ/g1_deploy_sonic/data/example_scalelab/qwen_50fps/case_test07/joint_pos.csv
joint_0,joint_1,joint_2,joint_3,joint_4,joint_5,joint_6,joint_7,joint_8,joint_9,joint_10,joint_11,joint_12,joint_13,joint_14,joint_15,joint_16,joint_17,joint_18,joint_19,joint_20,joint_21,joint_22,joint_23,joint_24,joint_25,joint_26,joint_27,joint_28
-0.050000,-0.050000,0.000000,0.000000,0.000000,0.000000,0.000000,0.000000,0.000000,0.100000,0.100000,-0.130753,-0.561738,-0.050000,-0.050000,0.435774,-0.774848,0.000000,0.000000,-0.425974,0.111952,1.132412,-0.025634,0.079210,-0.297899,-0.047424,-0.040864,0.049382,-0.629810
-0.050000,-0.050000,0.000000,0.000000,0.000000,0.000000,0.000000,0.000000,0.000000,0.100000,0.100000,-0.145336,-0.573015,-0.050000,-0.050000,0.417332,-0.782805,0.000000,0.000000,-0.426507,0.118022,1.161053,-0.010073,0.076690,-0.290337,-0.062393,-0.047286,0.053758,-0.635401
-0.050000,-0.050000,0.000000,0.000000,0.000000,0.000000,0.000000,0.000000,0.000000,0.100000,0.100000,-0.152217,-0.577174,-0.050000,-0.050000,0.405068,-0.786305,0.000000,0.000000,-0.424185,0.120560,1.177688,-0.000572,0.075198,-0.282572,-0.069999,-0.052586,0.055879,-0.636385
-0.050000,-0.050000,0.000000,0.000000,0.000000,0.000000,0.000000,0.000000,0.000000,0.100000,0.100000,-0.154773,-0.576989,-0.050000,-0.050000,0.396040,-0.787554,0.000000,0.000000,-0.420722,0.121394,1.187837,0.005592,0.074002,-0.275048,-0.073676,-0.056896,0.056708,-0.634537
-0.050000,-0.050000,0.000000,0.000000,0.000000,0.000000,0.000000,0.000000,0.000000,0.100000,0.100000,-0.154875,-0.574208,-0.050000,-0.050000,0.388724,-0.787582,0.000000,0.000000,-0.416869,0.121221,1.194508,0.009824,0.072876,-0.267739,-0.075255,-0.060522,0.056850,-0.631131
-0.050000,-0.050000,0.000000,0.000000,0.000000,0.000000,0.000000,0.000000,0.000000,0.100000,0.100000,-0.153684,-0.569227,-0.050000,-0.050000,0.382652,-0.787162,0.000000,0.000000,-0.412643,0.121077,1.198211,0.013211,0.071702,-0.260540,-0.075885,-0.063823,0.056780,-0.625716
-0.050000,-0.050000,0.000000,0.000000,0.000000,0.000000,0.000000,0.000000,0.000000,0.100000,0.100000,-0.151685,-0.563185,-0.050000,-0.050000,0.377397,-0.786513,0.000000,0.000000,-0.408298,0.120756,1.199932,0.016045,0.070454,-0.253451,-0.075994,-0.066935,0.056699,-0.619369
-0.050000,-0.050000,0.000000,0.000000,0.000000,0.000000,0.000000,0.000000,0.000000,0.100000,0.100000,-0.149323,-0.556171,-0.050000,-0.050000,0.373004,-0.785860,0.000000,0.000000,-0.403751,0.120725,1.199416,0.018736,0.069064,-0.246483,-0.076022,-0.069968,0.056906,-0.611992
-0.050000,-0.050000,0.000000,0.000000,0.000000,0.000000,0.000000,0.000000,0.000000,0.100000,0.100000,-0.146878,-0.548466,-0.050000,-0.050000,0.369675,-0.785239,0.000000,0.000000,-0.398966,0.121052,1.196058,0.021489,0.067402,-0.239640,-0.076346,-0.072999,0.057867,-0.604051
-0.050000,-0.050000,0.000000,0.000000,0.000000,0.000000,0.000000,0.000000,0.000000,0.100000,0.100000,-0.144149,-0.540451,-0.050000,-0.050000,0.367072,-0.784579,0.000000,0.000000,-0.394037,0.121540,1.190759,0.024323,0.065550,-0.232856,-0.076684,-0.076043,0.059268,-0.595837
-0.050000,-0.050000,0.000000,0.000000,0.000000,0.000000,0.000000,0.000000,0.000000,0.100000,0.100000,-0.141978,-0.531800,-0.050000,-0.050000,0.366186,-0.783821,0.000000,0.000000,-0.388702,0.122591,1.180787,0.027570,0.063108,-0.226083,-0.078119,-0.079159,0.062598,-0.587956
-0.050000,-0.050000,0.000000,0.000000,0.000000,0.000000,0.000000,0.000000,0.000000,0.100000,0.100000,-0.139618,-0.523083,-0.050000,-0.050000,0.366366,-0.782796,0.000000,0.000000,-0.383189,0.123703,1.167964,0.031106,0.060287,-0.219185,-0.079769,-0.082357,0.067001,-0.580655
-0.050000,-0.050000,0.000000,0.000000,0.000000,0.000000,0.000000,0.000000,0.000000,0.100000,0.100000,-0.137643,-0.514104,-0.050000,-0.050000,0.368040,-0.781377,0.000000,0.000000,-0.377350,0.125045,1.151062,0.035090,0.056911,-0.212034,-0.082197,-0.085638,0.073259,-0.574386
-0.050000,-0.050000,0.000000,0.000000,0.000000,0.000000,0.000000,0.000000,0.000000,0.100000,0.100000,-0.136181,-0.505031,-0.050000,-0.050000,0.371335,-0.779302,0.000000,0.000000,-0.371198,0.126446,1.129716,0.039612,0.052886,-0.204323,-0.085390,-0.088989,0.081744,-0.569760
-0.050000,-0.050000,0.000000,0.000000,0.000000,0.000000,0.000000,0.000000,0.000000,0.100000,0.100000,-0.134681,-0.496000,-0.050000,-0.050000,0.375739,-0.776748,0.000000,0.000000,-0.364816,0.127872,1.105431,0.044540,0.048494,-0.196261,-0.088779,-0.092427,0.091554,-0.566243
-0.050000,-0.050000,0.000000,0.000000,0.000000,0.000000,0.000000,0.000000,0.000000,0.100000,0.100000,-0.134589,-0.487012,-0.050000,-0.050000,0.382152,-0.773035,0.000000,0.000000,-0.358008,0.129288,1.075521,0.050250,0.043246,-0.186968,-0.093228,-0.095814,0.104577,-0.565412
-0.050000,-0.050000,0.000000,0.000000,0.000000,0.000000,0.000000,0.000000,0.000000,0.100000,0.100000,-0.134613,-0.478372,-0.050000,-0.050000,0.389662,-0.768669,0.000000,0.000000,-0.350991,0.130682,1.042825,0.056451,0.037669,-0.177025,-0.097536,-0.099203,0.118973,-0.566007
-0.050000,-0.050000,0.000000,0.000000,0.000000,0.000000,0.000000,0.000000,0.000000,0.100000,0.100000,-0.135626,-0.470112,-0.050000,-0.050000,0.398471,-0.763363,0.000000,0.000000,-0.343620,0.132107,1.006555,0.063293,0.031646,-0.166040,-0.102079,-0.102469,0.135365,-0.568504
-0.050000,-0.050000,0.000000,0.000000,0.000000,0.000000,0.000000,0.000000,0.000000,0.100000,0.100000,-0.137716,-0.462576,-0.050000,-0.050000,0.408401,-0.757218,0.000000,0.000000,-0.336003,0.133656,0.967446,0.070725,0.025333,-0.154026,-0.106426,-0.105472,0.153361,-0.572635
-0.050000,-0.050000,0.000000,0.000000,0.000000,0.000000,0.000000,0.000000,0.000000,0.100000,0.100000,-0.140313,-0.455658,-0.050000,-0.050000,0.418964,-0.750538,0.000000,0.000000,-0.328051,0.135337,0.926568,0.078611,0.018963,-0.141390,-0.110497,-0.108322,0.172237,-0.577746
-0.050000,-0.050000,0.000000,0.000000,0.000000,0.000000,0.000000,0.000000,0.000000,0.100000,0.100000,-0.144885,-0.450121,-0.050000,-0.050000,0.430464,-0.743160,0.000000,0.000000,-0.320025,0.137463,0.883675,0.087016,0.012628,-0.127727,-0.114028,-0.110552,0.192360,-0.584067
-0.050000,-0.050000,0.000000,0.000000,0.000000,0.000000,0.000000,0.000000,0.000000,0.100000,0.100000,-0.150228,-0.445698,-0.050000,-0.050000,0.442221,-0.735589,0.000000,0.000000,-0.311796,0.139961,0.840217,0.095743,0.006627,-0.113753,-0.116976,-0.112415,0.212737,-0.590699
-0.050000,-0.050000,0.000000,0.000000,0.000000,0.000000,0.000000,0.000000,0.000000,0.100000,0.100000,-0.157024,-0.442739,-0.050000,-0.050000,0.454227,-0.727897,0.000000,0.000000,-0.303537,0.143041,0.796435,0.104709,0.001195,-0.099490,-0.119317,-0.113716,0.233322,-0.597462
-0.050000,-0.050000,0.000000,0.000000,0.000000,0.000000,0.000000,0.000000,0.000000,0.100000,0.100000,-0.165274,-0.441535,-0.050000,-0.050000,0.466271,-0.720461,0.000000,0.000000,-0.295486,0.146892,0.753171,0.113696,-0.003157,-0.085400,-0.121000,-0.114406,0.253700,-0.603800
-0.050000,-0.050000,0.000000,0.000000,0.000000,0.000000,0.000000,0.000000,0.000000,0.100000,0.100000,-0.174528,-0.441562,-0.050000,-0.050000,0.478063,-0.713163,0.000000,0.000000,-0.287323,0.151226,0.710414,0.122808,-0.006699,-0.071424,-0.122362,-0.114660,0.273878,-0.609819
-0.050000,-0.050000,0.000000,0.000000,0.000000,0.000000,0.000000,0.000000,0.000000,0.100000,0.100000,-0.185600,-0.443982,-0.050000,-0.050000,0.489764,-0.706800,0.000000,0.000000,-0.280064,0.156820,0.669372,0.131402,-0.007940,-0.058496,-0.123113,-0.114270,0.293331,-0.614520
-0.050000,-0.050000,0.000000,0.000000,0.000000,0.000000,0.000000,0.000000,0.000000,0.100000,0.100000,-0.197717,-0.447727,-0.050000,-0.050000,0.500925,-0.700857,0.000000,0.000000,-0.272970,0.162991,0.629609,0.139911,-0.007700,-0.046196,-0.123815,-0.113515,0.312350,-0.618459
-0.050000,-0.050000,0.000000,0.000000,0.000000,0.000000,0.000000,0.000000,0.000000,0.100000,0.100000,-0.211050,-0.453196,-0.050000,-0.050000,0.511699,-0.695770,0.000000,0.000000,-0.266628,0.170117,0.591602,0.147903,-0.005200,-0.035052,-0.124427,-0.112480,0.330679,-0.621177
-0.050000,-0.050000,0.000000,0.000000,0.000000,0.000000,0.000000,0.000000,0.000000,0.100000,0.100000,-0.225402,-0.460203,-0.050000,-0.050000,0.521979,-0.691547,0.000000,0.000000,-0.261202,0.178193,0.555551,0.155307,-0.000173,-0.025286,-0.125180,-0.111379,0.348223,-0.622552
-0.050000,-0.050000,0.000000,0.000000,0.000000,0.000000,0.000000,0.000000,0.000000,0.100000,0.100000,-0.240535,-0.468131,-0.050000,-0.050000,0.531643,-0.687778,0.000000,0.000000,-0.256195,0.186768,0.520932,0.162466,0.006537,-0.016377,-0.126158,-0.110212,0.365278,-0.623097
-0.050000,-0.050000,0.000000,0.000000,0.000000,0.000000,0.000000,0.000000,0.000000,0.100000,0.100000,-0.256332,-0.477518,-0.050000,-0.050000,0.540950,-0.685130,0.000000,0.000000,-0.252926,0.196654,0.488768,0.168640,0.016432,-0.009456,-0.127442,-0.109459,0.380980,-0.621745
-0.050000,-0.050000,0.000000,0.000000,0.000000,0.000000,0.000000,0.000000,0.000000,0.100000,0.100000,-0.272605,-0.487326,-0.050000,-0.050000,0.549571,-0.682731,0.000000,0.000000,-0.250281,0.206948,0.458182,0.174685,0.027768,-0.003399,-0.129120,-0.108899,0.395908,-0.619439
-0.050000,-0.050000,0.000000,0.000000,0.000000,0.000000,0.000000,0.000000,0.000000,0.100000,0.100000,-0.289097,-0.497664,-0.050000,-0.050000,0.557778,-0.680861,0.000000,0.000000,-0.248968,0.218043,0.429490,0.180258,0.040873,0.001412,-0.131138,-0.108809,0.409479,-0.615677
-0.050000,-0.050000,0.000000,0.000000,0.000000,0.000000,0.000000,0.000000,0.000000,0.100000,0.100000,-0.305530,-0.508073,-0.050000,-0.050000,0.565515,-0.679222,0.000000,0.000000,-0.249050,0.229821,0.402783,0.185696,0.054939,0.005307,-0.133446,-0.109180,0.421176,-0.610260
-0.050000,-0.050000,0.000000,0.000000,0.000000,0.000000,0.000000,0.000000,0.000000,0.100000,0.100000,-0.322053,-0.518390,-0.050000,-0.050000,0.572867,-0.677663,0.000000,0.000000,-0.249965,0.241909,0.377462,0.191128,0.069479,0.008680,-0.136063,-0.109878,0.431629,-0.603770
-0.050000,-0.050000,0.000000,0.000000,0.000000,0.000000,0.000000,0.000000,0.000000,0.100000,0.100000,-0.337830,-0.528253,-0.050000,-0.050000,0.579888,-0.676114,0.000000,0.000000,-0.253043,0.254875,0.354719,0.196815,0.083456,0.011609,-0.138674,-0.110989,0.438446,-0.594572
-0.050000,-0.050000,0.000000,0.000000,0.000000,0.000000,0.000000,0.000000,0.000000,0.100000,0.100000,-0.353449,-0.537573,-0.050000,-0.050000,0.586653,-0.674409,0.000000,0.000000,-0.257044,0.267974,0.333572,0.202915,0.096378,0.014668,-0.141474,-0.112256,0.443069,-0.583783
-0.050000,-0.050000,0.000000,0.000000,0.000000,0.000000,0.000000,0.000000,0.000000,0.100000,0.100000,-0.368418,-0.546197,-0.050000,-0.050000,0.593214,-0.672504,0.000000,0.000000,-0.262623,0.281450,0.314540,0.209591,0.107368,0.018113,-0.144185,-0.113571,0.444224,-0.570566
-0.050000,-0.050000,0.000000,0.000000,0.000000,0.000000,0.000000,0.000000,0.000000,0.100000,0.100000,-0.382640,-0.553972,-0.050000,-0.050000,0.599541,-0.670296,0.000000,0.000000,-0.269607,0.295062,0.297814,0.217094,0.115199,0.022549,-0.146647,-0.114685,0.441360,-0.554586
-0.050000,-0.050000,0.000000,0.000000,0.000000,0.000000,0.000000,0.000000,0.000000,0.100000,0.100000,-0.396609,-0.561138,-0.050000,-0.050000,0.605875,-0.667931,0.000000,0.000000,-0.277486,0.308631,0.282606,0.225108,0.120656,0.027750,-0.149098,-0.115658,0.435781,-0.536718
-0.050000,-0.050000,0.000000,0.000000,0.000000,0.000000,0.000000,0.000000,0.000000,0.100000,0.100000,-0.409197,-0.567254,-0.050000,-0.050000,0.611709,-0.665119,0.000000,0.000000,-0.286830,0.322011,0.270564,0.234286,0.120339,0.035110,-0.150719,-0.115960,0.424588,-0.515094
-0.050000,-0.050000,0.000000,0.000000,0.000000,0.000000,0.000000,0.000000,0.000000,0.100000,0.100000,-0.421560,-0.572791,-0.050000,-0.050000,0.617565,-0.662230,0.000000,0.000000,-0.296619,0.334942,0.260145,0.243892,0.116303,0.043889,-0.152129,-0.115913,0.410482,-0.491512
-0.050000,-0.050000,0.000000,0.000000,0.000000,0.000000,0.000000,0.000000,0.000000,0.100000,0.100000,-0.433064,-0.577625,-0.050000,-0.050000,0.623023,-0.659112,0.000000,0.000000,-0.306927,0.347201,0.252046,0.254080,0.107087,0.054714,-0.152812,-0.115258,0.392584,-0.465496
-0.050000,-0.050000,0.000000,0.000000,0.000000,0.000000,0.000000,0.000000,0.000000,0.100000,0.100000,-0.443830,-0.581877,-0.050000,-0.050000,0.627980,-0.655860,0.000000,0.000000,-0.317072,0.358329,0.246128,0.264464,0.092380,0.067767,-0.152787,-0.114144,0.371706,-0.437795
-0.050000,-0.050000,0.000000,0.000000,0.000000,0.000000,0.000000,0.000000,0.000000,0.100000,0.100000,-0.454324,-0.585689,-0.050000,-0.050000,0.632801,-0.652659,0.000000,0.000000,-0.327155,0.368730,0.241543,0.274827,0.074011,0.082264,-0.152190,-0.112567,0.348885,-0.408990
-0.050000,-0.050000,0.000000,0.000000,0.000000,0.000000,0.000000,0.000000,0.000000,0.100000,0.100000,-0.463668,-0.588996,-0.050000,-0.050000,0.636446,-0.649243,0.000000,0.000000,-0.335791,0.376857,0.239465,0.284713,0.049017,0.099568,-0.150690,-0.110905,0.324475,-0.380110
-0.050000,-0.050000,0.000000,0.000000,0.000000,0.000000,0.000000,0.000000,0.000000,0.100000,0.100000,-0.472876,-0.591926,-0.050000,-0.050000,0.639890,-0.646036,0.000000,0.000000,-0.343635,0.383909,0.238347,0.293913,0.020892,0.118139,-0.148774,-0.109119,0.299738,-0.351667
-0.050000,-0.050000,0.000000,0.000000,0.000000,0.000000,0.000000,0.000000,0.000000,0.100000,0.100000,-0.481499,-0.594516,-0.050000,-0.050000,0.642505,-0.642801,0.000000,0.000000,-0.349829,0.388987,0.238622,0.302119,-0.011131,0.138408,-0.146401,-0.107578,0.275564,-0.324761
-0.050000,-0.050000,0.000000,0.000000,0.000000,0.000000,0.000000,0.000000,0.000000,0.100000,0.100000,-0.489814,-0.596801,-0.050000,-0.050000,0.644480,-0.639639,0.000000,0.000000,-0.354094,0.392087,0.239846,0.308968,-0.045827,0.159925,-0.144015,-0.106650,0.253256,-0.300583
-0.050000,-0.050000,0.000000,0.000000,0.000000,0.000000,0.000000,0.000000,0.000000,0.100000,0.100000,-0.497963,-0.598779,-0.050000,-0.050000,0.646071,-0.636602,0.000000,0.000000,-0.357308,0.394127,0.241629,0.314797,-0.082004,0.182117,-0.141539,-0.105967,0.232270,-0.278282
-0.050000,-0.050000,0.000000,0.000000,0.000000,0.000000,0.000000,0.000000,0.000000,0.100000,0.100000,-0.505994,-0.600611,-0.050000,-0.050000,0.646990,-0.633546,0.000000,0.000000,-0.357640,0.393498,0.244099,0.318736,-0.119216,0.205156,-0.139913,-0.106797,0.215592,-0.261157
-0.050000,-0.050000,0.000000,0.000000,0.000000,0.000000,0.000000,0.000000,0.000000,0.100000,0.100000,-0.514115,-0.602198,-0.050000,-0.050000,0.647776,-0.630649,0.000000,0.000000,-0.357141,0.392229,0.246701,0.321557,-0.156003,0.228182,-0.138766,-0.108142,0.201210,-0.246739
-0.050000,-0.050000,0.000000,0.000000,0.000000,0.000000,0.000000,0.000000,0.000000,0.100000,0.100000,-0.522449,-0.603735,-0.050000,-0.050000,0.648397,-0.627808,0.000000,0.000000,-0.355026,0.389581,0.249459,0.323073,-0.191679,0.251144,-0.138582,-0.110578,0.190405,-0.236354
-0.050000,-0.050000,0.000000,0.000000,0.000000,0.000000,0.000000,0.000000,0.000000,0.100000,0.100000,-0.531205,-0.605320,-0.050000,-0.050000,0.649212,-0.625141,0.000000,0.000000,-0.351960,0.386229,0.252127,0.323537,-0.224908,0.273528,-0.139377,-0.113873,0.182920,-0.229573
-0.050000,-0.050000,0.000000,0.000000,0.000000,0.000000,0.000000,0.000000,0.000000,0.100000,0.100000,-0.540215,-0.606926,-0.050000,-0.050000,0.650002,-0.622505,0.000000,0.000000,-0.348452,0.382556,0.254739,0.323321,-0.256342,0.295437,-0.140846,-0.117686,0.177582,-0.225091
-0.050000,-0.050000,0.000000,0.000000,0.000000,0.000000,0.000000,0.000000,0.000000,0.100000,0.100000,-0.550042,-0.608951,-0.050000,-0.050000,0.651620,-0.620283,0.000000,0.000000,-0.344504,0.378648,0.257040,0.322412,-0.283036,0.316054,-0.143307,-0.122171,0.175573,-0.223988
-0.050000,-0.050000,0.000000,0.000000,0.000000,0.000000,0.000000,0.000000,0.000000,0.100000,0.100000,-0.560209,-0.611226,-0.050000,-0.050000,0.653329,-0.618118,0.000000,0.000000,-0.340816,0.374992,0.259175,0.321230,-0.306982,0.335823,-0.146091,-0.126747,0.174941,-0.224168
-0.050000,-0.050000,0.000000,0.000000,0.000000,0.000000,0.000000,0.000000,0.000000,0.100000,0.100000,-0.570967,-0.613966,-0.050000,-0.050000,0.655643,-0.616290,0.000000,0.000000,-0.337514,0.371707,0.261058,0.319883,-0.326964,0.354391,-0.149134,-0.131313,0.175754,-0.225630
-0.050000,-0.050000,0.000000,0.000000,0.000000,0.000000,0.000000,0.000000,0.000000,0.100000,0.100000,-0.582171,-0.617243,-0.050000,-0.050000,0.658355,-0.614741,0.000000,0.000000,-0.334981,0.369044,0.262719,0.318499,-0.343184,0.371735,-0.152015,-0.135531,0.177168,-0.227476
-0.050000,-0.050000,0.000000,0.000000,0.000000,0.000000,0.000000,0.000000,0.000000,0.100000,0.100000,-0.593668,-0.620893,-0.050000,-0.050000,0.661173,-0.613294,0.000000,0.000000,-0.332927,0.366724,0.264239,0.317142,-0.356964,0.388299,-0.154729,-0.139491,0.178952,-0.229481
-0.050000,-0.050000,0.000000,0.000000,0.000000,0.000000,0.000000,0.000000,0.000000,0.100000,0.100000,-0.605429,-0.625234,-0.050000,-0.050000,0.664300,-0.612212,0.000000,0.000000,-0.332103,0.365306,0.265561,0.315701,-0.366854,0.403427,-0.156692,-0.142665,0.180159,-0.230785
-0.050000,-0.050000,0.000000,0.000000,0.000000,0.000000,0.000000,0.000000,0.000000,0.100000,0.100000,-0.617217,-0.629874,-0.050000,-0.050000,0.667105,-0.611047,0.000000,0.000000,-0.331672,0.364061,0.266810,0.314195,-0.375163,0.417960,-0.158189,-0.145440,0.181006,-0.231642
-0.050000,-0.050000,0.000000,0.000000,0.000000,0.000000,0.000000,0.000000,0.000000,0.100000,0.100000,-0.628890,-0.634875,-0.050000,-0.050000,0.669593,-0.609893,0.000000,0.000000,-0.331906,0.363185,0.267971,0.312413,-0.381681,0.431684,-0.158998,-0.147659,0.180921,-0.231655
-0.050000,-0.050000,0.000000,0.000000,0.000000,0.000000,0.000000,0.000000,0.000000,0.100000,0.100000,-0.640185,-0.640044,-0.050000,-0.050000,0.671265,-0.608431,0.000000,0.000000,-0.332349,0.362252,0.269097,0.310133,-0.387387,0.444876,-0.159224,-0.149528,0.179830,-0.230941
-0.050000,-0.050000,0.000000,0.000000,0.000000,0.000000,0.000000,0.000000,0.000000,0.100000,0.100000,-0.651189,-0.645203,-0.050000,-0.050000,0.672416,-0.606789,0.000000,0.000000,-0.332853,0.361239,0.270159,0.307466,-0.392647,0.457716,-0.159068,-0.151141,0.178050,-0.229765
-0.050000,-0.050000,0.000000,0.000000,0.000000,0.000000,0.000000,0.000000,0.000000,0.100000,0.100000,-0.661246,-0.650280,-0.050000,-0.050000,0.671832,-0.604256,0.000000,0.000000,-0.332872,0.359528,0.271228,0.303712,-0.398353,0.470264,-0.158538,-0.152807,0.175137,-0.228164
-0.050000,-0.050000,0.000000,0.000000,0.000000,0.000000,0.000000,0.000000,0.000000,0.100000,0.100000,-0.670691,-0.655001,-0.050000,-0.050000,0.670390,-0.601262,0.000000,0.000000,-0.332345,0.357320,0.272189,0.299278,-0.404501,0.482650,-0.157931,-0.154527,0.171790,-0.226589
-0.050000,-0.050000,0.000000,0.000000,0.000000,0.000000,0.000000,0.000000,0.000000,0.100000,0.100000,-0.679166,-0.659355,-0.050000,-0.050000,0.667381,-0.597337,0.000000,0.000000,-0.330864,0.354217,0.273076,0.293826,-0.411677,0.494965,-0.157372,-0.156585,0.168049,-0.225271
-0.050000,-0.050000,0.000000,0.000000,0.000000,0.000000,0.000000,0.000000,0.000000,0.100000,0.100000,-0.686591,-0.663195,-0.050000,-0.050000,0.662783,-0.592383,0.000000,0.000000,-0.328087,0.350080,0.273811,0.287397,-0.420133,0.507213,-0.157105,-0.159127,0.164371,-0.224645
-0.050000,-0.050000,0.000000,0.000000,0.000000,0.000000,0.000000,0.000000,0.000000,0.100000,0.100000,-0.693215,-0.666567,-0.050000,-0.050000,0.657259,-0.586804,0.000000,0.000000,-0.324464,0.345381,0.274338,0.280216,-0.429392,0.519312,-0.157036,-0.161970,0.160743,-0.224538
-0.050000,-0.050000,0.000000,0.000000,0.000000,0.000000,0.000000,0.000000,0.000000,0.100000,0.100000,-0.698475,-0.669417,-0.050000,-0.050000,0.649531,-0.579663,0.000000,0.000000,-0.318765,0.339200,0.274617,0.272080,-0.440536,0.531271,-0.157670,-0.165634,0.158011,-0.225894
-0.050000,-0.050000,0.000000,0.000000,0.000000,0.000000,0.000000,0.000000,0.000000,0.100000,0.100000,-0.702886,-0.671827,-0.050000,-0.050000,0.641088,-0.571950,0.000000,0.000000,-0.312148,0.332674,0.274493,0.263381,-0.452384,0.542824,-0.158651,-0.169589,0.155786,-0.228088
-0.050000,-0.050000,0.000000,0.000000,0.000000,0.000000,0.000000,0.000000,0.000000,0.100000,0.100000,-0.706272,-0.673912,-0.050000,-0.050000,0.631345,-0.563226,0.000000,0.000000,-0.304041,0.325393,0.273961,0.254196,-0.465359,0.553943,-0.160205,-0.174025,0.154558,-0.231526
-0.050000,-0.050000,0.000000,0.000000,0.000000,0.000000,0.000000,0.000000,0.000000,0.100000,0.100000,-0.708740,-0.675798,-0.050000,-0.050000,0.620800,-0.553836,0.000000,0.000000,-0.294750,0.317794,0.272838,0.244756,-0.479053,0.564332,-0.162261,-0.178713,0.154386,-0.236094
-0.050000,-0.050000,0.000000,0.000000,0.000000,0.000000,0.000000,0.000000,0.000000,0.100000,0.100000,-0.710524,-0.677581,-0.050000,-0.050000,0.609789,-0.543984,0.000000,0.000000,-0.284690,0.310130,0.271192,0.235120,-0.493126,0.574130,-0.164628,-0.183561,0.154919,-0.241425
-0.050000,-0.050000,0.000000,0.000000,0.000000,0.000000,0.000000,0.000000,0.000000,0.100000,0.100000,-0.711444,-0.679447,-0.050000,-0.050000,0.598423,-0.533846,0.000000,0.000000,-0.273542,0.302486,0.268630,0.225589,-0.507526,0.582720,-0.167504,-0.188364,0.156802,-0.247818
-0.050000,-0.050000,0.000000,0.000000,0.000000,0.000000,0.000000,0.000000,0.000000,0.100000,0.100000,-0.711816,-0.681440,-0.050000,-0.050000,0.587197,-0.523690,0.000000,0.000000,-0.262012,0.295208,0.265272,0.216050,-0.521756,0.590479,-0.170530,-0.193062,0.159305,-0.254654
-0.050000,-0.050000,0.000000,0.000000,0.000000,0.000000,0.000000,0.000000,0.000000,0.100000,0.100000,-0.711643,-0.683643,-0.050000,-0.050000,0.576379,-0.513808,0.000000,0.000000,-0.250067,0.288377,0.260922,0.206644,-0.535636,0.597138,-0.173753,-0.197495,0.162609,-0.261887
-0.050000,-0.050000,0.000000,0.000000,0.000000,0.000000,0.000000,0.000000,0.000000,0.100000,0.100000,-0.711036,-0.686091,-0.050000,-0.050000,0.566513,-0.504615,0.000000,0.000000,-0.238049,0.282192,0.255414,0.197298,-0.548731,0.602678,-0.177049,-0.201571,0.166493,-0.269169
-0.050000,-0.050000,0.000000,0.000000,0.000000,0.000000,0.000000,0.000000,0.000000,0.100000,0.100000,-0.710084,-0.688749,-0.050000,-0.050000,0.557229,-0.495798,0.000000,0.000000,-0.225927,0.276433,0.249019,0.187991,-0.561235,0.607489,-0.180348,-0.205410,0.170780,-0.276456
-0.050000,-0.050000,0.000000,0.000000,0.000000,0.000000,0.000000,0.000000,0.000000,0.100000,0.100000,-0.708825,-0.691573,-0.050000,-0.050000,0.550146,-0.488729,0.000000,0.000000,-0.214218,0.271576,0.241075,0.178581,-0.572076,0.610945,-0.183652,-0.208741,0.175463,-0.283238
-0.050000,-0.050000,0.000000,0.000000,0.000000,0.000000,0.000000,0.000000,0.000000,0.100000,0.100000,-0.707303,-0.694496,-0.050000,-0.050000,0.544080,-0.482390,0.000000,0.000000,-0.202627,0.267053,0.232178,0.169071,-0.581923,0.613818,-0.186880,-0.211870,0.180411,-0.289699
-0.050000,-0.050000,0.000000,0.000000,0.000000,0.000000,0.000000,0.000000,0.000000,0.100000,0.100000,-0.705569,-0.697378,-0.050000,-0.050000,0.540008,-0.477624,0.000000,0.000000,-0.191484,0.263068,0.222090,0.159345,-0.590168,0.615833,-0.190062,-0.214726,0.185556,-0.295551
-0.050000,-0.050000,0.000000,0.000000,0.000000,0.000000,0.000000,0.000000,0.000000,0.100000,0.100000,-0.703624,-0.700044,-0.050000,-0.050000,0.537935,-0.474430,0.000000,0.000000,-0.180799,0.259383,0.211012,0.149404,-0.596735,0.617176,-0.193208,-0.217445,0.190895,-0.300779
-0.050000,-0.050000,0.000000,0.000000,0.000000,0.000000,0.000000,0.000000,0.000000,0.100000,0.100000,-0.701503,-0.702528,-0.050000,-0.050000,0.537040,-0.472175,0.000000,0.000000,-0.170401,0.255822,0.199251,0.139306,-0.602154,0.618138,-0.196318,-0.220101,0.196406,-0.305544
-0.050000,-0.050000,0.000000,0.000000,0.000000,0.000000,0.000000,0.000000,0.000000,0.100000,0.100000,-0.699124,-0.704335,-0.050000,-0.050000,0.539005,-0.472219,0.000000,0.000000,-0.160721,0.252380,0.186790,0.129126,-0.605284,0.618366,-0.199460,-0.222750,0.202124,-0.309612
-0.050000,-0.050000,0.000000,0.000000,0.000000,0.000000,0.000000,0.000000,0.000000,0.100000,0.100000,-0.696539,-0.705690,-0.050000,-0.050000,0.541906,-0.473043,0.000000,0.000000,-0.151350,0.248795,0.174120,0.119014,-0.607302,0.618407,-0.202629,-0.225486,0.208068,-0.313325
-0.050000,-0.050000,0.000000,0.000000,0.000000,0.000000,0.000000,0.000000,0.000000,0.100000,0.100000,-0.693671,-0.706288,-0.050000,-0.050000,0.546555,-0.475317,0.000000,0.000000,-0.142496,0.245050,0.161415,0.109174,-0.607703,0.618064,-0.205855,-0.228326,0.214230,-0.316685
-0.050000,-0.050000,0.000000,0.000000,0.000000,0.000000,0.000000,0.000000,0.000000,0.100000,0.100000,-0.690454,-0.706026,-0.050000,-0.050000,0.552373,-0.478595,0.000000,0.000000,-0.134108,0.241017,0.149103,0.099944,-0.606751,0.617486,-0.209147,-0.231306,0.220611,-0.319886
-0.050000,-0.050000,0.000000,0.000000,0.000000,0.000000,0.000000,0.000000,0.000000,0.100000,0.100000,-0.690470,-0.708811,-0.050000,-0.050000,0.560516,-0.482384,0.000000,0.000000,-0.124633,0.235549,0.134961,0.089386,-0.604370,0.615975,-0.212296,-0.234623,0.228260,-0.323830
-0.050000,-0.050000,0.000000,0.000000,0.000000,0.000000,0.000000,0.000000,0.000000,0.100000,0.100000,-0.687768,-0.708140,-0.050000,-0.050000,0.568284,-0.487046,0.000000,0.000000,-0.116858,0.230656,0.124054,0.082009,-0.600867,0.614786,-0.215369,-0.237679,0.235277,-0.327358
-0.050000,-0.050000,0.000000,0.000000,0.000000,0.000000,0.000000,0.000000,0.000000,0.100000,0.100000,-0.683961,-0.705892,-0.050000,-0.050000,0.575634,-0.491805,0.000000,0.000000,-0.109816,0.225759,0.114269,0.075729,-0.596918,0.613751,-0.218889,-0.241134,0.241957,-0.330650
-0.050000,-0.050000,0.000000,0.000000,0.000000,0.000000,0.000000,0.000000,0.000000,0.100000,0.100000,-0.679367,-0.702347,-0.050000,-0.050000,0.582792,-0.496657,0.000000,0.000000,-0.103402,0.220612,0.105809,0.070912,-0.592290,0.612640,-0.222579,-0.244793,0.248357,-0.334097
-0.050000,-0.050000,0.000000,0.000000,0.000000,0.000000,0.000000,0.000000,0.000000,0.100000,0.100000,-0.674176,-0.697868,-0.050000,-0.050000,0.589223,-0.501168,0.000000,0.000000,-0.097586,0.215322,0.098644,0.067511,-0.587326,0.611450,-0.226321,-0.248556,0.254253,-0.337726
-0.050000,-0.050000,0.000000,0.000000,0.000000,0.000000,0.000000,0.000000,0.000000,0.100000,0.100000,-0.668634,-0.692806,-0.050000,-0.050000,0.595143,-0.505453,0.000000,0.000000,-0.092155,0.209950,0.092381,0.065049,-0.582165,0.610189,-0.230142,-0.252422,0.259767,-0.341459
-0.050000,-0.050000,0.000000,0.000000,0.000000,0.000000,0.000000,0.000000,0.000000,0.100000,0.100000,-0.662344,-0.686852,-0.050000,-0.050000,0.599363,-0.508704,0.000000,0.000000,-0.087562,0.204560,0.087687,0.064344,-0.577097,0.608790,-0.233721,-0.256145,0.264095,-0.345381
-0.050000,-0.050000,0.000000,0.000000,0.000000,0.000000,0.000000,0.000000,0.000000,0.100000,0.100000,-0.655757,-0.680514,-0.050000,-0.050000,0.602642,-0.511458,0.000000,0.000000,-0.083395,0.199236,0.083741,0.064330,-0.572210,0.607277,-0.237272,-0.259858,0.267627,-0.349237
-0.050000,-0.050000,0.000000,0.000000,0.000000,0.000000,0.000000,0.000000,0.000000,0.100000,0.100000,-0.648652,-0.673672,-0.050000,-0.050000,0.604262,-0.513214,0.000000,0.000000,-0.079938,0.194049,0.080764,0.065280,-0.567772,0.605620,-0.240516,-0.263332,0.269852,-0.352976
-0.050000,-0.050000,0.000000,0.000000,0.000000,0.000000,0.000000,0.000000,0.000000,0.100000,0.100000,-0.641110,-0.666479,-0.050000,-0.050000,0.604234,-0.514022,0.000000,0.000000,-0.077213,0.189129,0.078488,0.066768,-0.564001,0.603779,-0.243330,-0.266442,0.270552,-0.356314
-0.050000,-0.050000,0.000000,0.000000,0.000000,0.000000,0.000000,0.000000,0.000000,0.100000,0.100000,-0.633299,-0.659018,-0.050000,-0.050000,0.603146,-0.514241,0.000000,0.000000,-0.074937,0.184353,0.076666,0.068550,-0.560719,0.601795,-0.245864,-0.269284,0.270170,-0.359365
-0.050000,-0.050000,0.000000,0.000000,0.000000,0.000000,0.000000,0.000000,0.000000,0.100000,0.100000,-0.624966,-0.651326,-0.050000,-0.050000,0.599911,-0.513227,0.000000,0.000000,-0.073837,0.180221,0.075384,0.070476,-0.558636,0.599543,-0.247363,-0.271247,0.267433,-0.361341
-0.050000,-0.050000,0.000000,0.000000,0.000000,0.000000,0.000000,0.000000,0.000000,0.100000,0.100000,-0.616466,-0.643460,-0.050000,-0.050000,0.595926,-0.511847,0.000000,0.000000,-0.073203,0.176333,0.074310,0.072289,-0.557177,0.597108,-0.248302,-0.272667,0.263409,-0.362657
-0.050000,-0.050000,0.000000,0.000000,0.000000,0.000000,0.000000,0.000000,0.000000,0.100000,0.100000,-0.607707,-0.635513,-0.050000,-0.050000,0.590759,-0.509827,0.000000,0.000000,-0.073517,0.173071,0.073452,0.073848,-0.556660,0.594434,-0.248182,-0.273152,0.257473,-0.362765
-0.050000,-0.050000,0.000000,0.000000,0.000000,0.000000,0.000000,0.000000,0.000000,0.100000,0.100000,-0.598856,-0.627554,-0.050000,-0.050000,0.585058,-0.507566,0.000000,0.000000,-0.074708,0.170469,0.072691,0.075004,-0.556848,0.591481,-0.246896,-0.272588,0.249754,-0.361481
-0.050000,-0.050000,0.000000,0.000000,0.000000,0.000000,0.000000,0.000000,0.000000,0.100000,0.100000,-0.589999,-0.619578,-0.050000,-0.050000,0.579062,-0.505145,0.000000,0.000000,-0.076445,0.168226,0.071995,0.075861,-0.557527,0.588365,-0.244796,-0.271282,0.240837,-0.359242
-0.050000,-0.050000,0.000000,0.000000,0.000000,0.000000,0.000000,0.000000,0.000000,0.100000,0.100000,-0.581324,-0.611849,-0.050000,-0.050000,0.573397,-0.502985,0.000000,0.000000,-0.079503,0.167184,0.071287,0.076061,-0.558462,0.584754,-0.240991,-0.268459,0.229860,-0.354792
-0.050000,-0.050000,0.000000,0.000000,0.000000,0.000000,0.000000,0.000000,0.000000,0.100000,0.100000,-0.572955,-0.604273,-0.050000,-0.050000,0.568242,-0.501050,0.000000,0.000000,-0.083031,0.166485,0.070577,0.075942,-0.559338,0.580926,-0.236389,-0.264893,0.218025,-0.349279
-0.050000,-0.050000,0.000000,0.000000,0.000000,0.000000,0.000000,0.000000,0.000000,0.100000,0.100000,-0.565098,-0.597077,-0.050000,-0.050000,0.564211,-0.499728,0.000000,0.000000,-0.087495,0.166681,0.069800,0.075316,-0.559708,0.576627,-0.230649,-0.260280,0.205061,-0.342073
-0.050000,-0.050000,0.000000,0.000000,0.000000,0.000000,0.000000,0.000000,0.000000,0.100000,0.100000,-0.558062,-0.590412,-0.050000,-0.050000,0.561862,-0.499245,0.000000,0.000000,-0.092678,0.167591,0.068914,0.074243,-0.558993,0.571825,-0.224160,-0.254913,0.191517,-0.333471
-0.050000,-0.050000,0.000000,0.000000,0.000000,0.000000,0.000000,0.000000,0.000000,0.100000,0.100000,-0.551679,-0.584189,-0.050000,-0.050000,0.560648,-0.499258,0.000000,0.000000,-0.098341,0.168909,0.068008,0.072933,-0.557476,0.566699,-0.217228,-0.249090,0.177688,-0.323953
-0.050000,-0.050000,0.000000,0.000000,0.000000,0.000000,0.000000,0.000000,0.000000,0.100000,0.100000,-0.546916,-0.579021,-0.050000,-0.050000,0.562686,-0.500939,0.000000,0.000000,-0.104814,0.171207,0.066815,0.071012,-0.553377,0.560738,-0.210111,-0.242869,0.164029,-0.313128
-0.050000,-0.050000,0.000000,0.000000,0.000000,0.000000,0.000000,0.000000,0.000000,0.100000,0.100000,-0.543241,-0.574615,-0.050000,-0.050000,0.566250,-0.503224,0.000000,0.000000,-0.111590,0.173739,0.065629,0.068980,-0.547864,0.554466,-0.203204,-0.236679,0.150869,-0.301930
-0.050000,-0.050000,0.000000,0.000000,0.000000,0.000000,0.000000,0.000000,0.000000,0.100000,0.100000,-0.541261,-0.571344,-0.050000,-0.050000,0.572624,-0.506878,0.000000,0.000000,-0.118803,0.176823,0.064256,0.066615,-0.539849,0.547608,-0.196877,-0.230722,0.138651,-0.290371
-0.050000,-0.050000,0.000000,0.000000,0.000000,0.000000,0.000000,0.000000,0.000000,0.100000,0.100000,-0.536778,-0.566160,-0.050000,-0.050000,0.580460,-0.512453,0.000000,0.000000,-0.126752,0.181932,0.062044,0.064207,-0.530309,0.541297,-0.192015,-0.225814,0.129020,-0.280016
-0.050000,-0.050000,0.000000,0.000000,0.000000,0.000000,0.000000,0.000000,0.000000,0.100000,0.100000,-0.535447,-0.563196,-0.050000,-0.050000,0.590485,-0.518240,0.000000,0.000000,-0.134481,0.186378,0.059741,0.061387,-0.518453,0.534114,-0.187571,-0.221171,0.119570,-0.269176
-0.050000,-0.050000,0.000000,0.000000,0.000000,0.000000,0.000000,0.000000,0.000000,0.100000,0.100000,-0.537714,-0.562750,-0.050000,-0.050000,0.604036,-0.525533,0.000000,0.000000,-0.141989,0.190559,0.057473,0.058480,-0.503515,0.526455,-0.184626,-0.217357,0.112370,-0.259194
-0.050000,-0.050000,0.000000,0.000000,0.000000,0.000000,0.000000,0.000000,0.000000,0.100000,0.100000,-0.542065,-0.563935,-0.050000,-0.050000,0.618896,-0.533295,0.000000,0.000000,-0.149679,0.194734,0.055664,0.055986,-0.487185,0.518834,-0.182693,-0.214122,0.106826,-0.249981
-0.050000,-0.050000,0.000000,0.000000,0.000000,0.000000,0.000000,0.000000,0.000000,0.100000,0.100000,-0.548704,-0.566780,-0.050000,-0.050000,0.635703,-0.542024,0.000000,0.000000,-0.157418,0.198965,0.054149,0.053988,-0.469103,0.511386,-0.182214,-0.211784,0.103667,-0.242076
-0.050000,-0.050000,0.000000,0.000000,0.000000,0.000000,0.000000,0.000000,0.000000,0.100000,0.100000,-0.557241,-0.571091,-0.050000,-0.050000,0.653619,-0.551333,0.000000,0.000000,-0.165291,0.203276,0.053126,0.052825,-0.449996,0.504393,-0.182994,-0.210257,0.102865,-0.235621
-0.050000,-0.050000,0.000000,0.000000,0.000000,0.000000,0.000000,0.000000,0.000000,0.100000,0.100000,-0.567258,-0.576583,-0.050000,-0.050000,0.672177,-0.561034,0.000000,0.000000,-0.173455,0.207758,0.052555,0.052410,-0.430246,0.497787,-0.184659,-0.209366,0.103786,-0.230215
-0.050000,-0.050000,0.000000,0.000000,0.000000,0.000000,0.000000,0.000000,0.000000,0.100000,0.100000,-0.578908,-0.583357,-0.050000,-0.050000,0.691111,-0.571052,0.000000,0.000000,-0.181618,0.212198,0.052745,0.053482,-0.410525,0.492103,-0.187349,-0.209142,0.107287,-0.226714
-0.050000,-0.050000,0.000000,0.000000,0.000000,0.000000,0.000000,0.000000,0.000000,0.100000,0.100000,-0.591555,-0.591057,-0.050000,-0.050000,0.709828,-0.581124,0.000000,0.000000,-0.190177,0.216845,0.053603,0.055676,-0.391188,0.487043,-0.190469,-0.209311,0.112078,-0.224180
-0.050000,-0.050000,0.000000,0.000000,0.000000,0.000000,0.000000,0.000000,0.000000,0.100000,0.100000,-0.605045,-0.599532,-0.050000,-0.050000,0.727931,-0.591045,0.000000,0.000000,-0.198876,0.221465,0.055344,0.059432,-0.372948,0.482898,-0.193896,-0.209740,0.118287,-0.222935
-0.050000,-0.050000,0.000000,0.000000,0.000000,0.000000,0.000000,0.000000,0.000000,0.100000,0.100000,-0.618902,-0.608516,-0.050000,-0.050000,0.744861,-0.600543,0.000000,0.000000,-0.207756,0.226025,0.058092,0.064801,-0.356506,0.479677,-0.197281,-0.210226,0.125267,-0.222707
-0.050000,-0.050000,0.000000,0.000000,0.000000,0.000000,0.000000,0.000000,0.000000,0.100000,0.100000,-0.633088,-0.617896,-0.050000,-0.050000,0.760946,-0.609803,0.000000,0.000000,-0.216855,0.230623,0.061574,0.071358,-0.341477,0.477116,-0.200601,-0.210771,0.132626,-0.223118
-0.050000,-0.050000,0.000000,0.000000,0.000000,0.000000,0.000000,0.000000,0.000000,0.100000,0.100000,-0.646680,-0.627196,-0.050000,-0.050000,0.774554,-0.617883,0.000000,0.000000,-0.225762,0.234675,0.066564,0.079913,-0.330010,0.475712,-0.203342,-0.210994,0.139961,-0.224585
-0.050000,-0.050000,0.000000,0.000000,0.000000,0.000000,0.000000,0.000000,0.000000,0.100000,0.100000,-0.660018,-0.636469,-0.050000,-0.050000,0.786897,-0.625504,0.000000,0.000000,-0.234666,0.238587,0.072344,0.089452,-0.320743,0.474863,-0.205769,-0.211111,0.146888,-0.226490
-0.050000,-0.050000,0.000000,0.000000,0.000000,0.000000,0.000000,0.000000,0.000000,0.100000,0.100000,-0.672430,-0.645347,-0.050000,-0.050000,0.796898,-0.631978,0.000000,0.000000,-0.243190,0.241870,0.079401,0.100284,-0.314900,0.474790,-0.207581,-0.210916,0.153166,-0.229111
-0.050000,-0.050000,0.000000,0.000000,0.000000,0.000000,0.000000,0.000000,0.000000,0.100000,0.100000,-0.683782,-0.653673,-0.050000,-0.050000,0.804581,-0.637313,0.000000,0.000000,-0.251162,0.244452,0.087621,0.111957,-0.312500,0.475279,-0.208810,-0.210489,0.158588,-0.232442
-0.050000,-0.050000,0.000000,0.000000,0.000000,0.000000,0.000000,0.000000,0.000000,0.100000,0.100000,-0.694340,-0.661490,-0.050000,-0.050000,0.810716,-0.641933,0.000000,0.000000,-0.258683,0.246581,0.096594,0.124065,-0.312613,0.476086,-0.209656,-0.209873,0.163225,-0.236267
-0.050000,-0.050000,0.000000,0.000000,0.000000,0.000000,0.000000,0.000000,0.000000,0.100000,0.100000,-0.703172,-0.668342,-0.050000,-0.050000,0.813335,-0.644614,0.000000,0.000000,-0.264956,0.247349,0.107079,0.136541,-0.317183,0.477389,-0.209773,-0.209144,0.166992,-0.241370
-0.050000,-0.050000,0.000000,0.000000,0.000000,0.000000,0.000000,0.000000,0.000000,0.100000,0.100000,-0.711138,-0.674453,-0.050000,-0.050000,0.814422,-0.646562,0.000000,0.000000,-0.270478,0.247589,0.118082,0.148707,-0.324072,0.478692,-0.209631,-0.208373,0.170066,-0.247228
-0.050000,-0.050000,0.000000,0.000000,0.000000,0.000000,0.000000,0.000000,0.000000,0.100000,0.100000,-0.717802,-0.679657,-0.050000,-0.050000,0.812760,-0.646967,0.000000,0.000000,-0.274734,0.246727,0.129980,0.160369,-0.334103,0.480091,-0.209097,-0.207710,0.172695,-0.254381
-0.050000,-0.050000,0.000000,0.000000,0.000000,0.000000,0.000000,0.000000,0.000000,0.100000,0.100000,-0.723467,-0.683974,-0.050000,-0.050000,0.808695,-0.646013,0.000000,0.000000,-0.277718,0.244960,0.142347,0.170974,-0.346564,0.481323,-0.208391,-0.207320,0.175165,-0.262909
-0.050000,-0.050000,0.000000,0.000000,0.000000,0.000000,0.000000,0.000000,0.000000,0.100000,0.100000,-0.728348,-0.687492,-0.050000,-0.050000,0.803006,-0.644177,0.000000,0.000000,-0.279756,0.242603,0.154921,0.180569,-0.360624,0.482289,-0.207567,-0.207048,0.177520,-0.272533
-0.050000,-0.050000,0.000000,0.000000,0.000000,0.000000,0.000000,0.000000,0.000000,0.100000,0.100000,-0.732431,-0.690167,-0.050000,-0.050000,0.794095,-0.640319,0.000000,0.000000,-0.280047,0.239116,0.167551,0.188157,-0.376687,0.482861,-0.206854,-0.207530,0.180493,-0.284072
-0.050000,-0.050000,0.000000,0.000000,0.000000,0.000000,0.000000,0.000000,0.000000,0.100000,0.100000,-0.736018,-0.692044,-0.050000,-0.050000,0.783824,-0.635678,0.000000,0.000000,-0.279440,0.235275,0.179783,0.194120,-0.393287,0.482799,-0.206251,-0.208253,0.183812,-0.296810
-0.050000,-0.050000,0.000000,0.000000,0.000000,0.000000,0.000000,0.000000,0.000000,0.100000,0.100000,-0.739232,-0.693242,-0.050000,-0.050000,0.771312,-0.629544,0.000000,0.000000,-0.277513,0.230815,0.191357,0.197894,-0.410323,0.482048,-0.205981,-0.209620,0.187988,-0.311068
-0.050000,-0.050000,0.000000,0.000000,0.000000,0.000000,0.000000,0.000000,0.000000,0.100000,0.100000,-0.742233,-0.693787,-0.050000,-0.050000,0.757094,-0.622205,0.000000,0.000000,-0.274503,0.226047,0.201779,0.199341,-0.426831,0.480332,-0.206174,-0.211565,0.193123,-0.326610
-0.050000,-0.050000,0.000000,0.000000,0.000000,0.000000,0.000000,0.000000,0.000000,0.100000,0.100000,-0.744941,-0.693725,-0.050000,-0.050000,0.741691,-0.614021,0.000000,0.000000,-0.270693,0.221075,0.211199,0.198933,-0.442684,0.477743,-0.206668,-0.213799,0.199058,-0.343178
-0.050000,-0.050000,0.000000,0.000000,0.000000,0.000000,0.000000,0.000000,0.000000,0.100000,0.100000,-0.747714,-0.693190,-0.050000,-0.050000,0.724544,-0.604341,0.000000,0.000000,-0.265756,0.216019,0.218407,0.195579,-0.456464,0.473718,-0.208086,-0.216909,0.206381,-0.360789
-0.050000,-0.050000,0.000000,0.000000,0.000000,0.000000,0.000000,0.000000,0.000000,0.100000,0.100000,-0.750105,-0.692070,-0.050000,-0.050000,0.706677,-0.593995,0.000000,0.000000,-0.260220,0.210986,0.224034,0.190352,-0.468412,0.468465,-0.209874,-0.220191,0.214650,-0.379105
-0.050000,-0.050000,0.000000,0.000000,0.000000,0.000000,0.000000,0.000000,0.000000,0.100000,0.100000,-0.752316,-0.690507,-0.050000,-0.050000,0.687926,-0.582671,0.000000,0.000000,-0.254002,0.206114,0.227330,0.182782,-0.477616,0.461700,-0.212411,-0.223944,0.224046,-0.397926
-0.050000,-0.050000,0.000000,0.000000,0.000000,0.000000,0.000000,0.000000,0.000000,0.100000,0.100000,-0.754072,-0.688452,-0.050000,-0.050000,0.668735,-0.570643,0.000000,0.000000,-0.247351,0.201505,0.228221,0.173171,-0.483648,0.453322,-0.215562,-0.227965,0.234424,-0.416985
-0.050000,-0.050000,0.000000,0.000000,0.000000,0.000000,0.000000,0.000000,0.000000,0.100000,0.100000,-0.755260,-0.685944,-0.050000,-0.050000,0.649210,-0.558040,0.000000,0.000000,-0.240312,0.197069,0.227177,0.162025,-0.487134,0.443644,-0.219043,-0.232034,0.245640,-0.436232
-0.050000,-0.050000,0.000000,0.000000,0.000000,0.000000,0.000000,0.000000,0.000000,0.100000,0.100000,-0.760083,-0.685424,-0.050000,-0.050000,0.629179,-0.544429,0.000000,0.000000,-0.232465,0.192473,0.222299,0.145427,-0.484314,0.427735,-0.223449,-0.235904,0.259589,-0.459425
-0.050000,-0.050000,0.000000,0.000000,0.000000,0.000000,0.000000,0.000000,0.000000,0.100000,0.100000,-0.761054,-0.682775,-0.050000,-0.050000,0.609552,-0.530766,0.000000,0.000000,-0.225087,0.188661,0.215960,0.129745,-0.479615,0.413264,-0.227375,-0.239179,0.272886,-0.479613
-0.050000,-0.050000,0.000000,0.000000,0.000000,0.000000,0.000000,0.000000,0.000000,0.100000,0.100000,-0.759642,-0.678903,-0.050000,-0.050000,0.590379,-0.516834,0.000000,0.000000,-0.218104,0.185502,0.207004,0.113638,-0.471597,0.398404,-0.231542,-0.242810,0.285993,-0.498064
-0.050000,-0.050000,0.000000,0.000000,0.000000,0.000000,0.000000,0.000000,0.000000,0.100000,0.100000,-0.756488,-0.674240,-0.050000,-0.050000,0.571698,-0.502786,0.000000,0.000000,-0.211654,0.182895,0.196004,0.097162,-0.460804,0.382972,-0.235594,-0.246483,0.298841,-0.515316
-0.050000,-0.050000,0.000000,0.000000,0.000000,0.000000,0.000000,0.000000,0.000000,0.100000,0.100000,-0.752151,-0.669065,-0.050000,-0.050000,0.553338,-0.488628,0.000000,0.000000,-0.205572,0.180682,0.183547,0.080420,-0.448070,0.367106,-0.239416,-0.250072,0.311510,-0.531740
-0.050000,-0.050000,0.000000,0.000000,0.000000,0.000000,0.000000,0.000000,0.000000,0.100000,0.100000,-0.746110,-0.663133,-0.050000,-0.050000,0.535976,-0.474802,0.000000,0.000000,-0.200909,0.179313,0.169681,0.063880,-0.433006,0.351265,-0.242782,-0.253370,0.322935,-0.546344
-0.050000,-0.050000,0.000000,0.000000,0.000000,0.000000,0.000000,0.000000,0.000000,0.100000,0.100000,-0.739057,-0.656741,-0.050000,-0.050000,0.519046,-0.461073,0.000000,0.000000,-0.196919,0.178308,0.155221,0.047725,-0.417164,0.335817,-0.245671,-0.256446,0.333642,-0.559794
-0.050000,-0.050000,0.000000,0.000000,0.000000,0.000000,0.000000,0.000000,0.000000,0.100000,0.100000,-0.730775,-0.649749,-0.050000,-0.050000,0.503017,-0.447825,0.000000,0.000000,-0.194343,0.178031,0.140517,0.032445,-0.400751,0.321311,-0.247897,-0.259123,0.342829,-0.571401
-0.050000,-0.050000,0.000000,0.000000,0.000000,0.000000,0.000000,0.000000,0.000000,0.100000,0.100000,-0.721541,-0.642226,-0.050000,-0.050000,0.487844,-0.435132,0.000000,0.000000,-0.193079,0.178395,0.126247,0.018465,-0.384771,0.308320,-0.249369,-0.261335,0.350409,-0.581073
-0.050000,-0.050000,0.000000,0.000000,0.000000,0.000000,0.000000,0.000000,0.000000,0.100000,0.100000,-0.711743,-0.634400,-0.050000,-0.050000,0.473308,-0.422883,0.000000,0.000000,-0.192779,0.179185,0.112448,0.005581,-0.369363,0.296636,-0.250371,-0.263314,0.356702,-0.589217
-0.050000,-0.050000,0.000000,0.000000,0.000000,0.000000,0.000000,0.000000,0.000000,0.100000,0.100000,-0.701189,-0.625960,-0.050000,-0.050000,0.460108,-0.411747,0.000000,0.000000,-0.194255,0.180961,0.100422,-0.004930,-0.355942,0.287651,-0.250233,-0.264381,0.360687,-0.594631
-0.050000,-0.050000,0.000000,0.000000,0.000000,0.000000,0.000000,0.000000,0.000000,0.100000,0.100000,-0.690558,-0.617409,-0.050000,-0.050000,0.447623,-0.401262,0.000000,0.000000,-0.196488,0.183060,0.089653,-0.013916,-0.344100,0.280460,-0.249735,-0.265213,0.363354,-0.598374
-0.050000,-0.050000,0.000000,0.000000,0.000000,0.000000,0.000000,0.000000,0.000000,0.100000,0.100000,-0.679821,-0.608561,-0.050000,-0.050000,0.436299,-0.391882,0.000000,0.000000,-0.199866,0.185863,0.080990,-0.020663,-0.334685,0.275686,-0.248445,-0.265302,0.364279,-0.599853
-0.050000,-0.050000,0.000000,0.000000,0.000000,0.000000,0.000000,0.000000,0.000000,0.100000,0.100000,-0.669331,-0.599607,-0.050000,-0.050000,0.426068,-0.383617,0.000000,0.000000,-0.203929,0.189142,0.074500,-0.025351,-0.327835,0.273022,-0.246642,-0.264799,0.363832,-0.599320
-0.050000,-0.050000,0.000000,0.000000,0.000000,0.000000,0.000000,0.000000,0.000000,0.100000,0.100000,-0.659195,-0.590709,-0.050000,-0.050000,0.416636,-0.376188,0.000000,0.000000,-0.208458,0.192722,0.069737,-0.028476,-0.322966,0.271948,-0.244613,-0.263964,0.362355,-0.597297
-0.050000,-0.050000,0.000000,0.000000,0.000000,0.000000,0.000000,0.000000,0.000000,0.100000,0.100000,-0.649613,-0.581682,-0.050000,-0.050000,0.408710,-0.370368,0.000000,0.000000,-0.213291,0.196820,0.067775,-0.029330,-0.321371,0.272706,-0.242046,-0.262235,0.359795,-0.593147
-0.050000,-0.050000,0.000000,0.000000,0.000000,0.000000,0.000000,0.000000,0.000000,0.100000,0.100000,-0.640667,-0.572880,-0.050000,-0.050000,0.401543,-0.365383,0.000000,0.000000,-0.218132,0.201016,0.067426,-0.028989,-0.321653,0.274431,-0.239602,-0.260338,0.356613,-0.587878
-0.050000,-0.050000,0.000000,0.000000,0.000000,0.000000,0.000000,0.000000,0.000000,0.100000,0.100000,-0.632410,-0.564149,-0.050000,-0.050000,0.395566,-0.361687,0.000000,0.000000,-0.222779,0.205408,0.069110,-0.027212,-0.324343,0.276916,-0.237133,-0.257964,0.352957,-0.581295
-0.050000,-0.050000,0.000000,0.000000,0.000000,0.000000,0.000000,0.000000,0.000000,0.100000,0.100000,-0.624888,-0.555616,-0.050000,-0.050000,0.390612,-0.359080,0.000000,0.000000,-0.227030,0.209820,0.072363,-0.024406,-0.328997,0.279675,-0.234949,-0.255385,0.349040,-0.573801
-0.050000,-0.050000,0.000000,0.000000,0.000000,0.000000,0.000000,0.000000,0.000000,0.100000,0.100000,-0.617954,-0.547283,-0.050000,-0.050000,0.386373,-0.357218,0.000000,0.000000,-0.230975,0.214242,0.076775,-0.020871,-0.335054,0.282561,-0.233042,-0.252702,0.344924,-0.565703
-0.050000,-0.050000,0.000000,0.000000,0.000000,0.000000,0.000000,0.000000,0.000000,0.100000,0.100000,-0.611777,-0.539153,-0.050000,-0.050000,0.383456,-0.356674,0.000000,0.000000,-0.234154,0.218542,0.082478,-0.016384,-0.342998,0.285004,-0.231626,-0.249866,0.340841,-0.556961
-0.050000,-0.050000,0.000000,0.000000,0.000000,0.000000,0.000000,0.000000,0.000000,0.100000,0.100000,-0.606103,-0.531297,-0.050000,-0.050000,0.381130,-0.356665,0.000000,0.000000,-0.236986,0.222794,0.088892,-0.011311,-0.351902,0.287224,-0.230594,-0.247067,0.336641,-0.547960
-0.050000,-0.050000,0.000000,0.000000,0.000000,0.000000,0.000000,0.000000,0.000000,0.100000,0.100000,-0.600975,-0.523712,-0.050000,-0.050000,0.379779,-0.357532,0.000000,0.000000,-0.239238,0.226916,0.095987,-0.005405,-0.361904,0.288876,-0.229992,-0.244232,0.332457,-0.538712
-0.050000,-0.050000,0.000000,0.000000,0.000000,0.000000,0.000000,0.000000,0.000000,0.100000,0.100000,-0.596307,-0.516469,-0.050000,-0.050000,0.379216,-0.359042,0.000000,0.000000,-0.241122,0.230987,0.103573,0.001510,-0.372653,0.290032,-0.229687,-0.241328,0.328183,-0.529338
-0.050000,-0.050000,0.000000,0.000000,0.000000,0.000000,0.000000,0.000000,0.000000,0.100000,0.100000,-0.591977,-0.509542,-0.050000,-0.050000,0.379201,-0.360962,0.000000,0.000000,-0.242739,0.235041,0.111506,0.009239,-0.383913,0.290828,-0.229573,-0.238423,0.323815,-0.519879
-0.050000,-0.050000,0.000000,0.000000,0.000000,0.000000,0.000000,0.000000,0.000000,0.100000,0.100000,-0.588146,-0.503067,-0.050000,-0.050000,0.380192,-0.363665,0.000000,0.000000,-0.244183,0.239192,0.119876,0.018907,-0.395639,0.290984,-0.229458,-0.235103,0.319238,-0.510305
-0.050000,-0.050000,0.000000,0.000000,0.000000,0.000000,0.000000,0.000000,0.000000,0.100000,0.100000,-0.584639,-0.497033,-0.050000,-0.050000,0.381601,-0.366623,0.000000,0.000000,-0.245606,0.243505,0.128556,0.029877,-0.407582,0.290875,-0.229262,-0.231655,0.314447,-0.500623
-0.050000,-0.050000,0.000000,0.000000,0.000000,0.000000,0.000000,0.000000,0.000000,0.100000,0.100000,-0.581599,-0.491471,-0.050000,-0.050000,0.383716,-0.370081,0.000000,0.000000,-0.247163,0.248140,0.137652,0.043006,-0.419638,0.290301,-0.228767,-0.227685,0.309334,-0.490754
-0.050000,-0.050000,0.000000,0.000000,0.000000,0.000000,0.000000,0.000000,0.000000,0.100000,0.100000,-0.574897,-0.482333,-0.050000,-0.050000,0.385253,-0.373436,0.000000,0.000000,-0.249757,0.254056,0.145206,0.056358,-0.429612,0.289063,-0.227243,-0.222685,0.305131,-0.481796
-0.050000,-0.050000,0.000000,0.000000,0.000000,0.000000,0.000000,0.000000,0.000000,0.100000,0.100000,-0.570252,-0.475063,-0.050000,-0.050000,0.387766,-0.377154,0.000000,0.000000,-0.252275,0.259908,0.153637,0.071922,-0.440652,0.287461,-0.225589,-0.217395,0.300061,-0.471948
-0.050000,-0.050000,0.000000,0.000000,0.000000,0.000000,0.000000,0.000000,0.000000,0.100000,0.100000,-0.567719,-0.469288,-0.050000,-0.050000,0.391065,-0.381338,0.000000,0.000000,-0.255313,0.266480,0.163242,0.091150,-0.452155,0.285386,-0.223372,-0.211088,0.293983,-0.461233
-0.050000,-0.050000,0.000000,0.000000,0.000000,0.000000,0.000000,0.000000,0.000000,0.100000,0.100000,-0.566424,-0.464649,-0.050000,-0.050000,0.394560,-0.385520,0.000000,0.000000,-0.258604,0.273544,0.173699,0.112687,-0.463921,0.283108,-0.220863,-0.204497,0.287321,-0.449956
-0.050000,-0.050000,0.000000,0.000000,0.000000,0.000000,0.000000,0.000000,0.000000,0.100000,0.100000,-0.566381,-0.460602,-0.050000,-0.050000,0.398221,-0.389701,0.000000,0.000000,-0.262606,0.281618,0.184902,0.137180,-0.475766,0.280416,-0.217841,-0.197119,0.279909,-0.437921
-0.050000,-0.050000,0.000000,0.000000,0.000000,0.000000,0.000000,0.000000,0.000000,0.100000,0.100000,-0.567469,-0.456997,-0.050000,-0.050000,0.401755,-0.393602,0.000000,0.000000,-0.267303,0.290670,0.196660,0.164243,-0.487750,0.277402,-0.214415,-0.189141,0.271776,-0.425089
-0.050000,-0.050000,0.000000,0.000000,0.000000,0.000000,0.000000,0.000000,0.000000,0.100000,0.100000,-0.569411,-0.453766,-0.050000,-0.050000,0.405152,-0.397178,0.000000,0.000000,-0.272493,0.300435,0.208868,0.193233,-0.499839,0.274064,-0.210682,-0.180832,0.263093,-0.411572
-0.050000,-0.050000,0.000000,0.000000,0.000000,0.000000,0.000000,0.000000,0.000000,0.100000,0.100000,-0.572702,-0.450425,-0.050000,-0.050000,0.408006,-0.400051,0.000000,0.000000,-0.278744,0.311545,0.221176,0.224990,-0.512116,0.270471,-0.206601,-0.171655,0.253411,-0.396929
-0.050000,-0.050000,0.000000,0.000000,0.000000,0.000000,0.000000,0.000000,0.000000,0.100000,0.100000,-0.576704,-0.447248,-0.050000,-0.050000,0.410495,-0.402322,0.000000,0.000000,-0.285431,0.323195,0.233597,0.258222,-0.524476,0.266663,-0.202371,-0.162326,0.243177,-0.381549
-0.050000,-0.050000,0.000000,0.000000,0.000000,0.000000,0.000000,0.000000,0.000000,0.100000,0.100000,-0.581662,-0.443790,-0.050000,-0.050000,0.412340,-0.403691,0.000000,0.000000,-0.292880,0.335711,0.245648,0.293271,-0.536856,0.262738,-0.198052,-0.152535,0.232121,-0.365190
-0.050000,-0.050000,0.000000,0.000000,0.000000,0.000000,0.000000,0.000000,0.000000,0.100000,0.100000,-0.587224,-0.440034,-0.050000,-0.050000,0.413618,-0.404138,0.000000,0.000000,-0.300842,0.348680,0.257016,0.329563,-0.548979,0.258786,-0.193801,-0.142563,0.220384,-0.348024
-0.050000,-0.050000,0.000000,0.000000,0.000000,0.000000,0.000000,0.000000,0.000000,0.100000,0.100000,-0.593124,-0.435992,-0.050000,-0.050000,0.414470,-0.403793,0.000000,0.000000,-0.309160,0.361896,0.267763,0.366670,-0.560801,0.254667,-0.189563,-0.132539,0.208191,-0.330207
-0.050000,-0.050000,0.000000,0.000000,0.000000,0.000000,0.000000,0.000000,0.000000,0.100000,0.100000,-0.599256,-0.431202,-0.050000,-0.050000,0.414810,-0.402305,0.000000,0.000000,-0.317898,0.375163,0.276641,0.404476,-0.571484,0.250796,-0.185764,-0.122473,0.195248,-0.311752
-0.050000,-0.050000,0.000000,0.000000,0.000000,0.000000,0.000000,0.000000,0.000000,0.100000,0.100000,-0.605116,-0.425986,-0.050000,-0.050000,0.415014,-0.400131,0.000000,0.000000,-0.326745,0.388159,0.284276,0.442330,-0.581165,0.246803,-0.182105,-0.112604,0.182072,-0.292970
-0.050000,-0.050000,0.000000,0.000000,0.000000,0.000000,0.000000,0.000000,0.000000,0.100000,0.100000,-0.610525,-0.420045,-0.050000,-0.050000,0.415203,-0.397131,0.000000,0.000000,-0.335668,0.400615,0.289740,0.479908,-0.589052,0.242982,-0.178923,-0.103025,0.168508,-0.274035
-0.050000,-0.050000,0.000000,0.000000,0.000000,0.000000,0.000000,0.000000,0.000000,0.100000,0.100000,-0.615041,-0.413497,-0.050000,-0.050000,0.415740,-0.393579,0.000000,0.000000,-0.344502,0.412187,0.293001,0.516587,-0.594738,0.239313,-0.176152,-0.093947,0.154768,-0.255272
-0.050000,-0.050000,0.000000,0.000000,0.000000,0.000000,0.000000,0.000000,0.000000,0.100000,0.100000,-0.618705,-0.406350,-0.050000,-0.050000,0.416571,-0.389565,0.000000,0.000000,-0.353257,0.423033,0.294400,0.552393,-0.598613,0.235633,-0.173617,-0.085236,0.140999,-0.236683
-0.050000,-0.050000,0.000000,0.000000,0.000000,0.000000,0.000000,0.000000,0.000000,0.100000,0.100000,-0.620770,-0.398732,-0.050000,-0.050000,0.418497,-0.385365,0.000000,0.000000,-0.361712,0.432185,0.292949,0.585912,-0.598906,0.232587,-0.171692,-0.077528,0.127058,-0.219013
-0.050000,-0.050000,0.000000,0.000000,0.000000,0.000000,0.000000,0.000000,0.000000,0.100000,0.100000,-0.621595,-0.390648,-0.050000,-0.050000,0.421026,-0.381031,0.000000,0.000000,-0.370020,0.440350,0.289709,0.617727,-0.597032,0.229714,-0.169840,-0.070298,0.113236,-0.201929
-0.050000,-0.050000,0.000000,0.000000,0.000000,0.000000,0.000000,0.000000,0.000000,0.100000,0.100000,-0.620757,-0.382402,-0.050000,-0.050000,0.424713,-0.376847,0.000000,0.000000,-0.378056,0.446865,0.284391,0.646745,-0.591982,0.227542,-0.168233,-0.064031,0.099391,-0.186003
-0.050000,-0.050000,0.000000,0.000000,0.000000,0.000000,0.000000,0.000000,0.000000,0.100000,0.100000,-0.618305,-0.374183,-0.050000,-0.050000,0.429375,-0.372941,0.000000,0.000000,-0.385870,0.451883,0.277589,0.672718,-0.584223,0.226112,-0.166582,-0.058616,0.085615,-0.171282
-0.050000,-0.050000,0.000000,0.000000,0.000000,0.000000,0.000000,0.000000,0.000000,0.100000,0.100000,-0.614641,-0.365884,-0.050000,-0.050000,0.434743,-0.369281,0.000000,0.000000,-0.393521,0.455801,0.269656,0.696236,-0.574455,0.225249,-0.164866,-0.053716,0.071904,-0.157509
-0.050000,-0.050000,0.000000,0.000000,0.000000,0.000000,0.000000,0.000000,0.000000,0.100000,0.100000,-0.609056,-0.358502,-0.050000,-0.050000,0.441126,-0.366324,0.000000,0.000000,-0.400832,0.457748,0.261185,0.715138,-0.561946,0.225778,-0.162841,-0.050133,0.058284,-0.145551
-0.050000,-0.050000,0.000000,0.000000,0.000000,0.000000,0.000000,0.000000,0.000000,0.100000,0.100000,-0.602539,-0.351306,-0.050000,-0.050000,0.447795,-0.363771,0.000000,0.000000,-0.407918,0.458806,0.252411,0.731270,-0.548184,0.227027,-0.160591,-0.046890,0.044822,-0.134590
-0.050000,-0.050000,0.000000,0.000000,0.000000,0.000000,0.000000,0.000000,0.000000,0.100000,0.100000,-0.594663,-0.345182,-0.050000,-0.050000,0.454733,-0.361897,0.000000,0.000000,-0.414565,0.458417,0.244073,0.743228,-0.533089,0.229503,-0.157953,-0.044590,0.031647,-0.125159
-0.050000,-0.050000,0.000000,0.000000,0.000000,0.000000,0.000000,0.000000,0.000000,0.100000,0.100000,-0.585835,-0.340008,-0.050000,-0.050000,0.461406,-0.360619,0.000000,0.000000,-0.420571,0.456935,0.236547,0.751399,-0.517556,0.233035,-0.155006,-0.042943,0.019012,-0.117066
-0.050000,-0.050000,0.000000,0.000000,0.000000,0.000000,0.000000,0.000000,0.000000,0.100000,0.100000,-0.576408,-0.335495,-0.050000,-0.050000,0.467785,-0.359865,0.000000,0.000000,-0.426071,0.454698,0.229741,0.756651,-0.501829,0.237368,-0.151897,-0.041658,0.006789,-0.109995
-0.050000,-0.050000,0.000000,0.000000,0.000000,0.000000,0.000000,0.000000,0.000000,0.100000,0.100000,-0.565925,-0.332685,-0.050000,-0.050000,0.472956,-0.359720,0.000000,0.000000,-0.430018,0.451060,0.224888,0.757133,-0.487067,0.243003,-0.148523,-0.041473,-0.003955,-0.104630
-0.050000,-0.050000,0.000000,0.000000,0.000000,0.000000,0.000000,0.000000,0.000000,0.100000,0.100000,-0.555215,-0.330392,-0.050000,-0.050000,0.477300,-0.360051,0.000000,0.000000,-0.433001,0.446899,0.221063,0.755023,-0.473108,0.249313,-0.145211,-0.041503,-0.013772,-0.100230
-0.050000,-0.050000,0.000000,0.000000,0.000000,0.000000,0.000000,0.000000,0.000000,0.100000,0.100000,-0.543886,-0.329298,-0.050000,-0.050000,0.480085,-0.360778,0.000000,0.000000,-0.434062,0.441671,0.219045,0.749247,-0.461020,0.256597,-0.141951,-0.042351,-0.021688,-0.097234
-0.050000,-0.050000,0.000000,0.000000,0.000000,0.000000,0.000000,0.000000,0.000000,0.100000,0.100000,-0.532266,-0.328876,-0.050000,-0.050000,0.481347,-0.361826,0.000000,0.000000,-0.433057,0.435623,0.218474,0.740570,-0.451139,0.264690,-0.138967,-0.043768,-0.027526,-0.095489
-0.050000,-0.050000,0.000000,0.000000,0.000000,0.000000,0.000000,0.000000,0.000000,0.100000,0.100000,-0.520465,-0.328885,-0.050000,-0.050000,0.481423,-0.363154,0.000000,0.000000,-0.430480,0.429033,0.218980,0.729705,-0.443033,0.273359,-0.136211,-0.045576,-0.031734,-0.094707
-0.050000,-0.050000,0.000000,0.000000,0.000000,0.000000,0.000000,0.000000,0.000000,0.100000,0.100000,-0.508338,-0.329395,-0.050000,-0.050000,0.479476,-0.364524,0.000000,0.000000,-0.424441,0.421177,0.220998,0.715913,-0.438669,0.283044,-0.134049,-0.048307,-0.032501,-0.095475
-0.050000,-0.050000,0.000000,0.000000,0.000000,0.000000,0.000000,0.000000,0.000000,0.100000,0.100000,-0.496238,-0.329841,-0.050000,-0.050000,0.476661,-0.366093,0.000000,0.000000,-0.416735,0.412984,0.223585,0.700661,-0.436335,0.293182,-0.132263,-0.051322,-0.031465,-0.097097
-0.050000,-0.050000,0.000000,0.000000,0.000000,0.000000,0.000000,0.000000,0.000000,0.100000,0.100000,-0.484094,-0.330152,-0.050000,-0.050000,0.472594,-0.367601,0.000000,0.000000,-0.406055,0.403879,0.226892,0.683732,-0.437254,0.304054,-0.131139,-0.054965,-0.027475,-0.099878
-0.050000,-0.050000,0.000000,0.000000,0.000000,0.000000,0.000000,0.000000,0.000000,0.100000,0.100000,-0.472121,-0.329976,-0.050000,-0.050000,0.468004,-0.369114,0.000000,0.000000,-0.393052,0.394269,0.230431,0.665879,-0.440805,0.315412,-0.130652,-0.058961,-0.021089,-0.103531
-0.050000,-0.050000,0.000000,0.000000,0.000000,0.000000,0.000000,0.000000,0.000000,0.100000,0.100000,-0.460272,-0.329390,-0.050000,-0.050000,0.463102,-0.370569,0.000000,0.000000,-0.378353,0.384332,0.234045,0.647397,-0.446354,0.327074,-0.130663,-0.063248,-0.012936,-0.107805
-0.050000,-0.050000,0.000000,0.000000,0.000000,0.000000,0.000000,0.000000,0.000000,0.100000,0.100000,-0.448930,-0.327731,-0.050000,-0.050000,0.458553,-0.371951,0.000000,0.000000,-0.360981,0.373883,0.237558,0.628934,-0.454626,0.339071,-0.131577,-0.067708,-0.002121,-0.112805
-0.050000,-0.050000,0.000000,0.000000,0.000000,0.000000,0.000000,0.000000,0.000000,0.100000,0.100000,-0.437847,-0.325489,-0.050000,-0.050000,0.454523,-0.373256,0.000000,0.000000,-0.342609,0.363468,0.240872,0.610618,-0.464196,0.351029,-0.132937,-0.072221,0.009874,-0.118076
-0.050000,-0.050000,0.000000,0.000000,0.000000,0.000000,0.000000,0.000000,0.000000,0.100000,0.100000,-0.427347,-0.322172,-0.050000,-0.050000,0.451652,-0.374526,0.000000,0.000000,-0.322743,0.353026,0.243980,0.593136,-0.475240,0.362836,-0.134972,-0.076568,0.023467,-0.123603
-0.050000,-0.050000,0.000000,0.000000,0.000000,0.000000,0.000000,0.000000,0.000000,0.100000,0.100000,-0.417360,-0.317961,-0.050000,-0.050000,0.450245,-0.375776,0.000000,0.000000,-0.302206,0.342895,0.247014,0.576800,-0.487103,0.374176,-0.137442,-0.080582,0.038052,-0.129147
-0.050000,-0.050000,0.000000,0.000000,0.000000,0.000000,0.000000,0.000000,0.000000,0.100000,0.100000,-0.407761,-0.313123,-0.050000,-0.050000,0.450006,-0.376904,0.000000,0.000000,-0.281236,0.333015,0.250039,0.561454,-0.499536,0.385085,-0.140288,-0.084364,0.053294,-0.134647
-0.050000,-0.050000,0.000000,0.000000,0.000000,0.000000,0.000000,0.000000,0.000000,0.100000,0.100000,-0.398874,-0.307152,-0.050000,-0.050000,0.452143,-0.378206,0.000000,0.000000,-0.260224,0.323952,0.253535,0.548396,-0.512277,0.394888,-0.143322,-0.087238,0.069303,-0.139966
-0.050000,-0.050000,0.000000,0.000000,0.000000,0.000000,0.000000,0.000000,0.000000,0.100000,0.100000,-0.390290,-0.300848,-0.050000,-0.050000,0.455459,-0.379308,0.000000,0.000000,-0.239425,0.315382,0.257521,0.536668,-0.525292,0.403961,-0.146487,-0.089735,0.085572,-0.145119
-0.050000,-0.050000,0.000000,0.000000,0.000000,0.000000,0.000000,0.000000,0.000000,0.100000,0.100000,-0.382169,-0.293900,-0.050000,-0.050000,0.460622,-0.380476,0.000000,0.000000,-0.219200,0.307772,0.262496,0.527173,-0.538471,0.411785,-0.149540,-0.091327,0.102153,-0.150079
-0.050000,-0.050000,0.000000,0.000000,0.000000,0.000000,0.000000,0.000000,0.000000,0.100000,0.100000,-0.374310,-0.286717,-0.050000,-0.050000,0.466974,-0.381510,0.000000,0.000000,-0.199785,0.301097,0.268736,0.519638,-0.552021,0.418393,-0.152346,-0.092168,0.118855,-0.154887
-0.050000,-0.050000,0.000000,0.000000,0.000000,0.000000,0.000000,0.000000,0.000000,0.100000,0.100000,-0.366698,-0.279435,-0.050000,-0.050000,0.474175,-0.382392,0.000000,0.000000,-0.181008,0.295141,0.276091,0.513670,-0.565946,0.424041,-0.155022,-0.092462,0.135573,-0.159597
-0.050000,-0.050000,0.000000,0.000000,0.000000,0.000000,0.000000,0.000000,0.000000,0.100000,0.100000,-0.359088,-0.272144,-0.050000,-0.050000,0.482005,-0.383120,0.000000,0.000000,-0.163685,0.290614,0.285479,0.510018,-0.580731,0.427996,-0.156932,-0.091682,0.152257,-0.164233
-0.050000,-0.050000,0.000000,0.000000,0.000000,0.000000,0.000000,0.000000,0.000000,0.100000,0.100000,-0.351575,-0.265086,-0.050000,-0.050000,0.489878,-0.383565,0.000000,0.000000,-0.147111,0.286776,0.296149,0.507587,-0.596271,0.431025,-0.158603,-0.090492,0.168742,-0.168857
-0.050000,-0.050000,0.000000,0.000000,0.000000,0.000000,0.000000,0.000000,0.000000,0.100000,0.100000,-0.343855,-0.258347,-0.050000,-0.050000,0.497363,-0.383716,0.000000,0.000000,-0.131845,0.284102,0.308545,0.506645,-0.612926,0.432676,-0.159548,-0.088572,0.184916,-0.173466
-0.050000,-0.050000,0.000000,0.000000,0.000000,0.000000,0.000000,0.000000,0.000000,0.100000,0.100000,-0.335866,-0.252061,-0.050000,-0.050000,0.503956,-0.383506,0.000000,0.000000,-0.117666,0.282305,0.322196,0.506574,-0.630647,0.433206,-0.159920,-0.086208,0.200566,-0.178060
-0.050000,-0.050000,0.000000,0.000000,0.000000,0.000000,0.000000,0.000000,0.000000,0.100000,0.100000,-0.327662,-0.246113,-0.050000,-0.050000,0.509758,-0.383055,0.000000,0.000000,-0.104257,0.281146,0.336747,0.507092,-0.649213,0.432875,-0.159874,-0.083520,0.215717,-0.182654
-0.050000,-0.050000,0.000000,0.000000,0.000000,0.000000,0.000000,0.000000,0.000000,0.100000,0.100000,-0.318686,-0.240851,-0.050000,-0.050000,0.513537,-0.382130,0.000000,0.000000,-0.092283,0.280905,0.351867,0.507681,-0.668696,0.431320,-0.159001,-0.080514,0.229798,-0.187110
-0.050000,-0.050000,0.000000,0.000000,0.000000,0.000000,0.000000,0.000000,0.000000,0.100000,0.100000,-0.309302,-0.235864,-0.050000,-0.050000,0.516141,-0.381074,0.000000,0.000000,-0.080865,0.280967,0.366945,0.508124,-0.688482,0.429125,-0.157817,-0.077409,0.243114,-0.191533
-0.050000,-0.050000,0.000000,0.000000,0.000000,0.000000,0.000000,0.000000,0.000000,0.100000,0.100000,-0.299092,-0.231397,-0.050000,-0.050000,0.516714,-0.379736,0.000000,0.000000,-0.070496,0.281439,0.381372,0.507831,-0.708261,0.426148,-0.156116,-0.074311,0.255183,-0.195785
-0.050000,-0.050000,0.000000,0.000000,0.000000,0.000000,0.000000,0.000000,0.000000,0.100000,0.100000,-0.288130,-0.227243,-0.050000,-0.050000,0.515554,-0.378339,0.000000,0.000000,-0.060853,0.281940,0.394414,0.506511,-0.727351,0.422681,-0.154171,-0.071377,0.266020,-0.199929
-0.050000,-0.050000,0.000000,0.000000,0.000000,0.000000,0.000000,0.000000,0.000000,0.100000,0.100000,-0.276477,-0.223228,-0.050000,-0.050000,0.512968,-0.376964,0.000000,0.000000,-0.051722,0.282387,0.406101,0.504256,-0.745675,0.418876,-0.152015,-0.068564,0.275944,-0.203992
-0.050000,-0.050000,0.000000,0.000000,0.000000,0.000000,0.000000,0.000000,0.000000,0.100000,0.100000,-0.263962,-0.219598,-0.050000,-0.050000,0.508389,-0.375685,0.000000,0.000000,-0.043570,0.282426,0.414709,0.500095,-0.761883,0.414926,-0.149936,-0.066317,0.284111,-0.207991
-0.050000,-0.050000,0.000000,0.000000,0.000000,0.000000,0.000000,0.000000,0.000000,0.100000,0.100000,-0.250823,-0.215884,-0.050000,-0.050000,0.502669,-0.374668,0.000000,0.000000,-0.035771,0.282020,0.421130,0.494790,-0.776474,0.410988,-0.147880,-0.064308,0.291529,-0.212050
-0.050000,-0.050000,0.000000,0.000000,0.000000,0.000000,0.000000,0.000000,0.000000,0.100000,0.100000,-0.237165,-0.212313,-0.050000,-0.050000,0.495618,-0.373984,0.000000,0.000000,-0.028719,0.280892,0.424154,0.487731,-0.788470,0.407326,-0.146154,-0.062904,0.297609,-0.216250
-0.050000,-0.050000,0.000000,0.000000,0.000000,0.000000,0.000000,0.000000,0.000000,0.100000,0.100000,-0.223240,-0.208689,-0.050000,-0.050000,0.487675,-0.373753,0.000000,0.000000,-0.022217,0.278924,0.423986,0.479244,-0.797879,0.404146,-0.144799,-0.062012,0.302767,-0.220728
-0.050000,-0.050000,0.000000,0.000000,0.000000,0.000000,0.000000,0.000000,0.000000,0.100000,0.100000,-0.209130,-0.204975,-0.050000,-0.050000,0.479009,-0.373904,0.000000,0.000000,-0.016188,0.276255,0.421226,0.469626,-0.805155,0.401404,-0.143707,-0.061504,0.307327,-0.225448
-0.050000,-0.050000,0.000000,0.000000,0.000000,0.000000,0.000000,0.000000,0.000000,0.100000,0.100000,-0.195542,-0.201283,-0.050000,-0.050000,0.470046,-0.374710,0.000000,0.000000,-0.010957,0.272413,0.414665,0.458552,-0.809098,0.399708,-0.143327,-0.061767,0.310780,-0.230721
-0.050000,-0.050000,0.000000,0.000000,0.000000,0.000000,0.000000,0.000000,0.000000,0.100000,0.100000,-0.182256,-0.197456,-0.050000,-0.050000,0.460820,-0.375917,0.000000,0.000000,-0.006205,0.267860,0.406035,0.446729,-0.811039,0.398684,-0.143175,-0.062357,0.313946,-0.236308
-0.050000,-0.050000,0.000000,0.000000,0.000000,0.000000,0.000000,0.000000,0.000000,0.100000,0.100000,-0.170002,-0.193608,-0.050000,-0.050000,0.451864,-0.377689,0.000000,0.000000,-0.002202,0.262383,0.394791,0.434066,-0.810300,0.398760,-0.143538,-0.063534,0.316438,-0.242385
-0.050000,-0.050000,0.000000,0.000000,0.000000,0.000000,0.000000,0.000000,0.000000,0.100000,0.100000,-0.158922,-0.189727,-0.050000,-0.050000,0.443381,-0.379888,0.000000,0.000000,0.001082,0.256251,0.381889,0.420950,-0.807369,0.399869,-0.144184,-0.065132,0.318537,-0.248787
-0.050000,-0.050000,0.000000,0.000000,0.000000,0.000000,0.000000,0.000000,0.000000,0.100000,0.100000,-0.148918,-0.185852,-0.050000,-0.050000,0.435331,-0.382386,0.000000,0.000000,0.003763,0.249616,0.367905,0.407559,-0.802771,0.401806,-0.145015,-0.067073,0.320339,-0.255408
-0.050000,-0.050000,0.000000,0.000000,0.000000,0.000000,0.000000,0.000000,0.000000,0.100000,0.100000,-0.141019,-0.182081,-0.050000,-0.050000,0.428688,-0.385255,0.000000,0.000000,0.005379,0.242675,0.353044,0.394163,-0.795806,0.405090,-0.146049,-0.069454,0.321555,-0.262139
-0.050000,-0.050000,0.000000,0.000000,0.000000,0.000000,0.000000,0.000000,0.000000,0.100000,0.100000,-0.134469,-0.178467,-0.050000,-0.050000,0.422793,-0.388210,0.000000,0.000000,0.006340,0.235597,0.338240,0.380937,-0.787618,0.409177,-0.147074,-0.072086,0.322490,-0.268785
-0.050000,-0.050000,0.000000,0.000000,0.000000,0.000000,0.000000,0.000000,0.000000,0.100000,0.100000,-0.129962,-0.175117,-0.050000,-0.050000,0.418430,-0.391250,0.000000,0.000000,0.006259,0.228704,0.323776,0.368175,-0.777806,0.414380,-0.148032,-0.074971,0.322879,-0.275141
-0.050000,-0.050000,0.000000,0.000000,0.000000,0.000000,0.000000,0.000000,0.000000,0.100000,0.100000,-0.127255,-0.172167,-0.050000,-0.050000,0.415416,-0.394180,0.000000,0.000000,0.005234,0.222210,0.310303,0.356111,-0.766927,0.420552,-0.148770,-0.077994,0.322753,-0.280984
-0.050000,-0.050000,0.000000,0.000000,0.000000,0.000000,0.000000,0.000000,0.000000,0.100000,0.100000,-0.126074,-0.169634,-0.050000,-0.050000,0.413534,-0.396968,0.000000,0.000000,0.003475,0.216069,0.297873,0.344737,-0.755340,0.427496,-0.149352,-0.081157,0.322136,-0.286333
-0.050000,-0.050000,0.000000,0.000000,0.000000,0.000000,0.000000,0.000000,0.000000,0.100000,0.100000,-0.126892,-0.167822,-0.050000,-0.050000,0.413439,-0.399386,0.000000,0.000000,0.000438,0.210988,0.287280,0.334648,-0.743077,0.435581,-0.149363,-0.084205,0.320738,-0.290630
-0.050000,-0.050000,0.000000,0.000000,0.000000,0.000000,0.000000,0.000000,0.000000,0.100000,0.100000,-0.129005,-0.166668,-0.050000,-0.050000,0.414321,-0.401488,0.000000,0.000000,-0.003202,0.206449,0.278223,0.325547,-0.730791,0.444375,-0.149132,-0.087288,0.318751,-0.294197
-0.050000,-0.050000,0.000000,0.000000,0.000000,0.000000,0.000000,0.000000,0.000000,0.100000,0.100000,-0.132573,-0.166394,-0.050000,-0.050000,0.416516,-0.403102,0.000000,0.000000,-0.007812,0.202973,0.271092,0.317807,-0.718686,0.454074,-0.148323,-0.090165,0.315972,-0.296631
-0.050000,-0.050000,0.000000,0.000000,0.000000,0.000000,0.000000,0.000000,0.000000,0.100000,0.100000,-0.137238,-0.167037,-0.050000,-0.050000,0.419620,-0.404228,0.000000,0.000000,-0.013040,0.200329,0.265716,0.311315,-0.707263,0.464496,-0.147075,-0.092890,0.312448,-0.298034
-0.050000,-0.050000,0.000000,0.000000,0.000000,0.000000,0.000000,0.000000,0.000000,0.100000,0.100000,-0.142772,-0.168492,-0.050000,-0.050000,0.423438,-0.404954,0.000000,0.000000,-0.018711,0.198339,0.261765,0.305887,-0.696542,0.475481,-0.145529,-0.095517,0.308267,-0.298582
-0.050000,-0.050000,0.000000,0.000000,0.000000,0.000000,0.000000,0.000000,0.000000,0.100000,0.100000,-0.149032,-0.171032,-0.050000,-0.050000,0.427836,-0.405064,0.000000,0.000000,-0.024816,0.197232,0.259358,0.301650,-0.687344,0.487047,-0.143479,-0.097908,0.303286,-0.297961
-0.050000,-0.050000,0.000000,0.000000,0.000000,0.000000,0.000000,0.000000,0.000000,0.100000,0.100000,-0.155770,-0.174325,-0.050000,-0.050000,0.432580,-0.404843,0.000000,0.000000,-0.030976,0.196469,0.257850,0.298187,-0.679294,0.498911,-0.141338,-0.100310,0.297744,-0.296679
-0.050000,-0.050000,0.000000,0.000000,0.000000,0.000000,0.000000,0.000000,0.000000,0.100000,0.100000,-0.162787,-0.178470,-0.050000,-0.050000,0.437429,-0.404169,0.000000,0.000000,-0.037068,0.196067,0.257063,0.295367,-0.672977,0.510967,-0.139080,-0.102719,0.291643,-0.294653
-0.050000,-0.050000,0.000000,0.000000,0.000000,0.000000,0.000000,0.000000,0.000000,0.100000,0.100000,-0.169909,-0.183257,-0.050000,-0.050000,0.442224,-0.403205,0.000000,0.000000,-0.042804,0.195654,0.256509,0.292871,-0.668326,0.522997,-0.136984,-0.105327,0.285177,-0.292232
-0.050000,-0.050000,0.000000,0.000000,0.000000,0.000000,0.000000,0.000000,0.000000,0.100000,0.100000,-0.177043,-0.188514,-0.050000,-0.050000,0.446938,-0.402025,0.000000,0.000000,-0.048213,0.195185,0.255992,0.290548,-0.665034,0.534933,-0.135056,-0.108128,0.278457,-0.289560
-0.050000,-0.050000,0.000000,0.000000,0.000000,0.000000,0.000000,0.000000,0.000000,0.100000,0.100000,-0.183970,-0.194206,-0.050000,-0.050000,0.451182,-0.400672,0.000000,0.000000,-0.052707,0.194118,0.254975,0.288010,-0.663887,0.546466,-0.133723,-0.111464,0.271777,-0.287039
-0.050000,-0.050000,0.000000,0.000000,0.000000,0.000000,0.000000,0.000000,0.000000,0.100000,0.100000,-0.190718,-0.200085,-0.050000,-0.050000,0.455235,-0.399276,0.000000,0.000000,-0.056664,0.192665,0.253505,0.285305,-0.664003,0.557660,-0.132764,-0.115141,0.265188,-0.284747
-0.050000,-0.050000,0.000000,0.000000,0.000000,0.000000,0.000000,0.000000,0.000000,0.100000,0.100000,-0.197161,-0.206094,-0.050000,-0.050000,0.458816,-0.397909,0.000000,0.000000,-0.059597,0.190336,0.251256,0.282181,-0.665909,0.568291,-0.132523,-0.119418,0.259037,-0.283127
-0.050000,-0.050000,0.000000,0.000000,0.000000,0.000000,0.000000,0.000000,0.000000,0.100000,0.100000,-0.203296,-0.212101,-0.050000,-0.050000,0.462090,-0.396691,0.000000,0.000000,-0.061635,0.187163,0.248272,0.278680,-0.669271,0.578321,-0.132902,-0.124181,0.253503,-0.282393
-0.050000,-0.050000,0.000000,0.000000,0.000000,0.000000,0.000000,0.000000,0.000000,0.100000,0.100000,-0.209163,-0.218071,-0.050000,-0.050000,0.465119,-0.395604,0.000000,0.000000,-0.062972,0.183320,0.244655,0.274827,-0.673772,0.587816,-0.133757,-0.129318,0.248545,-0.282463
-0.050000,-0.050000,0.000000,0.000000,0.000000,0.000000,0.000000,0.000000,0.000000,0.100000,0.100000,-0.214648,-0.223912,-0.050000,-0.050000,0.467923,-0.394957,0.000000,0.000000,-0.063041,0.178174,0.240380,0.270629,-0.679858,0.596426,-0.135357,-0.134924,0.244852,-0.284153
-0.050000,-0.050000,0.000000,0.000000,0.000000,0.000000,0.000000,0.000000,0.000000,0.100000,0.100000,-0.219883,-0.229668,-0.050000,-0.050000,0.470688,-0.394571,0.000000,0.000000,-0.062548,0.172455,0.235681,0.266150,-0.686770,0.604387,-0.137262,-0.140685,0.241972,-0.286873
-0.050000,-0.050000,0.000000,0.000000,0.000000,0.000000,0.000000,0.000000,0.000000,0.100000,0.100000,-0.224774,-0.235270,-0.050000,-0.050000,0.473533,-0.394739,0.000000,0.000000,-0.061042,0.165696,0.230729,0.261465,-0.694701,0.611411,-0.139594,-0.146586,0.240443,-0.291185
-0.050000,-0.050000,0.000000,0.000000,0.000000,0.000000,0.000000,0.000000,0.000000,0.100000,0.100000,-0.229353,-0.240744,-0.050000,-0.050000,0.476615,-0.395445,0.000000,0.000000,-0.058812,0.158244,0.225715,0.256559,-0.703220,0.617483,-0.142120,-0.152417,0.240137,-0.296846
-0.050000,-0.050000,0.000000,0.000000,0.000000,0.000000,0.000000,0.000000,0.000000,0.100000,0.100000,-0.233690,-0.246106,-0.050000,-0.050000,0.479904,-0.396571,0.000000,0.000000,-0.056022,0.150284,0.220690,0.251433,-0.712126,0.622728,-0.144768,-0.158128,0.240838,-0.303610
-0.050000,-0.050000,0.000000,0.000000,0.000000,0.000000,0.000000,0.000000,0.000000,0.100000,0.100000,-0.237544,-0.251229,-0.050000,-0.050000,0.483793,-0.398572,0.000000,0.000000,-0.052304,0.141577,0.216060,0.246019,-0.721140,0.626622,-0.147448,-0.163532,0.243091,-0.311792
-0.050000,-0.050000,0.000000,0.000000,0.000000,0.000000,0.000000,0.000000,0.000000,0.100000,0.100000,-0.241144,-0.256194,-0.050000,-0.050000,0.487953,-0.400943,0.000000,0.000000,-0.048169,0.132650,0.211588,0.240219,-0.730064,0.629607,-0.150098,-0.168652,0.246209,-0.320764
-0.050000,-0.050000,0.000000,0.000000,0.000000,0.000000,0.000000,0.000000,0.000000,0.100000,0.100000,-0.244245,-0.260836,-0.050000,-0.050000,0.492675,-0.404024,0.000000,0.000000,-0.043317,0.123340,0.207608,0.233924,-0.738564,0.631307,-0.152653,-0.173396,0.250513,-0.330583
-0.050000,-0.050000,0.000000,0.000000,0.000000,0.000000,0.000000,0.000000,0.000000,0.100000,0.100000,-0.246903,-0.265115,-0.050000,-0.050000,0.497733,-0.407528,0.000000,0.000000,-0.037947,0.113920,0.204019,0.227006,-0.746455,0.631896,-0.155105,-0.177799,0.255670,-0.340862
-0.050000,-0.050000,0.000000,0.000000,0.000000,0.000000,0.000000,0.000000,0.000000,0.100000,0.100000,-0.249170,-0.269027,-0.050000,-0.050000,0.503019,-0.411330,0.000000,0.000000,-0.032151,0.104449,0.200738,0.219499,-0.753758,0.631559,-0.157475,-0.181906,0.261475,-0.351456
-0.050000,-0.050000,0.000000,0.000000,0.000000,0.000000,0.000000,0.000000,0.000000,0.100000,0.100000,-0.250769,-0.272303,-0.050000,-0.050000,0.508502,-0.415429,0.000000,0.000000,-0.025781,0.095020,0.198020,0.211189,-0.759977,0.630054,-0.159735,-0.185756,0.267995,-0.362009
-0.050000,-0.050000,0.000000,0.000000,0.000000,0.000000,0.000000,0.000000,0.000000,0.100000,0.100000,-0.251959,-0.275071,-0.050000,-0.050000,0.513880,-0.419494,0.000000,0.000000,-0.019113,0.085718,0.195524,0.202287,-0.765472,0.627859,-0.161966,-0.189418,0.274845,-0.372486
-0.050000,-0.050000,0.000000,0.000000,0.000000,0.000000,0.000000,0.000000,0.000000,0.100000,0.100000,-0.252533,-0.277137,-0.050000,-0.050000,0.519021,-0.423416,0.000000,0.000000,-0.012098,0.076630,0.193435,0.192783,-0.769946,0.624929,-0.164166,-0.192976,0.281998,-0.382569
-0.050000,-0.050000,0.000000,0.000000,0.000000,0.000000,0.000000,0.000000,0.000000,0.100000,0.100000,-0.252583,-0.278525,-0.050000,-0.050000,0.523653,-0.426923,0.000000,0.000000,-0.004914,0.067815,0.191609,0.182939,-0.773571,0.621580,-0.166383,-0.196487,0.289225,-0.392186
-0.050000,-0.050000,0.000000,0.000000,0.000000,0.000000,0.000000,0.000000,0.000000,0.100000,0.100000,-0.252171,-0.279332,-0.050000,-0.050000,0.527811,-0.430048,0.000000,0.000000,0.002382,0.059234,0.189979,0.172882,-0.776494,0.617947,-0.168631,-0.199996,0.296459,-0.401367
-0.050000,-0.050000,0.000000,0.000000,0.000000,0.000000,0.000000,0.000000,0.000000,0.100000,0.100000,-0.251154,-0.279359,-0.050000,-0.050000,0.530894,-0.432203,0.000000,0.000000,0.009556,0.051111,0.188667,0.163116,-0.778616,0.614355,-0.170882,-0.203526,0.303458,-0.409805
-0.050000,-0.050000,0.000000,0.000000,0.000000,0.000000,0.000000,0.000000,0.000000,0.100000,0.100000,-0.249707,-0.278890,-0.050000,-0.050000,0.533284,-0.433771,0.000000,0.000000,0.016612,0.043256,0.187487,0.153668,-0.780223,0.610854,-0.173157,-0.207110,0.310254,-0.417759
-0.050000,-0.050000,0.000000,0.000000,0.000000,0.000000,0.000000,0.000000,0.000000,0.100000,0.100000,-0.247729,-0.277813,-0.050000,-0.050000,0.534476,-0.434242,0.000000,0.000000,0.023278,0.035873,0.186539,0.145107,-0.781345,0.607778,-0.175362,-0.210677,0.316641,-0.425085
-0.050000,-0.050000,0.000000,0.000000,0.000000,0.000000,0.000000,0.000000,0.000000,0.100000,0.100000,-0.245256,-0.276269,-0.050000,-0.050000,0.534619,-0.433767,0.000000,0.000000,0.029467,0.028908,0.185754,0.137649,-0.782137,0.605226,-0.177442,-0.214187,0.322594,-0.431911
-0.050000,-0.050000,0.000000,0.000000,0.000000,0.000000,0.000000,0.000000,0.000000,0.100000,0.100000,-0.242359,-0.274396,-0.050000,-0.050000,0.533908,-0.432532,0.000000,0.000000,0.035223,0.022294,0.185085,0.131251,-0.782693,0.603179,-0.179398,-0.217671,0.328167,-0.438312
-0.050000,-0.050000,0.000000,0.000000,0.000000,0.000000,0.000000,0.000000,0.000000,0.100000,0.100000,-0.238846,-0.272024,-0.050000,-0.050000,0.531838,-0.430006,0.000000,0.000000,0.040065,0.016332,0.184603,0.126810,-0.783143,0.602048,-0.180950,-0.220770,0.333088,-0.444305
-0.050000,-0.050000,0.000000,0.000000,0.000000,0.000000,0.000000,0.000000,0.000000,0.100000,0.100000,-0.234878,-0.269448,-0.050000,-0.050000,0.529119,-0.426900,0.000000,0.000000,0.044371,0.010736,0.184169,0.123704,-0.783501,0.601515,-0.182253,-0.223718,0.337609,-0.449963
-0.050000,-0.050000,0.000000,0.000000,0.000000,0.000000,0.000000,0.000000,0.000000,0.100000,0.100000,-0.230298,-0.266476,-0.050000,-0.050000,0.525400,-0.422814,0.000000,0.000000,0.047754,0.005805,0.183815,0.122594,-0.783892,0.601847,-0.183049,-0.226118,0.341538,-0.455320
-0.050000,-0.050000,0.000000,0.000000,0.000000,0.000000,0.000000,0.000000,0.000000,0.100000,0.100000,-0.225137,-0.263191,-0.050000,-0.050000,0.521066,-0.418097,0.000000,0.000000,0.050371,0.001474,0.183439,0.123230,-0.784313,0.602885,-0.183379,-0.227979,0.344974,-0.460362
-0.050000,-0.050000,0.000000,0.000000,0.000000,0.000000,0.000000,0.000000,0.000000,0.100000,0.100000,-0.219458,-0.259669,-0.050000,-0.050000,0.516275,-0.412897,0.000000,0.000000,0.052366,-0.002342,0.183004,0.125337,-0.784780,0.604522,-0.183304,-0.229374,0.348013,-0.465110
-0.050000,-0.050000,0.000000,0.000000,0.000000,0.000000,0.000000,0.000000,0.000000,0.100000,0.100000,-0.218710,-0.261211,-0.050000,-0.050000,0.512060,-0.406079,0.000000,0.000000,0.054026,-0.006227,0.182974,0.130461,-0.785032,0.606560,-0.182336,-0.229845,0.350995,-0.470249
-0.050000,-0.050000,0.000000,0.000000,0.000000,0.000000,0.000000,0.000000,0.000000,0.100000,0.100000,-0.214689,-0.259820,-0.050000,-0.050000,0.507193,-0.399763,0.000000,0.000000,0.054930,-0.009095,0.182954,0.136811,-0.785572,0.609251,-0.181096,-0.229616,0.353304,-0.474271
-0.050000,-0.050000,0.000000,0.000000,0.000000,0.000000,0.000000,0.000000,0.000000,0.100000,0.100000,-0.208269,-0.255996,-0.050000,-0.050000,0.501850,-0.393262,0.000000,0.000000,0.054958,-0.010632,0.182309,0.144255,-0.786200,0.612526,-0.179535,-0.228365,0.354973,-0.477388
-0.050000,-0.050000,0.000000,0.000000,0.000000,0.000000,0.000000,0.000000,0.000000,0.100000,0.100000,-0.200721,-0.250887,-0.050000,-0.050000,0.496393,-0.386556,0.000000,0.000000,0.054526,-0.011194,0.181090,0.152331,-0.786766,0.616033,-0.177755,-0.226293,0.356335,-0.479800
-0.050000,-0.050000,0.000000,0.000000,0.000000,0.000000,0.000000,0.000000,0.000000,0.100000,0.100000,-0.192535,-0.244963,-0.050000,-0.050000,0.490901,-0.379659,0.000000,0.000000,0.053778,-0.010979,0.179462,0.160893,-0.787252,0.619640,-0.175786,-0.223505,0.357501,-0.481649
-0.050000,-0.050000,0.000000,0.000000,0.000000,0.000000,0.000000,0.000000,0.000000,0.100000,0.100000,-0.184024,-0.237913,-0.050000,-0.050000,0.485473,-0.372595,0.000000,0.000000,0.052669,-0.009518,0.177403,0.169884,-0.787523,0.623106,-0.173732,-0.219659,0.358475,-0.482532
-0.050000,-0.050000,0.000000,0.000000,0.000000,0.000000,0.000000,0.000000,0.000000,0.100000,0.100000,-0.175297,-0.230215,-0.050000,-0.050000,0.480073,-0.365427,0.000000,0.000000,0.051425,-0.007392,0.175119,0.178912,-0.787650,0.626436,-0.171677,-0.215299,0.359424,-0.482854
-0.050000,-0.050000,0.000000,0.000000,0.000000,0.000000,0.000000,0.000000,0.000000,0.100000,0.100000,-0.166642,-0.221530,-0.050000,-0.050000,0.474722,-0.358212,0.000000,0.000000,0.049994,-0.004179,0.172628,0.187825,-0.787515,0.629390,-0.169739,-0.210248,0.360421,-0.482320
-0.050000,-0.050000,0.000000,0.000000,0.000000,0.000000,0.000000,0.000000,0.000000,0.100000,0.100000,-0.158170,-0.212066,-0.050000,-0.050000,0.469360,-0.351008,0.000000,0.000000,0.048466,-0.000138,0.170132,0.196354,-0.787149,0.631931,-0.167966,-0.204828,0.361636,-0.481169
-0.050000,-0.050000,0.000000,0.000000,0.000000,0.000000,0.000000,0.000000,0.000000,0.100000,0.100000,-0.149923,-0.201955,-0.050000,-0.050000,0.463964,-0.343822,0.000000,0.000000,0.046846,0.004597,0.167693,0.204480,-0.786587,0.634077,-0.166354,-0.199142,0.363074,-0.479561
-0.050000,-0.050000,0.000000,0.000000,0.000000,0.000000,0.000000,0.000000,0.000000,0.100000,0.100000,-0.142332,-0.191079,-0.050000,-0.050000,0.458489,-0.336874,0.000000,0.000000,0.045130,0.010335,0.165634,0.211848,-0.785793,0.635571,-0.164995,-0.193361,0.365125,-0.477384
-0.050000,-0.050000,0.000000,0.000000,0.000000,0.000000,0.000000,0.000000,0.000000,0.100000,0.100000,-0.135168,-0.179825,-0.050000,-0.050000,0.452922,-0.330070,0.000000,0.000000,0.043326,0.016608,0.163942,0.218688,-0.784894,0.636656,-0.163781,-0.187578,0.367593,-0.475017
-0.050000,-0.050000,0.000000,0.000000,0.000000,0.000000,0.000000,0.000000,0.000000,0.100000,0.100000,-0.124768,-0.164264,-0.050000,-0.050000,0.446179,-0.324808,0.000000,0.000000,0.040768,0.024052,0.162370,0.224247,-0.784299,0.637275,-0.162928,-0.182239,0.370147,-0.472326
-0.050000,-0.050000,0.000000,0.000000,0.000000,0.000000,0.000000,0.000000,0.000000,0.100000,0.100000,-0.116479,-0.150124,-0.050000,-0.050000,0.439842,-0.319339,0.000000,0.000000,0.038311,0.032115,0.161319,0.229155,-0.783531,0.637474,-0.162071,-0.176972,0.373687,-0.469529
-0.050000,-0.050000,0.000000,0.000000,0.000000,0.000000,0.000000,0.000000,0.000000,0.100000,0.100000,-0.110156,-0.137444,-0.050000,-0.050000,0.433811,-0.313956,0.000000,0.000000,0.036013,0.040453,0.161122,0.233860,-0.782782,0.637233,-0.161111,-0.171766,0.378047,-0.466759
-0.050000,-0.050000,0.000000,0.000000,0.000000,0.000000,0.000000,0.000000,0.000000,0.100000,0.100000,-0.105364,-0.126067,-0.050000,-0.050000,0.428031,-0.309348,0.000000,0.000000,0.033695,0.049325,0.162191,0.238305,-0.782481,0.636435,-0.159955,-0.166767,0.383285,-0.463931
-0.050000,-0.050000,0.000000,0.000000,0.000000,0.000000,0.000000,0.000000,0.000000,0.100000,0.100000,-0.101595,-0.115600,-0.050000,-0.050000,0.422393,-0.305282,0.000000,0.000000,0.031344,0.058525,0.164168,0.242748,-0.782596,0.635319,-0.158719,-0.161897,0.388946,-0.461080
-0.050000,-0.050000,0.000000,0.000000,0.000000,0.000000,0.000000,0.000000,0.000000,0.100000,0.100000,-0.098821,-0.106445,-0.050000,-0.050000,0.417088,-0.302201,0.000000,0.000000,0.028902,0.068240,0.167216,0.247110,-0.783452,0.633726,-0.157302,-0.157162,0.395053,-0.458068
-0.050000,-0.050000,0.000000,0.000000,0.000000,0.000000,0.000000,0.000000,0.000000,0.100000,0.100000,-0.096898,-0.098651,-0.050000,-0.050000,0.412183,-0.300028,0.000000,0.000000,0.026415,0.078395,0.171107,0.251554,-0.785107,0.631680,-0.155779,-0.152455,0.401290,-0.454825
-0.050000,-0.050000,0.000000,0.000000,0.000000,0.000000,0.000000,0.000000,0.000000,0.100000,0.100000,-0.095692,-0.092121,-0.050000,-0.050000,0.407655,-0.298632,0.000000,0.000000,0.023928,0.088905,0.175704,0.256154,-0.787510,0.629244,-0.154187,-0.147752,0.407521,-0.451338
-0.050000,-0.050000,0.000000,0.000000,0.000000,0.000000,0.000000,0.000000,0.000000,0.100000,0.100000,-0.095285,-0.087590,-0.050000,-0.050000,0.403977,-0.298496,0.000000,0.000000,0.021413,0.100052,0.180894,0.260794,-0.791012,0.625988,-0.152576,-0.142912,0.413436,-0.447276
-0.050000,-0.050000,0.000000,0.000000,0.000000,0.000000,0.000000,0.000000,0.000000,0.100000,0.100000,-0.095506,-0.084452,-0.050000,-0.050000,0.400838,-0.299033,0.000000,0.000000,0.018999,0.111535,0.186505,0.265665,-0.795305,0.622221,-0.151052,-0.137977,0.418962,-0.442808
-0.050000,-0.050000,0.000000,0.000000,0.000000,0.000000,0.000000,0.000000,0.000000,0.100000,0.100000,-0.096423,-0.083256,-0.050000,-0.050000,0.398710,-0.300625,0.000000,0.000000,0.016625,0.123648,0.192305,0.270516,-0.800554,0.617491,-0.149730,-0.132861,0.423788,-0.437620
-0.050000,-0.050000,0.000000,0.000000,0.000000,0.000000,0.000000,0.000000,0.000000,0.100000,0.100000,-0.097995,-0.083691,-0.050000,-0.050000,0.397520,-0.302944,0.000000,0.000000,0.014347,0.136280,0.198131,0.275352,-0.806564,0.611871,-0.148718,-0.127604,0.427813,-0.431757
-0.050000,-0.050000,0.000000,0.000000,0.000000,0.000000,0.000000,0.000000,0.000000,0.100000,0.100000,-0.100126,-0.085505,-0.050000,-0.050000,0.397160,-0.305800,0.000000,0.000000,0.012171,0.149353,0.203948,0.280145,-0.813190,0.605452,-0.148012,-0.122250,0.431088,-0.425301
-0.050000,-0.050000,0.000000,0.000000,0.000000,0.000000,0.000000,0.000000,0.000000,0.100000,0.100000,-0.103073,-0.089001,-0.050000,-0.050000,0.398250,-0.309401,0.000000,0.000000,0.009931,0.163193,0.209233,0.284450,-0.820320,0.597758,-0.147853,-0.116828,0.433159,-0.417914
-0.050000,-0.050000,0.000000,0.000000,0.000000,0.000000,0.000000,0.000000,0.000000,0.100000,0.100000,-0.106589,-0.093487,-0.050000,-0.050000,0.400197,-0.313218,0.000000,0.000000,0.007733,0.177402,0.214304,0.288517,-0.827774,0.589307,-0.148053,-0.111413,0.434395,-0.409985
-0.050000,-0.050000,0.000000,0.000000,0.000000,0.000000,0.000000,0.000000,0.000000,0.100000,0.100000,-0.110966,-0.099099,-0.050000,-0.050000,0.403594,-0.317428,0.000000,0.000000,0.005306,0.192264,0.218615,0.291878,-0.835301,0.579783,-0.148762,-0.106108,0.434410,-0.401242
-0.050000,-0.050000,0.000000,0.000000,0.000000,0.000000,0.000000,0.000000,0.000000,0.100000,0.100000,-0.116150,-0.105392,-0.050000,-0.050000,0.408229,-0.321745,0.000000,0.000000,0.002601,0.207532,0.222234,0.294555,-0.842685,0.569514,-0.149839,-0.100998,0.433329,-0.391883
-0.050000,-0.050000,0.000000,0.000000,0.000000,0.000000,0.000000,0.000000,0.000000,0.100000,0.100000,-0.122044,-0.112154,-0.050000,-0.050000,0.413926,-0.326084,0.000000,0.000000,-0.000410,0.223105,0.225244,0.296574,-0.849862,0.558656,-0.151190,-0.096106,0.431312,-0.382016
-0.050000,-0.050000,0.000000,0.000000,0.000000,0.000000,0.000000,0.000000,0.000000,0.100000,0.100000,-0.129119,-0.119201,-0.050000,-0.050000,0.421380,-0.330502,0.000000,0.000000,-0.004231,0.238997,0.226901,0.297380,-0.856166,0.547305,-0.152795,-0.091698,0.427820,-0.371487
-0.050000,-0.050000,0.000000,0.000000,0.000000,0.000000,0.000000,0.000000,0.000000,0.100000,0.100000,-0.136915,-0.126250,-0.050000,-0.050000,0.429818,-0.334801,0.000000,0.000000,-0.008581,0.254870,0.227857,0.297364,-0.861868,0.535767,-0.154467,-0.087640,0.423441,-0.360621
-0.050000,-0.050000,0.000000,0.000000,0.000000,0.000000,0.000000,0.000000,0.000000,0.100000,0.100000,-0.145869,-0.133130,-0.050000,-0.050000,0.439887,-0.339105,0.000000,0.000000,-0.013987,0.270653,0.227357,0.295996,-0.866234,0.524252,-0.156152,-0.084215,0.417659,-0.349329
-0.050000,-0.050000,0.000000,0.000000,0.000000,0.000000,0.000000,0.000000,0.000000,0.100000,0.100000,-0.155754,-0.139639,-0.050000,-0.050000,0.451224,-0.343366,0.000000,0.000000,-0.020374,0.286016,0.225634,0.293315,-0.869209,0.513029,-0.157732,-0.081421,0.410735,-0.337834
-0.050000,-0.050000,0.000000,0.000000,0.000000,0.000000,0.000000,0.000000,0.000000,0.100000,0.100000,-0.166455,-0.145731,-0.050000,-0.050000,0.463591,-0.347608,0.000000,0.000000,-0.027702,0.300918,0.222826,0.289432,-0.870895,0.502149,-0.159180,-0.079177,0.402869,-0.326208
-0.050000,-0.050000,0.000000,0.000000,0.000000,0.000000,0.000000,0.000000,0.000000,0.100000,0.100000,-0.178224,-0.151193,-0.050000,-0.050000,0.477485,-0.351990,0.000000,0.000000,-0.036407,0.314790,0.218202,0.283580,-0.870214,0.492157,-0.160430,-0.077962,0.393585,-0.314671
-0.050000,-0.050000,0.000000,0.000000,0.000000,0.000000,0.000000,0.000000,0.000000,0.100000,0.100000,-0.190591,-0.156065,-0.050000,-0.050000,0.492040,-0.356437,0.000000,0.000000,-0.046022,0.327804,0.212575,0.276350,-0.868036,0.482811,-0.161512,-0.077332,0.383615,-0.303283
-0.050000,-0.050000,0.000000,0.000000,0.000000,0.000000,0.000000,0.000000,0.000000,0.100000,0.100000,-0.203673,-0.160287,-0.050000,-0.050000,0.507598,-0.361110,0.000000,0.000000,-0.056809,0.339393,0.205372,0.267059,-0.863454,0.474605,-0.162457,-0.077750,0.372612,-0.292342
-0.050000,-0.050000,0.000000,0.000000,0.000000,0.000000,0.000000,0.000000,0.000000,0.100000,0.100000,-0.217113,-0.163889,-0.050000,-0.050000,0.523553,-0.365965,0.000000,0.000000,-0.068426,0.349545,0.197071,0.255934,-0.856892,0.467498,-0.163334,-0.079025,0.361046,-0.281992
-0.050000,-0.050000,0.000000,0.000000,0.000000,0.000000,0.000000,0.000000,0.000000,0.100000,0.100000,-0.230822,-0.166942,-0.050000,-0.050000,0.539710,-0.371020,0.000000,0.000000,-0.080757,0.358428,0.187845,0.243205,-0.848650,0.461367,-0.164200,-0.080994,0.349087,-0.272212
-0.050000,-0.050000,0.000000,0.000000,0.000000,0.000000,0.000000,0.000000,0.000000,0.100000,0.100000,-0.244333,-0.169565,-0.050000,-0.050000,0.555646,-0.376198,0.000000,0.000000,-0.093451,0.365243,0.177803,0.228388,-0.838276,0.456813,-0.165224,-0.084122,0.336912,-0.263625
-0.050000,-0.050000,0.000000,0.000000,0.000000,0.000000,0.000000,0.000000,0.000000,0.100000,0.100000,-0.257648,-0.171761,-0.050000,-0.050000,0.571076,-0.381487,0.000000,0.000000,-0.106388,0.370863,0.167336,0.212310,-0.826727,0.453242,-0.166384,-0.087767,0.324824,-0.255819
-0.050000,-0.050000,0.000000,0.000000,0.000000,0.000000,0.000000,0.000000,0.000000,0.100000,0.100000,-0.270156,-0.173765,-0.050000,-0.050000,0.585383,-0.386644,0.000000,0.000000,-0.119025,0.374608,0.156826,0.194820,-0.813946,0.451154,-0.167846,-0.092289,0.313127,-0.249390
-0.050000,-0.050000,0.000000,0.000000,0.000000,0.000000,0.000000,0.000000,0.000000,0.100000,0.100000,-0.281661,-0.175628,-0.050000,-0.050000,0.598148,-0.391549,0.000000,0.000000,-0.131114,0.377006,0.146646,0.176600,-0.800670,0.450262,-0.169594,-0.097299,0.302095,-0.244199
-0.050000,-0.050000,0.000000,0.000000,0.000000,0.000000,0.000000,0.000000,0.000000,0.100000,0.100000,-0.292165,-0.177450,-0.050000,-0.050000,0.609447,-0.396207,0.000000,0.000000,-0.142593,0.378362,0.136849,0.157946,-0.787160,0.450359,-0.171619,-0.102679,0.291715,-0.240086
-0.050000,-0.050000,0.000000,0.000000,0.000000,0.000000,0.000000,0.000000,0.000000,0.100000,0.100000,-0.300565,-0.179450,-0.050000,-0.050000,0.617680,-0.399897,0.000000,0.000000,-0.152459,0.378280,0.128523,0.139641,-0.774449,0.451790,-0.173941,-0.108342,0.282771,-0.237726
-0.050000,-0.050000,0.000000,0.000000,0.000000,0.000000,0.000000,0.000000,0.000000,0.100000,0.100000,-0.307571,-0.181589,-0.050000,-0.050000,0.623955,-0.403124,0.000000,0.000000,-0.161305,0.377741,0.120954,0.121853,-0.762399,0.453911,-0.176463,-0.114050,0.274710,-0.236384
-0.050000,-0.050000,0.000000,0.000000,0.000000,0.000000,0.000000,0.000000,0.000000,0.100000,0.100000,-0.312134,-0.184005,-0.050000,-0.050000,0.626641,-0.405073,0.000000,0.000000,-0.168171,0.376380,0.115234,0.105501,-0.752223,0.456948,-0.179093,-0.119623,0.268291,-0.236661
-0.050000,-0.050000,0.000000,0.000000,0.000000,0.000000,0.000000,0.000000,0.000000,0.100000,0.100000,-0.314551,-0.186670,-0.050000,-0.050000,0.626206,-0.405967,0.000000,0.000000,-0.173322,0.374798,0.110949,0.090891,-0.744019,0.460485,-0.181737,-0.124890,0.263221,-0.238205
-0.050000,-0.050000,0.000000,0.000000,0.000000,0.000000,0.000000,0.000000,0.000000,0.100000,0.100000,-0.315026,-0.189607,-0.050000,-0.050000,0.623049,-0.405915,0.000000,0.000000,-0.176907,0.373165,0.107891,0.077983,-0.737668,0.464360,-0.184335,-0.129885,0.259311,-0.240816
-0.050000,-0.050000,0.000000,0.000000,0.000000,0.000000,0.000000,0.000000,0.000000,0.100000,0.100000,-0.312762,-0.192604,-0.050000,-0.050000,0.615551,-0.404145,0.000000,0.000000,-0.178244,0.371429,0.106757,0.068051,-0.734615,0.468448,-0.186696,-0.134136,0.257166,-0.244947
-0.050000,-0.050000,0.000000,0.000000,0.000000,0.000000,0.000000,0.000000,0.000000,0.100000,0.100000,-0.308841,-0.195781,-0.050000,-0.050000,0.605776,-0.401582,0.000000,0.000000,-0.178284,0.370032,0.106353,0.060080,-0.733430,0.472476,-0.188905,-0.138044,0.255887,-0.249900
-0.050000,-0.050000,0.000000,0.000000,0.000000,0.000000,0.000000,0.000000,0.000000,0.100000,0.100000,-0.302737,-0.198741,-0.050000,-0.050000,0.592410,-0.397551,0.000000,0.000000,-0.176547,0.368807,0.107149,0.055076,-0.735200,0.476314,-0.190814,-0.141186,0.255944,-0.256037
-0.050000,-0.050000,0.000000,0.000000,0.000000,0.000000,0.000000,0.000000,0.000000,0.100000,0.100000,-0.295147,-0.201466,-0.050000,-0.050000,0.576766,-0.392626,0.000000,0.000000,-0.173659,0.367959,0.108320,0.052459,-0.738964,0.479749,-0.192501,-0.143789,0.256772,-0.262957
-0.050000,-0.050000,0.000000,0.000000,0.000000,0.000000,0.000000,0.000000,0.000000,0.100000,0.100000,-0.286391,-0.203917,-0.050000,-0.050000,0.559301,-0.386949,0.000000,0.000000,-0.169894,0.367430,0.109666,0.051852,-0.744314,0.482785,-0.193983,-0.145954,0.258199,-0.270490
-0.050000,-0.050000,0.000000,0.000000,0.000000,0.000000,0.000000,0.000000,0.000000,0.100000,0.100000,-0.276672,-0.205532,-0.050000,-0.050000,0.540138,-0.380538,0.000000,0.000000,-0.165338,0.367229,0.110762,0.053840,-0.751177,0.485023,-0.195306,-0.147371,0.260106,-0.278627
-0.050000,-0.050000,0.000000,0.000000,0.000000,0.000000,0.000000,0.000000,0.000000,0.100000,0.100000,-0.266485,-0.206744,-0.050000,-0.050000,0.520404,-0.373847,0.000000,0.000000,-0.160520,0.367339,0.111378,0.057285,-0.758609,0.486646,-0.196518,-0.148466,0.262147,-0.286984
-0.050000,-0.050000,0.000000,0.000000,0.000000,0.000000,0.000000,0.000000,0.000000,0.100000,0.100000,-0.256197,-0.207033,-0.050000,-0.050000,0.500570,-0.367083,0.000000,0.000000,-0.155571,0.367798,0.111091,0.062662,-0.766277,0.487240,-0.197716,-0.148900,0.264112,-0.295432
-0.050000,-0.050000,0.000000,0.000000,0.000000,0.000000,0.000000,0.000000,0.000000,0.100000,0.100000,-0.246174,-0.206678,-0.050000,-0.050000,0.481498,-0.360593,0.000000,0.000000,-0.150828,0.368636,0.109803,0.069384,-0.773560,0.486771,-0.198939,-0.148812,0.265775,-0.303634
-0.050000,-0.050000,0.000000,0.000000,0.000000,0.000000,0.000000,0.000000,0.000000,0.100000,0.100000,-0.236534,-0.205771,-0.050000,-0.050000,0.463320,-0.354395,0.000000,0.000000,-0.146355,0.369775,0.107628,0.077188,-0.780339,0.485341,-0.200206,-0.148247,0.267110,-0.311508
-0.050000,-0.050000,0.000000,0.000000,0.000000,0.000000,0.000000,0.000000,0.000000,0.100000,0.100000,-0.228061,-0.204184,-0.050000,-0.050000,0.447705,-0.349355,0.000000,0.000000,-0.142552,0.371672,0.104080,0.086387,-0.785756,0.482142,-0.201664,-0.146751,0.267664,-0.318412
-0.050000,-0.050000,0.000000,0.000000,0.000000,0.000000,0.000000,0.000000,0.000000,0.100000,0.100000,-0.220368,-0.202380,-0.050000,-0.050000,0.433751,-0.344865,0.000000,0.000000,-0.139224,0.373968,0.099855,0.096365,-0.790339,0.477806,-0.203225,-0.144704,0.267764,-0.324544
-0.050000,-0.050000,0.000000,0.000000,0.000000,0.000000,0.000000,0.000000,0.000000,0.100000,0.100000,-0.214252,-0.200325,-0.050000,-0.050000,0.423163,-0.341876,0.000000,0.000000,-0.136761,0.377301,0.094593,0.107474,-0.793365,0.471491,-0.205025,-0.141603,0.267029,-0.329188
-0.050000,-0.050000,0.000000,0.000000,0.000000,0.000000,0.000000,0.000000,0.000000,0.100000,0.100000,-0.209577,-0.198363,-0.050000,-0.050000,0.415522,-0.340021,0.000000,0.000000,-0.135082,0.381569,0.088813,0.119418,-0.795192,0.463470,-0.207022,-0.137617,0.265686,-0.332314
-0.050000,-0.050000,0.000000,0.000000,0.000000,0.000000,0.000000,0.000000,0.000000,0.100000,0.100000,-0.206264,-0.196584,-0.050000,-0.050000,0.410553,-0.339141,0.000000,0.000000,-0.134096,0.386699,0.082717,0.132085,-0.796015,0.453931,-0.209214,-0.132859,0.263815,-0.334008
-0.050000,-0.050000,0.000000,0.000000,0.000000,0.000000,0.000000,0.000000,0.000000,0.100000,0.100000,-0.205037,-0.195223,-0.050000,-0.050000,0.409904,-0.339995,0.000000,0.000000,-0.134384,0.393560,0.076263,0.145565,-0.795259,0.442158,-0.211598,-0.126961,0.261280,-0.333328
-0.050000,-0.050000,0.000000,0.000000,0.000000,0.000000,0.000000,0.000000,0.000000,0.100000,0.100000,-0.205157,-0.194299,-0.050000,-0.050000,0.411681,-0.341450,0.000000,0.000000,-0.135400,0.401270,0.069943,0.159490,-0.793718,0.429141,-0.214115,-0.120524,0.258410,-0.331106
-0.050000,-0.050000,0.000000,0.000000,0.000000,0.000000,0.000000,0.000000,0.000000,0.100000,0.100000,-0.207215,-0.193952,-0.050000,-0.050000,0.417443,-0.344195,0.000000,0.000000,-0.137858,0.410690,0.063590,0.173770,-0.790680,0.414385,-0.216637,-0.113345,0.255045,-0.326514
-0.050000,-0.050000,0.000000,0.000000,0.000000,0.000000,0.000000,0.000000,0.000000,0.100000,0.100000,-0.210771,-0.194136,-0.050000,-0.050000,0.426168,-0.347488,0.000000,0.000000,-0.141592,0.421236,0.057428,0.188025,-0.786370,0.398619,-0.219023,-0.105893,0.251309,-0.320031
-0.050000,-0.050000,0.000000,0.000000,0.000000,0.000000,0.000000,0.000000,0.000000,0.100000,0.100000,-0.215632,-0.194747,-0.050000,-0.050000,0.437439,-0.351161,0.000000,0.000000,-0.146534,0.432723,0.051429,0.202132,-0.780883,0.382084,-0.221234,-0.098349,0.247249,-0.311917
-0.050000,-0.050000,0.000000,0.000000,0.000000,0.000000,0.000000,0.000000,0.000000,0.100000,0.100000,-0.221882,-0.195819,-0.050000,-0.050000,0.452209,-0.355208,0.000000,0.000000,-0.153591,0.445361,0.045397,0.215305,-0.773059,0.365251,-0.222733,-0.091083,0.242457,-0.301799
-0.050000,-0.050000,0.000000,0.000000,0.000000,0.000000,0.000000,0.000000,0.000000,0.100000,0.100000,-0.228996,-0.197061,-0.050000,-0.050000,0.468834,-0.359117,0.000000,0.000000,-0.161959,0.458311,0.039448,0.227722,-0.763749,0.348484,-0.223749,-0.084222,0.237215,-0.290548
-0.050000,-0.050000,0.000000,0.000000,0.000000,0.000000,0.000000,0.000000,0.000000,0.100000,0.100000,-0.236878,-0.198483,-0.050000,-0.050000,0.488158,-0.362874,0.000000,0.000000,-0.172552,0.471595,0.033286,0.238450,-0.751612,0.332454,-0.223674,-0.078227,0.230876,-0.277986
-0.050000,-0.050000,0.000000,0.000000,0.000000,0.000000,0.000000,0.000000,0.000000,0.100000,0.100000,-0.245110,-0.199850,-0.050000,-0.050000,0.509167,-0.366197,0.000000,0.000000,-0.184899,0.484542,0.026939,0.247413,-0.736918,0.317556,-0.222571,-0.073202,0.223433,-0.264703
-0.050000,-0.050000,0.000000,0.000000,0.000000,0.000000,0.000000,0.000000,0.000000,0.100000,0.100000,-0.253568,-0.201055,-0.050000,-0.050000,0.531497,-0.369132,0.000000,0.000000,-0.198831,0.497039,0.020332,0.254661,-0.719868,0.303832,-0.220552,-0.069087,0.214888,-0.250929
-0.050000,-0.050000,0.000000,0.000000,0.000000,0.000000,0.000000,0.000000,0.000000,0.100000,0.100000,-0.261564,-0.202144,-0.050000,-0.050000,0.554976,-0.371325,0.000000,0.000000,-0.214607,0.508249,0.013429,0.259053,-0.699211,0.292458,-0.217089,-0.066533,0.204320,-0.237035
-0.050000,-0.050000,0.000000,0.000000,0.000000,0.000000,0.000000,0.000000,0.000000,0.100000,0.100000,-0.269289,-0.202880,-0.050000,-0.050000,0.578761,-0.373101,0.000000,0.000000,-0.231366,0.518442,0.006287,0.261589,-0.676393,0.282653,-0.212916,-0.064853,0.192481,-0.223189
-0.050000,-0.050000,0.000000,0.000000,0.000000,0.000000,0.000000,0.000000,0.000000,0.100000,0.100000,-0.275903,-0.203491,-0.050000,-0.050000,0.602344,-0.374085,0.000000,0.000000,-0.248985,0.526732,-0.000919,0.261308,-0.650557,0.275455,-0.207746,-0.064646,0.178606,-0.209829
-0.050000,-0.050000,0.000000,0.000000,0.000000,0.000000,0.000000,0.000000,0.000000,0.100000,0.100000,-0.281344,-0.203894,-0.050000,-0.050000,0.624897,-0.374494,0.000000,0.000000,-0.266599,0.533267,-0.008008,0.258868,-0.622781,0.270400,-0.202159,-0.065454,0.163302,-0.197110
-0.050000,-0.050000,0.000000,0.000000,0.000000,0.000000,0.000000,0.000000,0.000000,0.100000,0.100000,-0.285603,-0.204161,-0.050000,-0.050000,0.646257,-0.374468,0.000000,0.000000,-0.283945,0.538258,-0.014943,0.254594,-0.593510,0.267212,-0.196447,-0.067084,0.146761,-0.185048
