RRGGZZ/g1_deploy_sonic/data/example_scalelab/qwen_50fps/case_test14/joint_pos.csv
joint_0,joint_1,joint_2,joint_3,joint_4,joint_5,joint_6,joint_7,joint_8,joint_9,joint_10,joint_11,joint_12,joint_13,joint_14,joint_15,joint_16,joint_17,joint_18,joint_19,joint_20,joint_21,joint_22,joint_23,joint_24,joint_25,joint_26,joint_27,joint_28
-0.050000,-0.050000,0.000000,0.000000,0.000000,0.000000,0.000000,0.000000,0.000000,0.100000,0.100000,-0.074301,-0.520082,-0.050000,-0.050000,0.415341,-0.745712,0.000000,0.000000,-0.440908,0.273204,1.180991,-0.197181,0.238078,-0.441538,-0.034665,-0.043393,0.037559,-0.511620
-0.050000,-0.050000,0.000000,0.000000,0.000000,0.000000,0.000000,0.000000,0.000000,0.100000,0.100000,-0.085510,-0.526450,-0.050000,-0.050000,0.402866,-0.749058,0.000000,0.000000,-0.438863,0.273422,1.201657,-0.180437,0.234654,-0.437273,-0.046094,-0.041632,0.043678,-0.519574
-0.050000,-0.050000,0.000000,0.000000,0.000000,0.000000,0.000000,0.000000,0.000000,0.100000,0.100000,-0.092946,-0.528865,-0.050000,-0.050000,0.396837,-0.749814,0.000000,0.000000,-0.435880,0.269192,1.211987,-0.165101,0.230895,-0.432154,-0.051668,-0.039116,0.046624,-0.525394
-0.050000,-0.050000,0.000000,0.000000,0.000000,0.000000,0.000000,0.000000,0.000000,0.100000,0.100000,-0.098109,-0.528529,-0.050000,-0.050000,0.393955,-0.749428,0.000000,0.000000,-0.432722,0.262601,1.217188,-0.150142,0.227122,-0.426722,-0.054393,-0.036170,0.048067,-0.530179
-0.050000,-0.050000,0.000000,0.000000,0.000000,0.000000,0.000000,0.000000,0.000000,0.100000,0.100000,-0.101961,-0.526501,-0.050000,-0.050000,0.392632,-0.748494,0.000000,0.000000,-0.429653,0.254723,1.219806,-0.135398,0.223375,-0.421120,-0.055727,-0.033070,0.048817,-0.534476
-0.050000,-0.050000,0.000000,0.000000,0.000000,0.000000,0.000000,0.000000,0.000000,0.100000,0.100000,-0.105010,-0.522599,-0.050000,-0.050000,0.392394,-0.747787,0.000000,0.000000,-0.426542,0.245800,1.220300,-0.120038,0.220239,-0.415262,-0.056600,-0.029985,0.049679,-0.538606
-0.050000,-0.050000,0.000000,0.000000,0.000000,0.000000,0.000000,0.000000,0.000000,0.100000,0.100000,-0.107501,-0.517700,-0.050000,-0.050000,0.392746,-0.747217,0.000000,0.000000,-0.423591,0.236338,1.219504,-0.104716,0.217530,-0.409254,-0.057216,-0.027202,0.050648,-0.542763
-0.050000,-0.050000,0.000000,0.000000,0.000000,0.000000,0.000000,0.000000,0.000000,0.100000,0.100000,-0.109576,-0.511622,-0.050000,-0.050000,0.393661,-0.747040,0.000000,0.000000,-0.420695,0.226458,1.217272,-0.089270,0.215522,-0.403120,-0.057867,-0.024804,0.052048,-0.547083
-0.050000,-0.050000,0.000000,0.000000,0.000000,0.000000,0.000000,0.000000,0.000000,0.100000,0.100000,-0.111251,-0.504409,-0.050000,-0.050000,0.395143,-0.747240,0.000000,0.000000,-0.417891,0.216339,1.213325,-0.074090,0.214351,-0.396950,-0.058722,-0.022998,0.054097,-0.551815
-0.050000,-0.050000,0.000000,0.000000,0.000000,0.000000,0.000000,0.000000,0.000000,0.100000,0.100000,-0.112528,-0.496391,-0.050000,-0.050000,0.396989,-0.747646,0.000000,0.000000,-0.415145,0.205971,1.208199,-0.059128,0.213732,-0.390739,-0.059623,-0.021624,0.056541,-0.556825
-0.050000,-0.050000,0.000000,0.000000,0.000000,0.000000,0.000000,0.000000,0.000000,0.100000,0.100000,-0.113489,-0.486952,-0.050000,-0.050000,0.399646,-0.748315,0.000000,0.000000,-0.412489,0.195606,1.200287,-0.045032,0.214242,-0.384688,-0.061125,-0.021079,0.060212,-0.562727
-0.050000,-0.050000,0.000000,0.000000,0.000000,0.000000,0.000000,0.000000,0.000000,0.100000,0.100000,-0.113981,-0.476658,-0.050000,-0.050000,0.402769,-0.748929,0.000000,0.000000,-0.409864,0.185026,1.190662,-0.031515,0.215293,-0.378735,-0.062748,-0.020971,0.064479,-0.569136
-0.050000,-0.050000,0.000000,0.000000,0.000000,0.000000,0.000000,0.000000,0.000000,0.100000,0.100000,-0.114181,-0.465283,-0.050000,-0.050000,0.406594,-0.749383,0.000000,0.000000,-0.407297,0.174421,1.178494,-0.018904,0.217059,-0.372997,-0.064809,-0.021403,0.069762,-0.576307
-0.050000,-0.050000,0.000000,0.000000,0.000000,0.000000,0.000000,0.000000,0.000000,0.100000,0.100000,-0.114146,-0.452947,-0.050000,-0.050000,0.411152,-0.749399,0.000000,0.000000,-0.404783,0.163797,1.163515,-0.007250,0.219357,-0.367535,-0.067299,-0.022214,0.076104,-0.584216
-0.050000,-0.050000,0.000000,0.000000,0.000000,0.000000,0.000000,0.000000,0.000000,0.100000,0.100000,-0.113747,-0.439908,-0.050000,-0.050000,0.416279,-0.749031,0.000000,0.000000,-0.402261,0.153044,1.146599,0.003732,0.221999,-0.362297,-0.069897,-0.023222,0.083058,-0.592570
-0.050000,-0.050000,0.000000,0.000000,0.000000,0.000000,0.000000,0.000000,0.000000,0.100000,0.100000,-0.113599,-0.426089,-0.050000,-0.050000,0.422328,-0.747713,0.000000,0.000000,-0.399877,0.142598,1.125782,0.013540,0.224972,-0.357483,-0.073177,-0.024394,0.091455,-0.601610
-0.050000,-0.050000,0.000000,0.000000,0.000000,0.000000,0.000000,0.000000,0.000000,0.100000,0.100000,-0.113229,-0.411924,-0.050000,-0.050000,0.428994,-0.745757,0.000000,0.000000,-0.397488,0.132138,1.102898,0.022735,0.228036,-0.352967,-0.076397,-0.025476,0.100372,-0.610821
-0.050000,-0.050000,0.000000,0.000000,0.000000,0.000000,0.000000,0.000000,0.000000,0.100000,0.100000,-0.113184,-0.397556,-0.050000,-0.050000,0.436357,-0.742878,0.000000,0.000000,-0.395201,0.122052,1.077100,0.031130,0.231134,-0.348802,-0.079858,-0.026421,0.110158,-0.620137
-0.050000,-0.050000,0.000000,0.000000,0.000000,0.000000,0.000000,0.000000,0.000000,0.100000,0.100000,-0.113615,-0.383404,-0.050000,-0.050000,0.444351,-0.739096,0.000000,0.000000,-0.393077,0.112505,1.048667,0.038787,0.234139,-0.344963,-0.083335,-0.027106,0.120628,-0.629193
-0.050000,-0.050000,0.000000,0.000000,0.000000,0.000000,0.000000,0.000000,0.000000,0.100000,0.100000,-0.114249,-0.369492,-0.050000,-0.050000,0.452807,-0.734672,0.000000,0.000000,-0.390907,0.103291,1.018460,0.045973,0.237086,-0.341359,-0.086661,-0.027529,0.131435,-0.638012
-0.050000,-0.050000,0.000000,0.000000,0.000000,0.000000,0.000000,0.000000,0.000000,0.100000,0.100000,-0.116251,-0.356638,-0.050000,-0.050000,0.461805,-0.729260,0.000000,0.000000,-0.389189,0.095423,0.985303,0.052147,0.239860,-0.337974,-0.090004,-0.027689,0.143071,-0.645853
-0.050000,-0.050000,0.000000,0.000000,0.000000,0.000000,0.000000,0.000000,0.000000,0.100000,0.100000,-0.118734,-0.344627,-0.050000,-0.050000,0.471118,-0.723397,0.000000,0.000000,-0.387415,0.088184,0.950775,0.057839,0.242571,-0.334678,-0.093020,-0.027589,0.154952,-0.653039
-0.050000,-0.050000,0.000000,0.000000,0.000000,0.000000,0.000000,0.000000,0.000000,0.100000,0.100000,-0.122450,-0.333949,-0.050000,-0.050000,0.480702,-0.716986,0.000000,0.000000,-0.385880,0.082267,0.914370,0.062666,0.245271,-0.331361,-0.095901,-0.027393,0.167387,-0.659112
-0.050000,-0.050000,0.000000,0.000000,0.000000,0.000000,0.000000,0.000000,0.000000,0.100000,0.100000,-0.127406,-0.324840,-0.050000,-0.050000,0.490486,-0.710246,0.000000,0.000000,-0.384511,0.077740,0.876444,0.066551,0.248098,-0.327846,-0.098633,-0.027272,0.180473,-0.663955
-0.050000,-0.050000,0.000000,0.000000,0.000000,0.000000,0.000000,0.000000,0.000000,0.100000,0.100000,-0.133139,-0.316923,-0.050000,-0.050000,0.500294,-0.703320,0.000000,0.000000,-0.382971,0.074140,0.837555,0.069914,0.251074,-0.324164,-0.101207,-0.027137,0.193942,-0.667941
-0.050000,-0.050000,0.000000,0.000000,0.000000,0.000000,0.000000,0.000000,0.000000,0.100000,0.100000,-0.140763,-0.311189,-0.050000,-0.050000,0.510265,-0.696252,0.000000,0.000000,-0.381781,0.072702,0.796941,0.071667,0.254590,-0.319886,-0.104000,-0.027694,0.208790,-0.670247
-0.050000,-0.050000,0.000000,0.000000,0.000000,0.000000,0.000000,0.000000,0.000000,0.100000,0.100000,-0.149056,-0.306701,-0.050000,-0.050000,0.520127,-0.689197,0.000000,0.000000,-0.380188,0.072172,0.755675,0.072896,0.258525,-0.315230,-0.106818,-0.028481,0.224364,-0.671759
-0.050000,-0.050000,0.000000,0.000000,0.000000,0.000000,0.000000,0.000000,0.000000,0.100000,0.100000,-0.158587,-0.303844,-0.050000,-0.050000,0.529963,-0.682183,0.000000,0.000000,-0.378467,0.073262,0.713310,0.072925,0.263215,-0.309959,-0.110015,-0.030035,0.241294,-0.672166
-0.050000,-0.050000,0.000000,0.000000,0.000000,0.000000,0.000000,0.000000,0.000000,0.100000,0.100000,-0.168939,-0.302292,-0.050000,-0.050000,0.539705,-0.675275,0.000000,0.000000,-0.376337,0.075656,0.670179,0.071998,0.268781,-0.304091,-0.113667,-0.032379,0.259674,-0.671809
-0.050000,-0.050000,0.000000,0.000000,0.000000,0.000000,0.000000,0.000000,0.000000,0.100000,0.100000,-0.179709,-0.301644,-0.050000,-0.050000,0.549187,-0.668437,0.000000,0.000000,-0.373660,0.078938,0.626590,0.070536,0.275109,-0.297791,-0.117649,-0.035252,0.279030,-0.670965
-0.050000,-0.050000,0.000000,0.000000,0.000000,0.000000,0.000000,0.000000,0.000000,0.100000,0.100000,-0.191098,-0.302001,-0.050000,-0.050000,0.558585,-0.661763,0.000000,0.000000,-0.370464,0.083681,0.582390,0.067880,0.282719,-0.290871,-0.122410,-0.039369,0.300346,-0.669694
-0.050000,-0.050000,0.000000,0.000000,0.000000,0.000000,0.000000,0.000000,0.000000,0.100000,0.100000,-0.202300,-0.302702,-0.050000,-0.050000,0.567555,-0.655138,0.000000,0.000000,-0.366549,0.088984,0.538249,0.065014,0.291165,-0.283670,-0.127495,-0.043979,0.322473,-0.668369
-0.050000,-0.050000,0.000000,0.000000,0.000000,0.000000,0.000000,0.000000,0.000000,0.100000,0.100000,-0.213314,-0.303631,-0.050000,-0.050000,0.576168,-0.648611,0.000000,0.000000,-0.361969,0.095092,0.494260,0.061627,0.300638,-0.276192,-0.133061,-0.049424,0.345679,-0.667120
-0.050000,-0.050000,0.000000,0.000000,0.000000,0.000000,0.000000,0.000000,0.000000,0.100000,0.100000,-0.223587,-0.304354,-0.050000,-0.050000,0.584196,-0.642118,0.000000,0.000000,-0.356725,0.101636,0.451078,0.058145,0.310834,-0.268603,-0.138828,-0.055411,0.369266,-0.666118
-0.050000,-0.050000,0.000000,0.000000,0.000000,0.000000,0.000000,0.000000,0.000000,0.100000,0.100000,-0.233256,-0.304829,-0.050000,-0.050000,0.591652,-0.635634,0.000000,0.000000,-0.350921,0.108533,0.408510,0.054625,0.321624,-0.260953,-0.144766,-0.061789,0.393029,-0.665318
-0.050000,-0.050000,0.000000,0.000000,0.000000,0.000000,0.000000,0.000000,0.000000,0.100000,0.100000,-0.241268,-0.304487,-0.050000,-0.050000,0.598147,-0.629134,0.000000,0.000000,-0.344664,0.115513,0.368214,0.051428,0.332413,-0.253309,-0.150367,-0.068418,0.415853,-0.664804
-0.050000,-0.050000,0.000000,0.000000,0.000000,0.000000,0.000000,0.000000,0.000000,0.100000,0.100000,-0.248292,-0.303528,-0.050000,-0.050000,0.603829,-0.622578,0.000000,0.000000,-0.338127,0.122620,0.329342,0.048499,0.343062,-0.245627,-0.155821,-0.075099,0.437791,-0.664324
-0.050000,-0.050000,0.000000,0.000000,0.000000,0.000000,0.000000,0.000000,0.000000,0.100000,0.100000,-0.253565,-0.301682,-0.050000,-0.050000,0.608392,-0.615946,0.000000,0.000000,-0.331469,0.129574,0.293161,0.046152,0.352865,-0.237847,-0.160627,-0.081581,0.457784,-0.663718
-0.050000,-0.050000,0.000000,0.000000,0.000000,0.000000,0.000000,0.000000,0.000000,0.100000,0.100000,-0.257091,-0.299011,-0.050000,-0.050000,0.611714,-0.609200,0.000000,0.000000,-0.324877,0.136342,0.259941,0.044483,0.361178,-0.229775,-0.164640,-0.087631,0.475241,-0.662590
-0.050000,-0.050000,0.000000,0.000000,0.000000,0.000000,0.000000,0.000000,0.000000,0.100000,0.100000,-0.259512,-0.295698,-0.050000,-0.050000,0.614148,-0.602422,0.000000,0.000000,-0.318364,0.143024,0.228857,0.043249,0.368261,-0.221444,-0.168176,-0.093334,0.490759,-0.660994
-0.050000,-0.050000,0.000000,0.000000,0.000000,0.000000,0.000000,0.000000,0.000000,0.100000,0.100000,-0.259227,-0.291662,-0.050000,-0.050000,0.614765,-0.595451,0.000000,0.000000,-0.312212,0.149153,0.202521,0.043140,0.372011,-0.212297,-0.170108,-0.098020,0.501935,-0.658021
-0.050000,-0.050000,0.000000,0.000000,0.000000,0.000000,0.000000,0.000000,0.000000,0.100000,0.100000,-0.258096,-0.287250,-0.050000,-0.050000,0.614552,-0.588529,0.000000,0.000000,-0.306212,0.155210,0.178423,0.043418,0.373688,-0.202591,-0.171526,-0.102177,0.510829,-0.654146
-0.050000,-0.050000,0.000000,0.000000,0.000000,0.000000,0.000000,0.000000,0.000000,0.100000,0.100000,-0.254953,-0.282590,-0.050000,-0.050000,0.612888,-0.581551,0.000000,0.000000,-0.300452,0.160796,0.158197,0.044481,0.371916,-0.191957,-0.171641,-0.105400,0.516130,-0.648879
-0.050000,-0.050000,0.000000,0.000000,0.000000,0.000000,0.000000,0.000000,0.000000,0.100000,0.100000,-0.250412,-0.277936,-0.050000,-0.050000,0.610104,-0.574671,0.000000,0.000000,-0.294692,0.166038,0.141082,0.046023,0.366773,-0.180438,-0.170796,-0.107886,0.518584,-0.642433
-0.050000,-0.050000,0.000000,0.000000,0.000000,0.000000,0.000000,0.000000,0.000000,0.100000,0.100000,-0.245004,-0.273327,-0.050000,-0.050000,0.606568,-0.567929,0.000000,0.000000,-0.288920,0.171070,0.126164,0.047883,0.359064,-0.168232,-0.169309,-0.109793,0.518977,-0.635105
-0.050000,-0.050000,0.000000,0.000000,0.000000,0.000000,0.000000,0.000000,0.000000,0.100000,0.100000,-0.237724,-0.269187,-0.050000,-0.050000,0.601735,-0.561412,0.000000,0.000000,-0.282660,0.175417,0.114873,0.050079,0.346968,-0.155087,-0.166645,-0.111083,0.516749,-0.626963
-0.050000,-0.050000,0.000000,0.000000,0.000000,0.000000,0.000000,0.000000,0.000000,0.100000,0.100000,-0.230109,-0.265292,-0.050000,-0.050000,0.596558,-0.555210,0.000000,0.000000,-0.276051,0.179645,0.104953,0.052322,0.332634,-0.141485,-0.163746,-0.112121,0.513458,-0.618530
-0.050000,-0.050000,0.000000,0.000000,0.000000,0.000000,0.000000,0.000000,0.000000,0.100000,0.100000,-0.221486,-0.261936,-0.050000,-0.050000,0.590732,-0.549367,0.000000,0.000000,-0.268689,0.183331,0.097203,0.054547,0.315164,-0.127415,-0.160357,-0.113035,0.509120,-0.610172
-0.050000,-0.050000,0.000000,0.000000,0.000000,0.000000,0.000000,0.000000,0.000000,0.100000,0.100000,-0.212558,-0.259020,-0.050000,-0.050000,0.584766,-0.543967,0.000000,0.000000,-0.260570,0.186678,0.090699,0.056648,0.295457,-0.113129,-0.156998,-0.114079,0.504480,-0.602263
-0.050000,-0.050000,0.000000,0.000000,0.000000,0.000000,0.000000,0.000000,0.000000,0.100000,0.100000,-0.203454,-0.256451,-0.050000,-0.050000,0.578703,-0.538889,0.000000,0.000000,-0.251900,0.189817,0.085090,0.058675,0.274149,-0.098711,-0.153731,-0.115253,0.499721,-0.594769
-0.050000,-0.050000,0.000000,0.000000,0.000000,0.000000,0.000000,0.000000,0.000000,0.100000,0.100000,-0.194476,-0.254391,-0.050000,-0.050000,0.573015,-0.534388,0.000000,0.000000,-0.242284,0.192428,0.080460,0.060535,0.251076,-0.084268,-0.150967,-0.116908,0.495293,-0.588222
-0.050000,-0.050000,0.000000,0.000000,0.000000,0.000000,0.000000,0.000000,0.000000,0.100000,0.100000,-0.185887,-0.252551,-0.050000,-0.050000,0.567641,-0.530156,0.000000,0.000000,-0.232421,0.194981,0.076237,0.062461,0.227322,-0.069770,-0.148662,-0.118772,0.490988,-0.582008
-0.050000,-0.050000,0.000000,0.000000,0.000000,0.000000,0.000000,0.000000,0.000000,0.100000,0.100000,-0.178038,-0.251016,-0.050000,-0.050000,0.563023,-0.526342,0.000000,0.000000,-0.222224,0.197246,0.072481,0.064519,0.203040,-0.055185,-0.147040,-0.120946,0.486887,-0.576143
-0.050000,-0.050000,0.000000,0.000000,0.000000,0.000000,0.000000,0.000000,0.000000,0.100000,0.100000,-0.171228,-0.249667,-0.050000,-0.050000,0.559258,-0.522789,0.000000,0.000000,-0.212245,0.199431,0.069059,0.066973,0.178832,-0.040340,-0.146025,-0.123157,0.482550,-0.569892
-0.050000,-0.050000,0.000000,0.000000,0.000000,0.000000,0.000000,0.000000,0.000000,0.100000,0.100000,-0.165320,-0.248494,-0.050000,-0.050000,0.556128,-0.519403,0.000000,0.000000,-0.202508,0.201461,0.065995,0.069773,0.154740,-0.025233,-0.145467,-0.125352,0.478003,-0.563208
-0.050000,-0.050000,0.000000,0.000000,0.000000,0.000000,0.000000,0.000000,0.000000,0.100000,0.100000,-0.161253,-0.247444,-0.050000,-0.050000,0.554445,-0.516241,0.000000,0.000000,-0.193886,0.203522,0.063265,0.073491,0.131572,-0.009391,-0.145371,-0.127061,0.472120,-0.554503
-0.050000,-0.050000,0.000000,0.000000,0.000000,0.000000,0.000000,0.000000,0.000000,0.100000,0.100000,-0.158328,-0.246563,-0.050000,-0.050000,0.553306,-0.513091,0.000000,0.000000,-0.186019,0.205339,0.061038,0.077722,0.108811,0.007034,-0.145426,-0.128402,0.465374,-0.544341
-0.050000,-0.050000,0.000000,0.000000,0.000000,0.000000,0.000000,0.000000,0.000000,0.100000,0.100000,-0.157187,-0.245767,-0.050000,-0.050000,0.553249,-0.509990,0.000000,0.000000,-0.179674,0.207105,0.059245,0.082831,0.086991,0.024416,-0.145510,-0.128960,0.456722,-0.531347
-0.050000,-0.050000,0.000000,0.000000,0.000000,0.000000,0.000000,0.000000,0.000000,0.100000,0.100000,-0.157552,-0.245081,-0.050000,-0.050000,0.553731,-0.506809,0.000000,0.000000,-0.174765,0.208549,0.058020,0.088502,0.065706,0.042801,-0.145441,-0.128815,0.446152,-0.515521
-0.050000,-0.050000,0.000000,0.000000,0.000000,0.000000,0.000000,0.000000,0.000000,0.100000,0.100000,-0.159205,-0.244456,-0.050000,-0.050000,0.554611,-0.503612,0.000000,0.000000,-0.171017,0.209580,0.057307,0.094561,0.044791,0.062009,-0.145169,-0.127992,0.434042,-0.497364
-0.050000,-0.050000,0.000000,0.000000,0.000000,0.000000,0.000000,0.000000,0.000000,0.100000,0.100000,-0.162403,-0.243799,-0.050000,-0.050000,0.555568,-0.500121,0.000000,0.000000,-0.169250,0.210069,0.057101,0.100698,0.023902,0.082619,-0.144570,-0.126540,0.419076,-0.475464
-0.050000,-0.050000,0.000000,0.000000,0.000000,0.000000,0.000000,0.000000,0.000000,0.100000,0.100000,-0.166547,-0.243055,-0.050000,-0.050000,0.556338,-0.496585,0.000000,0.000000,-0.168317,0.209694,0.057401,0.106577,0.002625,0.104045,-0.143750,-0.124695,0.402802,-0.451738
-0.050000,-0.050000,0.000000,0.000000,0.000000,0.000000,0.000000,0.000000,0.000000,0.100000,0.100000,-0.171593,-0.242091,-0.050000,-0.050000,0.556443,-0.492675,0.000000,0.000000,-0.168722,0.208317,0.058050,0.111642,-0.019674,0.126722,-0.142739,-0.122800,0.384483,-0.425663
-0.050000,-0.050000,0.000000,0.000000,0.000000,0.000000,0.000000,0.000000,0.000000,0.100000,0.100000,-0.177124,-0.240743,-0.050000,-0.050000,0.555571,-0.488438,0.000000,0.000000,-0.169733,0.205576,0.058978,0.115416,-0.043634,0.150517,-0.141724,-0.121270,0.365066,-0.398618
-0.050000,-0.050000,0.000000,0.000000,0.000000,0.000000,0.000000,0.000000,0.000000,0.100000,0.100000,-0.182998,-0.238937,-0.050000,-0.050000,0.553933,-0.484006,0.000000,0.000000,-0.171246,0.201746,0.060088,0.118009,-0.069030,0.175173,-0.140629,-0.119939,0.344832,-0.370952
-0.050000,-0.050000,0.000000,0.000000,0.000000,0.000000,0.000000,0.000000,0.000000,0.100000,0.100000,-0.188610,-0.236422,-0.050000,-0.050000,0.550211,-0.478655,0.000000,0.000000,-0.172688,0.195756,0.061149,0.117962,-0.097980,0.201579,-0.139993,-0.120320,0.324534,-0.344404
-0.050000,-0.050000,0.000000,0.000000,0.000000,0.000000,0.000000,0.000000,0.000000,0.100000,0.100000,-0.194113,-0.233118,-0.050000,-0.050000,0.545704,-0.473122,0.000000,0.000000,-0.174034,0.188643,0.062176,0.116332,-0.128894,0.228844,-0.139438,-0.121311,0.304478,-0.318862
-0.050000,-0.050000,0.000000,0.000000,0.000000,0.000000,0.000000,0.000000,0.000000,0.100000,0.100000,-0.198936,-0.228931,-0.050000,-0.050000,0.539238,-0.466584,0.000000,0.000000,-0.174641,0.179468,0.062976,0.112019,-0.163511,0.257844,-0.139452,-0.124304,0.285706,-0.296225
-0.050000,-0.050000,0.000000,0.000000,0.000000,0.000000,0.000000,0.000000,0.000000,0.100000,0.100000,-0.203129,-0.223757,-0.050000,-0.050000,0.531567,-0.459352,0.000000,0.000000,-0.174401,0.168821,0.063513,0.105564,-0.201013,0.288234,-0.139910,-0.128878,0.268761,-0.276953
-0.050000,-0.050000,0.000000,0.000000,0.000000,0.000000,0.000000,0.000000,0.000000,0.100000,0.100000,-0.206718,-0.217770,-0.050000,-0.050000,0.522953,-0.451459,0.000000,0.000000,-0.173516,0.157147,0.063779,0.097315,-0.240837,0.319727,-0.140682,-0.134778,0.253419,-0.260564
-0.050000,-0.050000,0.000000,0.000000,0.000000,0.000000,0.000000,0.000000,0.000000,0.100000,0.100000,-0.209353,-0.210783,-0.050000,-0.050000,0.512910,-0.442265,0.000000,0.000000,-0.170803,0.143642,0.063749,0.086902,-0.283799,0.353152,-0.142342,-0.143187,0.242092,-0.250281
-0.050000,-0.050000,0.000000,0.000000,0.000000,0.000000,0.000000,0.000000,0.000000,0.100000,0.100000,-0.211505,-0.203147,-0.050000,-0.050000,0.502667,-0.432540,0.000000,0.000000,-0.167558,0.129964,0.063424,0.075378,-0.327873,0.387226,-0.144300,-0.152668,0.232910,-0.243183
-0.050000,-0.050000,0.000000,0.000000,0.000000,0.000000,0.000000,0.000000,0.000000,0.100000,0.100000,-0.212998,-0.194847,-0.050000,-0.050000,0.491852,-0.421728,0.000000,0.000000,-0.162627,0.115357,0.062978,0.062817,-0.373259,0.422551,-0.147090,-0.164136,0.228034,-0.241896
-0.050000,-0.050000,0.000000,0.000000,0.000000,0.000000,0.000000,0.000000,0.000000,0.100000,0.100000,-0.214150,-0.186152,-0.050000,-0.050000,0.481240,-0.410297,0.000000,0.000000,-0.156727,0.100866,0.062452,0.049940,-0.418485,0.458285,-0.150459,-0.176836,0.226744,-0.245103
-0.050000,-0.050000,0.000000,0.000000,0.000000,0.000000,0.000000,0.000000,0.000000,0.100000,0.100000,-0.215037,-0.177301,-0.050000,-0.050000,0.470764,-0.398236,0.000000,0.000000,-0.150023,0.086596,0.061871,0.036923,-0.463355,0.494214,-0.154463,-0.190735,0.228471,-0.251964
-0.050000,-0.050000,0.000000,0.000000,0.000000,0.000000,0.000000,0.000000,0.000000,0.100000,0.100000,-0.215861,-0.168243,-0.050000,-0.050000,0.461153,-0.385800,0.000000,0.000000,-0.141836,0.072731,0.061711,0.024852,-0.506128,0.529977,-0.159269,-0.205664,0.235208,-0.264479
-0.050000,-0.050000,0.000000,0.000000,0.000000,0.000000,0.000000,0.000000,0.000000,0.100000,0.100000,-0.216672,-0.159445,-0.050000,-0.050000,0.452000,-0.373041,0.000000,0.000000,-0.133349,0.059765,0.061588,0.013281,-0.547339,0.565137,-0.164655,-0.221371,0.244433,-0.279638
-0.050000,-0.050000,0.000000,0.000000,0.000000,0.000000,0.000000,0.000000,0.000000,0.100000,0.100000,-0.217601,-0.150702,-0.050000,-0.050000,0.443999,-0.360339,0.000000,0.000000,-0.123824,0.047672,0.062077,0.003332,-0.585456,0.599276,-0.170705,-0.237516,0.257708,-0.299044
-0.050000,-0.050000,0.000000,0.000000,0.000000,0.000000,0.000000,0.000000,0.000000,0.100000,0.100000,-0.218622,-0.142311,-0.050000,-0.050000,0.436857,-0.347754,0.000000,0.000000,-0.113941,0.036721,0.062975,-0.005196,-0.620740,0.632012,-0.177226,-0.253852,0.273696,-0.321165
-0.050000,-0.050000,0.000000,0.000000,0.000000,0.000000,0.000000,0.000000,0.000000,0.100000,0.100000,-0.219736,-0.134265,-0.050000,-0.050000,0.430411,-0.335293,0.000000,0.000000,-0.103694,0.026702,0.064240,-0.012427,-0.653544,0.663425,-0.184223,-0.270405,0.291877,-0.345458
-0.050000,-0.050000,0.000000,0.000000,0.000000,0.000000,0.000000,0.000000,0.000000,0.100000,0.100000,-0.220764,-0.126398,-0.050000,-0.050000,0.425274,-0.323577,0.000000,0.000000,-0.093074,0.017952,0.066307,-0.017308,-0.682582,0.692416,-0.191352,-0.286153,0.312560,-0.372334
-0.050000,-0.050000,0.000000,0.000000,0.000000,0.000000,0.000000,0.000000,0.000000,0.100000,0.100000,-0.221717,-0.119020,-0.050000,-0.050000,0.420460,-0.312033,0.000000,0.000000,-0.082416,0.010028,0.068569,-0.021102,-0.709629,0.719790,-0.198733,-0.301766,0.334303,-0.400303
-0.050000,-0.050000,0.000000,0.000000,0.000000,0.000000,0.000000,0.000000,0.000000,0.100000,0.100000,-0.222246,-0.111802,-0.050000,-0.050000,0.416627,-0.301345,0.000000,0.000000,-0.071690,0.003135,0.071414,-0.022854,-0.733710,0.744465,-0.205979,-0.316120,0.357090,-0.429540
-0.050000,-0.050000,0.000000,0.000000,0.000000,0.000000,0.000000,0.000000,0.000000,0.100000,0.100000,-0.222241,-0.104947,-0.050000,-0.050000,0.413189,-0.291205,0.000000,0.000000,-0.061088,-0.003020,0.074442,-0.023314,-0.755806,0.766750,-0.213107,-0.329417,0.379939,-0.459102
-0.050000,-0.050000,0.000000,0.000000,0.000000,0.000000,0.000000,0.000000,0.000000,0.100000,0.100000,-0.221696,-0.098331,-0.050000,-0.050000,0.410092,-0.281583,0.000000,0.000000,-0.050538,-0.008619,0.077606,-0.022671,-0.776274,0.786926,-0.220113,-0.341682,0.402631,-0.488814
-0.050000,-0.050000,0.000000,0.000000,0.000000,0.000000,0.000000,0.000000,0.000000,0.100000,0.100000,-0.219948,-0.091956,-0.050000,-0.050000,0.407628,-0.273041,0.000000,0.000000,-0.040445,-0.013499,0.080819,-0.020634,-0.794598,0.803647,-0.226575,-0.351758,0.423981,-0.517627
-0.050000,-0.050000,0.000000,0.000000,0.000000,0.000000,0.000000,0.000000,0.000000,0.100000,0.100000,-0.217484,-0.085847,-0.050000,-0.050000,0.405191,-0.264874,0.000000,0.000000,-0.030431,-0.018139,0.083891,-0.018016,-0.811826,0.818440,-0.232868,-0.360694,0.444331,-0.545813
-0.050000,-0.050000,0.000000,0.000000,0.000000,0.000000,0.000000,0.000000,0.000000,0.100000,0.100000,-0.213676,-0.080001,-0.050000,-0.050000,0.403284,-0.257800,0.000000,0.000000,-0.021025,-0.022261,0.086714,-0.014581,-0.827180,0.829879,-0.238549,-0.367353,0.462490,-0.572168
-0.050000,-0.050000,0.000000,0.000000,0.000000,0.000000,0.000000,0.000000,0.000000,0.100000,0.100000,-0.208833,-0.074445,-0.050000,-0.050000,0.401576,-0.251430,0.000000,0.000000,-0.012018,-0.026146,0.089185,-0.010802,-0.841029,0.838762,-0.243803,-0.372288,0.478616,-0.596743
-0.050000,-0.050000,0.000000,0.000000,0.000000,0.000000,0.000000,0.000000,0.000000,0.100000,0.100000,-0.203051,-0.069100,-0.050000,-0.050000,0.400053,-0.245709,0.000000,0.000000,-0.003384,-0.029830,0.091334,-0.006761,-0.853513,0.845416,-0.248644,-0.375633,0.492864,-0.619622
-0.050000,-0.050000,0.000000,0.000000,0.000000,0.000000,0.000000,0.000000,0.000000,0.100000,0.100000,-0.196141,-0.064180,-0.050000,-0.050000,0.399203,-0.241286,0.000000,0.000000,0.004199,-0.033001,0.092899,-0.002744,-0.863441,0.848628,-0.252694,-0.376738,0.504080,-0.639311
-0.050000,-0.050000,0.000000,0.000000,0.000000,0.000000,0.000000,0.000000,0.000000,0.100000,0.100000,-0.188640,-0.059412,-0.050000,-0.050000,0.398366,-0.237282,0.000000,0.000000,0.011478,-0.036121,0.094177,0.001273,-0.871947,0.850167,-0.256354,-0.376596,0.513657,-0.657283
-0.050000,-0.050000,0.000000,0.000000,0.000000,0.000000,0.000000,0.000000,0.000000,0.100000,0.100000,-0.180521,-0.055062,-0.050000,-0.050000,0.398297,-0.234582,0.000000,0.000000,0.017502,-0.038640,0.094884,0.004911,-0.877546,0.848692,-0.259151,-0.374574,0.520448,-0.671939
-0.050000,-0.050000,0.000000,0.000000,0.000000,0.000000,0.000000,0.000000,0.000000,0.100000,0.100000,-0.172209,-0.050936,-0.050000,-0.050000,0.398571,-0.232620,0.000000,0.000000,0.022689,-0.040836,0.095252,0.008222,-0.880772,0.845254,-0.261266,-0.371234,0.525286,-0.684093
-0.050000,-0.050000,0.000000,0.000000,0.000000,0.000000,0.000000,0.000000,0.000000,0.100000,0.100000,-0.163819,-0.047012,-0.050000,-0.050000,0.399226,-0.231389,0.000000,0.000000,0.027021,-0.042693,0.095328,0.011184,-0.881748,0.840088,-0.262723,-0.366747,0.528416,-0.693917
-0.050000,-0.050000,0.000000,0.000000,0.000000,0.000000,0.000000,0.000000,0.000000,0.100000,0.100000,-0.155851,-0.043447,-0.050000,-0.050000,0.400903,-0.231501,0.000000,0.000000,0.029582,-0.043631,0.094922,0.013383,-0.878992,0.832456,-0.262985,-0.360716,0.528935,-0.700069
-0.050000,-0.050000,0.000000,0.000000,0.000000,0.000000,0.000000,0.000000,0.000000,0.100000,0.100000,-0.148182,-0.039931,-0.050000,-0.050000,0.402777,-0.232019,0.000000,0.000000,0.031440,-0.044378,0.094435,0.015311,-0.874159,0.823748,-0.262569,-0.353814,0.528150,-0.704166
-0.050000,-0.050000,0.000000,0.000000,0.000000,0.000000,0.000000,0.000000,0.000000,0.100000,0.100000,-0.141360,-0.036696,-0.050000,-0.050000,0.405844,-0.233864,0.000000,0.000000,0.031318,-0.044056,0.093514,0.016460,-0.865481,0.812993,-0.260736,-0.345441,0.524688,-0.704426
-0.050000,-0.050000,0.000000,0.000000,0.000000,0.000000,0.000000,0.000000,0.000000,0.100000,0.100000,-0.135272,-0.033518,-0.050000,-0.050000,0.409591,-0.236410,0.000000,0.000000,0.029913,-0.043182,0.092446,0.017221,-0.853892,0.801036,-0.257682,-0.335880,0.519097,-0.701597
-0.050000,-0.050000,0.000000,0.000000,0.000000,0.000000,0.000000,0.000000,0.000000,0.100000,0.100000,-0.129922,-0.030414,-0.050000,-0.050000,0.414090,-0.239690,0.000000,0.000000,0.027229,-0.041751,0.091215,0.017623,-0.839584,0.787996,-0.253473,-0.325241,0.511391,-0.695747
-0.050000,-0.050000,0.000000,0.000000,0.000000,0.000000,0.000000,0.000000,0.000000,0.100000,0.100000,-0.125696,-0.027441,-0.050000,-0.050000,0.420239,-0.244312,0.000000,0.000000,0.022262,-0.039055,0.089531,0.017524,-0.821011,0.773306,-0.247051,-0.312688,0.499714,-0.684961
-0.050000,-0.050000,0.000000,0.000000,0.000000,0.000000,0.000000,0.000000,0.000000,0.100000,0.100000,-0.122070,-0.024424,-0.050000,-0.050000,0.426977,-0.249348,0.000000,0.000000,0.016452,-0.036187,0.087863,0.017426,-0.800135,0.757985,-0.239448,-0.299146,0.485706,-0.671156
-0.050000,-0.050000,0.000000,0.000000,0.000000,0.000000,0.000000,0.000000,0.000000,0.100000,0.100000,-0.119470,-0.021519,-0.050000,-0.050000,0.435705,-0.255800,0.000000,0.000000,0.008308,-0.032034,0.085688,0.017117,-0.774827,0.741122,-0.229272,-0.283527,0.466768,-0.651859
-0.050000,-0.050000,0.000000,0.000000,0.000000,0.000000,0.000000,0.000000,0.000000,0.100000,0.100000,-0.117515,-0.018615,-0.050000,-0.050000,0.445680,-0.262991,0.000000,0.000000,-0.001087,-0.027471,0.083392,0.017021,-0.746251,0.723350,-0.217167,-0.266474,0.443845,-0.628296
-0.050000,-0.050000,0.000000,0.000000,0.000000,0.000000,0.000000,0.000000,0.000000,0.100000,0.100000,-0.116200,-0.015778,-0.050000,-0.050000,0.456989,-0.270996,0.000000,0.000000,-0.011774,-0.022402,0.080884,0.017162,-0.714470,0.704591,-0.203393,-0.248151,0.416850,-0.600575
-0.050000,-0.050000,0.000000,0.000000,0.000000,0.000000,0.000000,0.000000,0.000000,0.100000,0.100000,-0.115628,-0.013107,-0.050000,-0.050000,0.470628,-0.280402,0.000000,0.000000,-0.024526,-0.016357,0.077994,0.017686,-0.677725,0.684235,-0.186792,-0.227940,0.383793,-0.567339
-0.050000,-0.050000,0.000000,0.000000,0.000000,0.000000,0.000000,0.000000,0.000000,0.100000,0.100000,-0.115547,-0.010554,-0.050000,-0.050000,0.485122,-0.290207,0.000000,0.000000,-0.037867,-0.010337,0.075091,0.018735,-0.638244,0.663015,-0.169353,-0.207174,0.347183,-0.530958
-0.050000,-0.050000,0.000000,0.000000,0.000000,0.000000,0.000000,0.000000,0.000000,0.100000,0.100000,-0.122855,-0.014478,-0.050000,-0.050000,0.501905,-0.299078,0.000000,0.000000,-0.050940,-0.006989,0.074844,0.022947,-0.588727,0.637993,-0.147420,-0.182452,0.299545,-0.484675
-0.050000,-0.050000,0.000000,0.000000,0.000000,0.000000,0.000000,0.000000,0.000000,0.100000,0.100000,-0.126357,-0.014737,-0.050000,-0.050000,0.519597,-0.310340,0.000000,0.000000,-0.066463,-0.001354,0.072795,0.026440,-0.540057,0.613481,-0.127544,-0.160418,0.252458,-0.440259
-0.050000,-0.050000,0.000000,0.000000,0.000000,0.000000,0.000000,0.000000,0.000000,0.100000,0.100000,-0.129006,-0.013959,-0.050000,-0.050000,0.538193,-0.322446,0.000000,0.000000,-0.083139,0.005257,0.069974,0.029732,-0.488418,0.587644,-0.108230,-0.139046,0.202695,-0.394668
-0.050000,-0.050000,0.000000,0.000000,0.000000,0.000000,0.000000,0.000000,0.000000,0.100000,0.100000,-0.131874,-0.013370,-0.050000,-0.050000,0.557448,-0.335098,0.000000,0.000000,-0.100610,0.012210,0.066962,0.033127,-0.433423,0.560283,-0.089656,-0.118870,0.151176,-0.349190
-0.050000,-0.050000,0.000000,0.000000,0.000000,0.000000,0.000000,0.000000,0.000000,0.100000,0.100000,-0.135144,-0.013044,-0.050000,-0.050000,0.576669,-0.347805,0.000000,0.000000,-0.118348,0.019283,0.063842,0.036567,-0.376894,0.531958,-0.073250,-0.100080,0.098908,-0.304081
-0.050000,-0.050000,0.000000,0.000000,0.000000,0.000000,0.000000,0.000000,0.000000,0.100000,0.100000,-0.133448,-0.008414,-0.050000,-0.050000,0.595743,-0.362485,0.000000,0.000000,-0.137983,0.029126,0.058535,0.037502,-0.325286,0.505583,-0.060674,-0.085305,0.054002,-0.266742
-0.050000,-0.050000,0.000000,0.000000,0.000000,0.000000,0.000000,0.000000,0.000000,0.100000,0.100000,-0.135328,-0.007117,-0.050000,-0.050000,0.613568,-0.375181,0.000000,0.000000,-0.155931,0.036953,0.054655,0.039412,-0.269894,0.477318,-0.049701,-0.071479,0.007367,-0.228787
-0.050000,-0.050000,0.000000,0.000000,0.000000,0.000000,0.000000,0.000000,0.000000,0.100000,0.100000,-0.139017,-0.007757,-0.050000,-0.050000,0.630100,-0.386957,0.000000,0.000000,-0.173163,0.043738,0.051571,0.041705,-0.214865,0.448913,-0.041575,-0.059891,-0.037011,-0.193409
-0.050000,-0.050000,0.000000,0.000000,0.000000,0.000000,0.000000,0.000000,0.000000,0.100000,0.100000,-0.143580,-0.009897,-0.050000,-0.050000,0.643631,-0.397063,0.000000,0.000000,-0.188899,0.049247,0.049269,0.043774,-0.164647,0.422455,-0.037167,-0.052096,-0.073777,-0.164647
-0.050000,-0.050000,0.000000,0.000000,0.000000,0.000000,0.000000,0.000000,0.000000,0.100000,0.100000,-0.148729,-0.012808,-0.050000,-0.050000,0.655791,-0.406619,0.000000,0.000000,-0.204387,0.054705,0.047320,0.045602,-0.117655,0.397290,-0.035355,-0.046548,-0.105820,-0.139893
-0.050000,-0.050000,0.000000,0.000000,0.000000,0.000000,0.000000,0.000000,0.000000,0.100000,0.100000,-0.153949,-0.016765,-0.050000,-0.050000,0.663866,-0.413809,0.000000,0.000000,-0.217661,0.058809,0.046112,0.046824,-0.079158,0.376132,-0.036515,-0.044871,-0.127115,-0.123556
-0.050000,-0.050000,0.000000,0.000000,0.000000,0.000000,0.000000,0.000000,0.000000,0.100000,0.100000,-0.159208,-0.021381,-0.050000,-0.050000,0.669555,-0.419747,0.000000,0.000000,-0.229893,0.062717,0.045374,0.047603,-0.047520,0.358377,-0.039498,-0.045591,-0.140625,-0.113088
-0.050000,-0.050000,0.000000,0.000000,0.000000,0.000000,0.000000,0.000000,0.000000,0.100000,0.100000,-0.164341,-0.026639,-0.050000,-0.050000,0.672567,-0.424144,0.000000,0.000000,-0.240690,0.066147,0.045197,0.047990,-0.023228,0.344399,-0.043824,-0.048582,-0.146100,-0.108584
-0.050000,-0.050000,0.000000,0.000000,0.000000,0.000000,0.000000,0.000000,0.000000,0.100000,0.100000,-0.169042,-0.032665,-0.050000,-0.050000,0.671442,-0.425802,0.000000,0.000000,-0.248861,0.068731,0.045878,0.048106,-0.010300,0.336746,-0.049200,-0.054217,-0.140973,-0.111616
-0.050000,-0.050000,0.000000,0.000000,0.000000,0.000000,0.000000,0.000000,0.000000,0.100000,0.100000,-0.173583,-0.039183,-0.050000,-0.050000,0.669001,-0.426764,0.000000,0.000000,-0.256248,0.071590,0.047025,0.048133,-0.003533,0.332566,-0.055019,-0.061083,-0.130331,-0.118594
-0.050000,-0.050000,0.000000,0.000000,0.000000,0.000000,0.000000,0.000000,0.000000,0.100000,0.100000,-0.177545,-0.046386,-0.050000,-0.050000,0.662491,-0.424736,0.000000,0.000000,-0.260658,0.073771,0.049234,0.048379,-0.008878,0.335702,-0.061163,-0.069924,-0.110611,-0.131764
-0.050000,-0.050000,0.000000,0.000000,0.000000,0.000000,0.000000,0.000000,0.000000,0.100000,0.100000,-0.181242,-0.054099,-0.050000,-0.050000,0.654605,-0.421754,0.000000,0.000000,-0.263822,0.076341,0.052110,0.048988,-0.021722,0.343557,-0.067431,-0.079672,-0.086358,-0.147978
-0.050000,-0.050000,0.000000,0.000000,0.000000,0.000000,0.000000,0.000000,0.000000,0.100000,0.100000,-0.184608,-0.062295,-0.050000,-0.050000,0.644888,-0.417342,0.000000,0.000000,-0.265298,0.078995,0.055718,0.050115,-0.042265,0.356366,-0.073943,-0.090365,-0.057935,-0.166911
-0.050000,-0.050000,0.000000,0.000000,0.000000,0.000000,0.000000,0.000000,0.000000,0.100000,0.100000,-0.187531,-0.070893,-0.050000,-0.050000,0.633077,-0.411167,0.000000,0.000000,-0.264653,0.081857,0.060383,0.052181,-0.072180,0.375587,-0.080321,-0.101622,-0.026340,-0.187693
-0.050000,-0.050000,0.000000,0.000000,0.000000,0.000000,0.000000,0.000000,0.000000,0.100000,0.100000,-0.190301,-0.079863,-0.050000,-0.050000,0.620916,-0.404669,0.000000,0.000000,-0.263105,0.085125,0.065433,0.054858,-0.106878,0.398112,-0.087198,-0.113366,0.006218,-0.208947
-0.050000,-0.050000,0.000000,0.000000,0.000000,0.000000,0.000000,0.000000,0.000000,0.100000,0.100000,-0.192583,-0.088985,-0.050000,-0.050000,0.607208,-0.396731,0.000000,0.000000,-0.259637,0.088642,0.071510,0.058704,-0.149495,0.426470,-0.093887,-0.125115,0.039023,-0.229950
-0.050000,-0.050000,0.000000,0.000000,0.000000,0.000000,0.000000,0.000000,0.000000,0.100000,0.100000,-0.194616,-0.098249,-0.050000,-0.050000,0.593516,-0.388689,0.000000,0.000000,-0.255290,0.092451,0.077936,0.063300,-0.196054,0.457911,-0.100910,-0.136903,0.070509,-0.249791
-0.050000,-0.050000,0.000000,0.000000,0.000000,0.000000,0.000000,0.000000,0.000000,0.100000,0.100000,-0.196305,-0.107496,-0.050000,-0.050000,0.579523,-0.380241,0.000000,0.000000,-0.249924,0.096392,0.084760,0.068666,-0.246402,0.492422,-0.108204,-0.148601,0.100257,-0.268158
-0.050000,-0.050000,0.000000,0.000000,0.000000,0.000000,0.000000,0.000000,0.000000,0.100000,0.100000,-0.197411,-0.116454,-0.050000,-0.050000,0.565613,-0.371665,0.000000,0.000000,-0.243665,0.100290,0.091980,0.074771,-0.299598,0.529666,-0.115273,-0.159757,0.126606,-0.284032
-0.050000,-0.050000,0.000000,0.000000,0.000000,0.000000,0.000000,0.000000,0.000000,0.100000,0.100000,-0.198212,-0.125222,-0.050000,-0.050000,0.551973,-0.363167,0.000000,0.000000,-0.236820,0.104026,0.099156,0.081246,-0.353997,0.568227,-0.122751,-0.170826,0.150556,-0.298125
-0.050000,-0.050000,0.000000,0.000000,0.000000,0.000000,0.000000,0.000000,0.000000,0.100000,0.100000,-0.198229,-0.133359,-0.050000,-0.050000,0.538852,-0.354862,0.000000,0.000000,-0.229425,0.107288,0.106427,0.088078,-0.408557,0.607874,-0.129714,-0.181185,0.170202,-0.309410
-0.050000,-0.050000,0.000000,0.000000,0.000000,0.000000,0.000000,0.000000,0.000000,0.100000,0.100000,-0.197751,-0.140955,-0.050000,-0.050000,0.526273,-0.346814,0.000000,0.000000,-0.221636,0.109943,0.113423,0.094944,-0.462041,0.647477,-0.136707,-0.191305,0.186886,-0.318819
-0.050000,-0.050000,0.000000,0.000000,0.000000,0.000000,0.000000,0.000000,0.000000,0.100000,0.100000,-0.196693,-0.147902,-0.050000,-0.050000,0.514226,-0.339012,0.000000,0.000000,-0.213583,0.111940,0.120153,0.101740,-0.513856,0.686671,-0.143486,-0.201088,0.200595,-0.326441
-0.050000,-0.050000,0.000000,0.000000,0.000000,0.000000,0.000000,0.000000,0.000000,0.100000,0.100000,-0.194973,-0.153894,-0.050000,-0.050000,0.503141,-0.331720,0.000000,0.000000,-0.205349,0.112811,0.126376,0.108206,-0.561632,0.724065,-0.149875,-0.210607,0.211198,-0.332521
-0.050000,-0.050000,0.000000,0.000000,0.000000,0.000000,0.000000,0.000000,0.000000,0.100000,0.100000,-0.192870,-0.159215,-0.050000,-0.050000,0.492325,-0.324498,0.000000,0.000000,-0.196965,0.112997,0.132163,0.114340,-0.606925,0.760293,-0.156172,-0.220003,0.220117,-0.337704
-0.050000,-0.050000,0.000000,0.000000,0.000000,0.000000,0.000000,0.000000,0.000000,0.100000,0.100000,-0.190310,-0.163374,-0.050000,-0.050000,0.482707,-0.317937,0.000000,0.000000,-0.188503,0.111802,0.137189,0.119863,-0.646084,0.793303,-0.162084,-0.229354,0.226925,-0.342175
-0.050000,-0.050000,0.000000,0.000000,0.000000,0.000000,0.000000,0.000000,0.000000,0.100000,0.100000,-0.187589,-0.166662,-0.050000,-0.050000,0.473449,-0.311483,0.000000,0.000000,-0.179962,0.109763,0.141526,0.124781,-0.681003,0.823946,-0.167898,-0.238699,0.232929,-0.346423
-0.050000,-0.050000,0.000000,0.000000,0.000000,0.000000,0.000000,0.000000,0.000000,0.100000,0.100000,-0.184777,-0.169034,-0.050000,-0.050000,0.464823,-0.305335,0.000000,0.000000,-0.171394,0.106818,0.145121,0.129036,-0.711082,0.851829,-0.173585,-0.248083,0.238328,-0.350627
-0.050000,-0.050000,0.000000,0.000000,0.000000,0.000000,0.000000,0.000000,0.000000,0.100000,0.100000,-0.182277,-0.170279,-0.050000,-0.050000,0.457182,-0.299700,0.000000,0.000000,-0.162736,0.102904,0.147642,0.132439,-0.734763,0.875904,-0.179256,-0.257527,0.243636,-0.355011
-0.050000,-0.050000,0.000000,0.000000,0.000000,0.000000,0.000000,0.000000,0.000000,0.100000,0.100000,-0.179903,-0.170832,-0.050000,-0.050000,0.449702,-0.294050,0.000000,0.000000,-0.154106,0.098502,0.149425,0.135108,-0.754779,0.897714,-0.184881,-0.266938,0.249173,-0.359612
-0.050000,-0.050000,0.000000,0.000000,0.000000,0.000000,0.000000,0.000000,0.000000,0.100000,0.100000,-0.178359,-0.170234,-0.050000,-0.050000,0.443582,-0.289166,0.000000,0.000000,-0.145366,0.093436,0.149803,0.136724,-0.767980,0.915242,-0.190620,-0.276292,0.255211,-0.364408
-0.050000,-0.050000,0.000000,0.000000,0.000000,0.000000,0.000000,0.000000,0.000000,0.100000,0.100000,-0.177321,-0.168952,-0.050000,-0.050000,0.437856,-0.284386,0.000000,0.000000,-0.136661,0.088156,0.149123,0.137351,-0.777114,0.930073,-0.196355,-0.285463,0.261915,-0.369378
-0.050000,-0.050000,0.000000,0.000000,0.000000,0.000000,0.000000,0.000000,0.000000,0.100000,0.100000,-0.176976,-0.166928,-0.050000,-0.050000,0.432952,-0.280011,0.000000,0.000000,-0.127945,0.082712,0.147247,0.136962,-0.781854,0.941959,-0.202125,-0.294415,0.269285,-0.374434
-0.050000,-0.050000,0.000000,0.000000,0.000000,0.000000,0.000000,0.000000,0.000000,0.100000,0.100000,-0.177682,-0.164176,-0.050000,-0.050000,0.429281,-0.276315,0.000000,0.000000,-0.119284,0.077444,0.143790,0.135229,-0.781650,0.950384,-0.207983,-0.302965,0.277340,-0.379244
-0.050000,-0.050000,0.000000,0.000000,0.000000,0.000000,0.000000,0.000000,0.000000,0.100000,0.100000,-0.178810,-0.160970,-0.050000,-0.050000,0.425985,-0.272681,0.000000,0.000000,-0.110672,0.072233,0.139388,0.132532,-0.778646,0.956786,-0.213724,-0.311215,0.286057,-0.384118
-0.050000,-0.050000,0.000000,0.000000,0.000000,0.000000,0.000000,0.000000,0.000000,0.100000,0.100000,-0.181141,-0.157209,-0.050000,-0.050000,0.424286,-0.270020,0.000000,0.000000,-0.102253,0.067638,0.133246,0.128257,-0.771115,0.959742,-0.219523,-0.318872,0.295277,-0.388404
-0.050000,-0.050000,0.000000,0.000000,0.000000,0.000000,0.000000,0.000000,0.000000,0.100000,0.100000,-0.183903,-0.153143,-0.050000,-0.050000,0.423075,-0.267507,0.000000,0.000000,-0.093993,0.063390,0.126185,0.122872,-0.761282,0.960754,-0.225118,-0.326083,0.305063,-0.392612
-0.050000,-0.050000,0.000000,0.000000,0.000000,0.000000,0.000000,0.000000,0.000000,0.100000,0.100000,-0.187266,-0.148806,-0.050000,-0.050000,0.422719,-0.265473,0.000000,0.000000,-0.085956,0.059685,0.118114,0.116312,-0.749136,0.959690,-0.230549,-0.332784,0.315245,-0.396569
-0.050000,-0.050000,0.000000,0.000000,0.000000,0.000000,0.000000,0.000000,0.000000,0.100000,0.100000,-0.191185,-0.144385,-0.050000,-0.050000,0.423156,-0.263972,0.000000,0.000000,-0.078334,0.056777,0.109322,0.108535,-0.735453,0.956645,-0.235710,-0.338855,0.325809,-0.400322
-0.050000,-0.050000,0.000000,0.000000,0.000000,0.000000,0.000000,0.000000,0.000000,0.100000,0.100000,-0.195300,-0.139839,-0.050000,-0.050000,0.423880,-0.262559,0.000000,0.000000,-0.070903,0.054244,0.100229,0.100016,-0.721096,0.952490,-0.240577,-0.344508,0.336718,-0.404211
-0.050000,-0.050000,0.000000,0.000000,0.000000,0.000000,0.000000,0.000000,0.000000,0.100000,0.100000,-0.199751,-0.135493,-0.050000,-0.050000,0.425052,-0.261641,0.000000,0.000000,-0.064107,0.052718,0.091243,0.090584,-0.707170,0.947000,-0.244993,-0.349444,0.348005,-0.408247
-0.050000,-0.050000,0.000000,0.000000,0.000000,0.000000,0.000000,0.000000,0.000000,0.100000,0.100000,-0.204207,-0.131227,-0.050000,-0.050000,0.426182,-0.260711,0.000000,0.000000,-0.057638,0.051665,0.082800,0.080772,-0.694451,0.941027,-0.249006,-0.353904,0.359631,-0.412836
-0.050000,-0.050000,0.000000,0.000000,0.000000,0.000000,0.000000,0.000000,0.000000,0.100000,0.100000,-0.208673,-0.127184,-0.050000,-0.050000,0.427254,-0.259892,0.000000,0.000000,-0.051629,0.051255,0.075175,0.070661,-0.683614,0.934716,-0.252605,-0.357838,0.371551,-0.418026
-0.050000,-0.050000,0.000000,0.000000,0.000000,0.000000,0.000000,0.000000,0.000000,0.100000,0.100000,-0.212812,-0.123512,-0.050000,-0.050000,0.427761,-0.258926,0.000000,0.000000,-0.046163,0.051531,0.069225,0.060656,-0.676548,0.928682,-0.255615,-0.361173,0.383961,-0.424357
-0.050000,-0.050000,0.000000,0.000000,0.000000,0.000000,0.000000,0.000000,0.000000,0.100000,0.100000,-0.216881,-0.120025,-0.050000,-0.050000,0.428164,-0.257966,0.000000,0.000000,-0.040970,0.052187,0.064387,0.050720,-0.671967,0.922822,-0.258440,-0.364147,0.396432,-0.431469
-0.050000,-0.050000,0.000000,0.000000,0.000000,0.000000,0.000000,0.000000,0.000000,0.100000,0.100000,-0.220105,-0.117018,-0.050000,-0.050000,0.427430,-0.256513,0.000000,0.000000,-0.036291,0.053464,0.062136,0.041441,-0.673168,0.918058,-0.260622,-0.366519,0.409518,-0.440332
-0.050000,-0.050000,0.000000,0.000000,0.000000,0.000000,0.000000,0.000000,0.000000,0.100000,0.100000,-0.222911,-0.114216,-0.050000,-0.050000,0.426415,-0.254923,0.000000,0.000000,-0.031777,0.055021,0.061505,0.032607,-0.678072,0.914002,-0.262741,-0.368580,0.422553,-0.450367
-0.050000,-0.050000,0.000000,0.000000,0.000000,0.000000,0.000000,0.000000,0.000000,0.100000,0.100000,-0.224966,-0.111667,-0.050000,-0.050000,0.424722,-0.252944,0.000000,0.000000,-0.027431,0.056856,0.062836,0.024402,-0.687340,0.910947,-0.264711,-0.370314,0.435690,-0.461789
-0.050000,-0.050000,0.000000,0.000000,0.000000,0.000000,0.000000,0.000000,0.000000,0.100000,0.100000,-0.225797,-0.109250,-0.050000,-0.050000,0.422271,-0.250415,0.000000,0.000000,-0.023082,0.058756,0.066255,0.017043,-0.701209,0.909160,-0.266607,-0.371783,0.448808,-0.474856
-0.050000,-0.050000,0.000000,0.000000,0.000000,0.000000,0.000000,0.000000,0.000000,0.100000,0.100000,-0.226050,-0.106889,-0.050000,-0.050000,0.419691,-0.247748,0.000000,0.000000,-0.018683,0.060747,0.070836,0.010117,-0.717771,0.908037,-0.268733,-0.373128,0.461526,-0.488821
-0.050000,-0.050000,0.000000,0.000000,0.000000,0.000000,0.000000,0.000000,0.000000,0.100000,0.100000,-0.224450,-0.104391,-0.050000,-0.050000,0.416355,-0.244331,0.000000,0.000000,-0.014019,0.062398,0.077269,0.004186,-0.737980,0.908241,-0.270906,-0.374359,0.473908,-0.504433
-0.050000,-0.050000,0.000000,0.000000,0.000000,0.000000,0.000000,0.000000,0.000000,0.100000,0.100000,-0.221925,-0.101717,-0.050000,-0.050000,0.413081,-0.240791,0.000000,0.000000,-0.009169,0.063864,0.084414,-0.001294,-0.759634,0.908953,-0.273401,-0.375584,0.485481,-0.520738
-0.050000,-0.050000,0.000000,0.000000,0.000000,0.000000,0.000000,0.000000,0.000000,0.100000,0.100000,-0.218072,-0.098756,-0.050000,-0.050000,0.409639,-0.236891,0.000000,0.000000,-0.004054,0.064926,0.092345,-0.006174,-0.782439,0.910261,-0.276101,-0.376831,0.496290,-0.537818
-0.050000,-0.050000,0.000000,0.000000,0.000000,0.000000,0.000000,0.000000,0.000000,0.100000,0.100000,-0.212725,-0.095353,-0.050000,-0.050000,0.406325,-0.232782,0.000000,0.000000,0.001256,0.065337,0.100724,-0.010386,-0.805097,0.911847,-0.278927,-0.378115,0.505921,-0.555402
-0.050000,-0.050000,0.000000,0.000000,0.000000,0.000000,0.000000,0.000000,0.000000,0.100000,0.100000,-0.206531,-0.091668,-0.050000,-0.050000,0.403045,-0.228571,0.000000,0.000000,0.006663,0.065434,0.109239,-0.014229,-0.827530,0.913540,-0.281873,-0.379421,0.514721,-0.573152
-0.050000,-0.050000,0.000000,0.000000,0.000000,0.000000,0.000000,0.000000,0.000000,0.100000,0.100000,-0.198783,-0.087450,-0.050000,-0.050000,0.400195,-0.224388,0.000000,0.000000,0.011960,0.064603,0.117834,-0.017219,-0.847996,0.914933,-0.284596,-0.380667,0.521966,-0.590933
-0.050000,-0.050000,0.000000,0.000000,0.000000,0.000000,0.000000,0.000000,0.000000,0.100000,0.100000,-0.190330,-0.082992,-0.050000,-0.050000,0.397487,-0.220298,0.000000,0.000000,0.017014,0.063362,0.126264,-0.019684,-0.867019,0.915954,-0.287106,-0.381790,0.528247,-0.608446
-0.050000,-0.050000,0.000000,0.000000,0.000000,0.000000,0.000000,0.000000,0.000000,0.100000,0.100000,-0.181079,-0.078292,-0.050000,-0.050000,0.395098,-0.216419,0.000000,0.000000,0.021665,0.061539,0.134515,-0.021447,-0.883996,0.916382,-0.289200,-0.382710,0.533446,-0.625595
-0.050000,-0.050000,0.000000,0.000000,0.000000,0.000000,0.000000,0.000000,0.000000,0.100000,0.100000,-0.171274,-0.073554,-0.050000,-0.050000,0.393177,-0.213030,0.000000,0.000000,0.025475,0.059213,0.142475,-0.022305,-0.898368,0.915738,-0.290571,-0.383184,0.537478,-0.642074
-0.050000,-0.050000,0.000000,0.000000,0.000000,0.000000,0.000000,0.000000,0.000000,0.100000,0.100000,-0.161190,-0.068863,-0.050000,-0.050000,0.391302,-0.209822,0.000000,0.000000,0.028810,0.056527,0.150215,-0.022529,-0.911162,0.914497,-0.291477,-0.383363,0.540977,-0.658083
-0.050000,-0.050000,0.000000,0.000000,0.000000,0.000000,0.000000,0.000000,0.000000,0.100000,0.100000,-0.150974,-0.064556,-0.050000,-0.050000,0.390186,-0.207589,0.000000,0.000000,0.030645,0.053521,0.157548,-0.021572,-0.920807,0.911459,-0.291232,-0.382691,0.543320,-0.673037
-0.050000,-0.050000,0.000000,0.000000,0.000000,0.000000,0.000000,0.000000,0.000000,0.100000,0.100000,-0.140865,-0.060674,-0.050000,-0.050000,0.389143,-0.205738,0.000000,0.000000,0.031694,0.050251,0.164604,-0.019805,-0.928743,0.907410,-0.290317,-0.381469,0.545329,-0.687298
-0.050000,-0.050000,0.000000,0.000000,0.000000,0.000000,0.000000,0.000000,0.000000,0.100000,0.100000,-0.130992,-0.057387,-0.050000,-0.050000,0.388510,-0.204633,0.000000,0.000000,0.031579,0.046828,0.171297,-0.017129,-0.934571,0.901922,-0.288534,-0.379491,0.546839,-0.700669
-0.050000,-0.050000,0.000000,0.000000,0.000000,0.000000,0.000000,0.000000,0.000000,0.100000,0.100000,-0.121607,-0.054949,-0.050000,-0.050000,0.388358,-0.204457,0.000000,0.000000,0.030140,0.043352,0.177526,-0.013544,-0.938143,0.894596,-0.285829,-0.376598,0.547901,-0.712948
-0.050000,-0.050000,0.000000,0.000000,0.000000,0.000000,0.000000,0.000000,0.000000,0.100000,0.100000,-0.112572,-0.053115,-0.050000,-0.050000,0.388286,-0.204678,0.000000,0.000000,0.028028,0.039687,0.183470,-0.009298,-0.940337,0.886254,-0.282579,-0.373132,0.548888,-0.724568
-0.050000,-0.050000,0.000000,0.000000,0.000000,0.000000,0.000000,0.000000,0.000000,0.100000,0.100000,-0.104362,-0.052411,-0.050000,-0.050000,0.389005,-0.206237,0.000000,0.000000,0.024362,0.036161,0.188696,-0.004328,-0.939844,0.875342,-0.278390,-0.368538,0.549330,-0.734718
-0.050000,-0.050000,0.000000,0.000000,0.000000,0.000000,0.000000,0.000000,0.000000,0.100000,0.100000,-0.096671,-0.052404,-0.050000,-0.050000,0.389815,-0.208233,0.000000,0.000000,0.020146,0.032461,0.193516,0.001109,-0.937800,0.863070,-0.273756,-0.363318,0.549738,-0.744065
-0.050000,-0.050000,0.000000,0.000000,0.000000,0.000000,0.000000,0.000000,0.000000,0.100000,0.100000,-0.089650,-0.053193,-0.050000,-0.050000,0.391065,-0.211070,0.000000,0.000000,0.015095,0.028787,0.197722,0.006858,-0.933771,0.848885,-0.268610,-0.357311,0.549880,-0.752308
-0.050000,-0.050000,0.000000,0.000000,0.000000,0.000000,0.000000,0.000000,0.000000,0.100000,0.100000,-0.083362,-0.054724,-0.050000,-0.050000,0.392819,-0.214808,0.000000,0.000000,0.009373,0.025151,0.201183,0.012690,-0.927416,0.832378,-0.263043,-0.350463,0.549668,-0.759268
-0.050000,-0.050000,0.000000,0.000000,0.000000,0.000000,0.000000,0.000000,0.000000,0.100000,0.100000,-0.077504,-0.056696,-0.050000,-0.050000,0.394670,-0.218906,0.000000,0.000000,0.003355,0.021454,0.204195,0.018592,-0.919604,0.814521,-0.257215,-0.343061,0.549370,-0.765492
-0.050000,-0.050000,0.000000,0.000000,0.000000,0.000000,0.000000,0.000000,0.000000,0.100000,0.100000,-0.072493,-0.059281,-0.050000,-0.050000,0.397432,-0.224289,0.000000,0.000000,-0.003241,0.018028,0.206145,0.024118,-0.908587,0.793409,-0.251060,-0.334622,0.548368,-0.769972
-0.050000,-0.050000,0.000000,0.000000,0.000000,0.000000,0.000000,0.000000,0.000000,0.100000,0.100000,-0.067852,-0.062111,-0.050000,-0.050000,0.400355,-0.230027,0.000000,0.000000,-0.009909,0.014676,0.207557,0.029427,-0.895628,0.770548,-0.244712,-0.325521,0.547132,-0.773576
-0.050000,-0.050000,0.000000,0.000000,0.000000,0.000000,0.000000,0.000000,0.000000,0.100000,0.100000,-0.063717,-0.065183,-0.050000,-0.050000,0.403893,-0.236573,0.000000,0.000000,-0.016758,0.011646,0.208185,0.034283,-0.880040,0.745264,-0.238185,-0.315594,0.545337,-0.775878
-0.050000,-0.050000,0.000000,0.000000,0.000000,0.000000,0.000000,0.000000,0.000000,0.100000,0.100000,-0.060073,-0.068426,-0.050000,-0.050000,0.408249,-0.244002,0.000000,0.000000,-0.023715,0.009203,0.208021,0.038632,-0.861143,0.717321,-0.231456,-0.304685,0.542771,-0.776624
-0.050000,-0.050000,0.000000,0.000000,0.000000,0.000000,0.000000,0.000000,0.000000,0.100000,0.100000,-0.056650,-0.071713,-0.050000,-0.050000,0.412846,-0.251749,0.000000,0.000000,-0.030628,0.007083,0.207395,0.042640,-0.840198,0.687836,-0.224601,-0.293176,0.539781,-0.776415
-0.050000,-0.050000,0.000000,0.000000,0.000000,0.000000,0.000000,0.000000,0.000000,0.100000,0.100000,-0.053880,-0.075210,-0.050000,-0.050000,0.419047,-0.260851,0.000000,0.000000,-0.037816,0.006352,0.205932,0.046167,-0.814281,0.655302,-0.217431,-0.280378,0.535334,-0.773781
-0.050000,-0.050000,0.000000,0.000000,0.000000,0.000000,0.000000,0.000000,0.000000,0.100000,0.100000,-0.051355,-0.078816,-0.050000,-0.050000,0.425659,-0.270237,0.000000,0.000000,-0.045004,0.006383,0.204225,0.049604,-0.785533,0.621586,-0.210032,-0.266950,0.530061,-0.769682
-0.050000,-0.050000,0.000000,0.000000,0.000000,0.000000,0.000000,0.000000,0.000000,0.100000,0.100000,-0.049324,-0.082673,-0.050000,-0.050000,0.433426,-0.280430,0.000000,0.000000,-0.052464,0.007787,0.202194,0.053041,-0.752817,0.586415,-0.202343,-0.252741,0.523380,-0.763354
-0.050000,-0.050000,0.000000,0.000000,0.000000,0.000000,0.000000,0.000000,0.000000,0.100000,0.100000,-0.047958,-0.087001,-0.050000,-0.050000,0.442468,-0.291309,0.000000,0.000000,-0.060474,0.011076,0.200208,0.056964,-0.715641,0.550640,-0.194151,-0.237764,0.514771,-0.754164
-0.050000,-0.050000,0.000000,0.000000,0.000000,0.000000,0.000000,0.000000,0.000000,0.100000,0.100000,-0.047001,-0.091711,-0.050000,-0.050000,0.452027,-0.302485,0.000000,0.000000,-0.068614,0.015338,0.198383,0.061386,-0.675838,0.514726,-0.185888,-0.222698,0.504848,-0.742939
-0.050000,-0.050000,0.000000,0.000000,0.000000,0.000000,0.000000,0.000000,0.000000,0.100000,0.100000,-0.047349,-0.097487,-0.050000,-0.050000,0.463473,-0.314402,0.000000,0.000000,-0.078174,0.022861,0.197267,0.067293,-0.630594,0.479884,-0.176745,-0.206892,0.491571,-0.727129
-0.050000,-0.050000,0.000000,0.000000,0.000000,0.000000,0.000000,0.000000,0.000000,0.100000,0.100000,-0.048518,-0.104152,-0.050000,-0.050000,0.475289,-0.326393,0.000000,0.000000,-0.088125,0.031685,0.197023,0.074588,-0.583133,0.446475,-0.167578,-0.191432,0.476227,-0.708392
-0.050000,-0.050000,0.000000,0.000000,0.000000,0.000000,0.000000,0.000000,0.000000,0.100000,0.100000,-0.051007,-0.112073,-0.050000,-0.050000,0.488037,-0.338585,0.000000,0.000000,-0.099218,0.042920,0.197919,0.083719,-0.532810,0.415262,-0.158196,-0.176171,0.457860,-0.685655
-0.050000,-0.050000,0.000000,0.000000,0.000000,0.000000,0.000000,0.000000,0.000000,0.100000,0.100000,-0.055132,-0.121558,-0.050000,-0.050000,0.501177,-0.350569,0.000000,0.000000,-0.111511,0.056602,0.200462,0.095094,-0.480910,0.387494,-0.148687,-0.161359,0.436208,-0.658539
-0.050000,-0.050000,0.000000,0.000000,0.000000,0.000000,0.000000,0.000000,0.000000,0.100000,0.100000,-0.060494,-0.132338,-0.050000,-0.050000,0.514508,-0.362512,0.000000,0.000000,-0.124362,0.071501,0.204285,0.108216,-0.428255,0.361885,-0.139890,-0.147456,0.412303,-0.628546
-0.050000,-0.050000,0.000000,0.000000,0.000000,0.000000,0.000000,0.000000,0.000000,0.100000,0.100000,-0.068238,-0.145209,-0.050000,-0.050000,0.527307,-0.373440,0.000000,0.000000,-0.138750,0.089413,0.210452,0.123910,-0.376542,0.341911,-0.131071,-0.134153,0.384736,-0.593455
-0.050000,-0.050000,0.000000,0.000000,0.000000,0.000000,0.000000,0.000000,0.000000,0.100000,0.100000,-0.077540,-0.159598,-0.050000,-0.050000,0.539539,-0.383986,0.000000,0.000000,-0.153315,0.107987,0.218181,0.141183,-0.326436,0.324869,-0.123437,-0.122053,0.355567,-0.556061
-0.050000,-0.050000,0.000000,0.000000,0.000000,0.000000,0.000000,0.000000,0.000000,0.100000,0.100000,-0.088723,-0.175617,-0.050000,-0.050000,0.550538,-0.393468,0.000000,0.000000,-0.168335,0.127816,0.227637,0.159885,-0.279310,0.311961,-0.116706,-0.110954,0.324794,-0.516050
-0.050000,-0.050000,0.000000,0.000000,0.000000,0.000000,0.000000,0.000000,0.000000,0.100000,0.100000,-0.101644,-0.193049,-0.050000,-0.050000,0.559552,-0.401686,0.000000,0.000000,-0.182869,0.147798,0.238509,0.179167,-0.237243,0.303208,-0.111141,-0.101220,0.293963,-0.474926
-0.050000,-0.050000,0.000000,0.000000,0.000000,0.000000,0.000000,0.000000,0.000000,0.100000,0.100000,-0.115813,-0.211482,-0.050000,-0.050000,0.567563,-0.409272,0.000000,0.000000,-0.197251,0.167930,0.250290,0.198811,-0.198305,0.296756,-0.106669,-0.092344,0.263119,-0.433232
-0.050000,-0.050000,0.000000,0.000000,0.000000,0.000000,0.000000,0.000000,0.000000,0.100000,0.100000,-0.131323,-0.230714,-0.050000,-0.050000,0.571802,-0.414800,0.000000,0.000000,-0.209199,0.186271,0.262616,0.217112,-0.168745,0.295268,-0.103332,-0.085536,0.235526,-0.393554
-0.050000,-0.050000,0.000000,0.000000,0.000000,0.000000,0.000000,0.000000,0.000000,0.100000,0.100000,-0.147490,-0.250221,-0.050000,-0.050000,0.574830,-0.419884,0.000000,0.000000,-0.219974,0.203587,0.274801,0.234271,-0.143956,0.295662,-0.100836,-0.079762,0.210183,-0.355852
-0.050000,-0.050000,0.000000,0.000000,0.000000,0.000000,0.000000,0.000000,0.000000,0.100000,0.100000,-0.164022,-0.269642,-0.050000,-0.050000,0.575238,-0.423768,0.000000,0.000000,-0.228110,0.218507,0.286369,0.249264,-0.126658,0.298930,-0.099126,-0.075685,0.189073,-0.321968
-0.050000,-0.050000,0.000000,0.000000,0.000000,0.000000,0.000000,0.000000,0.000000,0.100000,0.100000,-0.180431,-0.288450,-0.050000,-0.050000,0.573504,-0.426930,0.000000,0.000000,-0.233017,0.230252,0.296475,0.261388,-0.117002,0.304646,-0.098231,-0.073556,0.173485,-0.293714
-0.050000,-0.050000,0.000000,0.000000,0.000000,0.000000,0.000000,0.000000,0.000000,0.100000,0.100000,-0.196609,-0.306683,-0.050000,-0.050000,0.570764,-0.429768,0.000000,0.000000,-0.236280,0.240475,0.305408,0.271435,-0.111911,0.311711,-0.097580,-0.072296,0.161241,-0.269028
-0.050000,-0.050000,0.000000,0.000000,0.000000,0.000000,0.000000,0.000000,0.000000,0.100000,0.100000,-0.211868,-0.323426,-0.050000,-0.050000,0.565858,-0.432159,0.000000,0.000000,-0.234341,0.245214,0.311537,0.277552,-0.116227,0.321552,-0.098101,-0.073982,0.157424,-0.253762
-0.050000,-0.050000,0.000000,0.000000,0.000000,0.000000,0.000000,0.000000,0.000000,0.100000,0.100000,-0.226418,-0.339127,-0.050000,-0.050000,0.560980,-0.434798,0.000000,0.000000,-0.230951,0.248478,0.315790,0.281471,-0.124262,0.332237,-0.098827,-0.076418,0.157150,-0.242992
-0.050000,-0.050000,0.000000,0.000000,0.000000,0.000000,0.000000,0.000000,0.000000,0.100000,0.100000,-0.239999,-0.353464,-0.050000,-0.050000,0.555715,-0.437656,0.000000,0.000000,-0.224399,0.248252,0.317703,0.282919,-0.137676,0.344321,-0.100332,-0.080528,0.162318,-0.239051
-0.050000,-0.050000,0.000000,0.000000,0.000000,0.000000,0.000000,0.000000,0.000000,0.100000,0.100000,-0.252633,-0.366500,-0.050000,-0.050000,0.551200,-0.441273,0.000000,0.000000,-0.215672,0.245453,0.317415,0.282637,-0.155081,0.357226,-0.102453,-0.085722,0.171726,-0.241114
-0.050000,-0.050000,0.000000,0.000000,0.000000,0.000000,0.000000,0.000000,0.000000,0.100000,0.100000,-0.264590,-0.378682,-0.050000,-0.050000,0.547226,-0.445235,0.000000,0.000000,-0.205852,0.241358,0.315590,0.281140,-0.174848,0.370525,-0.105010,-0.091536,0.183572,-0.246806
-0.050000,-0.050000,0.000000,0.000000,0.000000,0.000000,0.000000,0.000000,0.000000,0.100000,0.100000,-0.275733,-0.389691,-0.050000,-0.050000,0.545588,-0.450962,0.000000,0.000000,-0.194227,0.234772,0.311967,0.279313,-0.197825,0.384119,-0.108174,-0.097932,0.198687,-0.258251
-0.050000,-0.050000,0.000000,0.000000,0.000000,0.000000,0.000000,0.000000,0.000000,0.100000,0.100000,-0.286558,-0.400352,-0.050000,-0.050000,0.545402,-0.457362,0.000000,0.000000,-0.182675,0.228032,0.307454,0.277353,-0.221853,0.397520,-0.111511,-0.104259,0.214410,-0.271521
-0.050000,-0.050000,0.000000,0.000000,0.000000,0.000000,0.000000,0.000000,0.000000,0.100000,0.100000,-0.297181,-0.410682,-0.050000,-0.050000,0.547713,-0.465313,0.000000,0.000000,-0.171033,0.220803,0.302334,0.276060,-0.246960,0.410526,-0.114980,-0.110248,0.230587,-0.286887
-0.050000,-0.050000,0.000000,0.000000,0.000000,0.000000,0.000000,0.000000,0.000000,0.100000,0.100000,-0.308005,-0.421207,-0.050000,-0.050000,0.552896,-0.474911,0.000000,0.000000,-0.160234,0.214194,0.297144,0.275802,-0.272368,0.422766,-0.118254,-0.115392,0.245882,-0.302608
-0.050000,-0.050000,0.000000,0.000000,0.000000,0.000000,0.000000,0.000000,0.000000,0.100000,0.100000,-0.319123,-0.432054,-0.050000,-0.050000,0.559787,-0.485347,0.000000,0.000000,-0.150018,0.207963,0.292034,0.276352,-0.298041,0.434587,-0.121556,-0.120072,0.260436,-0.318352
-0.050000,-0.050000,0.000000,0.000000,0.000000,0.000000,0.000000,0.000000,0.000000,0.100000,0.100000,-0.331207,-0.443873,-0.050000,-0.050000,0.571016,-0.498424,0.000000,0.000000,-0.141902,0.203879,0.287650,0.278499,-0.322994,0.444882,-0.124150,-0.123039,0.272365,-0.332236
-0.050000,-0.050000,0.000000,0.000000,0.000000,0.000000,0.000000,0.000000,0.000000,0.100000,0.100000,-0.344229,-0.456674,-0.050000,-0.050000,0.583876,-0.512179,0.000000,0.000000,-0.134864,0.200799,0.283915,0.281475,-0.347765,0.454648,-0.126695,-0.125419,0.282739,-0.344738
-0.050000,-0.050000,0.000000,0.000000,0.000000,0.000000,0.000000,0.000000,0.000000,0.100000,0.100000,-0.358608,-0.470815,-0.050000,-0.050000,0.599668,-0.527571,0.000000,0.000000,-0.129813,0.199848,0.281042,0.285305,-0.371620,0.463218,-0.128877,-0.126686,0.290703,-0.354817
-0.050000,-0.050000,0.000000,0.000000,0.000000,0.000000,0.000000,0.000000,0.000000,0.100000,0.100000,-0.374679,-0.486597,-0.050000,-0.050000,0.617693,-0.544014,0.000000,0.000000,-0.126678,0.200933,0.279025,0.289395,-0.394387,0.470722,-0.130995,-0.127299,0.296438,-0.362333
-0.050000,-0.050000,0.000000,0.000000,0.000000,0.000000,0.000000,0.000000,0.000000,0.100000,0.100000,-0.392158,-0.503628,-0.050000,-0.050000,0.636981,-0.560959,0.000000,0.000000,-0.124869,0.203323,0.277805,0.293788,-0.416501,0.477600,-0.133205,-0.127540,0.300688,-0.368147
-0.050000,-0.050000,0.000000,0.000000,0.000000,0.000000,0.000000,0.000000,0.000000,0.100000,0.100000,-0.412083,-0.522954,-0.050000,-0.050000,0.658388,-0.578689,0.000000,0.000000,-0.125570,0.208358,0.277094,0.296999,-0.436387,0.483018,-0.135743,-0.127769,0.302697,-0.370968
-0.050000,-0.050000,0.000000,0.000000,0.000000,0.000000,0.000000,0.000000,0.000000,0.100000,0.100000,-0.433652,-0.543553,-0.050000,-0.050000,0.680039,-0.596131,0.000000,0.000000,-0.127350,0.214221,0.276980,0.299709,-0.455227,0.487962,-0.138797,-0.128288,0.303903,-0.372725
-0.050000,-0.050000,0.000000,0.000000,0.000000,0.000000,0.000000,0.000000,0.000000,0.100000,0.100000,-0.457315,-0.565899,-0.050000,-0.050000,0.702122,-0.613229,0.000000,0.000000,-0.130788,0.221480,0.276939,0.300732,-0.472007,0.492055,-0.142615,-0.129569,0.304208,-0.373103
-0.050000,-0.050000,0.000000,0.000000,0.000000,0.000000,0.000000,0.000000,0.000000,0.100000,0.100000,-0.482837,-0.589616,-0.050000,-0.050000,0.723616,-0.629215,0.000000,0.000000,-0.135292,0.229238,0.276720,0.299765,-0.486571,0.495668,-0.147461,-0.132096,0.304382,-0.373065
-0.050000,-0.050000,0.000000,0.000000,0.000000,0.000000,0.000000,0.000000,0.000000,0.100000,0.100000,-0.509763,-0.614168,-0.050000,-0.050000,0.744476,-0.644326,0.000000,0.000000,-0.140746,0.237406,0.276376,0.297375,-0.499490,0.498876,-0.153029,-0.135425,0.304593,-0.372914
-0.050000,-0.050000,0.000000,0.000000,0.000000,0.000000,0.000000,0.000000,0.000000,0.100000,0.100000,-0.538348,-0.639813,-0.050000,-0.050000,0.763267,-0.656929,0.000000,0.000000,-0.146633,0.244904,0.274867,0.291581,-0.508981,0.502059,-0.160220,-0.141207,0.305680,-0.373460
-0.050000,-0.050000,0.000000,0.000000,0.000000,0.000000,0.000000,0.000000,0.000000,0.100000,0.100000,-0.567650,-0.665408,-0.050000,-0.050000,0.780488,-0.668042,0.000000,0.000000,-0.152858,0.251926,0.272720,0.284079,-0.516410,0.505129,-0.168163,-0.148047,0.307575,-0.374775
-0.050000,-0.050000,0.000000,0.000000,0.000000,0.000000,0.000000,0.000000,0.000000,0.100000,0.100000,-0.597595,-0.690971,-0.050000,-0.050000,0.795137,-0.676573,0.000000,0.000000,-0.158905,0.257598,0.269263,0.273872,-0.520932,0.508511,-0.177310,-0.156895,0.310736,-0.377309
-0.050000,-0.050000,0.000000,0.000000,0.000000,0.000000,0.000000,0.000000,0.000000,0.100000,0.100000,-0.627531,-0.715728,-0.050000,-0.050000,0.806927,-0.682486,0.000000,0.000000,-0.164424,0.261606,0.264427,0.261382,-0.522674,0.512352,-0.187390,-0.167466,0.315295,-0.381209
-0.050000,-0.050000,0.000000,0.000000,0.000000,0.000000,0.000000,0.000000,0.000000,0.100000,0.100000,-0.657226,-0.739575,-0.050000,-0.050000,0.816620,-0.686613,0.000000,0.000000,-0.169624,0.264441,0.258399,0.247123,-0.522242,0.516304,-0.197976,-0.179142,0.320963,-0.386057
-0.050000,-0.050000,0.000000,0.000000,0.000000,0.000000,0.000000,0.000000,0.000000,0.100000,0.100000,-0.685984,-0.761660,-0.050000,-0.050000,0.822097,-0.687014,0.000000,0.000000,-0.173310,0.264484,0.250614,0.230685,-0.518787,0.521363,-0.209448,-0.192868,0.328239,-0.392535
-0.050000,-0.050000,0.000000,0.000000,0.000000,0.000000,0.000000,0.000000,0.000000,0.100000,0.100000,-0.713642,-0.782041,-0.050000,-0.050000,0.825470,-0.685906,0.000000,0.000000,-0.176378,0.263320,0.241560,0.212981,-0.513373,0.526424,-0.220973,-0.207283,0.336452,-0.399671
-0.050000,-0.050000,0.000000,0.000000,0.000000,0.000000,0.000000,0.000000,0.000000,0.100000,0.100000,-0.739838,-0.800342,-0.050000,-0.050000,0.825505,-0.682170,0.000000,0.000000,-0.178125,0.260117,0.231197,0.194173,-0.505959,0.532072,-0.232658,-0.222744,0.345643,-0.407691
-0.050000,-0.050000,0.000000,0.000000,0.000000,0.000000,0.000000,0.000000,0.000000,0.100000,0.100000,-0.764302,-0.816408,-0.050000,-0.050000,0.822774,-0.676584,0.000000,0.000000,-0.178854,0.255498,0.219858,0.174903,-0.497032,0.537829,-0.244103,-0.238645,0.355403,-0.416163
-0.050000,-0.050000,0.000000,0.000000,0.000000,0.000000,0.000000,0.000000,0.000000,0.100000,0.100000,-0.787284,-0.830723,-0.050000,-0.050000,0.818059,-0.669742,0.000000,0.000000,-0.178738,0.249893,0.207687,0.155211,-0.486940,0.543472,-0.255241,-0.254832,0.365559,-0.424828
-0.050000,-0.050000,0.000000,0.000000,0.000000,0.000000,0.000000,0.000000,0.000000,0.100000,0.100000,-0.808092,-0.842472,-0.050000,-0.050000,0.810230,-0.661198,0.000000,0.000000,-0.177688,0.243235,0.195497,0.136530,-0.476252,0.548902,-0.265683,-0.270725,0.375676,-0.433683
-0.050000,-0.050000,0.000000,0.000000,0.000000,0.000000,0.000000,0.000000,0.000000,0.100000,0.100000,-0.827419,-0.852737,-0.050000,-0.050000,0.801016,-0.652200,0.000000,0.000000,-0.176194,0.236335,0.183217,0.118325,-0.465171,0.553726,-0.275538,-0.286323,0.385656,-0.442358
-0.050000,-0.050000,0.000000,0.000000,0.000000,0.000000,0.000000,0.000000,0.000000,0.100000,0.100000,-0.844985,-0.861191,-0.050000,-0.050000,0.789884,-0.642655,0.000000,0.000000,-0.174390,0.229354,0.171764,0.101849,-0.454352,0.557787,-0.284509,-0.301047,0.395188,-0.450890
-0.050000,-0.050000,0.000000,0.000000,0.000000,0.000000,0.000000,0.000000,0.000000,0.100000,0.100000,-0.861039,-0.868284,-0.050000,-0.050000,0.777494,-0.633215,0.000000,0.000000,-0.172704,0.222827,0.161727,0.087534,-0.444275,0.560839,-0.292515,-0.314595,0.404070,-0.459113
-0.050000,-0.050000,0.000000,0.000000,0.000000,0.000000,0.000000,0.000000,0.000000,0.100000,0.100000,-0.876097,-0.874572,-0.050000,-0.050000,0.764189,-0.623887,0.000000,0.000000,-0.171082,0.216744,0.152909,0.074933,-0.434924,0.563157,-0.299912,-0.327330,0.412352,-0.467072
-0.050000,-0.050000,0.000000,0.000000,0.000000,0.000000,0.000000,0.000000,0.000000,0.100000,0.100000,-0.889510,-0.879579,-0.050000,-0.050000,0.749980,-0.615478,0.000000,0.000000,-0.170476,0.211992,0.147543,0.066575,-0.427711,0.564188,-0.305792,-0.337716,0.419554,-0.474560
-0.050000,-0.050000,0.000000,0.000000,0.000000,0.000000,0.000000,0.000000,0.000000,0.100000,0.100000,-0.902410,-0.884427,-0.050000,-0.050000,0.735321,-0.607594,0.000000,0.000000,-0.170412,0.208166,0.144425,0.060687,-0.422120,0.564776,-0.311171,-0.347060,0.425886,-0.481635
-0.050000,-0.050000,0.000000,0.000000,0.000000,0.000000,0.000000,0.000000,0.000000,0.100000,0.100000,-0.914255,-0.888727,-0.050000,-0.050000,0.720316,-0.600789,0.000000,0.000000,-0.171597,0.205857,0.145172,0.059014,-0.419163,0.564802,-0.315372,-0.354276,0.431092,-0.488114
-0.050000,-0.050000,0.000000,0.000000,0.000000,0.000000,0.000000,0.000000,0.000000,0.100000,0.100000,-0.932896,-0.897672,-0.050000,-0.050000,0.704532,-0.595853,0.000000,0.000000,-0.174664,0.204167,0.151811,0.061432,-0.417836,0.563129,-0.319551,-0.360950,0.436059,-0.495241
-0.050000,-0.050000,0.000000,0.000000,0.000000,0.000000,0.000000,0.000000,0.000000,0.100000,0.100000,-0.947209,-0.904352,-0.050000,-0.050000,0.689248,-0.591545,0.000000,0.000000,-0.178861,0.204476,0.161962,0.068175,-0.420894,0.563528,-0.322904,-0.365149,0.438845,-0.500466
-0.050000,-0.050000,0.000000,0.000000,0.000000,0.000000,0.000000,0.000000,0.000000,0.100000,0.100000,-0.958535,-0.909756,-0.050000,-0.050000,0.674047,-0.588108,0.000000,0.000000,-0.184702,0.207145,0.177525,0.080746,-0.429306,0.565901,-0.324808,-0.366548,0.439463,-0.503658
-0.050000,-0.050000,0.000000,0.000000,0.000000,0.000000,0.000000,0.000000,0.000000,0.100000,0.100000,-0.968988,-0.915209,-0.050000,-0.050000,0.658965,-0.585082,0.000000,0.000000,-0.190991,0.210891,0.195876,0.096183,-0.440700,0.569861,-0.326620,-0.367201,0.438544,-0.505439
-0.050000,-0.050000,0.000000,0.000000,0.000000,0.000000,0.000000,0.000000,0.000000,0.100000,0.100000,-0.977812,-0.920299,-0.050000,-0.050000,0.643987,-0.582698,0.000000,0.000000,-0.198379,0.216222,0.218498,0.115900,-0.456424,0.576072,-0.327276,-0.365872,0.435830,-0.505379
-0.050000,-0.050000,0.000000,0.000000,0.000000,0.000000,0.000000,0.000000,0.000000,0.100000,0.100000,-0.985328,-0.925196,-0.050000,-0.050000,0.629233,-0.580703,0.000000,0.000000,-0.206230,0.222550,0.244152,0.138592,-0.475772,0.584686,-0.327252,-0.363314,0.431374,-0.503470
-0.050000,-0.050000,0.000000,0.000000,0.000000,0.000000,0.000000,0.000000,0.000000,0.100000,0.100000,-0.991818,-0.929978,-0.050000,-0.050000,0.614677,-0.578977,0.000000,0.000000,-0.214296,0.229577,0.271990,0.163485,-0.497880,0.595217,-0.326666,-0.359849,0.425412,-0.499955
-0.050000,-0.050000,0.000000,0.000000,0.000000,0.000000,0.000000,0.000000,0.000000,0.100000,0.100000,-0.995880,-0.933749,-0.050000,-0.050000,0.600674,-0.577523,0.000000,0.000000,-0.222280,0.237143,0.301995,0.190430,-0.523583,0.608620,-0.324939,-0.354995,0.417679,-0.494343
-0.050000,-0.050000,0.000000,0.000000,0.000000,0.000000,0.000000,0.000000,0.000000,0.100000,0.100000,-0.998707,-0.937065,-0.050000,-0.050000,0.587136,-0.576191,0.000000,0.000000,-0.229740,0.244748,0.332432,0.217907,-0.550869,0.623480,-0.322788,-0.349741,0.408687,-0.487350
-0.050000,-0.050000,0.000000,0.000000,0.000000,0.000000,0.000000,0.000000,0.000000,0.100000,0.100000,-0.999239,-0.939146,-0.050000,-0.050000,0.574441,-0.575036,0.000000,0.000000,-0.236304,0.252068,0.362811,0.245288,-0.579749,0.640051,-0.319870,-0.343907,0.398568,-0.478972
-0.050000,-0.050000,0.000000,0.000000,0.000000,0.000000,0.000000,0.000000,0.000000,0.100000,0.100000,-0.997823,-0.939993,-0.050000,-0.050000,0.562777,-0.574097,0.000000,0.000000,-0.241615,0.258680,0.391825,0.271345,-0.608902,0.657431,-0.316583,-0.338067,0.387755,-0.469751
-0.050000,-0.050000,0.000000,0.000000,0.000000,0.000000,0.000000,0.000000,0.000000,0.100000,0.100000,-0.994685,-0.939663,-0.050000,-0.050000,0.551871,-0.573235,0.000000,0.000000,-0.245898,0.264691,0.419441,0.296082,-0.637984,0.675187,-0.312778,-0.332088,0.376576,-0.460049
-0.050000,-0.050000,0.000000,0.000000,0.000000,0.000000,0.000000,0.000000,0.000000,0.100000,0.100000,-0.989326,-0.937526,-0.050000,-0.050000,0.542895,-0.572970,0.000000,0.000000,-0.248125,0.269012,0.443572,0.317237,-0.665487,0.692798,-0.309273,-0.327049,0.365488,-0.450361
-0.050000,-0.050000,0.000000,0.000000,0.000000,0.000000,0.000000,0.000000,0.000000,0.100000,0.100000,-0.982495,-0.934064,-0.050000,-0.050000,0.534760,-0.572798,0.000000,0.000000,-0.249327,0.272447,0.465294,0.336092,-0.691717,0.709901,-0.305519,-0.322212,0.354746,-0.440978
-0.050000,-0.050000,0.000000,0.000000,0.000000,0.000000,0.000000,0.000000,0.000000,0.100000,0.100000,-0.974156,-0.929065,-0.050000,-0.050000,0.528471,-0.573251,0.000000,0.000000,-0.248785,0.274146,0.483177,0.351060,-0.715502,0.726149,-0.302395,-0.318586,0.344685,-0.432294
-0.050000,-0.050000,0.000000,0.000000,0.000000,0.000000,0.000000,0.000000,0.000000,0.100000,0.100000,-0.964754,-0.922785,-0.050000,-0.050000,0.523634,-0.574138,0.000000,0.000000,-0.247051,0.274427,0.497648,0.362692,-0.736879,0.741421,-0.299745,-0.315896,0.335523,-0.424502
-0.050000,-0.050000,0.000000,0.000000,0.000000,0.000000,0.000000,0.000000,0.000000,0.100000,0.100000,-0.954496,-0.915435,-0.050000,-0.050000,0.519877,-0.575314,0.000000,0.000000,-0.244440,0.273564,0.509372,0.371635,-0.756280,0.755851,-0.297426,-0.313894,0.327222,-0.417529
-0.050000,-0.050000,0.000000,0.000000,0.000000,0.000000,0.000000,0.000000,0.000000,0.100000,0.100000,-0.940864,-0.905031,-0.050000,-0.050000,0.517521,-0.575882,0.000000,0.000000,-0.241679,0.271606,0.516687,0.377177,-0.770117,0.767685,-0.295843,-0.312892,0.322274,-0.413317
-0.050000,-0.050000,0.000000,0.000000,0.000000,0.000000,0.000000,0.000000,0.000000,0.100000,0.100000,-0.928404,-0.894998,-0.050000,-0.050000,0.516349,-0.577404,0.000000,0.000000,-0.237981,0.268412,0.521988,0.380579,-0.783968,0.779921,-0.294944,-0.312836,0.316918,-0.408761
-0.050000,-0.050000,0.000000,0.000000,0.000000,0.000000,0.000000,0.000000,0.000000,0.100000,0.100000,-0.917123,-0.885485,-0.050000,-0.050000,0.517177,-0.580154,0.000000,0.000000,-0.233594,0.263981,0.525050,0.381783,-0.796064,0.791982,-0.295042,-0.313867,0.312048,-0.404605
-0.050000,-0.050000,0.000000,0.000000,0.000000,0.000000,0.000000,0.000000,0.000000,0.100000,0.100000,-0.906588,-0.876343,-0.050000,-0.050000,0.519307,-0.583548,0.000000,0.000000,-0.229111,0.258880,0.526655,0.381764,-0.806593,0.803895,-0.295664,-0.315414,0.308015,-0.400898
-0.050000,-0.050000,0.000000,0.000000,0.000000,0.000000,0.000000,0.000000,0.000000,0.100000,0.100000,-0.896617,-0.867517,-0.050000,-0.050000,0.522427,-0.587372,0.000000,0.000000,-0.224641,0.253267,0.527117,0.380906,-0.815794,0.815686,-0.296691,-0.317342,0.304811,-0.397568
-0.050000,-0.050000,0.000000,0.000000,0.000000,0.000000,0.000000,0.000000,0.000000,0.100000,0.100000,-0.887669,-0.859524,-0.050000,-0.050000,0.527223,-0.592105,0.000000,0.000000,-0.220535,0.247375,0.526335,0.379346,-0.823081,0.827362,-0.298332,-0.319669,0.302832,-0.394621
-0.050000,-0.050000,0.000000,0.000000,0.000000,0.000000,0.000000,0.000000,0.000000,0.100000,0.100000,-0.879241,-0.852077,-0.050000,-0.050000,0.532625,-0.597111,0.000000,0.000000,-0.216732,0.241349,0.524996,0.377648,-0.829308,0.839007,-0.300148,-0.322096,0.301774,-0.391857
-0.050000,-0.050000,0.000000,0.000000,0.000000,0.000000,0.000000,0.000000,0.000000,0.100000,0.100000,-0.871688,-0.845643,-0.050000,-0.050000,0.539244,-0.602922,0.000000,0.000000,-0.213482,0.235470,0.523024,0.375826,-0.833962,0.850497,-0.302321,-0.324641,0.301845,-0.389235
-0.050000,-0.050000,0.000000,0.000000,0.000000,0.000000,0.000000,0.000000,0.000000,0.100000,0.100000,-0.864758,-0.840182,-0.050000,-0.050000,0.546522,-0.609281,0.000000,0.000000,-0.210744,0.229860,0.520741,0.374095,-0.837305,0.861741,-0.304674,-0.327199,0.302881,-0.386653
-0.050000,-0.050000,0.000000,0.000000,0.000000,0.000000,0.000000,0.000000,0.000000,0.100000,0.100000,-0.858360,-0.835592,-0.050000,-0.050000,0.554298,-0.616105,0.000000,0.000000,-0.208399,0.224512,0.518230,0.372516,-0.839536,0.872759,-0.307173,-0.329763,0.304726,-0.384086
-0.050000,-0.050000,0.000000,0.000000,0.000000,0.000000,0.000000,0.000000,0.000000,0.100000,0.100000,-0.852460,-0.832343,-0.050000,-0.050000,0.562681,-0.623805,0.000000,0.000000,-0.206768,0.219888,0.515543,0.370899,-0.839920,0.882926,-0.309844,-0.332301,0.307391,-0.381432
-0.050000,-0.050000,0.000000,0.000000,0.000000,0.000000,0.000000,0.000000,0.000000,0.100000,0.100000,-0.846829,-0.829914,-0.050000,-0.050000,0.571088,-0.631805,0.000000,0.000000,-0.205395,0.215619,0.512789,0.369437,-0.839176,0.892583,-0.312566,-0.334816,0.310610,-0.378793
-0.050000,-0.050000,0.000000,0.000000,0.000000,0.000000,0.000000,0.000000,0.000000,0.100000,0.100000,-0.841302,-0.828659,-0.050000,-0.050000,0.579593,-0.640485,0.000000,0.000000,-0.204607,0.212125,0.510013,0.367820,-0.836577,0.901048,-0.315313,-0.337293,0.314219,-0.376046
-0.050000,-0.050000,0.000000,0.000000,0.000000,0.000000,0.000000,0.000000,0.000000,0.100000,0.100000,-0.835664,-0.828302,-0.050000,-0.050000,0.587809,-0.649507,0.000000,0.000000,-0.204196,0.209231,0.507341,0.366135,-0.832325,0.908373,-0.317960,-0.339711,0.317991,-0.373284
-0.050000,-0.050000,0.000000,0.000000,0.000000,0.000000,0.000000,0.000000,0.000000,0.100000,0.100000,-0.829870,-0.828662,-0.050000,-0.050000,0.595721,-0.658810,0.000000,0.000000,-0.204052,0.206872,0.504759,0.364357,-0.826618,0.914651,-0.320500,-0.342070,0.321855,-0.370550
-0.050000,-0.050000,0.000000,0.000000,0.000000,0.000000,0.000000,0.000000,0.000000,0.100000,0.100000,-0.823349,-0.830000,-0.050000,-0.050000,0.602983,-0.668412,0.000000,0.000000,-0.204666,0.205358,0.502728,0.362352,-0.818528,0.919144,-0.322539,-0.344276,0.325289,-0.367723
-0.050000,-0.050000,0.000000,0.000000,0.000000,0.000000,0.000000,0.000000,0.000000,0.100000,0.100000,-0.816400,-0.831773,-0.050000,-0.050000,0.609681,-0.678019,0.000000,0.000000,-0.205477,0.204275,0.501061,0.360380,-0.808986,0.922620,-0.324255,-0.346355,0.328542,-0.365053
-0.050000,-0.050000,0.000000,0.000000,0.000000,0.000000,0.000000,0.000000,0.000000,0.100000,0.100000,-0.808351,-0.834241,-0.050000,-0.050000,0.615570,-0.687632,0.000000,0.000000,-0.207166,0.203918,0.500391,0.358400,-0.797077,0.924530,-0.325096,-0.348183,0.331063,-0.362385
-0.050000,-0.050000,0.000000,0.000000,0.000000,0.000000,0.000000,0.000000,0.000000,0.100000,0.100000,-0.799248,-0.837088,-0.050000,-0.050000,0.620695,-0.697032,0.000000,0.000000,-0.209559,0.204077,0.500859,0.356707,-0.783123,0.925358,-0.324992,-0.349717,0.332913,-0.359887
-0.050000,-0.050000,0.000000,0.000000,0.000000,0.000000,0.000000,0.000000,0.000000,0.100000,0.100000,-0.789198,-0.840227,-0.050000,-0.050000,0.625140,-0.706221,0.000000,0.000000,-0.212603,0.204701,0.502379,0.355288,-0.767386,0.925289,-0.324042,-0.350990,0.334113,-0.357526
-0.050000,-0.050000,0.000000,0.000000,0.000000,0.000000,0.000000,0.000000,0.000000,0.100000,0.100000,-0.777089,-0.843727,-0.050000,-0.050000,0.628724,-0.714904,0.000000,0.000000,-0.217304,0.205918,0.506346,0.354691,-0.748656,0.924347,-0.321064,-0.351681,0.334013,-0.355362
-0.050000,-0.050000,0.000000,0.000000,0.000000,0.000000,0.000000,0.000000,0.000000,0.100000,0.100000,-0.764011,-0.847264,-0.050000,-0.050000,0.631709,-0.723190,0.000000,0.000000,-0.222726,0.207484,0.511688,0.354710,-0.728192,0.923014,-0.317085,-0.352038,0.333151,-0.353378
-0.050000,-0.050000,0.000000,0.000000,0.000000,0.000000,0.000000,0.000000,0.000000,0.100000,0.100000,-0.748644,-0.850923,-0.050000,-0.050000,0.633993,-0.730825,0.000000,0.000000,-0.230052,0.209482,0.519940,0.355897,-0.704679,0.921413,-0.310773,-0.351699,0.330793,-0.351631
-0.050000,-0.050000,0.000000,0.000000,0.000000,0.000000,0.000000,0.000000,0.000000,0.100000,0.100000,-0.731553,-0.854439,-0.050000,-0.050000,0.635698,-0.737836,0.000000,0.000000,-0.238772,0.211741,0.530608,0.358181,-0.678672,0.919859,-0.302662,-0.350759,0.327123,-0.350085
-0.050000,-0.050000,0.000000,0.000000,0.000000,0.000000,0.000000,0.000000,0.000000,0.100000,0.100000,-0.712895,-0.857789,-0.050000,-0.050000,0.636842,-0.744277,0.000000,0.000000,-0.248810,0.214194,0.543438,0.361443,-0.650418,0.918428,-0.293044,-0.349288,0.322141,-0.348662
-0.050000,-0.050000,0.000000,0.000000,0.000000,0.000000,0.000000,0.000000,0.000000,0.100000,0.100000,-0.695879,-0.864308,-0.050000,-0.050000,0.636274,-0.749936,0.000000,0.000000,-0.259873,0.215963,0.561301,0.367025,-0.613678,0.916916,-0.280221,-0.347060,0.315200,-0.347473
-0.050000,-0.050000,0.000000,0.000000,0.000000,0.000000,0.000000,0.000000,0.000000,0.100000,0.100000,-0.674526,-0.867934,-0.050000,-0.050000,0.635789,-0.755328,0.000000,0.000000,-0.272654,0.218375,0.580326,0.373026,-0.579123,0.916206,-0.266902,-0.344133,0.306846,-0.346250
-0.050000,-0.050000,0.000000,0.000000,0.000000,0.000000,0.000000,0.000000,0.000000,0.100000,0.100000,-0.649412,-0.869602,-0.050000,-0.050000,0.634726,-0.759840,0.000000,0.000000,-0.287141,0.220253,0.602426,0.379754,-0.542141,0.916032,-0.251641,-0.340409,0.295964,-0.345188
-0.050000,-0.050000,0.000000,0.000000,0.000000,0.000000,0.000000,0.000000,0.000000,0.100000,0.100000,-0.622275,-0.869726,-0.050000,-0.050000,0.632895,-0.763855,0.000000,0.000000,-0.302168,0.221312,0.626246,0.386482,-0.503600,0.915977,-0.235830,-0.336311,0.283399,-0.344200
-0.050000,-0.050000,0.000000,0.000000,0.000000,0.000000,0.000000,0.000000,0.000000,0.100000,0.100000,-0.593384,-0.868524,-0.050000,-0.050000,0.630205,-0.767486,0.000000,0.000000,-0.317673,0.221542,0.651633,0.393113,-0.463505,0.915958,-0.219715,-0.331845,0.269239,-0.343351
-0.050000,-0.050000,0.000000,0.000000,0.000000,0.000000,0.000000,0.000000,0.000000,0.100000,0.100000,-0.562281,-0.865239,-0.050000,-0.050000,0.626267,-0.770891,0.000000,0.000000,-0.332628,0.220024,0.678996,0.399007,-0.422612,0.915718,-0.203322,-0.327281,0.253544,-0.342757
-0.050000,-0.050000,0.000000,0.000000,0.000000,0.000000,0.000000,0.000000,0.000000,0.100000,0.100000,-0.530235,-0.860506,-0.050000,-0.050000,0.621330,-0.774157,0.000000,0.000000,-0.347219,0.217451,0.706886,0.404044,-0.381409,0.915160,-0.187751,-0.322732,0.236914,-0.342341
-0.050000,-0.050000,0.000000,0.000000,0.000000,0.000000,0.000000,0.000000,0.000000,0.100000,0.100000,-0.496783,-0.853506,-0.050000,-0.050000,0.614914,-0.777493,0.000000,0.000000,-0.360040,0.212719,0.735763,0.407541,-0.341290,0.913982,-0.172935,-0.318659,0.219675,-0.342258
-0.050000,-0.050000,0.000000,0.000000,0.000000,0.000000,0.000000,0.000000,0.000000,0.100000,0.100000,-0.462883,-0.844630,-0.050000,-0.050000,0.607258,-0.780918,0.000000,0.000000,-0.371218,0.206316,0.764653,0.409428,-0.302854,0.912117,-0.159470,-0.315141,0.202361,-0.342500
-0.050000,-0.050000,0.000000,0.000000,0.000000,0.000000,0.000000,0.000000,0.000000,0.100000,0.100000,-0.428643,-0.834050,-0.050000,-0.050000,0.598401,-0.784423,0.000000,0.000000,-0.380815,0.198317,0.793551,0.409802,-0.266152,0.909595,-0.147242,-0.312180,0.185105,-0.343086
-0.050000,-0.050000,0.000000,0.000000,0.000000,0.000000,0.000000,0.000000,0.000000,0.100000,0.100000,-0.395032,-0.821322,-0.050000,-0.050000,0.588100,-0.788277,0.000000,0.000000,-0.386993,0.188017,0.821800,0.408115,-0.234263,0.906116,-0.136709,-0.310472,0.169061,-0.344081
-0.050000,-0.050000,0.000000,0.000000,0.000000,0.000000,0.000000,0.000000,0.000000,0.100000,0.100000,-0.361911,-0.807411,-0.050000,-0.050000,0.576991,-0.792122,0.000000,0.000000,-0.391962,0.176633,0.849573,0.405222,-0.204586,0.902084,-0.127291,-0.309236,0.153444,-0.345410
-0.050000,-0.050000,0.000000,0.000000,0.000000,0.000000,0.000000,0.000000,0.000000,0.100000,0.100000,-0.330638,-0.791936,-0.050000,-0.050000,0.564875,-0.796263,0.000000,0.000000,-0.393489,0.163431,0.876123,0.400868,-0.180831,0.897320,-0.119383,-0.309193,0.139588,-0.347068
-0.050000,-0.050000,0.000000,0.000000,0.000000,0.000000,0.000000,0.000000,0.000000,0.100000,0.100000,-0.301213,-0.775724,-0.050000,-0.050000,0.552411,-0.800406,0.000000,0.000000,-0.393320,0.149406,0.901580,0.395844,-0.161080,0.892224,-0.112464,-0.309675,0.126804,-0.348935
-0.050000,-0.050000,0.000000,0.000000,0.000000,0.000000,0.000000,0.000000,0.000000,0.100000,0.100000,-0.273731,-0.758986,-0.050000,-0.050000,0.539676,-0.804561,0.000000,0.000000,-0.391413,0.134640,0.925990,0.390411,-0.145301,0.886902,-0.106350,-0.310671,0.115124,-0.350928
-0.050000,-0.050000,0.000000,0.000000,0.000000,0.000000,0.000000,0.000000,0.000000,0.100000,0.100000,-0.246037,-0.743014,-0.050000,-0.050000,0.528091,-0.809185,0.000000,0.000000,-0.387887,0.122176,0.946137,0.387702,-0.137482,0.883349,-0.100556,-0.311813,0.106213,-0.352430
-0.050000,-0.050000,0.000000,0.000000,0.000000,0.000000,0.000000,0.000000,0.000000,0.100000,0.100000,-0.222462,-0.726792,-0.050000,-0.050000,0.516436,-0.813230,0.000000,0.000000,-0.382717,0.108415,0.966283,0.384139,-0.130682,0.879155,-0.095425,-0.313482,0.097202,-0.353760
-0.050000,-0.050000,0.000000,0.000000,0.000000,0.000000,0.000000,0.000000,0.000000,0.100000,0.100000,-0.204219,-0.710731,-0.050000,-0.050000,0.506318,-0.817126,0.000000,0.000000,-0.375690,0.094633,0.984537,0.381143,-0.128670,0.875274,-0.091332,-0.314959,0.089595,-0.354974
-0.050000,-0.050000,0.000000,0.000000,0.000000,0.000000,0.000000,0.000000,0.000000,0.100000,0.100000,-0.189621,-0.695530,-0.050000,-0.050000,0.497999,-0.820884,0.000000,0.000000,-0.368039,0.081291,1.001184,0.379052,-0.130145,0.872059,-0.087720,-0.316106,0.082798,-0.355903
-0.050000,-0.050000,0.000000,0.000000,0.000000,0.000000,0.000000,0.000000,0.000000,0.100000,0.100000,-0.178451,-0.681280,-0.050000,-0.050000,0.491629,-0.824529,0.000000,0.000000,-0.359664,0.068595,1.016009,0.378185,-0.135021,0.869685,-0.084525,-0.316921,0.076827,-0.356437
-0.050000,-0.050000,0.000000,0.000000,0.000000,0.000000,0.000000,0.000000,0.000000,0.100000,0.100000,-0.172430,-0.668335,-0.050000,-0.050000,0.489114,-0.828061,0.000000,0.000000,-0.350212,0.057428,1.027373,0.379202,-0.144595,0.868814,-0.082287,-0.317129,0.072381,-0.356319
-0.050000,-0.050000,0.000000,0.000000,0.000000,0.000000,0.000000,0.000000,0.000000,0.100000,0.100000,-0.168914,-0.656897,-0.050000,-0.050000,0.488898,-0.831573,0.000000,0.000000,-0.340257,0.046994,1.036841,0.381577,-0.156987,0.869015,-0.080183,-0.317147,0.068499,-0.355640
-0.050000,-0.050000,0.000000,0.000000,0.000000,0.000000,0.000000,0.000000,0.000000,0.100000,0.100000,-0.170548,-0.646951,-0.050000,-0.050000,0.493531,-0.835158,0.000000,0.000000,-0.328968,0.038362,1.042036,0.385845,-0.174207,0.870950,-0.079330,-0.316690,0.066419,-0.354238
-0.050000,-0.050000,0.000000,0.000000,0.000000,0.000000,0.000000,0.000000,0.000000,0.100000,0.100000,-0.175302,-0.638685,-0.050000,-0.050000,0.501828,-0.838920,0.000000,0.000000,-0.316722,0.030764,1.044045,0.391469,-0.195162,0.874259,-0.079132,-0.316179,0.065504,-0.352248
-0.050000,-0.050000,0.000000,0.000000,0.000000,0.000000,0.000000,0.000000,0.000000,0.100000,0.100000,-0.183168,-0.631855,-0.050000,-0.050000,0.513832,-0.842857,0.000000,0.000000,-0.303483,0.024265,1.042715,0.398353,-0.219725,0.878866,-0.079774,-0.315620,0.065845,-0.349721
-0.050000,-0.050000,0.000000,0.000000,0.000000,0.000000,0.000000,0.000000,0.000000,0.100000,0.100000,-0.195419,-0.626454,-0.050000,-0.050000,0.531260,-0.847452,0.000000,0.000000,-0.288509,0.019129,1.036253,0.406096,-0.249402,0.884963,-0.082290,-0.315321,0.068445,-0.346780
-0.050000,-0.050000,0.000000,0.000000,0.000000,0.000000,0.000000,0.000000,0.000000,0.100000,0.100000,-0.209465,-0.622366,-0.050000,-0.050000,0.551546,-0.852259,0.000000,0.000000,-0.272955,0.014504,1.026941,0.414482,-0.281988,0.891989,-0.085497,-0.315303,0.072018,-0.343533
-0.050000,-0.050000,0.000000,0.000000,0.000000,0.000000,0.000000,0.000000,0.000000,0.100000,0.100000,-0.227495,-0.619381,-0.050000,-0.050000,0.577044,-0.858084,0.000000,0.000000,-0.255754,0.010922,1.012147,0.422787,-0.319283,0.900064,-0.091151,-0.315998,0.077975,-0.340159
-0.050000,-0.050000,0.000000,0.000000,0.000000,0.000000,0.000000,0.000000,0.000000,0.100000,0.100000,-0.247402,-0.617459,-0.050000,-0.050000,0.605571,-0.864496,0.000000,0.000000,-0.238077,0.007662,0.993708,0.430739,-0.359347,0.908709,-0.098248,-0.317419,0.085241,-0.336774
-0.050000,-0.050000,0.000000,0.000000,0.000000,0.000000,0.000000,0.000000,0.000000,0.100000,0.100000,-0.269341,-0.616287,-0.050000,-0.050000,0.636964,-0.871576,0.000000,0.000000,-0.219966,0.004766,0.971552,0.438071,-0.401803,0.917736,-0.107157,-0.319586,0.093823,-0.333470
-0.050000,-0.050000,0.000000,0.000000,0.000000,0.000000,0.000000,0.000000,0.000000,0.100000,0.100000,-0.293653,-0.616006,-0.050000,-0.050000,0.671497,-0.879865,0.000000,0.000000,-0.201648,0.002200,0.944638,0.443451,-0.446093,0.926691,-0.118610,-0.323110,0.103917,-0.330404
-0.050000,-0.050000,0.000000,0.000000,0.000000,0.000000,0.000000,0.000000,0.000000,0.100000,0.100000,-0.318863,-0.616167,-0.050000,-0.050000,0.707129,-0.888463,0.000000,0.000000,-0.183891,-0.000400,0.915138,0.447715,-0.490853,0.935500,-0.131459,-0.327350,0.114573,-0.327637
-0.050000,-0.050000,0.000000,0.000000,0.000000,0.000000,0.000000,0.000000,0.000000,0.100000,0.100000,-0.345832,-0.617160,-0.050000,-0.050000,0.744476,-0.898181,0.000000,0.000000,-0.166958,-0.002784,0.881383,0.448877,-0.535107,0.943520,-0.146774,-0.333185,0.126004,-0.325182
-0.050000,-0.050000,0.000000,0.000000,0.000000,0.000000,0.000000,0.000000,0.000000,0.100000,0.100000,-0.373371,-0.618568,-0.050000,-0.050000,0.781749,-0.908104,0.000000,0.000000,-0.151405,-0.005233,0.845205,0.447700,-0.577739,0.950719,-0.163450,-0.340036,0.137539,-0.323167
-0.050000,-0.050000,0.000000,0.000000,0.000000,0.000000,0.000000,0.000000,0.000000,0.100000,0.100000,-0.401632,-0.620357,-0.050000,-0.050000,0.818719,-0.918304,0.000000,0.000000,-0.137328,-0.007652,0.806654,0.443866,-0.618215,0.956918,-0.181553,-0.347933,0.149010,-0.321554
-0.050000,-0.050000,0.000000,0.000000,0.000000,0.000000,0.000000,0.000000,0.000000,0.100000,0.100000,-0.430056,-0.622977,-0.050000,-0.050000,0.854164,-0.928317,0.000000,0.000000,-0.125698,-0.009876,0.766027,0.436180,-0.654541,0.961686,-0.200624,-0.357224,0.159998,-0.320196
-0.050000,-0.050000,0.000000,0.000000,0.000000,0.000000,0.000000,0.000000,0.000000,0.100000,0.100000,-0.458710,-0.625568,-0.050000,-0.050000,0.887924,-0.937903,0.000000,0.000000,-0.115651,-0.012080,0.724331,0.426308,-0.687841,0.965385,-0.220315,-0.367116,0.170656,-0.319387
-0.050000,-0.050000,0.000000,0.000000,0.000000,0.000000,0.000000,0.000000,0.000000,0.100000,0.100000,-0.486799,-0.629107,-0.050000,-0.050000,0.918364,-0.946238,0.000000,0.000000,-0.108611,-0.013842,0.682026,0.412564,-0.715714,0.967698,-0.239917,-0.378120,0.180455,-0.318634
-0.050000,-0.050000,0.000000,0.000000,0.000000,0.000000,0.000000,0.000000,0.000000,0.100000,0.100000,-0.514498,-0.632743,-0.050000,-0.050000,0.945346,-0.953059,0.000000,0.000000,-0.103604,-0.015217,0.640062,0.396686,-0.739445,0.969031,-0.259148,-0.389452,0.189779,-0.318270
-0.050000,-0.050000,0.000000,0.000000,0.000000,0.000000,0.000000,0.000000,0.000000,0.100000,0.100000,-0.541629,-0.636722,-0.050000,-0.050000,0.968624,-0.958224,0.000000,0.000000,-0.100771,-0.016075,0.598804,0.378664,-0.758985,0.969500,-0.277734,-0.401058,0.198540,-0.318065
-0.050000,-0.050000,0.000000,0.000000,0.000000,0.000000,0.000000,0.000000,0.000000,0.100000,0.100000,-0.567283,-0.641305,-0.050000,-0.050000,0.985777,-0.959935,0.000000,0.000000,-0.100724,-0.015881,0.560318,0.359255,-0.773941,0.969688,-0.294420,-0.412369,0.206665,-0.317769
-0.050000,-0.050000,0.000000,0.000000,0.000000,0.000000,0.000000,0.000000,0.000000,0.100000,0.100000,-0.592497,-0.645926,-0.050000,-0.050000,0.999170,-0.959924,0.000000,0.000000,-0.102139,-0.014865,0.523584,0.339278,-0.785949,0.969484,-0.310163,-0.423280,0.214542,-0.317584
-0.050000,-0.050000,0.000000,0.000000,0.000000,0.000000,0.000000,0.000000,0.000000,0.100000,0.100000,-0.615547,-0.651214,-0.050000,-0.050000,1.004661,-0.955097,0.000000,0.000000,-0.106218,-0.012206,0.492051,0.320067,-0.794757,0.969914,-0.322843,-0.432800,0.221944,-0.317078
-0.050000,-0.050000,0.000000,0.000000,0.000000,0.000000,0.000000,0.000000,0.000000,0.100000,0.100000,-0.637505,-0.656732,-0.050000,-0.050000,1.004708,-0.947416,0.000000,0.000000,-0.111755,-0.007961,0.464666,0.302452,-0.801804,0.970720,-0.333496,-0.440835,0.229108,-0.316363
-0.050000,-0.050000,0.000000,0.000000,0.000000,0.000000,0.000000,0.000000,0.000000,0.100000,0.100000,-0.657921,-0.662743,-0.050000,-0.050000,0.998774,-0.936432,0.000000,0.000000,-0.118775,-0.001996,0.442189,0.287097,-0.807681,0.972287,-0.341759,-0.447148,0.235967,-0.315294
-0.050000,-0.050000,0.000000,0.000000,0.000000,0.000000,0.000000,0.000000,0.000000,0.100000,0.100000,-0.675806,-0.669119,-0.050000,-0.050000,0.984590,-0.920698,0.000000,0.000000,-0.127291,0.006320,0.427222,0.276540,-0.813643,0.975015,-0.346267,-0.450284,0.242470,-0.313836
-0.050000,-0.050000,0.000000,0.000000,0.000000,0.000000,0.000000,0.000000,0.000000,0.100000,0.100000,-0.692505,-0.676130,-0.050000,-0.050000,0.966242,-0.903194,0.000000,0.000000,-0.136412,0.016479,0.416631,0.269136,-0.819674,0.978346,-0.349079,-0.451623,0.248431,-0.311838
-0.050000,-0.050000,0.000000,0.000000,0.000000,0.000000,0.000000,0.000000,0.000000,0.100000,0.100000,-0.705801,-0.683312,-0.050000,-0.050000,0.939348,-0.880964,0.000000,0.000000,-0.146298,0.029139,0.414650,0.268706,-0.827425,0.982681,-0.347672,-0.448803,0.253833,-0.309504
-0.050000,-0.050000,0.000000,0.000000,0.000000,0.000000,0.000000,0.000000,0.000000,0.100000,0.100000,-0.717068,-0.690994,-0.050000,-0.050000,0.908194,-0.857128,0.000000,0.000000,-0.156106,0.043743,0.417723,0.273094,-0.836369,0.987235,-0.344250,-0.443402,0.258275,-0.306593
-0.050000,-0.050000,0.000000,0.000000,0.000000,0.000000,0.000000,0.000000,0.000000,0.100000,0.100000,-0.732787,-0.705205,-0.050000,-0.050000,0.870312,-0.830655,0.000000,0.000000,-0.166697,0.061002,0.428518,0.284782,-0.846289,0.990399,-0.338421,-0.435111,0.263159,-0.303379
-0.050000,-0.050000,0.000000,0.000000,0.000000,0.000000,0.000000,0.000000,0.000000,0.100000,0.100000,-0.740264,-0.715522,-0.050000,-0.050000,0.829540,-0.803532,0.000000,0.000000,-0.175446,0.079401,0.444133,0.302568,-0.858757,0.994212,-0.330199,-0.423262,0.265082,-0.299670
-0.050000,-0.050000,0.000000,0.000000,0.000000,0.000000,0.000000,0.000000,0.000000,0.100000,0.100000,-0.743778,-0.724597,-0.050000,-0.050000,0.787027,-0.775659,0.000000,0.000000,-0.182593,0.098674,0.461310,0.322993,-0.872356,0.997914,-0.321146,-0.410018,0.265426,-0.295234
-0.050000,-0.050000,0.000000,0.000000,0.000000,0.000000,0.000000,0.000000,0.000000,0.100000,0.100000,-0.742397,-0.731414,-0.050000,-0.050000,0.742084,-0.746943,0.000000,0.000000,-0.187785,0.117847,0.480788,0.347552,-0.886659,0.999599,-0.310446,-0.394345,0.264198,-0.290820
-0.050000,-0.050000,0.000000,0.000000,0.000000,0.000000,0.000000,0.000000,0.000000,0.100000,0.100000,-0.738303,-0.736702,-0.050000,-0.050000,0.697076,-0.718427,0.000000,0.000000,-0.191565,0.136561,0.499948,0.372974,-0.900475,0.999702,-0.299523,-0.378156,0.261888,-0.286451
-0.050000,-0.050000,0.000000,0.000000,0.000000,0.000000,0.000000,0.000000,0.000000,0.100000,0.100000,-0.731527,-0.739878,-0.050000,-0.050000,0.652170,-0.690153,0.000000,0.000000,-0.194156,0.154278,0.518564,0.398997,-0.913451,0.997814,-0.288335,-0.361494,0.258674,-0.282395
-0.050000,-0.050000,0.000000,0.000000,0.000000,0.000000,0.000000,0.000000,0.000000,0.100000,0.100000,-0.722165,-0.740039,-0.050000,-0.050000,0.609450,-0.663238,0.000000,0.000000,-0.195547,0.169701,0.534965,0.423809,-0.924129,0.993498,-0.277759,-0.345668,0.254329,-0.278986
-0.050000,-0.050000,0.000000,0.000000,0.000000,0.000000,0.000000,0.000000,0.000000,0.100000,0.100000,-0.711488,-0.738088,-0.050000,-0.050000,0.567780,-0.636718,0.000000,0.000000,-0.196675,0.183802,0.549745,0.447187,-0.933359,0.987675,-0.267396,-0.330323,0.249617,-0.276033
-0.050000,-0.050000,0.000000,0.000000,0.000000,0.000000,0.000000,0.000000,0.000000,0.100000,0.100000,-0.699133,-0.732659,-0.050000,-0.050000,0.530504,-0.612525,0.000000,0.000000,-0.197204,0.194552,0.561164,0.467295,-0.938940,0.979722,-0.258344,-0.317288,0.243864,-0.274092
-0.050000,-0.050000,0.000000,0.000000,0.000000,0.000000,0.000000,0.000000,0.000000,0.100000,0.100000,-0.686240,-0.724908,-0.050000,-0.050000,0.495711,-0.589209,0.000000,0.000000,-0.198096,0.203395,0.570609,0.484661,-0.942333,0.970668,-0.249782,-0.305601,0.237893,-0.272885
-0.050000,-0.050000,0.000000,0.000000,0.000000,0.000000,0.000000,0.000000,0.000000,0.100000,0.100000,-0.673026,-0.714870,-0.050000,-0.050000,0.464334,-0.567339,0.000000,0.000000,-0.199358,0.209982,0.578003,0.499061,-0.943137,0.960612,-0.241979,-0.295707,0.231546,-0.272507
-0.050000,-0.050000,0.000000,0.000000,0.000000,0.000000,0.000000,0.000000,0.000000,0.100000,0.100000,-0.657585,-0.700834,-0.050000,-0.050000,0.438510,-0.548011,0.000000,0.000000,-0.202184,0.215097,0.583571,0.510226,-0.942162,0.952733,-0.235015,-0.288004,0.225682,-0.272305
-0.050000,-0.050000,0.000000,0.000000,0.000000,0.000000,0.000000,0.000000,0.000000,0.100000,0.100000,-0.643857,-0.686878,-0.050000,-0.050000,0.413864,-0.528541,0.000000,0.000000,-0.205216,0.218651,0.588390,0.519749,-0.939074,0.942715,-0.228171,-0.281302,0.219156,-0.272699
-0.050000,-0.050000,0.000000,0.000000,0.000000,0.000000,0.000000,0.000000,0.000000,0.100000,0.100000,-0.632048,-0.672591,-0.050000,-0.050000,0.394339,-0.511064,0.000000,0.000000,-0.209125,0.220412,0.593015,0.526515,-0.933180,0.932172,-0.221560,-0.276398,0.212726,-0.274035
-0.050000,-0.050000,0.000000,0.000000,0.000000,0.000000,0.000000,0.000000,0.000000,0.100000,0.100000,-0.621684,-0.658089,-0.050000,-0.050000,0.377217,-0.494096,0.000000,0.000000,-0.213897,0.221543,0.598114,0.531727,-0.926267,0.921622,-0.214863,-0.272082,0.206552,-0.275803
-0.050000,-0.050000,0.000000,0.000000,0.000000,0.000000,0.000000,0.000000,0.000000,0.100000,0.100000,-0.612831,-0.643573,-0.050000,-0.050000,0.363202,-0.478057,0.000000,0.000000,-0.219590,0.222154,0.603866,0.535476,-0.918266,0.911301,-0.208132,-0.268421,0.200720,-0.277869
-0.050000,-0.050000,0.000000,0.000000,0.000000,0.000000,0.000000,0.000000,0.000000,0.100000,0.100000,-0.605818,-0.629424,-0.050000,-0.050000,0.352519,-0.463042,0.000000,0.000000,-0.226234,0.222761,0.610529,0.537873,-0.909446,0.901477,-0.201371,-0.265167,0.195523,-0.279882
-0.050000,-0.050000,0.000000,0.000000,0.000000,0.000000,0.000000,0.000000,0.000000,0.100000,0.100000,-0.600019,-0.615600,-0.050000,-0.050000,0.343487,-0.448376,0.000000,0.000000,-0.233388,0.223412,0.617850,0.539611,-0.900377,0.892033,-0.194653,-0.262051,0.190593,-0.281791
-0.050000,-0.050000,0.000000,0.000000,0.000000,0.000000,0.000000,0.000000,0.000000,0.100000,0.100000,-0.596047,-0.602544,-0.050000,-0.050000,0.337747,-0.434990,0.000000,0.000000,-0.241127,0.224628,0.625628,0.540085,-0.890796,0.883308,-0.188278,-0.259165,0.186467,-0.283143
-0.050000,-0.050000,0.000000,0.000000,0.000000,0.000000,0.000000,0.000000,0.000000,0.100000,0.100000,-0.593072,-0.590021,-0.050000,-0.050000,0.333472,-0.422112,0.000000,0.000000,-0.248940,0.226197,0.633358,0.539905,-0.881192,0.875176,-0.182336,-0.256389,0.182650,-0.284022
-0.050000,-0.050000,0.000000,0.000000,0.000000,0.000000,0.000000,0.000000,0.000000,0.100000,0.100000,-0.591024,-0.578081,-0.050000,-0.050000,0.331029,-0.410084,0.000000,0.000000,-0.256742,0.228272,0.640653,0.538871,-0.871459,0.867677,-0.177011,-0.253804,0.179249,-0.284284
-0.050000,-0.050000,0.000000,0.000000,0.000000,0.000000,0.000000,0.000000,0.000000,0.100000,0.100000,-0.589579,-0.566644,-0.050000,-0.050000,0.330478,-0.399204,0.000000,0.000000,-0.264129,0.230800,0.646431,0.536611,-0.861701,0.861009,-0.172871,-0.251649,0.176156,-0.283739
-0.050000,-0.050000,0.000000,0.000000,0.000000,0.000000,0.000000,0.000000,0.000000,0.100000,0.100000,-0.588251,-0.555516,-0.050000,-0.050000,0.330890,-0.388877,0.000000,0.000000,-0.271215,0.233629,0.651179,0.533750,-0.851966,0.854925,-0.169362,-0.249734,0.173243,-0.282697
-0.050000,-0.050000,0.000000,0.000000,0.000000,0.000000,0.000000,0.000000,0.000000,0.100000,0.100000,-0.586829,-0.544660,-0.050000,-0.050000,0.333182,-0.380103,0.000000,0.000000,-0.277404,0.236634,0.652982,0.529279,-0.842376,0.849865,-0.167679,-0.248619,0.170402,-0.280795
-0.050000,-0.050000,0.000000,0.000000,0.000000,0.000000,0.000000,0.000000,0.000000,0.100000,0.100000,-0.584823,-0.533912,-0.050000,-0.050000,0.336288,-0.372053,0.000000,0.000000,-0.283013,0.239696,0.652842,0.524083,-0.833008,0.845561,-0.166898,-0.247954,0.167590,-0.278445
-0.050000,-0.050000,0.000000,0.000000,0.000000,0.000000,0.000000,0.000000,0.000000,0.100000,0.100000,-0.582142,-0.523232,-0.050000,-0.050000,0.340389,-0.365021,0.000000,0.000000,-0.287875,0.242708,0.650261,0.517938,-0.823945,0.842089,-0.167334,-0.247904,0.164728,-0.275620
-0.050000,-0.050000,0.000000,0.000000,0.000000,0.000000,0.000000,0.000000,0.000000,0.100000,0.100000,-0.578360,-0.512619,-0.050000,-0.050000,0.345248,-0.359087,0.000000,0.000000,-0.291853,0.245405,0.645043,0.510977,-0.815552,0.839685,-0.169017,-0.248535,0.161721,-0.272478
-0.050000,-0.050000,0.000000,0.000000,0.000000,0.000000,0.000000,0.000000,0.000000,0.100000,0.100000,-0.573728,-0.502052,-0.050000,-0.050000,0.350511,-0.353693,0.000000,0.000000,-0.295372,0.248061,0.638240,0.503691,-0.807564,0.837976,-0.171242,-0.249496,0.158703,-0.269107
-0.050000,-0.050000,0.000000,0.000000,0.000000,0.000000,0.000000,0.000000,0.000000,0.100000,0.100000,-0.567678,-0.491699,-0.050000,-0.050000,0.355938,-0.349310,0.000000,0.000000,-0.297983,0.250119,0.629319,0.496106,-0.800839,0.837648,-0.174389,-0.251036,0.155543,-0.265753
