RRGGZZ/g1_deploy_sonic/data/example_scalelab/qwen_audio/g1_ref_en/case_test5/joint_pos.csv
joint_0,joint_1,joint_2,joint_3,joint_4,joint_5,joint_6,joint_7,joint_8,joint_9,joint_10,joint_11,joint_12,joint_13,joint_14,joint_15,joint_16,joint_17,joint_18,joint_19,joint_20,joint_21,joint_22,joint_23,joint_24,joint_25,joint_26,joint_27,joint_28
-0.050000,-0.050000,0.000000,0.000000,0.000000,0.000000,0.000000,0.000000,0.000000,0.100000,0.100000,-0.197255,-0.519651,-0.050000,-0.050000,0.385920,-0.717780,0.000000,0.000000,-0.512954,0.296257,1.114243,-0.037712,0.145893,-0.394908,-0.080839,-0.032445,0.036723,-0.550238
-0.050000,-0.050000,0.000000,0.000000,0.000000,0.000000,0.000000,0.000000,0.000000,0.100000,0.100000,-0.199973,-0.530181,-0.050000,-0.050000,0.377600,-0.721340,0.000000,0.000000,-0.512621,0.293343,1.132985,-0.029425,0.149077,-0.393020,-0.087341,-0.032605,0.036683,-0.554573
-0.050000,-0.050000,0.000000,0.000000,0.000000,0.000000,0.000000,0.000000,0.000000,0.100000,0.100000,-0.201066,-0.539666,-0.050000,-0.050000,0.370343,-0.724619,0.000000,0.000000,-0.511931,0.289651,1.149703,-0.021786,0.152249,-0.390944,-0.092405,-0.032294,0.036066,-0.558207
-0.050000,-0.050000,0.000000,0.000000,0.000000,0.000000,0.000000,0.000000,0.000000,0.100000,0.100000,-0.198910,-0.547066,-0.050000,-0.050000,0.365213,-0.727334,0.000000,0.000000,-0.510527,0.284406,1.162375,-0.015447,0.155396,-0.388496,-0.094593,-0.031039,0.034296,-0.560440
-0.050000,-0.050000,0.000000,0.000000,0.000000,0.000000,0.000000,0.000000,0.000000,0.100000,0.100000,-0.195113,-0.553226,-0.050000,-0.050000,0.361076,-0.730061,0.000000,0.000000,-0.508644,0.278325,1.173031,-0.009407,0.158160,-0.385635,-0.095394,-0.029127,0.032118,-0.562205
-0.050000,-0.050000,0.000000,0.000000,0.000000,0.000000,0.000000,0.000000,0.000000,0.100000,0.100000,-0.190495,-0.558768,-0.050000,-0.050000,0.357437,-0.732794,0.000000,0.000000,-0.506523,0.271827,1.182678,-0.003517,0.160732,-0.382569,-0.095502,-0.026886,0.029737,-0.563736
-0.050000,-0.050000,0.000000,0.000000,0.000000,0.000000,0.000000,0.000000,0.000000,0.100000,0.100000,-0.184806,-0.562970,-0.050000,-0.050000,0.354585,-0.735971,0.000000,0.000000,-0.503739,0.264662,1.190352,0.002475,0.162442,-0.378863,-0.094666,-0.024175,0.027355,-0.565350
-0.050000,-0.050000,0.000000,0.000000,0.000000,0.000000,0.000000,0.000000,0.000000,0.100000,0.100000,-0.179047,-0.566768,-0.050000,-0.050000,0.351905,-0.739320,0.000000,0.000000,-0.500749,0.257391,1.197448,0.008530,0.163810,-0.374982,-0.093726,-0.021454,0.025089,-0.567188
-0.050000,-0.050000,0.000000,0.000000,0.000000,0.000000,0.000000,0.000000,0.000000,0.100000,0.100000,-0.173144,-0.569759,-0.050000,-0.050000,0.349569,-0.743013,0.000000,0.000000,-0.497348,0.249909,1.203388,0.014708,0.164491,-0.370753,-0.092578,-0.018711,0.023059,-0.569475
-0.050000,-0.050000,0.000000,0.000000,0.000000,0.000000,0.000000,0.000000,0.000000,0.100000,0.100000,-0.167468,-0.571920,-0.050000,-0.050000,0.347515,-0.746917,0.000000,0.000000,-0.493618,0.242351,1.208161,0.020947,0.164444,-0.366308,-0.091482,-0.016142,0.021394,-0.572512
-0.050000,-0.050000,0.000000,0.000000,0.000000,0.000000,0.000000,0.000000,0.000000,0.100000,0.100000,-0.161905,-0.573668,-0.050000,-0.050000,0.345603,-0.750926,0.000000,0.000000,-0.489724,0.234755,1.212351,0.027215,0.164034,-0.361755,-0.090412,-0.013662,0.019911,-0.575923
-0.050000,-0.050000,0.000000,0.000000,0.000000,0.000000,0.000000,0.000000,0.000000,0.100000,0.100000,-0.157040,-0.574117,-0.050000,-0.050000,0.344088,-0.754871,0.000000,0.000000,-0.485545,0.227154,1.214796,0.033486,0.162575,-0.357080,-0.089652,-0.011580,0.019059,-0.580717
-0.050000,-0.050000,0.000000,0.000000,0.000000,0.000000,0.000000,0.000000,0.000000,0.100000,0.100000,-0.152480,-0.574131,-0.050000,-0.050000,0.342703,-0.758643,0.000000,0.000000,-0.481367,0.219581,1.216703,0.039766,0.160814,-0.352402,-0.089034,-0.009632,0.018417,-0.585975
-0.050000,-0.050000,0.000000,0.000000,0.000000,0.000000,0.000000,0.000000,0.000000,0.100000,0.100000,-0.148528,-0.573273,-0.050000,-0.050000,0.341575,-0.762069,0.000000,0.000000,-0.477191,0.212066,1.217533,0.046063,0.158450,-0.347720,-0.088699,-0.007952,0.018195,-0.592163
-0.050000,-0.050000,0.000000,0.000000,0.000000,0.000000,0.000000,0.000000,0.000000,0.100000,0.100000,-0.145262,-0.571580,-0.050000,-0.050000,0.340701,-0.764867,0.000000,0.000000,-0.473247,0.204696,1.217461,0.052496,0.155641,-0.343024,-0.088652,-0.006496,0.018358,-0.599111
-0.050000,-0.050000,0.000000,0.000000,0.000000,0.000000,0.000000,0.000000,0.000000,0.100000,0.100000,-0.142337,-0.569469,-0.050000,-0.050000,0.339953,-0.767350,0.000000,0.000000,-0.469420,0.197399,1.216938,0.058997,0.152610,-0.338320,-0.088749,-0.005152,0.018714,-0.606439
-0.050000,-0.050000,0.000000,0.000000,0.000000,0.000000,0.000000,0.000000,0.000000,0.100000,0.100000,-0.140490,-0.566207,-0.050000,-0.050000,0.339580,-0.768589,0.000000,0.000000,-0.466312,0.190533,1.215398,0.066030,0.149227,-0.333425,-0.089204,-0.004080,0.019570,-0.614418
-0.050000,-0.050000,0.000000,0.000000,0.000000,0.000000,0.000000,0.000000,0.000000,0.100000,0.100000,-0.139009,-0.562599,-0.050000,-0.050000,0.339331,-0.769370,0.000000,0.000000,-0.463566,0.183907,1.213627,0.073393,0.145851,-0.328358,-0.089737,-0.003091,0.020567,-0.622390
-0.050000,-0.050000,0.000000,0.000000,0.000000,0.000000,0.000000,0.000000,0.000000,0.100000,0.100000,-0.138258,-0.558300,-0.050000,-0.050000,0.339333,-0.769234,0.000000,0.000000,-0.461542,0.177761,1.211395,0.081415,0.142486,-0.322949,-0.090424,-0.002267,0.021845,-0.630348
-0.050000,-0.050000,0.000000,0.000000,0.000000,0.000000,0.000000,0.000000,0.000000,0.100000,0.100000,-0.138243,-0.553366,-0.050000,-0.050000,0.339592,-0.768213,0.000000,0.000000,-0.460446,0.172320,1.208852,0.090458,0.139386,-0.316909,-0.091175,-0.001622,0.023360,-0.637759
-0.050000,-0.050000,0.000000,0.000000,0.000000,0.000000,0.000000,0.000000,0.000000,0.100000,0.100000,-0.138596,-0.548114,-0.050000,-0.050000,0.339979,-0.766750,0.000000,0.000000,-0.459813,0.167231,1.206153,0.100012,0.136418,-0.310553,-0.091957,-0.001066,0.024993,-0.644898
-0.050000,-0.050000,0.000000,0.000000,0.000000,0.000000,0.000000,0.000000,0.000000,0.100000,0.100000,-0.140065,-0.541934,-0.050000,-0.050000,0.340770,-0.764151,0.000000,0.000000,-0.460780,0.163548,1.203045,0.111663,0.134171,-0.302767,-0.092723,-0.000821,0.026941,-0.650362
-0.050000,-0.050000,0.000000,0.000000,0.000000,0.000000,0.000000,0.000000,0.000000,0.100000,0.100000,-0.141912,-0.535426,-0.050000,-0.050000,0.341704,-0.761265,0.000000,0.000000,-0.462306,0.160443,1.199757,0.124183,0.132235,-0.294365,-0.093468,-0.000694,0.028993,-0.654984
-0.050000,-0.050000,0.000000,0.000000,0.000000,0.000000,0.000000,0.000000,0.000000,0.100000,0.100000,-0.144513,-0.528259,-0.050000,-0.050000,0.342921,-0.757803,0.000000,0.000000,-0.464951,0.158496,1.196109,0.138442,0.130924,-0.284732,-0.094171,-0.000802,0.031256,-0.657922
-0.050000,-0.050000,0.000000,0.000000,0.000000,0.000000,0.000000,0.000000,0.000000,0.100000,0.100000,-0.147881,-0.520342,-0.050000,-0.050000,0.344435,-0.753955,0.000000,0.000000,-0.468678,0.157914,1.191909,0.154693,0.130280,-0.273723,-0.094858,-0.001168,0.033761,-0.658656
-0.050000,-0.050000,0.000000,0.000000,0.000000,0.000000,0.000000,0.000000,0.000000,0.100000,0.100000,-0.151634,-0.512049,-0.050000,-0.050000,0.346095,-0.749913,0.000000,0.000000,-0.472945,0.158014,1.187433,0.171939,0.129969,-0.262025,-0.095537,-0.001663,0.036388,-0.658288
-0.050000,-0.050000,0.000000,0.000000,0.000000,0.000000,0.000000,0.000000,0.000000,0.100000,0.100000,-0.156552,-0.502443,-0.050000,-0.050000,0.348194,-0.745507,0.000000,0.000000,-0.478671,0.160475,1.181775,0.192371,0.130582,-0.248378,-0.096316,-0.002570,0.039477,-0.653961
-0.050000,-0.050000,0.000000,0.000000,0.000000,0.000000,0.000000,0.000000,0.000000,0.100000,0.100000,-0.161859,-0.492341,-0.050000,-0.050000,0.350423,-0.741005,0.000000,0.000000,-0.484806,0.163836,1.175624,0.213880,0.131444,-0.234256,-0.097189,-0.003619,0.042755,-0.648152
-0.050000,-0.050000,0.000000,0.000000,0.000000,0.000000,0.000000,0.000000,0.000000,0.100000,0.100000,-0.167943,-0.481250,-0.050000,-0.050000,0.352913,-0.736311,0.000000,0.000000,-0.491762,0.168999,1.168484,0.237540,0.132803,-0.219181,-0.098250,-0.004950,0.046414,-0.639375
-0.050000,-0.050000,0.000000,0.000000,0.000000,0.000000,0.000000,0.000000,0.000000,0.100000,0.100000,-0.174778,-0.469128,-0.050000,-0.050000,0.355590,-0.731343,0.000000,0.000000,-0.499377,0.176219,1.160283,0.263335,0.134521,-0.203748,-0.099615,-0.006545,0.050487,-0.627422
-0.050000,-0.050000,0.000000,0.000000,0.000000,0.000000,0.000000,0.000000,0.000000,0.100000,0.100000,-0.181989,-0.456492,-0.050000,-0.050000,0.358361,-0.726238,0.000000,0.000000,-0.507323,0.184467,1.151551,0.290197,0.136418,-0.188135,-0.101132,-0.008272,0.054768,-0.613879
-0.050000,-0.050000,0.000000,0.000000,0.000000,0.000000,0.000000,0.000000,0.000000,0.100000,0.100000,-0.190231,-0.442466,-0.050000,-0.050000,0.361220,-0.720372,0.000000,0.000000,-0.516040,0.196187,1.141417,0.320299,0.138683,-0.173094,-0.103199,-0.010293,0.059571,-0.595420
-0.050000,-0.050000,0.000000,0.000000,0.000000,0.000000,0.000000,0.000000,0.000000,0.100000,0.100000,-0.198758,-0.428120,-0.050000,-0.050000,0.364016,-0.714064,0.000000,0.000000,-0.524949,0.209166,1.130998,0.351550,0.141035,-0.158611,-0.105428,-0.012343,0.064432,-0.575324
-0.050000,-0.050000,0.000000,0.000000,0.000000,0.000000,0.000000,0.000000,0.000000,0.100000,0.100000,-0.207852,-0.413137,-0.050000,-0.050000,0.366686,-0.706874,0.000000,0.000000,-0.534241,0.224660,1.120011,0.385096,0.143564,-0.145244,-0.107979,-0.014449,0.069410,-0.551955
-0.050000,-0.050000,0.000000,0.000000,0.000000,0.000000,0.000000,0.000000,0.000000,0.100000,0.100000,-0.217327,-0.397983,-0.050000,-0.050000,0.369001,-0.698336,0.000000,0.000000,-0.543776,0.242717,1.109047,0.421188,0.146237,-0.133576,-0.110674,-0.016394,0.074087,-0.525425
-0.050000,-0.050000,0.000000,0.000000,0.000000,0.000000,0.000000,0.000000,0.000000,0.100000,0.100000,-0.226992,-0.382743,-0.050000,-0.050000,0.371137,-0.689124,0.000000,0.000000,-0.553433,0.262055,1.098096,0.458554,0.148983,-0.122758,-0.113440,-0.018259,0.078613,-0.497315
-0.050000,-0.050000,0.000000,0.000000,0.000000,0.000000,0.000000,0.000000,0.000000,0.100000,0.100000,-0.236848,-0.368095,-0.050000,-0.050000,0.372380,-0.677193,0.000000,0.000000,-0.563172,0.284901,1.088296,0.500144,0.151901,-0.115001,-0.115965,-0.019473,0.081833,-0.464843
-0.050000,-0.050000,0.000000,0.000000,0.000000,0.000000,0.000000,0.000000,0.000000,0.100000,0.100000,-0.246614,-0.353910,-0.050000,-0.050000,0.373222,-0.664188,0.000000,0.000000,-0.572806,0.308629,1.079263,0.543191,0.154842,-0.108306,-0.118223,-0.020336,0.084315,-0.431138
-0.050000,-0.050000,0.000000,0.000000,0.000000,0.000000,0.000000,0.000000,0.000000,0.100000,0.100000,-0.256199,-0.340652,-0.050000,-0.050000,0.373261,-0.649031,0.000000,0.000000,-0.582229,0.334116,1.071764,0.589152,0.157831,-0.103737,-0.119947,-0.020495,0.085321,-0.394966
-0.050000,-0.050000,0.000000,0.000000,0.000000,0.000000,0.000000,0.000000,0.000000,0.100000,0.100000,-0.265272,-0.328684,-0.050000,-0.050000,0.372377,-0.631638,0.000000,0.000000,-0.591087,0.360415,1.066423,0.637724,0.160727,-0.101159,-0.120791,-0.019768,0.084380,-0.357018
-0.050000,-0.050000,0.000000,0.000000,0.000000,0.000000,0.000000,0.000000,0.000000,0.100000,0.100000,-0.274089,-0.317361,-0.050000,-0.050000,0.371032,-0.613127,0.000000,0.000000,-0.599662,0.387119,1.062162,0.687601,0.163577,-0.099576,-0.121194,-0.018597,0.082467,-0.318182
-0.050000,-0.050000,0.000000,0.000000,0.000000,0.000000,0.000000,0.000000,0.000000,0.100000,0.100000,-0.281663,-0.308176,-0.050000,-0.050000,0.368299,-0.591675,0.000000,0.000000,-0.606759,0.413215,1.061637,0.740072,0.165955,-0.100504,-0.119949,-0.016081,0.077394,-0.278159
-0.050000,-0.050000,0.000000,0.000000,0.000000,0.000000,0.000000,0.000000,0.000000,0.100000,0.100000,-0.288694,-0.299676,-0.050000,-0.050000,0.365165,-0.569576,0.000000,0.000000,-0.613144,0.438473,1.062330,0.792660,0.168024,-0.102016,-0.118146,-0.013219,0.071400,-0.238373
-0.050000,-0.050000,0.000000,0.000000,0.000000,0.000000,0.000000,0.000000,0.000000,0.100000,0.100000,-0.294636,-0.292544,-0.050000,-0.050000,0.361231,-0.546183,0.000000,0.000000,-0.618107,0.462055,1.065461,0.845483,0.169474,-0.104697,-0.115228,-0.009665,0.063563,-0.199061
-0.050000,-0.050000,0.000000,0.000000,0.000000,0.000000,0.000000,0.000000,0.000000,0.100000,0.100000,-0.299324,-0.286640,-0.050000,-0.050000,0.356723,-0.522487,0.000000,0.000000,-0.621262,0.482893,1.070588,0.896583,0.169935,-0.107825,-0.111396,-0.005809,0.054560,-0.161670
-0.050000,-0.050000,0.000000,0.000000,0.000000,0.000000,0.000000,0.000000,0.000000,0.100000,0.100000,-0.303385,-0.281351,-0.050000,-0.050000,0.351929,-0.498639,0.000000,0.000000,-0.623512,0.502359,1.076713,0.946822,0.169902,-0.111175,-0.107107,-0.001801,0.044974,-0.125239
-0.050000,-0.050000,0.000000,0.000000,0.000000,0.000000,0.000000,0.000000,0.000000,0.100000,0.100000,-0.305475,-0.277702,-0.050000,-0.050000,0.346702,-0.476056,0.000000,0.000000,-0.622663,0.516720,1.084735,0.991308,0.167792,-0.113800,-0.101995,0.001954,0.035080,-0.093846
-0.050000,-0.050000,0.000000,0.000000,0.000000,0.000000,0.000000,0.000000,0.000000,0.100000,0.100000,-0.306935,-0.274554,-0.050000,-0.050000,0.341476,-0.454435,0.000000,0.000000,-0.620757,0.529301,1.092964,1.032940,0.164824,-0.115670,-0.096826,0.005415,0.025590,-0.064727
-0.050000,-0.050000,0.000000,0.000000,0.000000,0.000000,0.000000,0.000000,0.000000,0.100000,0.100000,-0.307136,-0.272407,-0.050000,-0.050000,0.336254,-0.434739,0.000000,0.000000,-0.616734,0.538322,1.101606,1.068861,0.160141,-0.116032,-0.091542,0.008286,0.016910,-0.040154
-0.050000,-0.050000,0.000000,0.000000,0.000000,0.000000,0.000000,0.000000,0.000000,0.100000,0.100000,-0.306235,-0.271202,-0.050000,-0.050000,0.331285,-0.417780,0.000000,0.000000,-0.610811,0.544105,1.109886,1.097791,0.153602,-0.113985,-0.086529,0.010293,0.009859,-0.020842
-0.050000,-0.050000,0.000000,0.000000,0.000000,0.000000,0.000000,0.000000,0.000000,0.100000,0.100000,-0.304781,-0.270468,-0.050000,-0.050000,0.326443,-0.402190,0.000000,0.000000,-0.603937,0.548269,1.117986,1.123227,0.146137,-0.110734,-0.081652,0.011868,0.003623,-0.004160
-0.050000,-0.050000,0.000000,0.000000,0.000000,0.000000,0.000000,0.000000,0.000000,0.100000,0.100000,-0.302041,-0.271085,-0.050000,-0.050000,0.322258,-0.391322,0.000000,0.000000,-0.594946,0.548604,1.124740,1.137491,0.136148,-0.103079,-0.077553,0.012000,0.000482,0.004481
-0.050000,-0.050000,0.000000,0.000000,0.000000,0.000000,0.000000,0.000000,0.000000,0.100000,0.100000,-0.299028,-0.272145,-0.050000,-0.050000,0.318346,-0.382021,0.000000,0.000000,-0.585597,0.548107,1.130933,1.148221,0.125580,-0.093962,-0.073747,0.011685,-0.001641,0.010697
-0.050000,-0.050000,0.000000,0.000000,0.000000,0.000000,0.000000,0.000000,0.000000,0.100000,0.100000,-0.295469,-0.274088,-0.050000,-0.050000,0.314984,-0.375854,0.000000,0.000000,-0.575534,0.545946,1.136005,1.151881,0.113851,-0.081917,-0.070525,0.010474,-0.001727,0.012064
-0.050000,-0.050000,0.000000,0.000000,0.000000,0.000000,0.000000,0.000000,0.000000,0.100000,0.100000,-0.291717,-0.276923,-0.050000,-0.050000,0.312222,-0.372464,0.000000,0.000000,-0.565526,0.543034,1.140005,1.149491,0.101733,-0.067484,-0.067781,0.008552,-0.000202,0.009575
-0.050000,-0.050000,0.000000,0.000000,0.000000,0.000000,0.000000,0.000000,0.000000,0.100000,0.100000,-0.287867,-0.280204,-0.050000,-0.050000,0.309761,-0.370464,0.000000,0.000000,-0.555544,0.539747,1.143470,1.144074,0.089421,-0.051855,-0.065275,0.006274,0.002127,0.005158
-0.050000,-0.050000,0.000000,0.000000,0.000000,0.000000,0.000000,0.000000,0.000000,0.100000,0.100000,-0.284261,-0.284845,-0.050000,-0.050000,0.308220,-0.371795,0.000000,0.000000,-0.546638,0.536497,1.145629,1.131585,0.077713,-0.033965,-0.063159,0.003310,0.005864,-0.003162
-0.050000,-0.050000,0.000000,0.000000,0.000000,0.000000,0.000000,0.000000,0.000000,0.100000,0.100000,-0.280897,-0.289928,-0.050000,-0.050000,0.306977,-0.373930,0.000000,0.000000,-0.538292,0.533511,1.147445,1.117404,0.066475,-0.015790,-0.061056,0.000248,0.009710,-0.012145
-0.050000,-0.050000,0.000000,0.000000,0.000000,0.000000,0.000000,0.000000,0.000000,0.100000,0.100000,-0.278015,-0.295892,-0.050000,-0.050000,0.306330,-0.377669,0.000000,0.000000,-0.531066,0.531054,1.148579,1.099837,0.056172,0.002958,-0.058980,-0.003010,0.013774,-0.022457
-0.050000,-0.050000,0.000000,0.000000,0.000000,0.000000,0.000000,0.000000,0.000000,0.100000,0.100000,-0.275860,-0.302611,-0.050000,-0.050000,0.306231,-0.382432,0.000000,0.000000,-0.525009,0.529290,1.149072,1.079978,0.046848,0.021582,-0.056780,-0.006262,0.017448,-0.033006
-0.050000,-0.050000,0.000000,0.000000,0.000000,0.000000,0.000000,0.000000,0.000000,0.100000,0.100000,-0.274069,-0.309709,-0.050000,-0.050000,0.306406,-0.387705,0.000000,0.000000,-0.519537,0.527872,1.149244,1.058971,0.038013,0.040144,-0.054519,-0.009509,0.020927,-0.043674
-0.050000,-0.050000,0.000000,0.000000,0.000000,0.000000,0.000000,0.000000,0.000000,0.100000,0.100000,-0.273581,-0.317545,-0.050000,-0.050000,0.307263,-0.393739,0.000000,0.000000,-0.515372,0.527233,1.148203,1.035667,0.029824,0.058140,-0.052062,-0.012606,0.023242,-0.053525
-0.050000,-0.050000,0.000000,0.000000,0.000000,0.000000,0.000000,0.000000,0.000000,0.100000,0.100000,-0.273540,-0.325432,-0.050000,-0.050000,0.308275,-0.399796,0.000000,0.000000,-0.511362,0.526635,1.146581,1.011833,0.021312,0.076062,-0.049606,-0.015668,0.025102,-0.062880
-0.050000,-0.050000,0.000000,0.000000,0.000000,0.000000,0.000000,0.000000,0.000000,0.100000,0.100000,-0.274392,-0.333418,-0.050000,-0.050000,0.309597,-0.405898,0.000000,0.000000,-0.507661,0.526120,1.143797,0.986940,0.012153,0.093835,-0.047151,-0.018660,0.026055,-0.071243
-0.050000,-0.050000,0.000000,0.000000,0.000000,0.000000,0.000000,0.000000,0.000000,0.100000,0.100000,-0.276048,-0.341042,-0.050000,-0.050000,0.311027,-0.411609,0.000000,0.000000,-0.503575,0.525121,1.139404,0.961295,0.000938,0.112062,-0.044917,-0.021707,0.026207,-0.078460
-0.050000,-0.050000,0.000000,0.000000,0.000000,0.000000,0.000000,0.000000,0.000000,0.100000,0.100000,-0.278106,-0.348485,-0.050000,-0.050000,0.312511,-0.417125,0.000000,0.000000,-0.499296,0.523881,1.134206,0.935275,-0.011305,0.130515,-0.042791,-0.024783,0.025957,-0.085104
-0.050000,-0.050000,0.000000,0.000000,0.000000,0.000000,0.000000,0.000000,0.000000,0.100000,0.100000,-0.281097,-0.354724,-0.050000,-0.050000,0.313789,-0.421406,0.000000,0.000000,-0.493416,0.521089,1.125970,0.908561,-0.028826,0.150786,-0.041334,-0.028184,0.024947,-0.090122
-0.050000,-0.050000,0.000000,0.000000,0.000000,0.000000,0.000000,0.000000,0.000000,0.100000,0.100000,-0.284280,-0.360406,-0.050000,-0.050000,0.314864,-0.425070,0.000000,0.000000,-0.486727,0.517575,1.116587,0.881801,-0.048711,0.171998,-0.040188,-0.031762,0.023890,-0.094699
-0.050000,-0.050000,0.000000,0.000000,0.000000,0.000000,0.000000,0.000000,0.000000,0.100000,0.100000,-0.287847,-0.364973,-0.050000,-0.050000,0.315537,-0.427500,0.000000,0.000000,-0.478421,0.512617,1.104910,0.854948,-0.073324,0.195092,-0.039664,-0.035693,0.022741,-0.098395
-0.050000,-0.050000,0.000000,0.000000,0.000000,0.000000,0.000000,0.000000,0.000000,0.100000,0.100000,-0.291555,-0.368318,-0.050000,-0.050000,0.315569,-0.428363,0.000000,0.000000,-0.468164,0.506020,1.090888,0.828481,-0.103353,0.220447,-0.039871,-0.040050,0.021963,-0.101495
-0.050000,-0.050000,0.000000,0.000000,0.000000,0.000000,0.000000,0.000000,0.000000,0.100000,0.100000,-0.295334,-0.371052,-0.050000,-0.050000,0.315280,-0.428443,0.000000,0.000000,-0.456931,0.498603,1.075692,0.802208,-0.136088,0.246932,-0.040443,-0.044619,0.021371,-0.104297
-0.050000,-0.050000,0.000000,0.000000,0.000000,0.000000,0.000000,0.000000,0.000000,0.100000,0.100000,-0.299041,-0.372141,-0.050000,-0.050000,0.313807,-0.425924,0.000000,0.000000,-0.442652,0.488766,1.057248,0.777316,-0.176904,0.276777,-0.042207,-0.049829,0.021990,-0.106708
-0.050000,-0.050000,0.000000,0.000000,0.000000,0.000000,0.000000,0.000000,0.000000,0.100000,0.100000,-0.302677,-0.372843,-0.050000,-0.050000,0.311944,-0.422583,0.000000,0.000000,-0.427441,0.478218,1.037904,0.753131,-0.220013,0.307529,-0.044392,-0.055229,0.023176,-0.109168
-0.050000,-0.050000,0.000000,0.000000,0.000000,0.000000,0.000000,0.000000,0.000000,0.100000,0.100000,-0.306173,-0.372772,-0.050000,-0.050000,0.309300,-0.417596,0.000000,0.000000,-0.410369,0.466250,1.016761,0.730358,-0.267709,0.340095,-0.047417,-0.061008,0.025498,-0.111725
-0.050000,-0.050000,0.000000,0.000000,0.000000,0.000000,0.000000,0.000000,0.000000,0.100000,0.100000,-0.309547,-0.372358,-0.050000,-0.050000,0.306090,-0.411342,0.000000,0.000000,-0.391806,0.453139,0.994295,0.709336,-0.318512,0.373725,-0.051322,-0.067101,0.029119,-0.114736
-0.050000,-0.050000,0.000000,0.000000,0.000000,0.000000,0.000000,0.000000,0.000000,0.100000,0.100000,-0.312859,-0.371774,-0.050000,-0.050000,0.302596,-0.404456,0.000000,0.000000,-0.372499,0.439456,0.971168,0.689189,-0.370868,0.407888,-0.055668,-0.073350,0.033389,-0.117973
-0.050000,-0.050000,0.000000,0.000000,0.000000,0.000000,0.000000,0.000000,0.000000,0.100000,0.100000,-0.316143,-0.371318,-0.050000,-0.050000,0.298880,-0.396639,0.000000,0.000000,-0.351710,0.424484,0.946814,0.671837,-0.424995,0.442234,-0.061342,-0.079987,0.039573,-0.122354
-0.050000,-0.050000,0.000000,0.000000,0.000000,0.000000,0.000000,0.000000,0.000000,0.100000,0.100000,-0.319484,-0.371070,-0.050000,-0.050000,0.295373,-0.388920,0.000000,0.000000,-0.330696,0.409205,0.922284,0.655355,-0.478684,0.476146,-0.067430,-0.086740,0.046310,-0.127225
-0.050000,-0.050000,0.000000,0.000000,0.000000,0.000000,0.000000,0.000000,0.000000,0.100000,0.100000,-0.322937,-0.371236,-0.050000,-0.050000,0.292282,-0.381394,0.000000,0.000000,-0.309232,0.393312,0.897403,0.640611,-0.531497,0.509190,-0.074347,-0.093722,0.054152,-0.133076
-0.050000,-0.050000,0.000000,0.000000,0.000000,0.000000,0.000000,0.000000,0.000000,0.100000,0.100000,-0.326595,-0.371991,-0.050000,-0.050000,0.290208,-0.374901,0.000000,0.000000,-0.287803,0.377003,0.872559,0.627285,-0.581568,0.540458,-0.081960,-0.100931,0.062857,-0.139998
-0.050000,-0.050000,0.000000,0.000000,0.000000,0.000000,0.000000,0.000000,0.000000,0.100000,0.100000,-0.330355,-0.373041,-0.050000,-0.050000,0.288643,-0.368924,0.000000,0.000000,-0.266391,0.360486,0.847734,0.614668,-0.630267,0.570838,-0.089923,-0.108252,0.071992,-0.147456
-0.050000,-0.050000,0.000000,0.000000,0.000000,0.000000,0.000000,0.000000,0.000000,0.100000,0.100000,-0.334417,-0.374985,-0.050000,-0.050000,0.289357,-0.365570,0.000000,0.000000,-0.245584,0.343598,0.823411,0.603527,-0.672708,0.597469,-0.098673,-0.115918,0.082061,-0.156453
-0.050000,-0.050000,0.000000,0.000000,0.000000,0.000000,0.000000,0.000000,0.000000,0.100000,0.100000,-0.338520,-0.377160,-0.050000,-0.050000,0.290978,-0.363326,0.000000,0.000000,-0.225091,0.326664,0.799363,0.592651,-0.712629,0.622613,-0.107599,-0.123696,0.092346,-0.165882
-0.050000,-0.050000,0.000000,0.000000,0.000000,0.000000,0.000000,0.000000,0.000000,0.100000,0.100000,-0.342707,-0.379794,-0.050000,-0.050000,0.294414,-0.363303,0.000000,0.000000,-0.205225,0.309635,0.775865,0.582304,-0.747510,0.644787,-0.116880,-0.131696,0.103065,-0.176177
-0.050000,-0.050000,0.000000,0.000000,0.000000,0.000000,0.000000,0.000000,0.000000,0.100000,0.100000,-0.346757,-0.382649,-0.050000,-0.050000,0.299687,-0.365665,0.000000,0.000000,-0.186082,0.292661,0.753070,0.572089,-0.777052,0.663798,-0.126365,-0.139880,0.114082,-0.187104
-0.050000,-0.050000,0.000000,0.000000,0.000000,0.000000,0.000000,0.000000,0.000000,0.100000,0.100000,-0.350739,-0.385613,-0.050000,-0.050000,0.305879,-0.369219,0.000000,0.000000,-0.167299,0.275715,0.730627,0.561941,-0.803924,0.681229,-0.135952,-0.148156,0.125248,-0.198347
-0.050000,-0.050000,0.000000,0.000000,0.000000,0.000000,0.000000,0.000000,0.000000,0.100000,0.100000,-0.354101,-0.388474,-0.050000,-0.050000,0.314459,-0.376122,0.000000,0.000000,-0.149620,0.259068,0.709413,0.551564,-0.823063,0.694038,-0.145638,-0.156571,0.136702,-0.210132
-0.050000,-0.050000,0.000000,0.000000,0.000000,0.000000,0.000000,0.000000,0.000000,0.100000,0.100000,-0.357120,-0.391155,-0.050000,-0.050000,0.323606,-0.383927,0.000000,0.000000,-0.132306,0.242596,0.688657,0.541036,-0.839894,0.705464,-0.155273,-0.164960,0.148196,-0.221954
-0.050000,-0.050000,0.000000,0.000000,0.000000,0.000000,0.000000,0.000000,0.000000,0.100000,0.100000,-0.359452,-0.393477,-0.050000,-0.050000,0.333885,-0.393537,0.000000,0.000000,-0.115722,0.226473,0.668820,0.530203,-0.852107,0.714125,-0.164808,-0.173295,0.159767,-0.233850
-0.050000,-0.050000,0.000000,0.000000,0.000000,0.000000,0.000000,0.000000,0.000000,0.100000,0.100000,-0.360884,-0.395193,-0.050000,-0.050000,0.344710,-0.404333,0.000000,0.000000,-0.099899,0.210865,0.649988,0.519037,-0.860459,0.720512,-0.174029,-0.181381,0.171251,-0.245509
-0.050000,-0.050000,0.000000,0.000000,0.000000,0.000000,0.000000,0.000000,0.000000,0.100000,0.100000,-0.361866,-0.396607,-0.050000,-0.050000,0.355806,-0.415721,0.000000,0.000000,-0.084456,0.195514,0.631658,0.507704,-0.866880,0.725763,-0.183092,-0.189342,0.182691,-0.257049
-0.050000,-0.050000,0.000000,0.000000,0.000000,0.000000,0.000000,0.000000,0.000000,0.100000,0.100000,-0.361329,-0.396847,-0.050000,-0.050000,0.366793,-0.427811,0.000000,0.000000,-0.070296,0.181226,0.614929,0.495966,-0.868790,0.728507,-0.191298,-0.196609,0.193632,-0.267707
-0.050000,-0.050000,0.000000,0.000000,0.000000,0.000000,0.000000,0.000000,0.000000,0.100000,0.100000,-0.360286,-0.396648,-0.050000,-0.050000,0.377465,-0.439773,0.000000,0.000000,-0.056646,0.167405,0.598743,0.484148,-0.869621,0.730736,-0.199085,-0.203549,0.204237,-0.277870
-0.050000,-0.050000,0.000000,0.000000,0.000000,0.000000,0.000000,0.000000,0.000000,0.100000,0.100000,-0.358229,-0.395571,-0.050000,-0.050000,0.387504,-0.451479,0.000000,0.000000,-0.044014,0.154516,0.583640,0.472167,-0.868295,0.731937,-0.206034,-0.209837,0.214166,-0.287043
-0.050000,-0.050000,0.000000,0.000000,0.000000,0.000000,0.000000,0.000000,0.000000,0.100000,0.100000,-0.355250,-0.393591,-0.050000,-0.050000,0.396484,-0.462285,0.000000,0.000000,-0.032607,0.142795,0.569565,0.460131,-0.865584,0.732719,-0.211915,-0.215347,0.222985,-0.294794
-0.050000,-0.050000,0.000000,0.000000,0.000000,0.000000,0.000000,0.000000,0.000000,0.100000,0.100000,-0.351812,-0.391159,-0.050000,-0.050000,0.404935,-0.472639,0.000000,0.000000,-0.021812,0.131656,0.556004,0.448067,-0.862180,0.733292,-0.217261,-0.220468,0.231249,-0.301833
-0.050000,-0.050000,0.000000,0.000000,0.000000,0.000000,0.000000,0.000000,0.000000,0.100000,0.100000,-0.347212,-0.387405,-0.050000,-0.050000,0.411428,-0.480877,0.000000,0.000000,-0.013184,0.122574,0.543765,0.436020,-0.857642,0.733987,-0.220745,-0.224356,0.237089,-0.306117
-0.050000,-0.050000,0.000000,0.000000,0.000000,0.000000,0.000000,0.000000,0.000000,0.100000,0.100000,-0.342305,-0.383236,-0.050000,-0.050000,0.417251,-0.488241,0.000000,0.000000,-0.005382,0.114244,0.531849,0.423988,-0.852943,0.734878,-0.223548,-0.227846,0.241853,-0.309322
-0.050000,-0.050000,0.000000,0.000000,0.000000,0.000000,0.000000,0.000000,0.000000,0.100000,0.100000,-0.336781,-0.378234,-0.050000,-0.050000,0.421735,-0.493857,0.000000,0.000000,0.000766,0.107419,0.520577,0.411982,-0.847921,0.736165,-0.224991,-0.230537,0.244465,-0.310367
-0.050000,-0.050000,0.000000,0.000000,0.000000,0.000000,0.000000,0.000000,0.000000,0.100000,0.100000,-0.330777,-0.372456,-0.050000,-0.050000,0.425061,-0.497574,0.000000,0.000000,0.005073,0.102135,0.509642,0.399983,-0.842765,0.737910,-0.224984,-0.232479,0.244419,-0.309089
-0.050000,-0.050000,0.000000,0.000000,0.000000,0.000000,0.000000,0.000000,0.000000,0.100000,0.100000,-0.324534,-0.366290,-0.050000,-0.050000,0.427808,-0.500341,0.000000,0.000000,0.008459,0.097622,0.498877,0.387985,-0.837542,0.739883,-0.224253,-0.234048,0.243044,-0.306650
-0.050000,-0.050000,0.000000,0.000000,0.000000,0.000000,0.000000,0.000000,0.000000,0.100000,0.100000,-0.317731,-0.359059,-0.050000,-0.050000,0.429383,-0.500301,0.000000,0.000000,0.008840,0.095333,0.488111,0.375967,-0.831984,0.742219,-0.221235,-0.234545,0.237093,-0.300799
-0.050000,-0.050000,0.000000,0.000000,0.000000,0.000000,0.000000,0.000000,0.000000,0.100000,0.100000,-0.310794,-0.351519,-0.050000,-0.050000,0.430823,-0.499416,0.000000,0.000000,0.008154,0.093722,0.477191,0.363966,-0.826126,0.744437,-0.217433,-0.234680,0.229528,-0.293946
-0.050000,-0.050000,0.000000,0.000000,0.000000,0.000000,0.000000,0.000000,0.000000,0.100000,0.100000,-0.303587,-0.343362,-0.050000,-0.050000,0.431996,-0.496839,0.000000,0.000000,0.005331,0.093470,0.465961,0.351997,-0.819671,0.746419,-0.212064,-0.234092,0.218736,-0.285091
-0.050000,-0.050000,0.000000,0.000000,0.000000,0.000000,0.000000,0.000000,0.000000,0.100000,0.100000,-0.296254,-0.334734,-0.050000,-0.050000,0.433465,-0.492863,0.000000,0.000000,0.000288,0.094436,0.454212,0.340241,-0.812009,0.747503,-0.205177,-0.232735,0.204866,-0.274716
-0.050000,-0.050000,0.000000,0.000000,0.000000,0.000000,0.000000,0.000000,0.000000,0.100000,0.100000,-0.288858,-0.325870,-0.050000,-0.050000,0.435082,-0.488187,0.000000,0.000000,-0.005865,0.096011,0.442203,0.328593,-0.803743,0.748138,-0.197533,-0.230994,0.189458,-0.263583
-0.050000,-0.050000,0.000000,0.000000,0.000000,0.000000,0.000000,0.000000,0.000000,0.100000,0.100000,-0.281642,-0.316635,-0.050000,-0.050000,0.437901,-0.481953,0.000000,0.000000,-0.015367,0.099249,0.429356,0.317818,-0.792590,0.746346,-0.187957,-0.228015,0.170276,-0.251142
-0.050000,-0.050000,0.000000,0.000000,0.000000,0.000000,0.000000,0.000000,0.000000,0.100000,0.100000,-0.274682,-0.307431,-0.050000,-0.050000,0.441288,-0.475394,0.000000,0.000000,-0.025941,0.103019,0.416327,0.307625,-0.780158,0.743428,-0.177967,-0.224607,0.150328,-0.238639
-0.050000,-0.050000,0.000000,0.000000,0.000000,0.000000,0.000000,0.000000,0.000000,0.100000,0.100000,-0.268236,-0.298290,-0.050000,-0.050000,0.445813,-0.468182,0.000000,0.000000,-0.038658,0.107852,0.402936,0.298595,-0.765167,0.738256,-0.167150,-0.220342,0.128848,-0.226010
-0.050000,-0.050000,0.000000,0.000000,0.000000,0.000000,0.000000,0.000000,0.000000,0.100000,0.100000,-0.262859,-0.289591,-0.050000,-0.050000,0.451561,-0.460697,0.000000,0.000000,-0.053321,0.113775,0.389659,0.291489,-0.747290,0.730415,-0.156171,-0.215229,0.107166,-0.214014
-0.050000,-0.050000,0.000000,0.000000,0.000000,0.000000,0.000000,0.000000,0.000000,0.100000,0.100000,-0.258017,-0.281112,-0.050000,-0.050000,0.457920,-0.453075,0.000000,0.000000,-0.068957,0.120241,0.376441,0.285344,-0.727970,0.721240,-0.145112,-0.209693,0.085382,-0.202333
-0.050000,-0.050000,0.000000,0.000000,0.000000,0.000000,0.000000,0.000000,0.000000,0.100000,0.100000,-0.255795,-0.273904,-0.050000,-0.050000,0.465822,-0.445548,0.000000,0.000000,-0.087070,0.128461,0.364551,0.283380,-0.704568,0.707896,-0.134913,-0.202962,0.065544,-0.192607
-0.050000,-0.050000,0.000000,0.000000,0.000000,0.000000,0.000000,0.000000,0.000000,0.100000,0.100000,-0.254800,-0.267305,-0.050000,-0.050000,0.474013,-0.438184,0.000000,0.000000,-0.105828,0.137316,0.353615,0.283227,-0.680172,0.693275,-0.125304,-0.195867,0.047071,-0.183772
-0.050000,-0.050000,0.000000,0.000000,0.000000,0.000000,0.000000,0.000000,0.000000,0.100000,0.100000,-0.256261,-0.261921,-0.050000,-0.050000,0.482780,-0.431146,0.000000,0.000000,-0.125874,0.147444,0.344586,0.286698,-0.653788,0.676102,-0.116875,-0.188043,0.031328,-0.176720
-0.050000,-0.050000,0.000000,0.000000,0.000000,0.000000,0.000000,0.000000,0.000000,0.100000,0.100000,-0.260782,-0.258020,-0.050000,-0.050000,0.491490,-0.424592,0.000000,0.000000,-0.146796,0.158935,0.338626,0.294462,-0.626653,0.656908,-0.109921,-0.179548,0.019430,-0.171652
-0.050000,-0.050000,0.000000,0.000000,0.000000,0.000000,0.000000,0.000000,0.000000,0.100000,0.100000,-0.266834,-0.254859,-0.050000,-0.050000,0.500170,-0.418280,0.000000,0.000000,-0.168157,0.171107,0.334200,0.304372,-0.599143,0.636703,-0.103703,-0.170718,0.009453,-0.167577
-0.050000,-0.050000,0.000000,0.000000,0.000000,0.000000,0.000000,0.000000,0.000000,0.100000,0.100000,-0.278012,-0.254082,-0.050000,-0.050000,0.507700,-0.412731,0.000000,0.000000,-0.190125,0.185384,0.336055,0.321259,-0.572842,0.614603,-0.099568,-0.160927,0.006122,-0.166280
-0.050000,-0.050000,0.000000,0.000000,0.000000,0.000000,0.000000,0.000000,0.000000,0.100000,0.100000,-0.290893,-0.254060,-0.050000,-0.050000,0.514518,-0.407384,0.000000,0.000000,-0.212009,0.200335,0.340429,0.340439,-0.547754,0.592302,-0.095929,-0.150825,0.004983,-0.165677
-0.050000,-0.050000,0.000000,0.000000,0.000000,0.000000,0.000000,0.000000,0.000000,0.100000,0.100000,-0.307178,-0.255546,-0.050000,-0.050000,0.519914,-0.402440,0.000000,0.000000,-0.233729,0.216636,0.349841,0.364207,-0.525091,0.569600,-0.093283,-0.140099,0.008228,-0.166465
-0.050000,-0.050000,0.000000,0.000000,0.000000,0.000000,0.000000,0.000000,0.000000,0.100000,0.100000,-0.326419,-0.258280,-0.050000,-0.050000,0.523431,-0.397700,0.000000,0.000000,-0.254570,0.234103,0.364634,0.392019,-0.506257,0.547321,-0.091111,-0.128796,0.015227,-0.167936
-0.050000,-0.050000,0.000000,0.000000,0.000000,0.000000,0.000000,0.000000,0.000000,0.100000,0.100000,-0.347138,-0.261639,-0.050000,-0.050000,0.526009,-0.393063,0.000000,0.000000,-0.274973,0.252152,0.382118,0.421854,-0.489339,0.525255,-0.089176,-0.117205,0.024103,-0.169749
-0.050000,-0.050000,0.000000,0.000000,0.000000,0.000000,0.000000,0.000000,0.000000,0.100000,0.100000,-0.370996,-0.266269,-0.050000,-0.050000,0.525582,-0.388398,0.000000,0.000000,-0.292793,0.271438,0.407160,0.456221,-0.479580,0.504800,-0.087295,-0.104954,0.037075,-0.171406
-0.050000,-0.050000,0.000000,0.000000,0.000000,0.000000,0.000000,0.000000,0.000000,0.100000,0.100000,-0.395322,-0.271088,-0.050000,-0.050000,0.524296,-0.383642,0.000000,0.000000,-0.309313,0.290886,0.434173,0.491381,-0.472355,0.485082,-0.085320,-0.092625,0.050845,-0.172685
-0.050000,-0.050000,0.000000,0.000000,0.000000,0.000000,0.000000,0.000000,0.000000,0.100000,0.100000,-0.420583,-0.276285,-0.050000,-0.050000,0.521293,-0.378706,0.000000,0.000000,-0.323237,0.310658,0.465128,0.528131,-0.470197,0.466834,-0.083159,-0.080139,0.066209,-0.173207
-0.050000,-0.050000,0.000000,0.000000,0.000000,0.000000,0.000000,0.000000,0.000000,0.100000,0.100000,-0.445516,-0.281412,-0.050000,-0.050000,0.517231,-0.373548,0.000000,0.000000,-0.333850,0.330124,0.498285,0.564774,-0.472692,0.450216,-0.080836,-0.067940,0.082187,-0.172654
-0.050000,-0.050000,0.000000,0.000000,0.000000,0.000000,0.000000,0.000000,0.000000,0.100000,0.100000,-0.470284,-0.286504,-0.050000,-0.050000,0.512640,-0.368279,0.000000,0.000000,-0.342807,0.349437,0.532544,0.601365,-0.477513,0.434412,-0.078433,-0.055884,0.098471,-0.171564
-0.050000,-0.050000,0.000000,0.000000,0.000000,0.000000,0.000000,0.000000,0.000000,0.100000,0.100000,-0.492808,-0.290982,-0.050000,-0.050000,0.507725,-0.362835,0.000000,0.000000,-0.346271,0.367222,0.566970,0.635181,-0.487796,0.421118,-0.076107,-0.045108,0.114679,-0.169054
-0.050000,-0.050000,0.000000,0.000000,0.000000,0.000000,0.000000,0.000000,0.000000,0.100000,0.100000,-0.514123,-0.295174,-0.050000,-0.050000,0.503076,-0.357439,0.000000,0.000000,-0.347967,0.384137,0.600428,0.667294,-0.499237,0.408709,-0.073957,-0.035053,0.130700,-0.166345
-0.050000,-0.050000,0.000000,0.000000,0.000000,0.000000,0.000000,0.000000,0.000000,0.100000,0.100000,-0.533024,-0.298791,-0.050000,-0.050000,0.498956,-0.352140,0.000000,0.000000,-0.346124,0.399310,0.631952,0.696001,-0.512995,0.398069,-0.072160,-0.026444,0.146346,-0.163238
-0.050000,-0.050000,0.000000,0.000000,0.000000,0.000000,0.000000,0.000000,0.000000,0.100000,0.100000,-0.548921,-0.301865,-0.050000,-0.050000,0.495745,-0.347202,0.000000,0.000000,-0.341296,0.412087,0.659904,0.720143,-0.527793,0.389451,-0.071000,-0.019766,0.161530,-0.160546
-0.050000,-0.050000,0.000000,0.000000,0.000000,0.000000,0.000000,0.000000,0.000000,0.100000,0.100000,-0.563317,-0.304666,-0.050000,-0.050000,0.492989,-0.342444,0.000000,0.000000,-0.334976,0.423666,0.686072,0.742000,-0.543112,0.381844,-0.070158,-0.014054,0.176483,-0.158061
-0.050000,-0.050000,0.000000,0.000000,0.000000,0.000000,0.000000,0.000000,0.000000,0.100000,0.100000,-0.572846,-0.306941,-0.050000,-0.050000,0.491421,-0.338584,0.000000,0.000000,-0.325400,0.430916,0.705375,0.756023,-0.558589,0.377813,-0.070548,-0.011656,0.190752,-0.157484
-0.050000,-0.050000,0.000000,0.000000,0.000000,0.000000,0.000000,0.000000,0.000000,0.100000,0.100000,-0.580798,-0.309181,-0.050000,-0.050000,0.489971,-0.335107,0.000000,0.000000,-0.315179,0.436605,0.722215,0.767354,-0.573872,0.375123,-0.071379,-0.010375,0.204793,-0.157890
-0.050000,-0.050000,0.000000,0.000000,0.000000,0.000000,0.000000,0.000000,0.000000,0.100000,0.100000,-0.585594,-0.311350,-0.050000,-0.050000,0.488758,-0.332396,0.000000,0.000000,-0.303666,0.439170,0.734125,0.773302,-0.588767,0.375115,-0.073090,-0.011330,0.218377,-0.160263
-0.050000,-0.050000,0.000000,0.000000,0.000000,0.000000,0.000000,0.000000,0.000000,0.100000,0.100000,-0.587594,-0.313727,-0.050000,-0.050000,0.487001,-0.330528,0.000000,0.000000,-0.291662,0.438685,0.741256,0.774100,-0.603105,0.377807,-0.075643,-0.014335,0.231463,-0.164998
-0.050000,-0.050000,0.000000,0.000000,0.000000,0.000000,0.000000,0.000000,0.000000,0.100000,0.100000,-0.588195,-0.316208,-0.050000,-0.050000,0.484972,-0.329081,0.000000,0.000000,-0.279413,0.436675,0.745996,0.772323,-0.617165,0.381848,-0.078618,-0.018366,0.244299,-0.170915
-0.050000,-0.050000,0.000000,0.000000,0.000000,0.000000,0.000000,0.000000,0.000000,0.100000,0.100000,-0.585421,-0.319298,-0.050000,-0.050000,0.481037,-0.328894,0.000000,0.000000,-0.267435,0.430653,0.744184,0.763533,-0.630210,0.389334,-0.082749,-0.025003,0.256306,-0.180464
-0.050000,-0.050000,0.000000,0.000000,0.000000,0.000000,0.000000,0.000000,0.000000,0.100000,0.100000,-0.581834,-0.322623,-0.050000,-0.050000,0.476254,-0.329095,0.000000,0.000000,-0.255823,0.423600,0.740413,0.752695,-0.642731,0.397560,-0.087239,-0.032326,0.268022,-0.191103
-0.050000,-0.050000,0.000000,0.000000,0.000000,0.000000,0.000000,0.000000,0.000000,0.100000,0.100000,-0.576620,-0.326416,-0.050000,-0.050000,0.469775,-0.330074,0.000000,0.000000,-0.244946,0.414486,0.732724,0.737759,-0.654202,0.407265,-0.092450,-0.041020,0.279156,-0.203924
-0.050000,-0.050000,0.000000,0.000000,0.000000,0.000000,0.000000,0.000000,0.000000,0.100000,0.100000,-0.570379,-0.330593,-0.050000,-0.050000,0.461617,-0.331728,0.000000,0.000000,-0.235263,0.404037,0.721467,0.719319,-0.663807,0.417368,-0.098349,-0.050705,0.289728,-0.218466
-0.050000,-0.050000,0.000000,0.000000,0.000000,0.000000,0.000000,0.000000,0.000000,0.100000,0.100000,-0.563623,-0.334961,-0.050000,-0.050000,0.452620,-0.333720,0.000000,0.000000,-0.226178,0.392923,0.708426,0.699128,-0.672480,0.427669,-0.104593,-0.060885,0.300019,-0.233870
-0.050000,-0.050000,0.000000,0.000000,0.000000,0.000000,0.000000,0.000000,0.000000,0.100000,0.100000,-0.556073,-0.339581,-0.050000,-0.050000,0.441797,-0.336531,0.000000,0.000000,-0.219438,0.380880,0.690395,0.674560,-0.676528,0.436907,-0.111771,-0.071970,0.309565,-0.250975
-0.050000,-0.050000,0.000000,0.000000,0.000000,0.000000,0.000000,0.000000,0.000000,0.100000,0.100000,-0.548435,-0.344140,-0.050000,-0.050000,0.430755,-0.339537,0.000000,0.000000,-0.213597,0.368825,0.670815,0.648828,-0.678368,0.445351,-0.119174,-0.083158,0.318907,-0.268323
-0.050000,-0.050000,0.000000,0.000000,0.000000,0.000000,0.000000,0.000000,0.000000,0.100000,0.100000,-0.540624,-0.348577,-0.050000,-0.050000,0.419275,-0.342935,0.000000,0.000000,-0.209554,0.356746,0.648134,0.620768,-0.675791,0.452206,-0.127025,-0.094555,0.327842,-0.286159
-0.050000,-0.050000,0.000000,0.000000,0.000000,0.000000,0.000000,0.000000,0.000000,0.100000,0.100000,-0.532856,-0.352594,-0.050000,-0.050000,0.408245,-0.346546,0.000000,0.000000,-0.207349,0.345062,0.622708,0.591001,-0.667806,0.457004,-0.134995,-0.105770,0.336446,-0.303823
-0.050000,-0.050000,0.000000,0.000000,0.000000,0.000000,0.000000,0.000000,0.000000,0.100000,0.100000,-0.525108,-0.356401,-0.050000,-0.050000,0.397440,-0.350263,0.000000,0.000000,-0.206064,0.333575,0.595908,0.560380,-0.657116,0.460776,-0.143025,-0.116895,0.344884,-0.321402
-0.050000,-0.050000,0.000000,0.000000,0.000000,0.000000,0.000000,0.000000,0.000000,0.100000,0.100000,-0.517573,-0.359229,-0.050000,-0.050000,0.388449,-0.354011,0.000000,0.000000,-0.207243,0.323051,0.565885,0.528201,-0.638042,0.461511,-0.150529,-0.127206,0.352843,-0.337764
-0.050000,-0.050000,0.000000,0.000000,0.000000,0.000000,0.000000,0.000000,0.000000,0.100000,0.100000,-0.510119,-0.361669,-0.050000,-0.050000,0.380289,-0.357677,0.000000,0.000000,-0.209036,0.312906,0.535232,0.495857,-0.616634,0.461478,-0.157598,-0.137094,0.360591,-0.353424
-0.050000,-0.050000,0.000000,0.000000,0.000000,0.000000,0.000000,0.000000,0.000000,0.100000,0.100000,-0.502827,-0.363336,-0.050000,-0.050000,0.373788,-0.361180,0.000000,0.000000,-0.212056,0.303521,0.503318,0.463184,-0.590555,0.459908,-0.163799,-0.146137,0.367915,-0.367680
-0.050000,-0.050000,0.000000,0.000000,0.000000,0.000000,0.000000,0.000000,0.000000,0.100000,0.100000,-0.495670,-0.364236,-0.050000,-0.050000,0.369011,-0.364377,0.000000,0.000000,-0.215746,0.294941,0.471287,0.430909,-0.561808,0.457595,-0.168689,-0.154101,0.374577,-0.380031
-0.050000,-0.050000,0.000000,0.000000,0.000000,0.000000,0.000000,0.000000,0.000000,0.100000,0.100000,-0.488582,-0.364752,-0.050000,-0.050000,0.365095,-0.367422,0.000000,0.000000,-0.219770,0.286764,0.439196,0.398834,-0.531727,0.454911,-0.172922,-0.161526,0.380907,-0.391428
-0.050000,-0.050000,0.000000,0.000000,0.000000,0.000000,0.000000,0.000000,0.000000,0.100000,0.100000,-0.481643,-0.364297,-0.050000,-0.050000,0.363340,-0.369899,0.000000,0.000000,-0.223927,0.279829,0.408858,0.368426,-0.501754,0.452455,-0.174794,-0.167083,0.385740,-0.399430
-0.050000,-0.050000,0.000000,0.000000,0.000000,0.000000,0.000000,0.000000,0.000000,0.100000,0.100000,-0.474746,-0.363612,-0.050000,-0.050000,0.362058,-0.372196,0.000000,0.000000,-0.227878,0.273317,0.379732,0.338900,-0.473269,0.450468,-0.175856,-0.171965,0.389908,-0.406223
-0.050000,-0.050000,0.000000,0.000000,0.000000,0.000000,0.000000,0.000000,0.000000,0.100000,0.100000,-0.467934,-0.362469,-0.050000,-0.050000,0.361722,-0.374131,0.000000,0.000000,-0.231418,0.267651,0.353031,0.311141,-0.447762,0.449419,-0.175299,-0.175494,0.392744,-0.410596
-0.050000,-0.050000,0.000000,0.000000,0.000000,0.000000,0.000000,0.000000,0.000000,0.100000,0.100000,-0.461231,-0.361080,-0.050000,-0.050000,0.361789,-0.375798,0.000000,0.000000,-0.234194,0.262835,0.329774,0.285692,-0.427682,0.449826,-0.173259,-0.177622,0.394036,-0.412637
-0.050000,-0.050000,0.000000,0.000000,0.000000,0.000000,0.000000,0.000000,0.000000,0.100000,0.100000,-0.454583,-0.359567,-0.050000,-0.050000,0.362058,-0.377330,0.000000,0.000000,-0.236589,0.258444,0.308238,0.261400,-0.410316,0.450962,-0.170476,-0.179049,0.394555,-0.413511
-0.050000,-0.050000,0.000000,0.000000,0.000000,0.000000,0.000000,0.000000,0.000000,0.100000,0.100000,-0.448175,-0.357983,-0.050000,-0.050000,0.362244,-0.378670,0.000000,0.000000,-0.237569,0.255285,0.292753,0.241150,-0.403330,0.454541,-0.165836,-0.178422,0.392730,-0.411381
-0.050000,-0.050000,0.000000,0.000000,0.000000,0.000000,0.000000,0.000000,0.000000,0.100000,0.100000,-0.441862,-0.356453,-0.050000,-0.050000,0.362255,-0.380014,0.000000,0.000000,-0.238072,0.252498,0.279314,0.222342,-0.399955,0.458858,-0.160725,-0.177181,0.390213,-0.408506
-0.050000,-0.050000,0.000000,0.000000,0.000000,0.000000,0.000000,0.000000,0.000000,0.100000,0.100000,-0.435740,-0.355035,-0.050000,-0.050000,0.361919,-0.381368,0.000000,0.000000,-0.237619,0.250456,0.269966,0.206416,-0.403804,0.464653,-0.154671,-0.174713,0.386313,-0.404145
-0.050000,-0.050000,0.000000,0.000000,0.000000,0.000000,0.000000,0.000000,0.000000,0.100000,0.100000,-0.429766,-0.353841,-0.050000,-0.050000,0.361128,-0.382829,0.000000,0.000000,-0.236343,0.249033,0.264268,0.193362,-0.414058,0.471549,-0.148004,-0.171290,0.381337,-0.398894
-0.050000,-0.050000,0.000000,0.000000,0.000000,0.000000,0.000000,0.000000,0.000000,0.100000,0.100000,-0.423867,-0.352758,-0.050000,-0.050000,0.360110,-0.384344,0.000000,0.000000,-0.234656,0.247920,0.260396,0.181744,-0.427514,0.478994,-0.141029,-0.167390,0.375824,-0.393200
-0.050000,-0.050000,0.000000,0.000000,0.000000,0.000000,0.000000,0.000000,0.000000,0.100000,0.100000,-0.417960,-0.352111,-0.050000,-0.050000,0.358493,-0.386074,0.000000,0.000000,-0.232096,0.247512,0.260815,0.174179,-0.448149,0.487396,-0.133664,-0.162630,0.369211,-0.387014
-0.050000,-0.050000,0.000000,0.000000,0.000000,0.000000,0.000000,0.000000,0.000000,0.100000,0.100000,-0.411924,-0.351622,-0.050000,-0.050000,0.356754,-0.387866,0.000000,0.000000,-0.229399,0.247265,0.262194,0.167833,-0.470182,0.495903,-0.126346,-0.157795,0.362374,-0.380877
-0.050000,-0.050000,0.000000,0.000000,0.000000,0.000000,0.000000,0.000000,0.000000,0.100000,0.100000,-0.405629,-0.351447,-0.050000,-0.050000,0.354770,-0.389781,0.000000,0.000000,-0.226423,0.247341,0.265494,0.163926,-0.495013,0.504620,-0.119122,-0.152811,0.355090,-0.374840
-0.050000,-0.050000,0.000000,0.000000,0.000000,0.000000,0.000000,0.000000,0.000000,0.100000,0.100000,-0.398777,-0.351561,-0.050000,-0.050000,0.352732,-0.391763,0.000000,0.000000,-0.223484,0.247622,0.269809,0.162168,-0.520706,0.513230,-0.112297,-0.148050,0.347541,-0.369154
-0.050000,-0.050000,0.000000,0.000000,0.000000,0.000000,0.000000,0.000000,0.000000,0.100000,0.100000,-0.391648,-0.351820,-0.050000,-0.050000,0.350667,-0.393780,0.000000,0.000000,-0.220562,0.248005,0.274632,0.161485,-0.546830,0.521785,-0.105672,-0.143401,0.339861,-0.363644
-0.050000,-0.050000,0.000000,0.000000,0.000000,0.000000,0.000000,0.000000,0.000000,0.100000,0.100000,-0.383309,-0.352396,-0.050000,-0.050000,0.348781,-0.395809,0.000000,0.000000,-0.218104,0.248584,0.279866,0.163628,-0.571867,0.529871,-0.099953,-0.139438,0.331907,-0.358807
-0.050000,-0.050000,0.000000,0.000000,0.000000,0.000000,0.000000,0.000000,0.000000,0.100000,0.100000,-0.374513,-0.353012,-0.050000,-0.050000,0.347025,-0.397828,0.000000,0.000000,-0.215900,0.249216,0.284979,0.166597,-0.595990,0.537733,-0.094574,-0.135731,0.323875,-0.354194
-0.050000,-0.050000,0.000000,0.000000,0.000000,0.000000,0.000000,0.000000,0.000000,0.100000,0.100000,-0.364803,-0.353704,-0.050000,-0.050000,0.345528,-0.399824,0.000000,0.000000,-0.214205,0.249953,0.289853,0.171218,-0.618286,0.545150,-0.089873,-0.132535,0.315685,-0.350030
-0.050000,-0.050000,0.000000,0.000000,0.000000,0.000000,0.000000,0.000000,0.000000,0.100000,0.100000,-0.354278,-0.354287,-0.050000,-0.050000,0.344393,-0.401813,0.000000,0.000000,-0.213129,0.250806,0.294205,0.177276,-0.638121,0.551998,-0.085808,-0.129735,0.307355,-0.346284
-0.050000,-0.050000,0.000000,0.000000,0.000000,0.000000,0.000000,0.000000,0.000000,0.100000,0.100000,-0.343344,-0.354815,-0.050000,-0.050000,0.343441,-0.403797,0.000000,0.000000,-0.212363,0.251718,0.298295,0.184051,-0.656726,0.558563,-0.082060,-0.127131,0.298957,-0.342748
-0.050000,-0.050000,0.000000,0.000000,0.000000,0.000000,0.000000,0.000000,0.000000,0.100000,0.100000,-0.331662,-0.354848,-0.050000,-0.050000,0.343153,-0.405856,0.000000,0.000000,-0.212568,0.252849,0.301475,0.192625,-0.671248,0.564031,-0.079084,-0.124781,0.290431,-0.339812
-0.050000,-0.050000,0.000000,0.000000,0.000000,0.000000,0.000000,0.000000,0.000000,0.100000,0.100000,-0.319976,-0.354606,-0.050000,-0.050000,0.343114,-0.407983,0.000000,0.000000,-0.213079,0.254068,0.304378,0.201653,-0.684406,0.569026,-0.076293,-0.122386,0.281913,-0.337073
-0.050000,-0.050000,0.000000,0.000000,0.000000,0.000000,0.000000,0.000000,0.000000,0.100000,0.100000,-0.308281,-0.353813,-0.050000,-0.050000,0.343572,-0.410247,0.000000,0.000000,-0.214201,0.255465,0.306728,0.211588,-0.694839,0.573074,-0.073871,-0.119902,0.273409,-0.334730
-0.050000,-0.050000,0.000000,0.000000,0.000000,0.000000,0.000000,0.000000,0.000000,0.100000,0.100000,-0.297157,-0.352287,-0.050000,-0.050000,0.344545,-0.412732,0.000000,0.000000,-0.215866,0.257057,0.308662,0.222076,-0.702710,0.575926,-0.071685,-0.117105,0.265037,-0.332772
-0.050000,-0.050000,0.000000,0.000000,0.000000,0.000000,0.000000,0.000000,0.000000,0.100000,0.100000,-0.286319,-0.350394,-0.050000,-0.050000,0.345774,-0.415329,0.000000,0.000000,-0.217802,0.258747,0.310387,0.232839,-0.709300,0.578180,-0.069616,-0.114154,0.256731,-0.331006
-0.050000,-0.050000,0.000000,0.000000,0.000000,0.000000,0.000000,0.000000,0.000000,0.100000,0.100000,-0.277185,-0.347243,-0.050000,-0.050000,0.347710,-0.418341,0.000000,0.000000,-0.220449,0.260735,0.311741,0.243825,-0.712461,0.578297,-0.067733,-0.110520,0.248757,-0.329739
-0.050000,-0.050000,0.000000,0.000000,0.000000,0.000000,0.000000,0.000000,0.000000,0.100000,0.100000,-0.268846,-0.343668,-0.050000,-0.050000,0.349828,-0.421493,0.000000,0.000000,-0.223318,0.262822,0.313052,0.254678,-0.714645,0.577625,-0.065864,-0.106632,0.240900,-0.328576
-0.050000,-0.050000,0.000000,0.000000,0.000000,0.000000,0.000000,0.000000,0.000000,0.100000,0.100000,-0.262097,-0.339245,-0.050000,-0.050000,0.352309,-0.424925,0.000000,0.000000,-0.226630,0.265105,0.314275,0.265265,-0.714876,0.575372,-0.064022,-0.102237,0.233275,-0.327622
-0.050000,-0.050000,0.000000,0.000000,0.000000,0.000000,0.000000,0.000000,0.000000,0.100000,0.100000,-0.257209,-0.334066,-0.050000,-0.050000,0.354993,-0.428572,0.000000,0.000000,-0.230422,0.267597,0.315528,0.275211,-0.713469,0.571497,-0.062104,-0.097363,0.225777,-0.326674
-0.050000,-0.050000,0.000000,0.000000,0.000000,0.000000,0.000000,0.000000,0.000000,0.100000,0.100000,-0.253251,-0.328508,-0.050000,-0.050000,0.357779,-0.432327,0.000000,0.000000,-0.234454,0.270194,0.316796,0.284838,-0.711244,0.566809,-0.060148,-0.092250,0.218342,-0.325730
-0.050000,-0.050000,0.000000,0.000000,0.000000,0.000000,0.000000,0.000000,0.000000,0.100000,0.100000,-0.252158,-0.322079,-0.050000,-0.050000,0.360618,-0.436223,0.000000,0.000000,-0.239387,0.273177,0.318182,0.293094,-0.706860,0.559801,-0.057910,-0.086554,0.210734,-0.324375
-0.050000,-0.050000,0.000000,0.000000,0.000000,0.000000,0.000000,0.000000,0.000000,0.100000,0.100000,-0.251931,-0.315478,-0.050000,-0.050000,0.363416,-0.440084,0.000000,0.000000,-0.244719,0.276342,0.319591,0.300836,-0.701745,0.552107,-0.055522,-0.080727,0.202887,-0.322710
-0.050000,-0.050000,0.000000,0.000000,0.000000,0.000000,0.000000,0.000000,0.000000,0.100000,0.100000,-0.253439,-0.308535,-0.050000,-0.050000,0.366133,-0.443875,0.000000,0.000000,-0.250848,0.279871,0.321048,0.307548,-0.695169,0.543040,-0.052835,-0.074637,0.194560,-0.320424
-0.050000,-0.050000,0.000000,0.000000,0.000000,0.000000,0.000000,0.000000,0.000000,0.100000,0.100000,-0.256319,-0.301532,-0.050000,-0.050000,0.368750,-0.447418,0.000000,0.000000,-0.258017,0.283935,0.322457,0.313320,-0.686841,0.532832,-0.049768,-0.068420,0.185316,-0.317124
-0.050000,-0.050000,0.000000,0.000000,0.000000,0.000000,0.000000,0.000000,0.000000,0.100000,0.100000,-0.259886,-0.294500,-0.050000,-0.050000,0.371317,-0.450838,0.000000,0.000000,-0.265707,0.288265,0.323841,0.318620,-0.677636,0.522052,-0.046511,-0.062140,0.175614,-0.313316
-0.050000,-0.050000,0.000000,0.000000,0.000000,0.000000,0.000000,0.000000,0.000000,0.100000,0.100000,-0.264790,-0.287850,-0.050000,-0.050000,0.373881,-0.453652,0.000000,0.000000,-0.275311,0.293714,0.324981,0.322966,-0.665024,0.509922,-0.042663,-0.055854,0.163885,-0.307379
-0.050000,-0.050000,0.000000,0.000000,0.000000,0.000000,0.000000,0.000000,0.000000,0.100000,0.100000,-0.269881,-0.281493,-0.050000,-0.050000,0.376538,-0.456214,0.000000,0.000000,-0.285633,0.299638,0.326008,0.327233,-0.650979,0.497449,-0.038661,-0.049614,0.151316,-0.300554
-0.050000,-0.050000,0.000000,0.000000,0.000000,0.000000,0.000000,0.000000,0.000000,0.100000,0.100000,-0.275350,-0.275723,-0.050000,-0.050000,0.379380,-0.458272,0.000000,0.000000,-0.297390,0.306511,0.326810,0.331345,-0.634067,0.484290,-0.034352,-0.043469,0.137069,-0.291955
-0.050000,-0.050000,0.000000,0.000000,0.000000,0.000000,0.000000,0.000000,0.000000,0.100000,0.100000,-0.280734,-0.270861,-0.050000,-0.050000,0.382613,-0.459808,0.000000,0.000000,-0.310590,0.314456,0.327453,0.335858,-0.613841,0.470619,-0.029941,-0.037498,0.121030,-0.281366
-0.050000,-0.050000,0.000000,0.000000,0.000000,0.000000,0.000000,0.000000,0.000000,0.100000,0.100000,-0.286076,-0.266452,-0.050000,-0.050000,0.386041,-0.461082,0.000000,0.000000,-0.324511,0.322937,0.328015,0.340571,-0.591957,0.456694,-0.025479,-0.031614,0.104094,-0.269782
-0.050000,-0.050000,0.000000,0.000000,0.000000,0.000000,0.000000,0.000000,0.000000,0.100000,0.100000,-0.290773,-0.263808,-0.050000,-0.050000,0.390264,-0.461690,0.000000,0.000000,-0.340294,0.332958,0.328711,0.346606,-0.564997,0.442228,-0.021330,-0.026121,0.084749,-0.255242
-0.050000,-0.050000,0.000000,0.000000,0.000000,0.000000,0.000000,0.000000,0.000000,0.100000,0.100000,-0.295151,-0.261833,-0.050000,-0.050000,0.394752,-0.462162,0.000000,0.000000,-0.356479,0.343354,0.329671,0.353206,-0.536573,0.427666,-0.017465,-0.020819,0.064867,-0.239880
-0.050000,-0.050000,0.000000,0.000000,0.000000,0.000000,0.000000,0.000000,0.000000,0.100000,0.100000,-0.298893,-0.261200,-0.050000,-0.050000,0.399770,-0.462364,0.000000,0.000000,-0.373469,0.354500,0.331158,0.360933,-0.505220,0.412912,-0.014168,-0.015901,0.043910,-0.222876
-0.050000,-0.050000,0.000000,0.000000,0.000000,0.000000,0.000000,0.000000,0.000000,0.100000,0.100000,-0.301912,-0.261932,-0.050000,-0.050000,0.405147,-0.462545,0.000000,0.000000,-0.390620,0.365872,0.333750,0.369685,-0.471919,0.398206,-0.011756,-0.011546,0.022730,-0.204886
-0.050000,-0.050000,0.000000,0.000000,0.000000,0.000000,0.000000,0.000000,0.000000,0.100000,0.100000,-0.304571,-0.263346,-0.050000,-0.050000,0.410702,-0.462715,0.000000,0.000000,-0.407850,0.377357,0.336893,0.378948,-0.437645,0.383525,-0.009785,-0.007472,0.001439,-0.186403
-0.050000,-0.050000,0.000000,0.000000,0.000000,0.000000,0.000000,0.000000,0.000000,0.100000,0.100000,-0.306139,-0.266621,-0.050000,-0.050000,0.416309,-0.463302,0.000000,0.000000,-0.424161,0.388087,0.342624,0.389026,-0.402483,0.369441,-0.009399,-0.004594,-0.018579,-0.167867
-0.050000,-0.050000,0.000000,0.000000,0.000000,0.000000,0.000000,0.000000,0.000000,0.100000,0.100000,-0.307366,-0.270395,-0.050000,-0.050000,0.421726,-0.464182,0.000000,0.000000,-0.439779,0.398154,0.349490,0.398984,-0.367758,0.355782,-0.009524,-0.002241,-0.037609,-0.149892
-0.050000,-0.050000,0.000000,0.000000,0.000000,0.000000,0.000000,0.000000,0.000000,0.100000,0.100000,-0.307909,-0.275167,-0.050000,-0.050000,0.426763,-0.465649,0.000000,0.000000,-0.454012,0.406892,0.358628,0.408702,-0.333906,0.342972,-0.010673,-0.000938,-0.054667,-0.133036
-0.050000,-0.050000,0.000000,0.000000,0.000000,0.000000,0.000000,0.000000,0.000000,0.100000,0.100000,-0.307846,-0.280632,-0.050000,-0.050000,0.431003,-0.467972,0.000000,0.000000,-0.466227,0.413521,0.370408,0.417248,-0.302203,0.331496,-0.012622,-0.000910,-0.068775,-0.118530
-0.050000,-0.050000,0.000000,0.000000,0.000000,0.000000,0.000000,0.000000,0.000000,0.100000,0.100000,-0.307479,-0.286444,-0.050000,-0.050000,0.434844,-0.470721,0.000000,0.000000,-0.477434,0.419095,0.383510,0.425208,-0.271574,0.320685,-0.014970,-0.001518,-0.081409,-0.105198
-0.050000,-0.050000,0.000000,0.000000,0.000000,0.000000,0.000000,0.000000,0.000000,0.100000,0.100000,-0.306396,-0.292837,-0.050000,-0.050000,0.436995,-0.475006,0.000000,0.000000,-0.485063,0.420606,0.400761,0.430101,-0.245429,0.312461,-0.018007,-0.004260,-0.088637,-0.097109
-0.050000,-0.050000,0.000000,0.000000,0.000000,0.000000,0.000000,0.000000,0.000000,0.100000,0.100000,-0.305172,-0.299289,-0.050000,-0.050000,0.438497,-0.479807,0.000000,0.000000,-0.491478,0.420607,0.419322,0.433667,-0.220921,0.305182,-0.021095,-0.007731,-0.093951,-0.091213
-0.050000,-0.050000,0.000000,0.000000,0.000000,0.000000,0.000000,0.000000,0.000000,0.100000,0.100000,-0.303665,-0.305861,-0.050000,-0.050000,0.438703,-0.485644,0.000000,0.000000,-0.495465,0.417585,0.440499,0.434576,-0.199685,0.299793,-0.024284,-0.012659,-0.095435,-0.089703
-0.050000,-0.050000,0.000000,0.000000,0.000000,0.000000,0.000000,0.000000,0.000000,0.100000,0.100000,-0.302146,-0.312341,-0.050000,-0.050000,0.437652,-0.492344,0.000000,0.000000,-0.497287,0.411559,0.463868,0.432627,-0.181469,0.296151,-0.027275,-0.018941,-0.093308,-0.093047
-0.050000,-0.050000,0.000000,0.000000,0.000000,0.000000,0.000000,0.000000,0.000000,0.100000,0.100000,-0.300621,-0.318774,-0.050000,-0.050000,0.435971,-0.499476,0.000000,0.000000,-0.498027,0.404032,0.488334,0.429248,-0.164764,0.293382,-0.030167,-0.025899,-0.089375,-0.098818
-0.050000,-0.050000,0.000000,0.000000,0.000000,0.000000,0.000000,0.000000,0.000000,0.100000,0.100000,-0.299568,-0.324803,-0.050000,-0.050000,0.432792,-0.507408,0.000000,0.000000,-0.496248,0.392512,0.515073,0.421979,-0.151654,0.292565,-0.032450,-0.034485,-0.080910,-0.111748
-0.050000,-0.050000,0.000000,0.000000,0.000000,0.000000,0.000000,0.000000,0.000000,0.100000,0.100000,-0.298848,-0.330613,-0.050000,-0.050000,0.429341,-0.515399,0.000000,0.000000,-0.493916,0.379966,0.542123,0.413750,-0.139370,0.292080,-0.034473,-0.043390,-0.071348,-0.126723
-0.050000,-0.050000,0.000000,0.000000,0.000000,0.000000,0.000000,0.000000,0.000000,0.100000,0.100000,-0.298793,-0.335983,-0.050000,-0.050000,0.425345,-0.523508,0.000000,0.000000,-0.490477,0.365368,0.569796,0.403604,-0.128738,0.292258,-0.035976,-0.052931,-0.059595,-0.145788
-0.050000,-0.050000,0.000000,0.000000,0.000000,0.000000,0.000000,0.000000,0.000000,0.100000,0.100000,-0.299744,-0.340723,-0.050000,-0.050000,0.421403,-0.531336,0.000000,0.000000,-0.486461,0.349521,0.597038,0.392480,-0.119144,0.292446,-0.036939,-0.062502,-0.046559,-0.167708
-0.050000,-0.050000,0.000000,0.000000,0.000000,0.000000,0.000000,0.000000,0.000000,0.100000,0.100000,-0.301198,-0.345148,-0.050000,-0.050000,0.417487,-0.539024,0.000000,0.000000,-0.482157,0.333049,0.624064,0.380868,-0.110067,0.292640,-0.037632,-0.072088,-0.032880,-0.191055
-0.050000,-0.050000,0.000000,0.000000,0.000000,0.000000,0.000000,0.000000,0.000000,0.100000,0.100000,-0.304615,-0.348302,-0.050000,-0.050000,0.414640,-0.545866,0.000000,0.000000,-0.477574,0.316050,0.648757,0.369297,-0.102094,0.292112,-0.037623,-0.080700,-0.018528,-0.216245
-0.050000,-0.050000,0.000000,0.000000,0.000000,0.000000,0.000000,0.000000,0.000000,0.100000,0.100000,-0.308810,-0.350926,-0.050000,-0.050000,0.412465,-0.552371,0.000000,0.000000,-0.473007,0.299320,0.672134,0.358171,-0.094523,0.291235,-0.037462,-0.088682,-0.004272,-0.241167
-0.050000,-0.050000,0.000000,0.000000,0.000000,0.000000,0.000000,0.000000,0.000000,0.100000,0.100000,-0.314559,-0.352489,-0.050000,-0.050000,0.411632,-0.558199,0.000000,0.000000,-0.468470,0.283130,0.692880,0.347936,-0.087754,0.289658,-0.036996,-0.095404,0.009792,-0.265551
-0.050000,-0.050000,0.000000,0.000000,0.000000,0.000000,0.000000,0.000000,0.000000,0.100000,0.100000,-0.322032,-0.352840,-0.050000,-0.050000,0.412643,-0.563405,0.000000,0.000000,-0.464022,0.268263,0.710102,0.339146,-0.082150,0.287441,-0.036454,-0.100485,0.023275,-0.287780
-0.050000,-0.050000,0.000000,0.000000,0.000000,0.000000,0.000000,0.000000,0.000000,0.100000,0.100000,-0.330366,-0.352585,-0.050000,-0.050000,0.414577,-0.568300,0.000000,0.000000,-0.459619,0.254057,0.725561,0.331081,-0.077127,0.284903,-0.035875,-0.104745,0.036468,-0.308933
-0.050000,-0.050000,0.000000,0.000000,0.000000,0.000000,0.000000,0.000000,0.000000,0.100000,0.100000,-0.341387,-0.350484,-0.050000,-0.050000,0.419705,-0.572502,0.000000,0.000000,-0.455271,0.242701,0.734834,0.325416,-0.074567,0.281784,-0.035576,-0.106480,0.048604,-0.325066
-0.050000,-0.050000,0.000000,0.000000,0.000000,0.000000,0.000000,0.000000,0.000000,0.100000,0.100000,-0.353277,-0.347853,-0.050000,-0.050000,0.425904,-0.576565,0.000000,0.000000,-0.450887,0.232447,0.741923,0.320423,-0.073018,0.278637,-0.035499,-0.107532,0.060436,-0.339239
-0.050000,-0.050000,0.000000,0.000000,0.000000,0.000000,0.000000,0.000000,0.000000,0.100000,0.100000,-0.366905,-0.344160,-0.050000,-0.050000,0.434245,-0.580351,0.000000,0.000000,-0.446430,0.224396,0.744640,0.316770,-0.073494,0.275437,-0.035864,-0.107215,0.071664,-0.349494
-0.050000,-0.050000,0.000000,0.000000,0.000000,0.000000,0.000000,0.000000,0.000000,0.100000,0.100000,-0.382075,-0.339774,-0.050000,-0.050000,0.444454,-0.583989,0.000000,0.000000,-0.441772,0.218536,0.743072,0.313853,-0.076099,0.272499,-0.036892,-0.106120,0.082544,-0.355953
-0.050000,-0.050000,0.000000,0.000000,0.000000,0.000000,0.000000,0.000000,0.000000,0.100000,0.100000,-0.398017,-0.335041,-0.050000,-0.050000,0.455596,-0.587552,0.000000,0.000000,-0.437014,0.213773,0.739361,0.311303,-0.079769,0.269693,-0.038252,-0.104636,0.093250,-0.360514
-0.050000,-0.050000,0.000000,0.000000,0.000000,0.000000,0.000000,0.000000,0.000000,0.100000,0.100000,-0.415767,-0.330058,-0.050000,-0.050000,0.468756,-0.590935,0.000000,0.000000,-0.431765,0.211834,0.729713,0.308627,-0.086229,0.267650,-0.040867,-0.103062,0.103944,-0.360505
-0.050000,-0.050000,0.000000,0.000000,0.000000,0.000000,0.000000,0.000000,0.000000,0.100000,0.100000,-0.433885,-0.325287,-0.050000,-0.050000,0.482244,-0.594217,0.000000,0.000000,-0.426294,0.210563,0.718309,0.305477,-0.093297,0.265932,-0.043959,-0.101798,0.114805,-0.359573
-0.050000,-0.050000,0.000000,0.000000,0.000000,0.000000,0.000000,0.000000,0.000000,0.100000,0.100000,-0.452738,-0.320943,-0.050000,-0.050000,0.496386,-0.597299,0.000000,0.000000,-0.420376,0.210627,0.703392,0.301380,-0.101580,0.264863,-0.048003,-0.101155,0.126000,-0.356795
-0.050000,-0.050000,0.000000,0.000000,0.000000,0.000000,0.000000,0.000000,0.000000,0.100000,0.100000,-0.471752,-0.317573,-0.050000,-0.050000,0.510428,-0.600015,0.000000,0.000000,-0.413896,0.211345,0.685407,0.295602,-0.110168,0.264451,-0.053046,-0.101641,0.137816,-0.353573
-0.050000,-0.050000,0.000000,0.000000,0.000000,0.000000,0.000000,0.000000,0.000000,0.100000,0.100000,-0.490845,-0.314691,-0.050000,-0.050000,0.524420,-0.602549,0.000000,0.000000,-0.407134,0.212390,0.665887,0.288983,-0.118909,0.264366,-0.058587,-0.102691,0.149942,-0.350130
-0.050000,-0.050000,0.000000,0.000000,0.000000,0.000000,0.000000,0.000000,0.000000,0.100000,0.100000,-0.509220,-0.313865,-0.050000,-0.050000,0.537177,-0.604220,0.000000,0.000000,-0.399344,0.213369,0.642326,0.279134,-0.126607,0.265020,-0.065547,-0.105825,0.163285,-0.348051
-0.050000,-0.050000,0.000000,0.000000,0.000000,0.000000,0.000000,0.000000,0.000000,0.100000,0.100000,-0.527032,-0.313814,-0.050000,-0.050000,0.549218,-0.605496,0.000000,0.000000,-0.391143,0.214028,0.617570,0.268140,-0.133516,0.265754,-0.072896,-0.109652,0.177074,-0.346970
-0.050000,-0.050000,0.000000,0.000000,0.000000,0.000000,0.000000,0.000000,0.000000,0.100000,0.100000,-0.543718,-0.315311,-0.050000,-0.050000,0.559828,-0.605984,0.000000,0.000000,-0.382120,0.214047,0.590425,0.254857,-0.138848,0.266644,-0.081024,-0.114867,0.191756,-0.347889
-0.050000,-0.050000,0.000000,0.000000,0.000000,0.000000,0.000000,0.000000,0.000000,0.100000,0.100000,-0.558687,-0.318286,-0.050000,-0.050000,0.568572,-0.605507,0.000000,0.000000,-0.372134,0.213016,0.561186,0.239481,-0.142009,0.267237,-0.089652,-0.121242,0.207300,-0.351494
-0.050000,-0.050000,0.000000,0.000000,0.000000,0.000000,0.000000,0.000000,0.000000,0.100000,0.100000,-0.572797,-0.322000,-0.050000,-0.050000,0.576382,-0.604547,0.000000,0.000000,-0.361665,0.211461,0.530900,0.223060,-0.144084,0.267680,-0.098529,-0.128197,0.223275,-0.356441
-0.050000,-0.050000,0.000000,0.000000,0.000000,0.000000,0.000000,0.000000,0.000000,0.100000,0.100000,-0.583639,-0.327496,-0.050000,-0.050000,0.581055,-0.601983,0.000000,0.000000,-0.349578,0.208071,0.498028,0.204209,-0.142595,0.266978,-0.107615,-0.136299,0.240334,-0.365759
-0.050000,-0.050000,0.000000,0.000000,0.000000,0.000000,0.000000,0.000000,0.000000,0.100000,0.100000,-0.593258,-0.333362,-0.050000,-0.050000,0.584683,-0.598879,0.000000,0.000000,-0.336937,0.204101,0.464552,0.184874,-0.140008,0.265723,-0.116577,-0.144541,0.257629,-0.376421
-0.050000,-0.050000,0.000000,0.000000,0.000000,0.000000,0.000000,0.000000,0.000000,0.100000,0.100000,-0.600431,-0.339964,-0.050000,-0.050000,0.586223,-0.594697,0.000000,0.000000,-0.323190,0.198974,0.429867,0.164571,-0.135228,0.263360,-0.125288,-0.153063,0.275397,-0.389774
-0.050000,-0.050000,0.000000,0.000000,0.000000,0.000000,0.000000,0.000000,0.000000,0.100000,0.100000,-0.605135,-0.346773,-0.050000,-0.050000,0.585907,-0.589533,0.000000,0.000000,-0.308469,0.192965,0.394668,0.144034,-0.128751,0.259776,-0.133375,-0.161362,0.293279,-0.405212
-0.050000,-0.050000,0.000000,0.000000,0.000000,0.000000,0.000000,0.000000,0.000000,0.100000,0.100000,-0.608605,-0.353684,-0.050000,-0.050000,0.584662,-0.583879,0.000000,0.000000,-0.293262,0.186516,0.359211,0.123379,-0.121426,0.255581,-0.141150,-0.169550,0.311220,-0.421692
-0.050000,-0.050000,0.000000,0.000000,0.000000,0.000000,0.000000,0.000000,0.000000,0.100000,0.100000,-0.608738,-0.360105,-0.050000,-0.050000,0.581296,-0.577041,0.000000,0.000000,-0.277122,0.179391,0.324263,0.103472,-0.112606,0.249798,-0.147506,-0.176742,0.328659,-0.439972
-0.050000,-0.050000,0.000000,0.000000,0.000000,0.000000,0.000000,0.000000,0.000000,0.100000,0.100000,-0.608005,-0.366128,-0.050000,-0.050000,0.577523,-0.569940,0.000000,0.000000,-0.260962,0.172296,0.289963,0.084152,-0.103683,0.243697,-0.153264,-0.183439,0.345677,-0.458337
-0.050000,-0.050000,0.000000,0.000000,0.000000,0.000000,0.000000,0.000000,0.000000,0.100000,0.100000,-0.605541,-0.371355,-0.050000,-0.050000,0.572937,-0.562312,0.000000,0.000000,-0.244759,0.165263,0.256961,0.066007,-0.094554,0.236960,-0.157822,-0.189146,0.361854,-0.476872
-0.050000,-0.050000,0.000000,0.000000,0.000000,0.000000,0.000000,0.000000,0.000000,0.100000,0.100000,-0.602038,-0.375430,-0.050000,-0.050000,0.568225,-0.554440,0.000000,0.000000,-0.229275,0.158806,0.226247,0.049620,-0.086021,0.230205,-0.161007,-0.193681,0.376675,-0.494544
-0.050000,-0.050000,0.000000,0.000000,0.000000,0.000000,0.000000,0.000000,0.000000,0.100000,0.100000,-0.598017,-0.378927,-0.050000,-0.050000,0.563450,-0.546448,0.000000,0.000000,-0.214151,0.152638,0.196675,0.034113,-0.077786,0.223441,-0.163506,-0.197630,0.390819,-0.511785
-0.050000,-0.050000,0.000000,0.000000,0.000000,0.000000,0.000000,0.000000,0.000000,0.100000,0.100000,-0.593662,-0.380371,-0.050000,-0.050000,0.559472,-0.538479,0.000000,0.000000,-0.201370,0.147999,0.171934,0.021935,-0.071586,0.217718,-0.163820,-0.199766,0.402239,-0.526386
-0.050000,-0.050000,0.000000,0.000000,0.000000,0.000000,0.000000,0.000000,0.000000,0.100000,0.100000,-0.589620,-0.381102,-0.050000,-0.050000,0.556012,-0.530615,0.000000,0.000000,-0.189770,0.144029,0.149196,0.011018,-0.066403,0.212687,-0.163415,-0.201341,0.412573,-0.539782
-0.050000,-0.050000,0.000000,0.000000,0.000000,0.000000,0.000000,0.000000,0.000000,0.100000,0.100000,-0.586205,-0.380406,-0.050000,-0.050000,0.553585,-0.522962,0.000000,0.000000,-0.180536,0.141395,0.130462,0.002623,-0.063256,0.209040,-0.161577,-0.201793,0.420735,-0.550766
-0.050000,-0.050000,0.000000,0.000000,0.000000,0.000000,0.000000,0.000000,0.000000,0.100000,0.100000,-0.584196,-0.378391,-0.050000,-0.050000,0.552416,-0.515635,0.000000,0.000000,-0.174303,0.140247,0.116277,-0.003144,-0.062689,0.207329,-0.158447,-0.201296,0.426507,-0.559004
-0.050000,-0.050000,0.000000,0.000000,0.000000,0.000000,0.000000,0.000000,0.000000,0.100000,0.100000,-0.582891,-0.375715,-0.050000,-0.050000,0.551874,-0.508470,0.000000,0.000000,-0.169571,0.139842,0.104366,-0.007598,-0.063413,0.206586,-0.154672,-0.200325,0.431083,-0.565868
-0.050000,-0.050000,0.000000,0.000000,0.000000,0.000000,0.000000,0.000000,0.000000,0.100000,0.100000,-0.584616,-0.371448,-0.050000,-0.050000,0.553018,-0.501865,0.000000,0.000000,-0.169900,0.141609,0.099609,-0.008285,-0.068536,0.209207,-0.149356,-0.198283,0.431963,-0.568607
-0.050000,-0.050000,0.000000,0.000000,0.000000,0.000000,0.000000,0.000000,0.000000,0.100000,0.100000,-0.587527,-0.366839,-0.050000,-0.050000,0.554478,-0.495452,0.000000,0.000000,-0.171933,0.143983,0.097162,-0.007880,-0.075171,0.212953,-0.143710,-0.196021,0.431645,-0.570118
-0.050000,-0.050000,0.000000,0.000000,0.000000,0.000000,0.000000,0.000000,0.000000,0.100000,0.100000,-0.592807,-0.361545,-0.050000,-0.050000,0.556570,-0.489422,0.000000,0.000000,-0.177374,0.147574,0.099333,-0.005293,-0.084830,0.218951,-0.137403,-0.193323,0.428931,-0.569173
-0.050000,-0.050000,0.000000,0.000000,0.000000,0.000000,0.000000,0.000000,0.000000,0.100000,0.100000,-0.600470,-0.356008,-0.050000,-0.050000,0.558540,-0.483791,0.000000,0.000000,-0.185888,0.151970,0.105598,-0.001012,-0.097299,0.226919,-0.130860,-0.190499,0.424028,-0.566296
-0.050000,-0.050000,0.000000,0.000000,0.000000,0.000000,0.000000,0.000000,0.000000,0.100000,0.100000,-0.609324,-0.350349,-0.050000,-0.050000,0.560451,-0.478357,0.000000,0.000000,-0.195938,0.156769,0.113911,0.004117,-0.111173,0.235874,-0.124200,-0.187612,0.418031,-0.562452
-0.050000,-0.050000,0.000000,0.000000,0.000000,0.000000,0.000000,0.000000,0.000000,0.100000,0.100000,-0.621214,-0.344989,-0.050000,-0.050000,0.560926,-0.473590,0.000000,0.000000,-0.209560,0.161947,0.127110,0.010963,-0.128507,0.247061,-0.117832,-0.185036,0.409268,-0.556706
-0.050000,-0.050000,0.000000,0.000000,0.000000,0.000000,0.000000,0.000000,0.000000,0.100000,0.100000,-0.633770,-0.339920,-0.050000,-0.050000,0.560568,-0.469088,0.000000,0.000000,-0.223888,0.166942,0.141421,0.018129,-0.146641,0.258716,-0.111749,-0.182722,0.399822,-0.550680
-0.050000,-0.050000,0.000000,0.000000,0.000000,0.000000,0.000000,0.000000,0.000000,0.100000,0.100000,-0.647660,-0.335433,-0.050000,-0.050000,0.558547,-0.465119,0.000000,0.000000,-0.239628,0.171571,0.157956,0.025937,-0.166373,0.271307,-0.106237,-0.180932,0.389011,-0.544094
-0.050000,-0.050000,0.000000,0.000000,0.000000,0.000000,0.000000,0.000000,0.000000,0.100000,0.100000,-0.661981,-0.331814,-0.050000,-0.050000,0.554463,-0.461807,0.000000,0.000000,-0.255678,0.175245,0.175630,0.034018,-0.186941,0.284349,-0.101574,-0.179916,0.377418,-0.537613
-0.050000,-0.050000,0.000000,0.000000,0.000000,0.000000,0.000000,0.000000,0.000000,0.100000,0.100000,-0.676518,-0.328628,-0.050000,-0.050000,0.549347,-0.458823,0.000000,0.000000,-0.271883,0.178442,0.193872,0.042236,-0.207927,0.297617,-0.097336,-0.179287,0.365434,-0.531185
-0.050000,-0.050000,0.000000,0.000000,0.000000,0.000000,0.000000,0.000000,0.000000,0.100000,0.100000,-0.690304,-0.327001,-0.050000,-0.050000,0.541133,-0.457041,0.000000,0.000000,-0.286977,0.179523,0.212332,0.050569,-0.229182,0.311079,-0.094592,-0.180006,0.353212,-0.525728
-0.050000,-0.050000,0.000000,0.000000,0.000000,0.000000,0.000000,0.000000,0.000000,0.100000,0.100000,-0.703453,-0.325928,-0.050000,-0.050000,0.532067,-0.455727,0.000000,0.000000,-0.301290,0.179774,0.230466,0.058911,-0.250310,0.324537,-0.092355,-0.181163,0.341200,-0.520779
-0.050000,-0.050000,0.000000,0.000000,0.000000,0.000000,0.000000,0.000000,0.000000,0.100000,0.100000,-0.715324,-0.325961,-0.050000,-0.050000,0.521300,-0.455353,0.000000,0.000000,-0.314042,0.178362,0.247949,0.067269,-0.271184,0.337988,-0.091130,-0.183194,0.329609,-0.516846
-0.050000,-0.050000,0.000000,0.000000,0.000000,0.000000,0.000000,0.000000,0.000000,0.100000,0.100000,-0.725426,-0.327086,-0.050000,-0.050000,0.509448,-0.456025,0.000000,0.000000,-0.324749,0.175258,0.264229,0.075633,-0.291618,0.351429,-0.090827,-0.185946,0.318893,-0.514097
-0.050000,-0.050000,0.000000,0.000000,0.000000,0.000000,0.000000,0.000000,0.000000,0.100000,0.100000,-0.734642,-0.328757,-0.050000,-0.050000,0.497054,-0.457221,0.000000,0.000000,-0.334435,0.171309,0.279906,0.083998,-0.311832,0.364864,-0.090985,-0.189059,0.308615,-0.511941
-0.050000,-0.050000,0.000000,0.000000,0.000000,0.000000,0.000000,0.000000,0.000000,0.100000,0.100000,-0.740934,-0.331957,-0.050000,-0.050000,0.484128,-0.460068,0.000000,0.000000,-0.340850,0.165081,0.293267,0.092264,-0.331392,0.378345,-0.092307,-0.192921,0.300071,-0.511528
-0.050000,-0.050000,0.000000,0.000000,0.000000,0.000000,0.000000,0.000000,0.000000,0.100000,0.100000,-0.746289,-0.335612,-0.050000,-0.050000,0.471383,-0.463453,0.000000,0.000000,-0.346239,0.158252,0.305756,0.100393,-0.350771,0.391838,-0.093948,-0.196928,0.292156,-0.511607
-0.050000,-0.050000,0.000000,0.000000,0.000000,0.000000,0.000000,0.000000,0.000000,0.100000,0.100000,-0.749768,-0.340176,-0.050000,-0.050000,0.458998,-0.467915,0.000000,0.000000,-0.349576,0.150222,0.316500,0.108247,-0.369789,0.405354,-0.096229,-0.201223,0.285497,-0.512672
-0.050000,-0.050000,0.000000,0.000000,0.000000,0.000000,0.000000,0.000000,0.000000,0.100000,0.100000,-0.751597,-0.345513,-0.050000,-0.050000,0.447593,-0.473340,0.000000,0.000000,-0.351130,0.141395,0.325364,0.115465,-0.388476,0.418779,-0.099064,-0.205660,0.280043,-0.514447
-0.050000,-0.050000,0.000000,0.000000,0.000000,0.000000,0.000000,0.000000,0.000000,0.100000,0.100000,-0.752600,-0.351238,-0.050000,-0.050000,0.436677,-0.479248,0.000000,0.000000,-0.351792,0.132168,0.333289,0.122365,-0.406998,0.432158,-0.102178,-0.210168,0.275192,-0.516577
-0.050000,-0.050000,0.000000,0.000000,0.000000,0.000000,0.000000,0.000000,0.000000,0.100000,0.100000,-0.751523,-0.357887,-0.050000,-0.050000,0.427932,-0.486296,0.000000,0.000000,-0.350218,0.122385,0.338242,0.127627,-0.424863,0.445045,-0.106093,-0.214802,0.271913,-0.519305
-0.050000,-0.050000,0.000000,0.000000,0.000000,0.000000,0.000000,0.000000,0.000000,0.100000,0.100000,-0.749863,-0.364753,-0.050000,-0.050000,0.420060,-0.493584,0.000000,0.000000,-0.348022,0.112615,0.342182,0.132119,-0.442369,0.457604,-0.110284,-0.219483,0.269055,-0.522088
-0.050000,-0.050000,0.000000,0.000000,0.000000,0.000000,0.000000,0.000000,0.000000,0.100000,0.100000,-0.747036,-0.372052,-0.050000,-0.050000,0.413933,-0.501351,0.000000,0.000000,-0.344581,0.102870,0.344097,0.135073,-0.459158,0.469506,-0.115024,-0.224259,0.267035,-0.524979
-0.050000,-0.050000,0.000000,0.000000,0.000000,0.000000,0.000000,0.000000,0.000000,0.100000,0.100000,-0.743169,-0.379574,-0.050000,-0.050000,0.409673,-0.509265,0.000000,0.000000,-0.340075,0.093472,0.344067,0.136177,-0.474789,0.480383,-0.120307,-0.229168,0.265632,-0.527756
-0.050000,-0.050000,0.000000,0.000000,0.000000,0.000000,0.000000,0.000000,0.000000,0.100000,0.100000,-0.738781,-0.387208,-0.050000,-0.050000,0.406346,-0.517253,0.000000,0.000000,-0.335037,0.084247,0.343066,0.136356,-0.489841,0.490747,-0.125861,-0.234142,0.264538,-0.530475
-0.050000,-0.050000,0.000000,0.000000,0.000000,0.000000,0.000000,0.000000,0.000000,0.100000,0.100000,-0.732861,-0.394824,-0.050000,-0.050000,0.405749,-0.524954,0.000000,0.000000,-0.328620,0.075873,0.339584,0.133649,-0.502339,0.499054,-0.132095,-0.239335,0.264063,-0.532825
-0.050000,-0.050000,0.000000,0.000000,0.000000,0.000000,0.000000,0.000000,0.000000,0.100000,0.100000,-0.726391,-0.402306,-0.050000,-0.050000,0.405967,-0.532409,0.000000,0.000000,-0.321827,0.067841,0.335554,0.130092,-0.513699,0.506538,-0.138444,-0.244573,0.263708,-0.535040
-0.050000,-0.050000,0.000000,0.000000,0.000000,0.000000,0.000000,0.000000,0.000000,0.100000,0.100000,-0.718822,-0.409522,-0.050000,-0.050000,0.407812,-0.539373,0.000000,0.000000,-0.314282,0.060493,0.330431,0.124836,-0.522787,0.512377,-0.145023,-0.249903,0.263591,-0.536984
-0.050000,-0.050000,0.000000,0.000000,0.000000,0.000000,0.000000,0.000000,0.000000,0.100000,0.100000,-0.710017,-0.416215,-0.050000,-0.050000,0.410973,-0.545620,0.000000,0.000000,-0.306236,0.053862,0.325063,0.118416,-0.529095,0.516408,-0.151453,-0.255172,0.263563,-0.538726
-0.050000,-0.050000,0.000000,0.000000,0.000000,0.000000,0.000000,0.000000,0.000000,0.100000,0.100000,-0.700595,-0.422647,-0.050000,-0.050000,0.414793,-0.551511,0.000000,0.000000,-0.297940,0.047588,0.319571,0.111414,-0.534014,0.519536,-0.157808,-0.260410,0.263580,-0.540368
-0.050000,-0.050000,0.000000,0.000000,0.000000,0.000000,0.000000,0.000000,0.000000,0.100000,0.100000,-0.689098,-0.427948,-0.050000,-0.050000,0.419991,-0.556147,0.000000,0.000000,-0.289471,0.042374,0.315357,0.103879,-0.534217,0.519918,-0.163157,-0.265161,0.263505,-0.541914
-0.050000,-0.050000,0.000000,0.000000,0.000000,0.000000,0.000000,0.000000,0.000000,0.100000,0.100000,-0.676860,-0.432783,-0.050000,-0.050000,0.425425,-0.560360,0.000000,0.000000,-0.281212,0.037510,0.312197,0.096669,-0.532754,0.519446,-0.167863,-0.269567,0.263298,-0.543504
-0.050000,-0.050000,0.000000,0.000000,0.000000,0.000000,0.000000,0.000000,0.000000,0.100000,0.100000,-0.663142,-0.436688,-0.050000,-0.050000,0.431330,-0.563726,0.000000,0.000000,-0.273376,0.033347,0.311143,0.090109,-0.527963,0.517267,-0.171283,-0.273285,0.262825,-0.545184
-0.050000,-0.050000,0.000000,0.000000,0.000000,0.000000,0.000000,0.000000,0.000000,0.100000,0.100000,-0.647952,-0.439578,-0.050000,-0.050000,0.437244,-0.566337,0.000000,0.000000,-0.266630,0.029921,0.313473,0.085278,-0.519833,0.513648,-0.172799,-0.275881,0.261772,-0.547049
-0.050000,-0.050000,0.000000,0.000000,0.000000,0.000000,0.000000,0.000000,0.000000,0.100000,0.100000,-0.632025,-0.441961,-0.050000,-0.050000,0.443164,-0.568569,0.000000,0.000000,-0.260430,0.026862,0.317495,0.081312,-0.510035,0.509308,-0.173362,-0.277916,0.260428,-0.549006
-0.050000,-0.050000,0.000000,0.000000,0.000000,0.000000,0.000000,0.000000,0.000000,0.100000,0.100000,-0.614121,-0.442868,-0.050000,-0.050000,0.448432,-0.569931,0.000000,0.000000,-0.256967,0.025027,0.328298,0.081431,-0.495407,0.503367,-0.170300,-0.277612,0.257506,-0.551189
-0.050000,-0.050000,0.000000,0.000000,0.000000,0.000000,0.000000,0.000000,0.000000,0.100000,0.100000,-0.595707,-0.443358,-0.050000,-0.050000,0.453280,-0.571121,0.000000,0.000000,-0.254755,0.023645,0.341776,0.083267,-0.479258,0.497102,-0.165893,-0.276354,0.253751,-0.553338
-0.050000,-0.050000,0.000000,0.000000,0.000000,0.000000,0.000000,0.000000,0.000000,0.100000,0.100000,-0.576277,-0.443012,-0.050000,-0.050000,0.457288,-0.571968,0.000000,0.000000,-0.255048,0.023167,0.360601,0.088540,-0.460066,0.490185,-0.158797,-0.273189,0.248329,-0.555420
-0.050000,-0.050000,0.000000,0.000000,0.000000,0.000000,0.000000,0.000000,0.000000,0.100000,0.100000,-0.558493,-0.444418,-0.050000,-0.050000,0.459409,-0.572655,0.000000,0.000000,-0.257677,0.023849,0.387403,0.098778,-0.435768,0.482256,-0.149516,-0.267700,0.239654,-0.557288
-0.050000,-0.050000,0.000000,0.000000,0.000000,0.000000,0.000000,0.000000,0.000000,0.100000,0.100000,-0.541533,-0.446702,-0.050000,-0.050000,0.460589,-0.573264,0.000000,0.000000,-0.261475,0.025109,0.418194,0.111499,-0.408916,0.473822,-0.139141,-0.261048,0.229352,-0.559049
-0.050000,-0.050000,0.000000,0.000000,0.000000,0.000000,0.000000,0.000000,0.000000,0.100000,0.100000,-0.522783,-0.446318,-0.050000,-0.050000,0.459740,-0.574667,0.000000,0.000000,-0.270880,0.027432,0.456403,0.128609,-0.380426,0.466417,-0.125716,-0.251988,0.215500,-0.558833
-0.050000,-0.050000,0.000000,0.000000,0.000000,0.000000,0.000000,0.000000,0.000000,0.100000,0.100000,-0.503946,-0.445570,-0.050000,-0.050000,0.458012,-0.576345,0.000000,0.000000,-0.281756,0.029890,0.496843,0.146660,-0.350784,0.459000,-0.111742,-0.242301,0.200204,-0.557920
-0.050000,-0.050000,0.000000,0.000000,0.000000,0.000000,0.000000,0.000000,0.000000,0.100000,0.100000,-0.484931,-0.444091,-0.050000,-0.050000,0.454525,-0.578571,0.000000,0.000000,-0.295575,0.032616,0.541742,0.166593,-0.318836,0.451555,-0.096674,-0.231362,0.182021,-0.555613
-0.050000,-0.050000,0.000000,0.000000,0.000000,0.000000,0.000000,0.000000,0.000000,0.100000,0.100000,-0.466083,-0.442214,-0.050000,-0.050000,0.449155,-0.581557,0.000000,0.000000,-0.311377,0.035169,0.589828,0.186671,-0.284807,0.443614,-0.081694,-0.220016,0.161407,-0.552066
-0.050000,-0.050000,0.000000,0.000000,0.000000,0.000000,0.000000,0.000000,0.000000,0.100000,0.100000,-0.447318,-0.440137,-0.050000,-0.050000,0.442842,-0.584922,0.000000,0.000000,-0.328171,0.037636,0.639507,0.206820,-0.249739,0.435425,-0.066758,-0.208467,0.139576,-0.547898
-0.050000,-0.050000,0.000000,0.000000,0.000000,0.000000,0.000000,0.000000,0.000000,0.100000,0.100000,-0.428821,-0.437530,-0.050000,-0.050000,0.433897,-0.589631,0.000000,0.000000,-0.346179,0.039039,0.691426,0.224173,-0.212670,0.425836,-0.053661,-0.197972,0.115694,-0.542725
-0.050000,-0.050000,0.000000,0.000000,0.000000,0.000000,0.000000,0.000000,0.000000,0.100000,0.100000,-0.410365,-0.434737,-0.050000,-0.050000,0.424261,-0.594794,0.000000,0.000000,-0.363987,0.039828,0.743185,0.239685,-0.175512,0.415651,-0.041587,-0.188379,0.091846,-0.537689
-0.050000,-0.050000,0.000000,0.000000,0.000000,0.000000,0.000000,0.000000,0.000000,0.100000,0.100000,-0.391991,-0.431572,-0.050000,-0.050000,0.413243,-0.600865,0.000000,0.000000,-0.381396,0.039387,0.794626,0.251515,-0.138173,0.404277,-0.031558,-0.180591,0.068071,-0.532926
-0.050000,-0.050000,0.000000,0.000000,0.000000,0.000000,0.000000,0.000000,0.000000,0.100000,0.100000,-0.373647,-0.428091,-0.050000,-0.050000,0.401398,-0.607714,0.000000,0.000000,-0.397406,0.037336,0.844086,0.258465,-0.102020,0.391791,-0.023904,-0.175425,0.045820,-0.529531
-0.050000,-0.050000,0.000000,0.000000,0.000000,0.000000,0.000000,0.000000,0.000000,0.100000,0.100000,-0.355317,-0.424452,-0.050000,-0.050000,0.389140,-0.614953,0.000000,0.000000,-0.412717,0.034479,0.892556,0.262975,-0.066461,0.378748,-0.017437,-0.171570,0.024331,-0.526820
-0.050000,-0.050000,0.000000,0.000000,0.000000,0.000000,0.000000,0.000000,0.000000,0.100000,0.100000,-0.337146,-0.420649,-0.050000,-0.050000,0.376576,-0.622983,0.000000,0.000000,-0.425020,0.028967,0.936082,0.259686,-0.034577,0.364686,-0.014322,-0.172143,0.006776,-0.527584
-0.050000,-0.050000,0.000000,0.000000,0.000000,0.000000,0.000000,0.000000,0.000000,0.100000,0.100000,-0.319135,-0.416964,-0.050000,-0.050000,0.364196,-0.631119,0.000000,0.000000,-0.436247,0.022622,0.977533,0.254087,-0.004343,0.350630,-0.012101,-0.174090,-0.009211,-0.529785
-0.050000,-0.050000,0.000000,0.000000,0.000000,0.000000,0.000000,0.000000,0.000000,0.100000,0.100000,-0.301443,-0.413514,-0.050000,-0.050000,0.352182,-0.639468,0.000000,0.000000,-0.445321,0.014610,1.014833,0.243869,0.022589,0.336588,-0.011669,-0.178784,-0.022061,-0.534860
-0.050000,-0.050000,0.000000,0.000000,0.000000,0.000000,0.000000,0.000000,0.000000,0.100000,0.100000,-0.281705,-0.410550,-0.050000,-0.050000,0.342541,-0.647291,0.000000,0.000000,-0.452861,0.006104,1.045017,0.231263,0.044048,0.324651,-0.011137,-0.185527,-0.031650,-0.541869
-0.050000,-0.050000,0.000000,0.000000,0.000000,0.000000,0.000000,0.000000,0.000000,0.100000,0.100000,-0.260945,-0.407828,-0.050000,-0.050000,0.334085,-0.654850,0.000000,0.000000,-0.459634,-0.002648,1.071642,0.217464,0.062771,0.313767,-0.010555,-0.193294,-0.039611,-0.549845
-0.050000,-0.050000,0.000000,0.000000,0.000000,0.000000,0.000000,0.000000,0.000000,0.100000,0.100000,-0.243947,-0.406556,-0.050000,-0.050000,0.325632,-0.662346,0.000000,0.000000,-0.463848,-0.013378,1.094319,0.200602,0.079177,0.303855,-0.012327,-0.203278,-0.044413,-0.562071
-0.050000,-0.050000,0.000000,0.000000,0.000000,0.000000,0.000000,0.000000,0.000000,0.100000,0.100000,-0.227915,-0.405816,-0.050000,-0.050000,0.317569,-0.669758,0.000000,0.000000,-0.467588,-0.024340,1.115357,0.183560,0.094398,0.294899,-0.014492,-0.213474,-0.048223,-0.575222
-0.050000,-0.050000,0.000000,0.000000,0.000000,0.000000,0.000000,0.000000,0.000000,0.100000,0.100000,-0.213812,-0.406143,-0.050000,-0.050000,0.310283,-0.677005,0.000000,0.000000,-0.470378,-0.035770,1.133119,0.166157,0.107247,0.287854,-0.017443,-0.224097,-0.050051,-0.590222
-0.050000,-0.050000,0.000000,0.000000,0.000000,0.000000,0.000000,0.000000,0.000000,0.100000,0.100000,-0.201495,-0.407451,-0.050000,-0.050000,0.304122,-0.684096,0.000000,0.000000,-0.472798,-0.047025,1.147659,0.149902,0.118035,0.283342,-0.020632,-0.234413,-0.050415,-0.606028
-0.050000,-0.050000,0.000000,0.000000,0.000000,0.000000,0.000000,0.000000,0.000000,0.100000,0.100000,-0.190072,-0.409250,-0.050000,-0.050000,0.298523,-0.691108,0.000000,0.000000,-0.475032,-0.058193,1.160590,0.134222,0.127790,0.280096,-0.023942,-0.244576,-0.050048,-0.622237
-0.050000,-0.050000,0.000000,0.000000,0.000000,0.000000,0.000000,0.000000,0.000000,0.100000,0.100000,-0.181390,-0.412141,-0.050000,-0.050000,0.294826,-0.698103,0.000000,0.000000,-0.477209,-0.068434,1.169218,0.121984,0.135134,0.281029,-0.027102,-0.253556,-0.048135,-0.638097
-0.050000,-0.050000,0.000000,0.000000,0.000000,0.000000,0.000000,0.000000,0.000000,0.100000,0.100000,-0.173663,-0.415198,-0.050000,-0.050000,0.291781,-0.705197,0.000000,0.000000,-0.479419,-0.078235,1.176624,0.111258,0.141821,0.283317,-0.030125,-0.262003,-0.045829,-0.653382
-0.050000,-0.050000,0.000000,0.000000,0.000000,0.000000,0.000000,0.000000,0.000000,0.100000,0.100000,-0.167844,-0.418585,-0.050000,-0.050000,0.290041,-0.712486,0.000000,0.000000,-0.481699,-0.087154,1.181588,0.103556,0.147196,0.288314,-0.032873,-0.269387,-0.042734,-0.667514
-0.050000,-0.050000,0.000000,0.000000,0.000000,0.000000,0.000000,0.000000,0.000000,0.100000,0.100000,-0.163999,-0.421834,-0.050000,-0.050000,0.289580,-0.720161,0.000000,0.000000,-0.483981,-0.095074,1.184487,0.099207,0.151333,0.295618,-0.035304,-0.275575,-0.038923,-0.679796
-0.050000,-0.050000,0.000000,0.000000,0.000000,0.000000,0.000000,0.000000,0.000000,0.100000,0.100000,-0.161143,-0.425014,-0.050000,-0.050000,0.289760,-0.728030,0.000000,0.000000,-0.486266,-0.102495,1.186352,0.096536,0.154852,0.304075,-0.037578,-0.281166,-0.034755,-0.691153
-0.050000,-0.050000,0.000000,0.000000,0.000000,0.000000,0.000000,0.000000,0.000000,0.100000,0.100000,-0.161296,-0.427314,-0.050000,-0.050000,0.291772,-0.736655,0.000000,0.000000,-0.488316,-0.108375,1.185528,0.098902,0.156375,0.314961,-0.039491,-0.284896,-0.029495,-0.699100
-0.050000,-0.050000,0.000000,0.000000,0.000000,0.000000,0.000000,0.000000,0.000000,0.100000,0.100000,-0.162448,-0.429147,-0.050000,-0.050000,0.294356,-0.745537,0.000000,0.000000,-0.490198,-0.113745,1.183887,0.102823,0.157157,0.326217,-0.041364,-0.288007,-0.023863,-0.705843
-0.050000,-0.050000,0.000000,0.000000,0.000000,0.000000,0.000000,0.000000,0.000000,0.100000,0.100000,-0.165595,-0.430048,-0.050000,-0.050000,0.298084,-0.754934,0.000000,0.000000,-0.491746,-0.118093,1.180611,0.109854,0.156457,0.338212,-0.043156,-0.289883,-0.017489,-0.710174
-0.050000,-0.050000,0.000000,0.000000,0.000000,0.000000,0.000000,0.000000,0.000000,0.100000,0.100000,-0.170678,-0.429831,-0.050000,-0.050000,0.302867,-0.764731,0.000000,0.000000,-0.492816,-0.121423,1.175765,0.119550,0.154168,0.350011,-0.045068,-0.290576,-0.010425,-0.712206
-0.050000,-0.050000,0.000000,0.000000,0.000000,0.000000,0.000000,0.000000,0.000000,0.100000,0.100000,-0.176730,-0.429056,-0.050000,-0.050000,0.308179,-0.774728,0.000000,0.000000,-0.493646,-0.124243,1.170135,0.130579,0.151085,0.361712,-0.047039,-0.290679,-0.003016,-0.713087
-0.050000,-0.050000,0.000000,0.000000,0.000000,0.000000,0.000000,0.000000,0.000000,0.100000,0.100000,-0.185516,-0.426598,-0.050000,-0.050000,0.314935,-0.784972,0.000000,0.000000,-0.493637,-0.125535,1.162167,0.144679,0.145631,0.371864,-0.049472,-0.289194,0.005210,-0.710957
-0.050000,-0.050000,0.000000,0.000000,0.000000,0.000000,0.000000,0.000000,0.000000,0.100000,0.100000,-0.195121,-0.423660,-0.050000,-0.050000,0.322120,-0.795127,0.000000,0.000000,-0.493338,-0.126330,1.153422,0.159420,0.139460,0.381198,-0.052120,-0.287289,0.013592,-0.708027
-0.050000,-0.050000,0.000000,0.000000,0.000000,0.000000,0.000000,0.000000,0.000000,0.100000,0.100000,-0.206365,-0.419762,-0.050000,-0.050000,0.330164,-0.805108,0.000000,0.000000,-0.492459,-0.126128,1.143123,0.175444,0.131855,0.388896,-0.055196,-0.284547,0.022287,-0.703499
-0.050000,-0.050000,0.000000,0.000000,0.000000,0.000000,0.000000,0.000000,0.000000,0.100000,0.100000,-0.218977,-0.415181,-0.050000,-0.050000,0.338934,-0.814510,0.000000,0.000000,-0.491029,-0.125020,1.131324,0.191884,0.123073,0.394668,-0.058720,-0.281294,0.031016,-0.697839
-0.050000,-0.050000,0.000000,0.000000,0.000000,0.000000,0.000000,0.000000,0.000000,0.100000,0.100000,-0.232273,-0.410261,-0.050000,-0.050000,0.348068,-0.823623,0.000000,0.000000,-0.489325,-0.123459,1.118775,0.208533,0.113703,0.399476,-0.062468,-0.277785,0.039762,-0.691613
-0.050000,-0.050000,0.000000,0.000000,0.000000,0.000000,0.000000,0.000000,0.000000,0.100000,0.100000,-0.247057,-0.404815,-0.050000,-0.050000,0.358013,-0.831245,0.000000,0.000000,-0.486893,-0.120822,1.104219,0.224500,0.103048,0.401447,-0.066745,-0.274139,0.048146,-0.684420
-0.050000,-0.050000,0.000000,0.000000,0.000000,0.000000,0.000000,0.000000,0.000000,0.100000,0.100000,-0.262095,-0.399350,-0.050000,-0.050000,0.368094,-0.838180,0.000000,0.000000,-0.484265,-0.117973,1.089156,0.239871,0.092133,0.402628,-0.071105,-0.270672,0.056295,-0.677146
-0.050000,-0.050000,0.000000,0.000000,0.000000,0.000000,0.000000,0.000000,0.000000,0.100000,0.100000,-0.277639,-0.393850,-0.050000,-0.050000,0.378449,-0.843743,0.000000,0.000000,-0.481247,-0.114697,1.073079,0.254052,0.080696,0.402227,-0.075629,-0.267564,0.063978,-0.669708
-0.050000,-0.050000,0.000000,0.000000,0.000000,0.000000,0.000000,0.000000,0.000000,0.100000,0.100000,-0.293115,-0.388555,-0.050000,-0.050000,0.388707,-0.847639,0.000000,0.000000,-0.477962,-0.111350,1.056516,0.266592,0.069055,0.400737,-0.080071,-0.265208,0.071036,-0.662548
-0.050000,-0.050000,0.000000,0.000000,0.000000,0.000000,0.000000,0.000000,0.000000,0.100000,0.100000,-0.308556,-0.383363,-0.050000,-0.050000,0.398917,-0.850703,0.000000,0.000000,-0.474544,-0.107967,1.039710,0.278312,0.057312,0.398703,-0.084472,-0.263226,0.077783,-0.655526
-0.050000,-0.050000,0.000000,0.000000,0.000000,0.000000,0.000000,0.000000,0.000000,0.100000,0.100000,-0.322971,-0.378688,-0.050000,-0.050000,0.408283,-0.850992,0.000000,0.000000,-0.470964,-0.104998,1.023274,0.287495,0.045722,0.395888,-0.088348,-0.262717,0.083449,-0.649452
-0.050000,-0.050000,0.000000,0.000000,0.000000,0.000000,0.000000,0.000000,0.000000,0.100000,0.100000,-0.336751,-0.374202,-0.050000,-0.050000,0.417106,-0.850328,0.000000,0.000000,-0.467428,-0.102296,1.007409,0.296022,0.034340,0.393086,-0.091921,-0.262697,0.088718,-0.643802
-0.050000,-0.050000,0.000000,0.000000,0.000000,0.000000,0.000000,0.000000,0.000000,0.100000,0.100000,-0.349261,-0.370096,-0.050000,-0.050000,0.424841,-0.847758,0.000000,0.000000,-0.463979,-0.100131,0.992686,0.303238,0.023377,0.390310,-0.094885,-0.263654,0.093191,-0.639000
-0.050000,-0.050000,0.000000,0.000000,0.000000,0.000000,0.000000,0.000000,0.000000,0.100000,0.100000,-0.360021,-0.366320,-0.050000,-0.050000,0.430976,-0.843357,0.000000,0.000000,-0.460838,-0.098609,0.980061,0.309877,0.013186,0.388016,-0.097014,-0.265338,0.096769,-0.635068
-0.050000,-0.050000,0.000000,0.000000,0.000000,0.000000,0.000000,0.000000,0.000000,0.100000,0.100000,-0.369906,-0.362709,-0.050000,-0.050000,0.436309,-0.838040,0.000000,0.000000,-0.457851,-0.097411,0.968485,0.316226,0.003381,0.385962,-0.098723,-0.267387,0.099900,-0.631571
-0.050000,-0.050000,0.000000,0.000000,0.000000,0.000000,0.000000,0.000000,0.000000,0.100000,0.100000,-0.376694,-0.359438,-0.050000,-0.050000,0.438604,-0.830278,0.000000,0.000000,-0.455657,-0.097082,0.961367,0.323097,-0.004678,0.385106,-0.098913,-0.269878,0.101465,-0.629086
-0.050000,-0.050000,0.000000,0.000000,0.000000,0.000000,0.000000,0.000000,0.000000,0.100000,0.100000,-0.382390,-0.356214,-0.050000,-0.050000,0.439754,-0.821857,0.000000,0.000000,-0.453816,-0.096936,0.956052,0.330600,-0.011961,0.384728,-0.098550,-0.272268,0.102414,-0.626738
-0.050000,-0.050000,0.000000,0.000000,0.000000,0.000000,0.000000,0.000000,0.000000,0.100000,0.100000,-0.385900,-0.353088,-0.050000,-0.050000,0.438617,-0.812120,0.000000,0.000000,-0.452681,-0.097156,0.954347,0.339367,-0.017691,0.385304,-0.097081,-0.274451,0.102131,-0.624660
-0.050000,-0.050000,0.000000,0.000000,0.000000,0.000000,0.000000,0.000000,0.000000,0.100000,0.100000,-0.387288,-0.349927,-0.050000,-0.050000,0.435135,-0.801455,0.000000,0.000000,-0.452342,-0.097434,0.956521,0.350126,-0.021565,0.386814,-0.094541,-0.275978,0.100447,-0.622299
-0.050000,-0.050000,0.000000,0.000000,0.000000,0.000000,0.000000,0.000000,0.000000,0.100000,0.100000,-0.387615,-0.346749,-0.050000,-0.050000,0.430483,-0.790327,0.000000,0.000000,-0.452401,-0.097740,0.960636,0.361882,-0.024511,0.388791,-0.091464,-0.277176,0.098061,-0.619794
-0.050000,-0.050000,0.000000,0.000000,0.000000,0.000000,0.000000,0.000000,0.000000,0.100000,0.100000,-0.385080,-0.343351,-0.050000,-0.050000,0.422564,-0.778435,0.000000,0.000000,-0.453605,-0.097628,0.970330,0.377292,-0.024491,0.391871,-0.087063,-0.276906,0.093475,-0.615944
-0.050000,-0.050000,0.000000,0.000000,0.000000,0.000000,0.000000,0.000000,0.000000,0.100000,0.100000,-0.381753,-0.339842,-0.050000,-0.050000,0.413741,-0.766484,0.000000,0.000000,-0.455113,-0.097219,0.981598,0.394004,-0.023549,0.395147,-0.082391,-0.276057,0.088216,-0.611369
-0.050000,-0.050000,0.000000,0.000000,0.000000,0.000000,0.000000,0.000000,0.000000,0.100000,0.100000,-0.376844,-0.336111,-0.050000,-0.050000,0.403109,-0.754414,0.000000,0.000000,-0.457228,-0.096215,0.996014,0.413320,-0.020765,0.398813,-0.077176,-0.274053,0.081611,-0.605342
-0.050000,-0.050000,0.000000,0.000000,0.000000,0.000000,0.000000,0.000000,0.000000,0.100000,0.100000,-0.370751,-0.332145,-0.050000,-0.050000,0.391198,-0.742538,0.000000,0.000000,-0.459716,-0.094340,1.012693,0.435223,-0.016549,0.402443,-0.071853,-0.270830,0.074004,-0.597472
-0.050000,-0.050000,0.000000,0.000000,0.000000,0.000000,0.000000,0.000000,0.000000,0.100000,0.100000,-0.364067,-0.328062,-0.050000,-0.050000,0.378647,-0.730760,0.000000,0.000000,-0.462391,-0.092029,1.030503,0.458419,-0.011617,0.406055,-0.066477,-0.266997,0.065896,-0.588679
-0.050000,-0.050000,0.000000,0.000000,0.000000,0.000000,0.000000,0.000000,0.000000,0.100000,0.100000,-0.356286,-0.323731,-0.050000,-0.050000,0.365126,-0.719579,0.000000,0.000000,-0.465261,-0.088055,1.050135,0.485378,-0.005472,0.409003,-0.061593,-0.261323,0.057098,-0.576858
-0.050000,-0.050000,0.000000,0.000000,0.000000,0.000000,0.000000,0.000000,0.000000,0.100000,0.100000,-0.348384,-0.319401,-0.050000,-0.050000,0.351614,-0.708639,0.000000,0.000000,-0.468113,-0.083427,1.069846,0.513569,0.000726,0.411585,-0.057041,-0.255038,0.048391,-0.564049
-0.050000,-0.050000,0.000000,0.000000,0.000000,0.000000,0.000000,0.000000,0.000000,0.100000,0.100000,-0.340238,-0.315069,-0.050000,-0.050000,0.338117,-0.698179,0.000000,0.000000,-0.470927,-0.077489,1.089718,0.544226,0.007027,0.413438,-0.053150,-0.247532,0.039868,-0.549262
-0.050000,-0.050000,0.000000,0.000000,0.000000,0.000000,0.000000,0.000000,0.000000,0.100000,0.100000,-0.332349,-0.310979,-0.050000,-0.050000,0.325256,-0.688176,0.000000,0.000000,-0.473658,-0.070091,1.108823,0.577354,0.012805,0.414456,-0.050085,-0.238816,0.032151,-0.532707
-0.050000,-0.050000,0.000000,0.000000,0.000000,0.000000,0.000000,0.000000,0.000000,0.100000,0.100000,-0.324588,-0.307010,-0.050000,-0.050000,0.312713,-0.678399,0.000000,0.000000,-0.476348,-0.061963,1.127544,0.611719,0.018321,0.415058,-0.047432,-0.229495,0.024838,-0.515266
-0.050000,-0.050000,0.000000,0.000000,0.000000,0.000000,0.000000,0.000000,0.000000,0.100000,0.100000,-0.317939,-0.303802,-0.050000,-0.050000,0.301881,-0.669154,0.000000,0.000000,-0.479034,-0.051545,1.144041,0.649770,0.022432,0.414525,-0.045995,-0.218424,0.019464,-0.495630
-0.050000,-0.050000,0.000000,0.000000,0.000000,0.000000,0.000000,0.000000,0.000000,0.100000,0.100000,-0.311874,-0.300955,-0.050000,-0.050000,0.291790,-0.660020,0.000000,0.000000,-0.481795,-0.040394,1.159557,0.688961,0.026003,0.413709,-0.044886,-0.206834,0.014877,-0.475438
-0.050000,-0.050000,0.000000,0.000000,0.000000,0.000000,0.000000,0.000000,0.000000,0.100000,0.100000,-0.306977,-0.298828,-0.050000,-0.050000,0.283180,-0.651110,0.000000,0.000000,-0.484707,-0.027776,1.173112,0.730431,0.028498,0.412327,-0.044434,-0.194204,0.011866,-0.454135
-0.050000,-0.050000,0.000000,0.000000,0.000000,0.000000,0.000000,0.000000,0.000000,0.100000,0.100000,-0.303573,-0.297493,-0.050000,-0.050000,0.276206,-0.642320,0.000000,0.000000,-0.487929,-0.013914,1.184450,0.773689,0.030021,0.410576,-0.044419,-0.180790,0.010498,-0.432107
-0.050000,-0.050000,0.000000,0.000000,0.000000,0.000000,0.000000,0.000000,0.000000,0.100000,0.100000,-0.300916,-0.296553,-0.050000,-0.050000,0.270049,-0.633589,0.000000,0.000000,-0.491305,0.000571,1.194680,0.817840,0.031057,0.408641,-0.044623,-0.166985,0.009951,-0.409718
-0.050000,-0.050000,0.000000,0.000000,0.000000,0.000000,0.000000,0.000000,0.000000,0.100000,0.100000,-0.300763,-0.296600,-0.050000,-0.050000,0.266310,-0.624991,0.000000,0.000000,-0.495295,0.016352,1.201478,0.863320,0.031024,0.406326,-0.045158,-0.152617,0.011685,-0.386902
-0.050000,-0.050000,0.000000,0.000000,0.000000,0.000000,0.000000,0.000000,0.000000,0.100000,0.100000,-0.301442,-0.296802,-0.050000,-0.050000,0.263293,-0.616470,0.000000,0.000000,-0.499493,0.032318,1.207170,0.908601,0.030789,0.403887,-0.045725,-0.138332,0.014048,-0.364199
-0.050000,-0.050000,0.000000,0.000000,0.000000,0.000000,0.000000,0.000000,0.000000,0.100000,0.100000,-0.303786,-0.297315,-0.050000,-0.050000,0.261718,-0.608102,0.000000,0.000000,-0.504107,0.048655,1.210647,0.953482,0.030151,0.401200,-0.046357,-0.124214,0.017666,-0.341722
-0.050000,-0.050000,0.000000,0.000000,0.000000,0.000000,0.000000,0.000000,0.000000,0.100000,0.100000,-0.307591,-0.297641,-0.050000,-0.050000,0.261320,-0.600035,0.000000,0.000000,-0.509060,0.064839,1.212096,0.996456,0.029396,0.398211,-0.046983,-0.110870,0.022174,-0.320028
-0.050000,-0.050000,0.000000,0.000000,0.000000,0.000000,0.000000,0.000000,0.000000,0.100000,0.100000,-0.312126,-0.297873,-0.050000,-0.050000,0.261511,-0.592118,0.000000,0.000000,-0.514182,0.080945,1.212531,1.038477,0.028581,0.395071,-0.047606,-0.097913,0.027127,-0.298727
-0.050000,-0.050000,0.000000,0.000000,0.000000,0.000000,0.000000,0.000000,0.000000,0.100000,0.100000,-0.318265,-0.297015,-0.050000,-0.050000,0.262995,-0.584904,0.000000,0.000000,-0.519602,0.096118,1.210339,1.075457,0.027930,0.391442,-0.048246,-0.086969,0.032776,-0.279404
-0.050000,-0.050000,0.000000,0.000000,0.000000,0.000000,0.000000,0.000000,0.000000,0.100000,0.100000,-0.324671,-0.295571,-0.050000,-0.050000,0.264746,-0.577975,0.000000,0.000000,-0.525039,0.110803,1.207442,1.110211,0.027411,0.387695,-0.048931,-0.076898,0.038437,-0.260948
-0.050000,-0.050000,0.000000,0.000000,0.000000,0.000000,0.000000,0.000000,0.000000,0.100000,0.100000,-0.331609,-0.292954,-0.050000,-0.050000,0.267033,-0.571619,0.000000,0.000000,-0.530508,0.124512,1.203137,1.140511,0.027160,0.383712,-0.049707,-0.068573,0.044124,-0.244222
-0.050000,-0.050000,0.000000,0.000000,0.000000,0.000000,0.000000,0.000000,0.000000,0.100000,0.100000,-0.338471,-0.288930,-0.050000,-0.050000,0.269536,-0.565794,0.000000,0.000000,-0.535841,0.137024,1.197804,1.165862,0.027265,0.379726,-0.050672,-0.062136,0.049432,-0.229424
-0.050000,-0.050000,0.000000,0.000000,0.000000,0.000000,0.000000,0.000000,0.000000,0.100000,0.100000,-0.345295,-0.284203,-0.050000,-0.050000,0.272147,-0.560237,0.000000,0.000000,-0.541106,0.148936,1.191957,1.188740,0.027547,0.375739,-0.051731,-0.056643,0.054552,-0.215591
-0.050000,-0.050000,0.000000,0.000000,0.000000,0.000000,0.000000,0.000000,0.000000,0.100000,0.100000,-0.351121,-0.277427,-0.050000,-0.050000,0.274623,-0.555158,0.000000,0.000000,-0.545934,0.158902,1.185153,1.204491,0.028379,0.372284,-0.053181,-0.053750,0.058629,-0.204566
-0.050000,-0.050000,0.000000,0.000000,0.000000,0.000000,0.000000,0.000000,0.000000,0.100000,0.100000,-0.356375,-0.270130,-0.050000,-0.050000,0.276908,-0.550062,0.000000,0.000000,-0.550545,0.168217,1.178216,1.218268,0.029353,0.369226,-0.054762,-0.051522,0.062261,-0.194341
-0.050000,-0.050000,0.000000,0.000000,0.000000,0.000000,0.000000,0.000000,0.000000,0.100000,0.100000,-0.360485,-0.261791,-0.050000,-0.050000,0.278808,-0.544929,0.000000,0.000000,-0.554724,0.176231,1.171015,1.228097,0.030611,0.366964,-0.056606,-0.050622,0.065004,-0.185715
-0.050000,-0.050000,0.000000,0.000000,0.000000,0.000000,0.000000,0.000000,0.000000,0.100000,0.100000,-0.363164,-0.252950,-0.050000,-0.050000,0.280049,-0.539345,0.000000,0.000000,-0.558350,0.183019,1.163899,1.235150,0.031988,0.365977,-0.058622,-0.050505,0.066807,-0.178292
