RRGGZZ/g1_deploy_sonic/data/example_scalelab/qwen_audio/g1_ref_en/case_test4/joint_pos.csv
joint_0,joint_1,joint_2,joint_3,joint_4,joint_5,joint_6,joint_7,joint_8,joint_9,joint_10,joint_11,joint_12,joint_13,joint_14,joint_15,joint_16,joint_17,joint_18,joint_19,joint_20,joint_21,joint_22,joint_23,joint_24,joint_25,joint_26,joint_27,joint_28
-0.050000,-0.050000,0.000000,0.000000,0.000000,0.000000,0.000000,0.000000,0.000000,0.100000,0.100000,-0.151284,-0.467798,-0.050000,-0.050000,0.385450,-0.707727,0.000000,0.000000,-0.535265,0.270112,1.101320,0.030875,0.183298,-0.277557,-0.051416,-0.045522,0.018788,-0.502061
-0.050000,-0.050000,0.000000,0.000000,0.000000,0.000000,0.000000,0.000000,0.000000,0.100000,0.100000,-0.159973,-0.474063,-0.050000,-0.050000,0.376424,-0.706455,0.000000,0.000000,-0.535879,0.268277,1.113970,0.037550,0.183662,-0.267869,-0.057127,-0.047933,0.023784,-0.506918
-0.050000,-0.050000,0.000000,0.000000,0.000000,0.000000,0.000000,0.000000,0.000000,0.100000,0.100000,-0.167397,-0.479108,-0.050000,-0.050000,0.368450,-0.704764,0.000000,0.000000,-0.536206,0.265762,1.124921,0.043818,0.184041,-0.257634,-0.061413,-0.049834,0.028227,-0.511002
-0.050000,-0.050000,0.000000,0.000000,0.000000,0.000000,0.000000,0.000000,0.000000,0.100000,0.100000,-0.172291,-0.481716,-0.050000,-0.050000,0.362580,-0.702236,0.000000,0.000000,-0.535960,0.261889,1.132476,0.049270,0.184449,-0.246305,-0.062849,-0.050719,0.031562,-0.513539
-0.050000,-0.050000,0.000000,0.000000,0.000000,0.000000,0.000000,0.000000,0.000000,0.100000,0.100000,-0.175579,-0.482630,-0.050000,-0.050000,0.357726,-0.699737,0.000000,0.000000,-0.535338,0.257534,1.138781,0.055179,0.184745,-0.234054,-0.062823,-0.050943,0.034327,-0.514922
-0.050000,-0.050000,0.000000,0.000000,0.000000,0.000000,0.000000,0.000000,0.000000,0.100000,0.100000,-0.178063,-0.482697,-0.050000,-0.050000,0.353382,-0.697253,0.000000,0.000000,-0.534529,0.252938,1.144460,0.061316,0.184986,-0.221341,-0.062065,-0.050838,0.036808,-0.515730
-0.050000,-0.050000,0.000000,0.000000,0.000000,0.000000,0.000000,0.000000,0.000000,0.100000,0.100000,-0.178791,-0.480838,-0.050000,-0.050000,0.349960,-0.695753,0.000000,0.000000,-0.533194,0.248496,1.149529,0.069135,0.184913,-0.207705,-0.060246,-0.050192,0.038716,-0.514834
-0.050000,-0.050000,0.000000,0.000000,0.000000,0.000000,0.000000,0.000000,0.000000,0.100000,0.100000,-0.179056,-0.478461,-0.050000,-0.050000,0.346790,-0.694782,0.000000,0.000000,-0.531705,0.244323,1.154496,0.077680,0.184686,-0.194003,-0.058323,-0.049477,0.040453,-0.513355
-0.050000,-0.050000,0.000000,0.000000,0.000000,0.000000,0.000000,0.000000,0.000000,0.100000,0.100000,-0.178394,-0.475047,-0.050000,-0.050000,0.344124,-0.694870,0.000000,0.000000,-0.529909,0.240690,1.159259,0.087675,0.184152,-0.180166,-0.056190,-0.048625,0.041851,-0.510710
-0.050000,-0.050000,0.000000,0.000000,0.000000,0.000000,0.000000,0.000000,0.000000,0.100000,0.100000,-0.177022,-0.470780,-0.050000,-0.050000,0.341949,-0.696178,0.000000,0.000000,-0.527925,0.237909,1.163709,0.099254,0.183235,-0.166776,-0.054221,-0.047783,0.042923,-0.506944
-0.050000,-0.050000,0.000000,0.000000,0.000000,0.000000,0.000000,0.000000,0.000000,0.100000,0.100000,-0.175296,-0.466087,-0.050000,-0.050000,0.340020,-0.698098,0.000000,0.000000,-0.525848,0.235553,1.168002,0.111625,0.182125,-0.153610,-0.052334,-0.046946,0.043832,-0.502618
-0.050000,-0.050000,0.000000,0.000000,0.000000,0.000000,0.000000,0.000000,0.000000,0.100000,0.100000,-0.172897,-0.460371,-0.050000,-0.050000,0.338811,-0.701715,0.000000,0.000000,-0.523790,0.234763,1.171483,0.126411,0.180396,-0.141953,-0.051096,-0.046235,0.044313,-0.496845
-0.050000,-0.050000,0.000000,0.000000,0.000000,0.000000,0.000000,0.000000,0.000000,0.100000,0.100000,-0.170433,-0.454397,-0.050000,-0.050000,0.337816,-0.705732,0.000000,0.000000,-0.521869,0.234541,1.174581,0.141998,0.178483,-0.131001,-0.050146,-0.045567,0.044696,-0.490705
-0.050000,-0.050000,0.000000,0.000000,0.000000,0.000000,0.000000,0.000000,0.000000,0.100000,0.100000,-0.167839,-0.447912,-0.050000,-0.050000,0.337248,-0.710551,0.000000,0.000000,-0.520222,0.235454,1.176909,0.159185,0.176202,-0.121458,-0.049772,-0.044985,0.044883,-0.483832
-0.050000,-0.050000,0.000000,0.000000,0.000000,0.000000,0.000000,0.000000,0.000000,0.100000,0.100000,-0.165475,-0.441084,-0.050000,-0.050000,0.337004,-0.715645,0.000000,0.000000,-0.519130,0.237522,1.178318,0.177987,0.173670,-0.113463,-0.049974,-0.044433,0.045004,-0.476465
-0.050000,-0.050000,0.000000,0.000000,0.000000,0.000000,0.000000,0.000000,0.000000,0.100000,0.100000,-0.163225,-0.434084,-0.050000,-0.050000,0.336923,-0.720877,0.000000,0.000000,-0.518316,0.240168,1.179268,0.197598,0.171014,-0.106242,-0.050464,-0.043896,0.045091,-0.468851
-0.050000,-0.050000,0.000000,0.000000,0.000000,0.000000,0.000000,0.000000,0.000000,0.100000,0.100000,-0.161875,-0.426808,-0.050000,-0.050000,0.337120,-0.725563,0.000000,0.000000,-0.518734,0.244518,1.178773,0.219775,0.168252,-0.101076,-0.051621,-0.043253,0.045288,-0.460719
-0.050000,-0.050000,0.000000,0.000000,0.000000,0.000000,0.000000,0.000000,0.000000,0.100000,0.100000,-0.160995,-0.419511,-0.050000,-0.050000,0.337332,-0.729742,0.000000,0.000000,-0.519667,0.249421,1.177827,0.242914,0.165557,-0.096364,-0.052891,-0.042511,0.045578,-0.452406
-0.050000,-0.050000,0.000000,0.000000,0.000000,0.000000,0.000000,0.000000,0.000000,0.100000,0.100000,-0.161057,-0.412173,-0.050000,-0.050000,0.337578,-0.732907,0.000000,0.000000,-0.521631,0.255433,1.175978,0.267976,0.162996,-0.092564,-0.054387,-0.041569,0.046052,-0.443730
-0.050000,-0.050000,0.000000,0.000000,0.000000,0.000000,0.000000,0.000000,0.000000,0.100000,0.100000,-0.162341,-0.404914,-0.050000,-0.050000,0.337716,-0.734500,0.000000,0.000000,-0.524754,0.262532,1.173359,0.295286,0.160752,-0.089055,-0.055866,-0.040289,0.046764,-0.434473
-0.050000,-0.050000,0.000000,0.000000,0.000000,0.000000,0.000000,0.000000,0.000000,0.100000,0.100000,-0.164235,-0.397693,-0.050000,-0.050000,0.337801,-0.735308,0.000000,0.000000,-0.528457,0.270176,1.170354,0.323720,0.158665,-0.085691,-0.057338,-0.038842,0.047593,-0.424925
-0.050000,-0.050000,0.000000,0.000000,0.000000,0.000000,0.000000,0.000000,0.000000,0.100000,0.100000,-0.168241,-0.390718,-0.050000,-0.050000,0.337552,-0.733189,0.000000,0.000000,-0.533934,0.279435,1.166428,0.356071,0.157214,-0.081869,-0.058501,-0.036718,0.048743,-0.413917
-0.050000,-0.050000,0.000000,0.000000,0.000000,0.000000,0.000000,0.000000,0.000000,0.100000,0.100000,-0.172986,-0.383838,-0.050000,-0.050000,0.337150,-0.730018,0.000000,0.000000,-0.539960,0.289221,1.162266,0.389862,0.155972,-0.077710,-0.059523,-0.034342,0.049956,-0.402191
-0.050000,-0.050000,0.000000,0.000000,0.000000,0.000000,0.000000,0.000000,0.000000,0.100000,0.100000,-0.179208,-0.377149,-0.050000,-0.050000,0.336444,-0.724741,0.000000,0.000000,-0.547079,0.300062,1.157631,0.426534,0.155149,-0.072876,-0.060259,-0.031462,0.051295,-0.389028
-0.050000,-0.050000,0.000000,0.000000,0.000000,0.000000,0.000000,0.000000,0.000000,0.100000,0.100000,-0.186840,-0.370590,-0.050000,-0.050000,0.335380,-0.717437,0.000000,0.000000,-0.555088,0.311887,1.152621,0.466086,0.154613,-0.067372,-0.060770,-0.028123,0.052630,-0.374031
-0.050000,-0.050000,0.000000,0.000000,0.000000,0.000000,0.000000,0.000000,0.000000,0.100000,0.100000,-0.195179,-0.364097,-0.050000,-0.050000,0.334138,-0.709118,0.000000,0.000000,-0.563541,0.324204,1.147424,0.507078,0.154220,-0.061533,-0.061167,-0.024554,0.053962,-0.358116
-0.050000,-0.050000,0.000000,0.000000,0.000000,0.000000,0.000000,0.000000,0.000000,0.100000,0.100000,-0.205331,-0.357544,-0.050000,-0.050000,0.332319,-0.698166,0.000000,0.000000,-0.572863,0.337751,1.141747,0.551775,0.153905,-0.055325,-0.061495,-0.020537,0.055073,-0.339183
-0.050000,-0.050000,0.000000,0.000000,0.000000,0.000000,0.000000,0.000000,0.000000,0.100000,0.100000,-0.215924,-0.350836,-0.050000,-0.050000,0.330309,-0.686536,0.000000,0.000000,-0.582283,0.351560,1.135925,0.597273,0.153472,-0.049354,-0.061921,-0.016509,0.056043,-0.319322
-0.050000,-0.050000,0.000000,0.000000,0.000000,0.000000,0.000000,0.000000,0.000000,0.100000,0.100000,-0.227395,-0.343814,-0.050000,-0.050000,0.327915,-0.673553,0.000000,0.000000,-0.591897,0.365897,1.129815,0.644374,0.152803,-0.043858,-0.062545,-0.012457,0.056730,-0.297604
-0.050000,-0.050000,0.000000,0.000000,0.000000,0.000000,0.000000,0.000000,0.000000,0.100000,0.100000,-0.239316,-0.336153,-0.050000,-0.050000,0.325170,-0.659669,0.000000,0.000000,-0.601289,0.380337,1.123458,0.691850,0.151631,-0.039605,-0.063592,-0.008721,0.057022,-0.274558
-0.050000,-0.050000,0.000000,0.000000,0.000000,0.000000,0.000000,0.000000,0.000000,0.100000,0.100000,-0.251462,-0.328173,-0.050000,-0.050000,0.322249,-0.645335,0.000000,0.000000,-0.610572,0.394828,1.116976,0.739514,0.150208,-0.035974,-0.064852,-0.005144,0.057117,-0.250848
-0.050000,-0.050000,0.000000,0.000000,0.000000,0.000000,0.000000,0.000000,0.000000,0.100000,0.100000,-0.263551,-0.318804,-0.050000,-0.050000,0.318898,-0.630287,0.000000,0.000000,-0.618936,0.408695,1.110247,0.785708,0.147759,-0.034973,-0.066937,-0.002518,0.056500,-0.226392
-0.050000,-0.050000,0.000000,0.000000,0.000000,0.000000,0.000000,0.000000,0.000000,0.100000,0.100000,-0.275378,-0.308905,-0.050000,-0.050000,0.315451,-0.615166,0.000000,0.000000,-0.626838,0.422083,1.103503,0.830812,0.144941,-0.034868,-0.069284,-0.000297,0.055623,-0.202169
-0.050000,-0.050000,0.000000,0.000000,0.000000,0.000000,0.000000,0.000000,0.000000,0.100000,0.100000,-0.286682,-0.297942,-0.050000,-0.050000,0.311812,-0.599900,0.000000,0.000000,-0.633814,0.434512,1.096732,0.873739,0.141383,-0.036554,-0.072156,0.001112,0.054227,-0.178409
-0.050000,-0.050000,0.000000,0.000000,0.000000,0.000000,0.000000,0.000000,0.000000,0.100000,0.100000,-0.297045,-0.286004,-0.050000,-0.050000,0.308096,-0.584702,0.000000,0.000000,-0.639661,0.445512,1.090122,0.913692,0.137163,-0.039572,-0.075367,0.001761,0.052317,-0.155982
-0.050000,-0.050000,0.000000,0.000000,0.000000,0.000000,0.000000,0.000000,0.000000,0.100000,0.100000,-0.306936,-0.273578,-0.050000,-0.050000,0.304341,-0.569536,0.000000,0.000000,-0.644944,0.455797,1.083592,0.952159,0.132612,-0.043258,-0.078749,0.002029,0.050149,-0.134223
-0.050000,-0.050000,0.000000,0.000000,0.000000,0.000000,0.000000,0.000000,0.000000,0.100000,0.100000,-0.314973,-0.260181,-0.050000,-0.050000,0.300647,-0.554632,0.000000,0.000000,-0.648419,0.463471,1.077624,0.985737,0.127340,-0.047781,-0.082200,0.001579,0.047295,-0.115339
-0.050000,-0.050000,0.000000,0.000000,0.000000,0.000000,0.000000,0.000000,0.000000,0.100000,0.100000,-0.322327,-0.246720,-0.050000,-0.050000,0.297029,-0.539847,0.000000,0.000000,-0.651307,0.470231,1.071942,1.017765,0.121946,-0.052183,-0.085514,0.001097,0.044271,-0.097517
-0.050000,-0.050000,0.000000,0.000000,0.000000,0.000000,0.000000,0.000000,0.000000,0.100000,0.100000,-0.328315,-0.233128,-0.050000,-0.050000,0.293563,-0.525300,0.000000,0.000000,-0.653024,0.475166,1.066833,1.046694,0.116308,-0.056343,-0.088555,0.000550,0.040906,-0.081817
-0.050000,-0.050000,0.000000,0.000000,0.000000,0.000000,0.000000,0.000000,0.000000,0.100000,0.100000,-0.332982,-0.220015,-0.050000,-0.050000,0.290339,-0.511088,0.000000,0.000000,-0.653688,0.478435,1.062441,1.072940,0.110668,-0.059694,-0.091065,0.000325,0.037368,-0.068104
-0.050000,-0.050000,0.000000,0.000000,0.000000,0.000000,0.000000,0.000000,0.000000,0.100000,0.100000,-0.336989,-0.207140,-0.050000,-0.050000,0.287237,-0.497045,0.000000,0.000000,-0.653826,0.480872,1.058409,1.097844,0.105025,-0.062642,-0.093308,0.000261,0.033743,-0.055384
-0.050000,-0.050000,0.000000,0.000000,0.000000,0.000000,0.000000,0.000000,0.000000,0.100000,0.100000,-0.339300,-0.195865,-0.050000,-0.050000,0.284602,-0.483795,0.000000,0.000000,-0.652636,0.481367,1.055556,1.119387,0.099680,-0.064094,-0.094563,0.001017,0.030154,-0.045132
-0.050000,-0.050000,0.000000,0.000000,0.000000,0.000000,0.000000,0.000000,0.000000,0.100000,0.100000,-0.341189,-0.185362,-0.050000,-0.050000,0.282144,-0.470959,0.000000,0.000000,-0.651100,0.481464,1.053090,1.139958,0.094501,-0.065130,-0.095502,0.002045,0.026678,-0.035520
-0.050000,-0.050000,0.000000,0.000000,0.000000,0.000000,0.000000,0.000000,0.000000,0.100000,0.100000,-0.342234,-0.176403,-0.050000,-0.050000,0.280040,-0.458950,0.000000,0.000000,-0.648869,0.480763,1.051399,1.158582,0.089658,-0.065336,-0.095807,0.003618,0.023426,-0.027189
-0.050000,-0.050000,0.000000,0.000000,0.000000,0.000000,0.000000,0.000000,0.000000,0.100000,0.100000,-0.342743,-0.169298,-0.050000,-0.050000,0.278306,-0.448130,0.000000,0.000000,-0.646138,0.479778,1.050409,1.175343,0.085223,-0.065088,-0.095636,0.005532,0.020569,-0.019904
-0.050000,-0.050000,0.000000,0.000000,0.000000,0.000000,0.000000,0.000000,0.000000,0.100000,0.100000,-0.342984,-0.163122,-0.050000,-0.050000,0.276757,-0.437904,0.000000,0.000000,-0.643158,0.478649,1.049771,1.191171,0.080993,-0.064613,-0.095227,0.007617,0.017910,-0.013142
-0.050000,-0.050000,0.000000,0.000000,0.000000,0.000000,0.000000,0.000000,0.000000,0.100000,0.100000,-0.342827,-0.159931,-0.050000,-0.050000,0.275744,-0.429985,0.000000,0.000000,-0.639721,0.477733,1.050050,1.204082,0.077416,-0.064048,-0.094447,0.009744,0.016014,-0.007897
-0.050000,-0.050000,0.000000,0.000000,0.000000,0.000000,0.000000,0.000000,0.000000,0.100000,0.100000,-0.342633,-0.157729,-0.050000,-0.050000,0.274888,-0.422959,0.000000,0.000000,-0.636232,0.477024,1.050601,1.215957,0.074061,-0.063574,-0.093658,0.011729,0.014389,-0.003225
-0.050000,-0.050000,0.000000,0.000000,0.000000,0.000000,0.000000,0.000000,0.000000,0.100000,0.100000,-0.342365,-0.157504,-0.050000,-0.050000,0.274348,-0.417719,0.000000,0.000000,-0.632634,0.476732,1.051696,1.225761,0.071149,-0.063285,-0.092850,0.013431,0.013308,0.000297
-0.050000,-0.050000,0.000000,0.000000,0.000000,0.000000,0.000000,0.000000,0.000000,0.100000,0.100000,-0.342129,-0.159143,-0.050000,-0.050000,0.274059,-0.414352,0.000000,0.000000,-0.629122,0.476962,1.053324,1.233432,0.068687,-0.063198,-0.092187,0.014633,0.012714,0.002466
-0.050000,-0.050000,0.000000,0.000000,0.000000,0.000000,0.000000,0.000000,0.000000,0.100000,0.100000,-0.341909,-0.161715,-0.050000,-0.050000,0.273896,-0.411921,0.000000,0.000000,-0.625652,0.477455,1.055218,1.240038,0.066451,-0.063210,-0.091597,0.015586,0.012363,0.003959
-0.050000,-0.050000,0.000000,0.000000,0.000000,0.000000,0.000000,0.000000,0.000000,0.100000,0.100000,-0.341795,-0.166832,-0.050000,-0.050000,0.273996,-0.412149,0.000000,0.000000,-0.622571,0.478675,1.057978,1.243546,0.064923,-0.063229,-0.091317,0.015677,0.012521,0.003227
-0.050000,-0.050000,0.000000,0.000000,0.000000,0.000000,0.000000,0.000000,0.000000,0.100000,0.100000,-0.341718,-0.172702,-0.050000,-0.050000,0.274147,-0.413125,0.000000,0.000000,-0.619688,0.480070,1.061063,1.246106,0.063649,-0.063078,-0.091119,0.015508,0.012736,0.001781
-0.050000,-0.050000,0.000000,0.000000,0.000000,0.000000,0.000000,0.000000,0.000000,0.100000,0.100000,-0.341715,-0.180079,-0.050000,-0.050000,0.274402,-0.415598,0.000000,0.000000,-0.617200,0.481812,1.064795,1.246771,0.062881,-0.062588,-0.091087,0.014820,0.013063,-0.001093
-0.050000,-0.050000,0.000000,0.000000,0.000000,0.000000,0.000000,0.000000,0.000000,0.100000,0.100000,-0.341778,-0.188758,-0.050000,-0.050000,0.274711,-0.419165,0.000000,0.000000,-0.615185,0.483714,1.069215,1.245724,0.062655,-0.061350,-0.091105,0.013742,0.013226,-0.005113
-0.050000,-0.050000,0.000000,0.000000,0.000000,0.000000,0.000000,0.000000,0.000000,0.100000,0.100000,-0.341875,-0.198087,-0.050000,-0.050000,0.275048,-0.423279,0.000000,0.000000,-0.613405,0.485695,1.073977,1.243823,0.062701,-0.059737,-0.091148,0.012470,0.013308,-0.009706
-0.050000,-0.050000,0.000000,0.000000,0.000000,0.000000,0.000000,0.000000,0.000000,0.100000,0.100000,-0.342056,-0.209024,-0.050000,-0.050000,0.275447,-0.428341,0.000000,0.000000,-0.612327,0.487603,1.079690,1.239490,0.063586,-0.056361,-0.091057,0.010817,0.012724,-0.015319
-0.050000,-0.050000,0.000000,0.000000,0.000000,0.000000,0.000000,0.000000,0.000000,0.100000,0.100000,-0.342251,-0.220365,-0.050000,-0.050000,0.275880,-0.433495,0.000000,0.000000,-0.611434,0.489383,1.085623,1.234296,0.064736,-0.052187,-0.090867,0.009078,0.011801,-0.021000
-0.050000,-0.050000,0.000000,0.000000,0.000000,0.000000,0.000000,0.000000,0.000000,0.100000,0.100000,-0.342476,-0.232512,-0.050000,-0.050000,0.276379,-0.438831,0.000000,0.000000,-0.610911,0.490908,1.091994,1.227380,0.066417,-0.046416,-0.090479,0.007166,0.010203,-0.026818
-0.050000,-0.050000,0.000000,0.000000,0.000000,0.000000,0.000000,0.000000,0.000000,0.100000,0.100000,-0.342667,-0.245155,-0.050000,-0.050000,0.277000,-0.443981,0.000000,0.000000,-0.610562,0.491977,1.098459,1.218415,0.068519,-0.038637,-0.089856,0.005078,0.007799,-0.032280
-0.050000,-0.050000,0.000000,0.000000,0.000000,0.000000,0.000000,0.000000,0.000000,0.100000,0.100000,-0.342841,-0.258047,-0.050000,-0.050000,0.277682,-0.449038,0.000000,0.000000,-0.610301,0.492817,1.104971,1.208427,0.070833,-0.029854,-0.089114,0.002900,0.004994,-0.037562
-0.050000,-0.050000,0.000000,0.000000,0.000000,0.000000,0.000000,0.000000,0.000000,0.100000,0.100000,-0.342779,-0.271166,-0.050000,-0.050000,0.278642,-0.453450,0.000000,0.000000,-0.609873,0.492691,1.110930,1.194609,0.073453,-0.017479,-0.088092,0.000328,0.000994,-0.041790
-0.050000,-0.050000,0.000000,0.000000,0.000000,0.000000,0.000000,0.000000,0.000000,0.100000,0.100000,-0.342544,-0.284183,-0.050000,-0.050000,0.279718,-0.457594,0.000000,0.000000,-0.609213,0.492158,1.116456,1.179236,0.076003,-0.003743,-0.087037,-0.002443,-0.003328,-0.045590
-0.050000,-0.050000,0.000000,0.000000,0.000000,0.000000,0.000000,0.000000,0.000000,0.100000,0.100000,-0.341964,-0.296998,-0.050000,-0.050000,0.281026,-0.461201,0.000000,0.000000,-0.608090,0.490811,1.121114,1.160754,0.078413,0.012714,-0.085913,-0.005613,-0.008294,-0.048536
-0.050000,-0.050000,0.000000,0.000000,0.000000,0.000000,0.000000,0.000000,0.000000,0.100000,0.100000,-0.340801,-0.309292,-0.050000,-0.050000,0.282563,-0.464282,0.000000,0.000000,-0.606133,0.488515,1.124478,1.138738,0.080233,0.032102,-0.084869,-0.009316,-0.013636,-0.050664
-0.050000,-0.050000,0.000000,0.000000,0.000000,0.000000,0.000000,0.000000,0.000000,0.100000,0.100000,-0.339347,-0.321325,-0.050000,-0.050000,0.284216,-0.467098,0.000000,0.000000,-0.603759,0.485745,1.127195,1.114956,0.081757,0.052956,-0.083865,-0.013284,-0.019166,-0.052383
-0.050000,-0.050000,0.000000,0.000000,0.000000,0.000000,0.000000,0.000000,0.000000,0.100000,0.100000,-0.336650,-0.332218,-0.050000,-0.050000,0.286113,-0.469242,0.000000,0.000000,-0.599648,0.481426,1.127605,1.085716,0.081658,0.078250,-0.083168,-0.018167,-0.024775,-0.053135
-0.050000,-0.050000,0.000000,0.000000,0.000000,0.000000,0.000000,0.000000,0.000000,0.100000,0.100000,-0.333441,-0.342673,-0.050000,-0.050000,0.288024,-0.471207,0.000000,0.000000,-0.594860,0.476582,1.127255,1.054834,0.080809,0.104929,-0.082601,-0.023346,-0.030258,-0.053694
-0.050000,-0.050000,0.000000,0.000000,0.000000,0.000000,0.000000,0.000000,0.000000,0.100000,0.100000,-0.329204,-0.352248,-0.050000,-0.050000,0.289963,-0.472815,0.000000,0.000000,-0.588716,0.470689,1.125384,1.020667,0.078460,0.134377,-0.082296,-0.029116,-0.035489,-0.053867
-0.050000,-0.050000,0.000000,0.000000,0.000000,0.000000,0.000000,0.000000,0.000000,0.100000,0.100000,-0.323851,-0.360958,-0.050000,-0.050000,0.291749,-0.474136,0.000000,0.000000,-0.581221,0.463806,1.122297,0.984058,0.074404,0.166176,-0.082221,-0.035355,-0.040255,-0.053953
-0.050000,-0.050000,0.000000,0.000000,0.000000,0.000000,0.000000,0.000000,0.000000,0.100000,0.100000,-0.317938,-0.369236,-0.050000,-0.050000,0.293459,-0.475313,0.000000,0.000000,-0.573049,0.456428,1.118600,0.946228,0.069493,0.199152,-0.082260,-0.041828,-0.044790,-0.053997
-0.050000,-0.050000,0.000000,0.000000,0.000000,0.000000,0.000000,0.000000,0.000000,0.100000,0.100000,-0.310439,-0.376423,-0.050000,-0.050000,0.294674,-0.476114,0.000000,0.000000,-0.563215,0.447763,1.113892,0.906594,0.062205,0.234754,-0.082480,-0.048706,-0.048531,-0.054387
-0.050000,-0.050000,0.000000,0.000000,0.000000,0.000000,0.000000,0.000000,0.000000,0.100000,0.100000,-0.302519,-0.383357,-0.050000,-0.050000,0.295669,-0.476802,0.000000,0.000000,-0.553065,0.438760,1.109185,0.867074,0.054374,0.270873,-0.082679,-0.055610,-0.052055,-0.055053
-0.050000,-0.050000,0.000000,0.000000,0.000000,0.000000,0.000000,0.000000,0.000000,0.100000,0.100000,-0.293760,-0.389785,-0.050000,-0.050000,0.296224,-0.477265,0.000000,0.000000,-0.542279,0.429082,1.104481,0.827784,0.045460,0.308027,-0.082837,-0.062566,-0.055146,-0.056267
-0.050000,-0.050000,0.000000,0.000000,0.000000,0.000000,0.000000,0.000000,0.000000,0.100000,0.100000,-0.284498,-0.395954,-0.050000,-0.050000,0.296349,-0.477546,0.000000,0.000000,-0.531483,0.418924,1.100456,0.790088,0.036296,0.345468,-0.082782,-0.069399,-0.058035,-0.058318
-0.050000,-0.050000,0.000000,0.000000,0.000000,0.000000,0.000000,0.000000,0.000000,0.100000,0.100000,-0.274985,-0.401995,-0.050000,-0.050000,0.296257,-0.477737,0.000000,0.000000,-0.520680,0.408528,1.096770,0.753190,0.027007,0.383053,-0.082619,-0.076172,-0.060823,-0.060788
-0.050000,-0.050000,0.000000,0.000000,0.000000,0.000000,0.000000,0.000000,0.000000,0.100000,0.100000,-0.265291,-0.407966,-0.050000,-0.050000,0.295746,-0.477788,0.000000,0.000000,-0.510821,0.397668,1.094907,0.720273,0.018851,0.420000,-0.081919,-0.082630,-0.063752,-0.064828
-0.050000,-0.050000,0.000000,0.000000,0.000000,0.000000,0.000000,0.000000,0.000000,0.100000,0.100000,-0.255699,-0.413977,-0.050000,-0.050000,0.295226,-0.477859,0.000000,0.000000,-0.501532,0.386711,1.093802,0.688979,0.011545,0.456425,-0.080999,-0.088984,-0.066862,-0.069433
-0.050000,-0.050000,0.000000,0.000000,0.000000,0.000000,0.000000,0.000000,0.000000,0.100000,0.100000,-0.246315,-0.420067,-0.050000,-0.050000,0.294689,-0.477968,0.000000,0.000000,-0.493381,0.375558,1.094211,0.660932,0.005939,0.491803,-0.079637,-0.095129,-0.070335,-0.075167
-0.050000,-0.050000,0.000000,0.000000,0.000000,0.000000,0.000000,0.000000,0.000000,0.100000,0.100000,-0.237333,-0.426252,-0.050000,-0.050000,0.294438,-0.478271,0.000000,0.000000,-0.486624,0.364260,1.096154,0.636229,0.002670,0.525635,-0.077840,-0.101132,-0.074318,-0.081958
-0.050000,-0.050000,0.000000,0.000000,0.000000,0.000000,0.000000,0.000000,0.000000,0.100000,0.100000,-0.228553,-0.432485,-0.050000,-0.050000,0.294331,-0.478671,0.000000,0.000000,-0.480564,0.352888,1.098863,0.613198,0.000570,0.558694,-0.075825,-0.107063,-0.078556,-0.089278
-0.050000,-0.050000,0.000000,0.000000,0.000000,0.000000,0.000000,0.000000,0.000000,0.100000,0.100000,-0.220421,-0.438730,-0.050000,-0.050000,0.295046,-0.479570,0.000000,0.000000,-0.476514,0.341293,1.103516,0.594701,0.002201,0.588886,-0.073299,-0.112914,-0.083514,-0.097868
-0.050000,-0.050000,0.000000,0.000000,0.000000,0.000000,0.000000,0.000000,0.000000,0.100000,0.100000,-0.212445,-0.444898,-0.050000,-0.050000,0.296110,-0.480680,0.000000,0.000000,-0.472967,0.329608,1.108608,0.577424,0.004884,0.618010,-0.070680,-0.118780,-0.088607,-0.106738
-0.050000,-0.050000,0.000000,0.000000,0.000000,0.000000,0.000000,0.000000,0.000000,0.100000,0.100000,-0.204781,-0.450911,-0.050000,-0.050000,0.297872,-0.482212,0.000000,0.000000,-0.470426,0.317744,1.114576,0.562587,0.009673,0.644996,-0.067876,-0.124679,-0.093969,-0.116165
-0.050000,-0.050000,0.000000,0.000000,0.000000,0.000000,0.000000,0.000000,0.000000,0.100000,0.100000,-0.197220,-0.456558,-0.050000,-0.050000,0.300339,-0.484179,0.000000,0.000000,-0.468377,0.305668,1.120924,0.549510,0.015757,0.669744,-0.065056,-0.130669,-0.099259,-0.125854
-0.050000,-0.050000,0.000000,0.000000,0.000000,0.000000,0.000000,0.000000,0.000000,0.100000,0.100000,-0.189711,-0.462023,-0.050000,-0.050000,0.303158,-0.486364,0.000000,0.000000,-0.466576,0.293486,1.127461,0.537313,0.022489,0.693374,-0.062226,-0.136706,-0.104513,-0.135675
-0.050000,-0.050000,0.000000,0.000000,0.000000,0.000000,0.000000,0.000000,0.000000,0.100000,0.100000,-0.182031,-0.466588,-0.050000,-0.050000,0.306843,-0.489114,0.000000,0.000000,-0.464698,0.280966,1.133856,0.526786,0.029656,0.713651,-0.059556,-0.142924,-0.109101,-0.145525
-0.050000,-0.050000,0.000000,0.000000,0.000000,0.000000,0.000000,0.000000,0.000000,0.100000,0.100000,-0.174222,-0.470731,-0.050000,-0.050000,0.310707,-0.491999,0.000000,0.000000,-0.462579,0.268344,1.140017,0.516549,0.036506,0.732847,-0.056963,-0.149197,-0.113318,-0.155300
-0.050000,-0.050000,0.000000,0.000000,0.000000,0.000000,0.000000,0.000000,0.000000,0.100000,0.100000,-0.166154,-0.474029,-0.050000,-0.050000,0.314924,-0.495151,0.000000,0.000000,-0.459979,0.255517,1.145712,0.506892,0.042720,0.749882,-0.054526,-0.155582,-0.116794,-0.164923
-0.050000,-0.050000,0.000000,0.000000,0.000000,0.000000,0.000000,0.000000,0.000000,0.100000,0.100000,-0.157811,-0.476240,-0.050000,-0.050000,0.319230,-0.498446,0.000000,0.000000,-0.456682,0.242541,1.150714,0.497411,0.047684,0.764865,-0.052223,-0.162022,-0.119391,-0.174264
-0.050000,-0.050000,0.000000,0.000000,0.000000,0.000000,0.000000,0.000000,0.000000,0.100000,0.100000,-0.149330,-0.477909,-0.050000,-0.050000,0.323580,-0.501812,0.000000,0.000000,-0.453037,0.229491,1.155369,0.488018,0.052021,0.778822,-0.049987,-0.168490,-0.121550,-0.183463
-0.050000,-0.050000,0.000000,0.000000,0.000000,0.000000,0.000000,0.000000,0.000000,0.100000,0.100000,-0.140627,-0.477613,-0.050000,-0.050000,0.327680,-0.505228,0.000000,0.000000,-0.448388,0.216347,1.158867,0.478461,0.054187,0.789878,-0.047861,-0.174894,-0.122468,-0.192025
-0.050000,-0.050000,0.000000,0.000000,0.000000,0.000000,0.000000,0.000000,0.000000,0.100000,0.100000,-0.131975,-0.476575,-0.050000,-0.050000,0.331598,-0.508624,0.000000,0.000000,-0.443521,0.203219,1.161999,0.468749,0.055723,0.800028,-0.045739,-0.181214,-0.123076,-0.200277
-0.050000,-0.050000,0.000000,0.000000,0.000000,0.000000,0.000000,0.000000,0.000000,0.100000,0.100000,-0.123424,-0.474052,-0.050000,-0.050000,0.335152,-0.511980,0.000000,0.000000,-0.438217,0.190125,1.164398,0.458725,0.055998,0.808368,-0.043626,-0.187363,-0.123063,-0.207906
-0.050000,-0.050000,0.000000,0.000000,0.000000,0.000000,0.000000,0.000000,0.000000,0.100000,0.100000,-0.115286,-0.469945,-0.050000,-0.050000,0.338228,-0.515252,0.000000,0.000000,-0.432821,0.177152,1.166170,0.448242,0.055440,0.815058,-0.041486,-0.193217,-0.122714,-0.214664
-0.050000,-0.050000,0.000000,0.000000,0.000000,0.000000,0.000000,0.000000,0.000000,0.100000,0.100000,-0.107354,-0.465046,-0.050000,-0.050000,0.341065,-0.518481,0.000000,0.000000,-0.427378,0.164240,1.167629,0.437530,0.054467,0.820924,-0.039332,-0.198924,-0.122197,-0.220986
-0.050000,-0.050000,0.000000,0.000000,0.000000,0.000000,0.000000,0.000000,0.000000,0.100000,0.100000,-0.100497,-0.457794,-0.050000,-0.050000,0.343138,-0.521522,0.000000,0.000000,-0.422336,0.151586,1.168338,0.425969,0.052970,0.824684,-0.037158,-0.204073,-0.121572,-0.225628
-0.050000,-0.050000,0.000000,0.000000,0.000000,0.000000,0.000000,0.000000,0.000000,0.100000,0.100000,-0.094115,-0.449832,-0.050000,-0.050000,0.344975,-0.524466,0.000000,0.000000,-0.417575,0.139022,1.168854,0.414089,0.051497,0.827932,-0.035008,-0.209043,-0.120997,-0.229632
-0.050000,-0.050000,0.000000,0.000000,0.000000,0.000000,0.000000,0.000000,0.000000,0.100000,0.100000,-0.088683,-0.440451,-0.050000,-0.050000,0.346338,-0.527217,0.000000,0.000000,-0.413374,0.126636,1.168984,0.401573,0.050070,0.830153,-0.032908,-0.213656,-0.120521,-0.232361
-0.050000,-0.050000,0.000000,0.000000,0.000000,0.000000,0.000000,0.000000,0.000000,0.100000,0.100000,-0.084325,-0.429934,-0.050000,-0.050000,0.347304,-0.529657,0.000000,0.000000,-0.409927,0.114387,1.168823,0.388394,0.048930,0.831851,-0.030954,-0.218041,-0.120185,-0.233832
-0.050000,-0.050000,0.000000,0.000000,0.000000,0.000000,0.000000,0.000000,0.000000,0.100000,0.100000,-0.080504,-0.418850,-0.050000,-0.050000,0.348071,-0.531943,0.000000,0.000000,-0.406857,0.102206,1.168516,0.374883,0.047934,0.833287,-0.029075,-0.222312,-0.119918,-0.234675
-0.050000,-0.050000,0.000000,0.000000,0.000000,0.000000,0.000000,0.000000,0.000000,0.100000,0.100000,-0.078302,-0.406657,-0.050000,-0.050000,0.348375,-0.533517,0.000000,0.000000,-0.405048,0.090134,1.167894,0.360412,0.047527,0.834778,-0.027572,-0.226586,-0.119737,-0.233976
-0.050000,-0.050000,0.000000,0.000000,0.000000,0.000000,0.000000,0.000000,0.000000,0.100000,0.100000,-0.076591,-0.394321,-0.050000,-0.050000,0.348568,-0.534763,0.000000,0.000000,-0.403663,0.078070,1.167210,0.345660,0.047336,0.836531,-0.026233,-0.231001,-0.119506,-0.232967
-0.050000,-0.050000,0.000000,0.000000,0.000000,0.000000,0.000000,0.000000,0.000000,0.100000,0.100000,-0.075861,-0.381700,-0.050000,-0.050000,0.348539,-0.535351,0.000000,0.000000,-0.403122,0.066023,1.166402,0.330343,0.047580,0.838808,-0.025223,-0.235699,-0.119175,-0.231336
-0.050000,-0.050000,0.000000,0.000000,0.000000,0.000000,0.000000,0.000000,0.000000,0.100000,0.100000,-0.075946,-0.369242,-0.050000,-0.050000,0.348364,-0.535120,0.000000,0.000000,-0.403373,0.053987,1.165565,0.314593,0.048299,0.841885,-0.024569,-0.240938,-0.118572,-0.229582
-0.050000,-0.050000,0.000000,0.000000,0.000000,0.000000,0.000000,0.000000,0.000000,0.100000,0.100000,-0.076437,-0.356865,-0.050000,-0.050000,0.348116,-0.534479,0.000000,0.000000,-0.404020,0.041956,1.164716,0.298626,0.049257,0.845361,-0.024092,-0.246447,-0.117833,-0.227765
-0.050000,-0.050000,0.000000,0.000000,0.000000,0.000000,0.000000,0.000000,0.000000,0.100000,0.100000,-0.077847,-0.345296,-0.050000,-0.050000,0.347755,-0.532470,0.000000,0.000000,-0.405716,0.030058,1.163980,0.282297,0.051033,0.849994,-0.024104,-0.253006,-0.116489,-0.226481
-0.050000,-0.050000,0.000000,0.000000,0.000000,0.000000,0.000000,0.000000,0.000000,0.100000,0.100000,-0.079463,-0.334129,-0.050000,-0.050000,0.347391,-0.530014,0.000000,0.000000,-0.407701,0.018290,1.163327,0.265979,0.053120,0.854844,-0.024242,-0.259912,-0.114911,-0.225564
-0.050000,-0.050000,0.000000,0.000000,0.000000,0.000000,0.000000,0.000000,0.000000,0.100000,0.100000,-0.081492,-0.323765,-0.050000,-0.050000,0.347022,-0.526664,0.000000,0.000000,-0.410267,0.006784,1.162839,0.249687,0.055827,0.860129,-0.024633,-0.267512,-0.112864,-0.225380
-0.050000,-0.050000,0.000000,0.000000,0.000000,0.000000,0.000000,0.000000,0.000000,0.100000,0.100000,-0.083759,-0.314344,-0.050000,-0.050000,0.346723,-0.522572,0.000000,0.000000,-0.413280,-0.004200,1.162570,0.233774,0.059181,0.865301,-0.025180,-0.275598,-0.110354,-0.226158
-0.050000,-0.050000,0.000000,0.000000,0.000000,0.000000,0.000000,0.000000,0.000000,0.100000,0.100000,-0.086145,-0.305394,-0.050000,-0.050000,0.346459,-0.518109,0.000000,0.000000,-0.416515,-0.014923,1.162410,0.218051,0.062857,0.870418,-0.025805,-0.283928,-0.107611,-0.227417
-0.050000,-0.050000,0.000000,0.000000,0.000000,0.000000,0.000000,0.000000,0.000000,0.100000,0.100000,-0.088684,-0.297920,-0.050000,-0.050000,0.346423,-0.512979,0.000000,0.000000,-0.420215,-0.024384,1.162575,0.203563,0.067391,0.874454,-0.026531,-0.292373,-0.104266,-0.230222
-0.050000,-0.050000,0.000000,0.000000,0.000000,0.000000,0.000000,0.000000,0.000000,0.100000,0.100000,-0.091224,-0.290937,-0.050000,-0.050000,0.346506,-0.507841,0.000000,0.000000,-0.424005,-0.033260,1.162819,0.189735,0.072115,0.877871,-0.027257,-0.300576,-0.100772,-0.233492
-0.050000,-0.050000,0.000000,0.000000,0.000000,0.000000,0.000000,0.000000,0.000000,0.100000,0.100000,-0.093765,-0.284934,-0.050000,-0.050000,0.346826,-0.502688,0.000000,0.000000,-0.427978,-0.040966,1.163219,0.177228,0.077220,0.880052,-0.027985,-0.308296,-0.096983,-0.237695
-0.050000,-0.050000,0.000000,0.000000,0.000000,0.000000,0.000000,0.000000,0.000000,0.100000,0.100000,-0.096236,-0.279920,-0.050000,-0.050000,0.347462,-0.498048,0.000000,0.000000,-0.432032,-0.047210,1.163672,0.166532,0.082426,0.880677,-0.028686,-0.314911,-0.093043,-0.242553
-0.050000,-0.050000,0.000000,0.000000,0.000000,0.000000,0.000000,0.000000,0.000000,0.100000,0.100000,-0.098672,-0.275400,-0.050000,-0.050000,0.348257,-0.493664,0.000000,0.000000,-0.436125,-0.052723,1.164151,0.156740,0.087684,0.880525,-0.029373,-0.320975,-0.089029,-0.247739
-0.050000,-0.050000,0.000000,0.000000,0.000000,0.000000,0.000000,0.000000,0.000000,0.100000,0.100000,-0.100911,-0.272468,-0.050000,-0.050000,0.349623,-0.490900,0.000000,0.000000,-0.440235,-0.055730,1.164528,0.150248,0.092638,0.877926,-0.030028,-0.324553,-0.085069,-0.253217
-0.050000,-0.050000,0.000000,0.000000,0.000000,0.000000,0.000000,0.000000,0.000000,0.100000,0.100000,-0.103055,-0.270142,-0.050000,-0.050000,0.351199,-0.488936,0.000000,0.000000,-0.444332,-0.057854,1.164820,0.144959,0.097363,0.874591,-0.030689,-0.327123,-0.081237,-0.258484
-0.050000,-0.050000,0.000000,0.000000,0.000000,0.000000,0.000000,0.000000,0.000000,0.100000,0.100000,-0.105007,-0.269027,-0.050000,-0.050000,0.353197,-0.488573,0.000000,0.000000,-0.448404,-0.058211,1.164942,0.142078,0.101627,0.869784,-0.031361,-0.327677,-0.077660,-0.263327
-0.050000,-0.050000,0.000000,0.000000,0.000000,0.000000,0.000000,0.000000,0.000000,0.100000,0.100000,-0.106707,-0.269342,-0.050000,-0.050000,0.355633,-0.490195,0.000000,0.000000,-0.452438,-0.056829,1.164842,0.141582,0.105276,0.863857,-0.032087,-0.326159,-0.074565,-0.267057
-0.050000,-0.050000,0.000000,0.000000,0.000000,0.000000,0.000000,0.000000,0.000000,0.100000,0.100000,-0.108280,-0.270373,-0.050000,-0.050000,0.358288,-0.492809,0.000000,0.000000,-0.456454,-0.054578,1.164631,0.142279,0.108616,0.857370,-0.032840,-0.323605,-0.071710,-0.270230
-0.050000,-0.050000,0.000000,0.000000,0.000000,0.000000,0.000000,0.000000,0.000000,0.100000,0.100000,-0.109390,-0.273913,-0.050000,-0.050000,0.361589,-0.498639,0.000000,0.000000,-0.460414,-0.049936,1.164111,0.146182,0.110978,0.849933,-0.033730,-0.318372,-0.069858,-0.270811
-0.050000,-0.050000,0.000000,0.000000,0.000000,0.000000,0.000000,0.000000,0.000000,0.100000,0.100000,-0.110330,-0.278392,-0.050000,-0.050000,0.365090,-0.505481,0.000000,0.000000,-0.464356,-0.044620,1.163528,0.150944,0.113047,0.842461,-0.034675,-0.312545,-0.068387,-0.270346
-0.050000,-0.050000,0.000000,0.000000,0.000000,0.000000,0.000000,0.000000,0.000000,0.100000,0.100000,-0.110932,-0.284751,-0.050000,-0.050000,0.368991,-0.514346,0.000000,0.000000,-0.468261,-0.037956,1.162819,0.157425,0.114529,0.834921,-0.035729,-0.305527,-0.067679,-0.267792
-0.050000,-0.050000,0.000000,0.000000,0.000000,0.000000,0.000000,0.000000,0.000000,0.100000,0.100000,-0.111217,-0.293094,-0.050000,-0.050000,0.373239,-0.524819,0.000000,0.000000,-0.472125,-0.030272,1.162102,0.165125,0.115546,0.827899,-0.036885,-0.298110,-0.067695,-0.263181
-0.050000,-0.050000,0.000000,0.000000,0.000000,0.000000,0.000000,0.000000,0.000000,0.100000,0.100000,-0.111345,-0.302431,-0.050000,-0.050000,0.377659,-0.536097,0.000000,0.000000,-0.475968,-0.022078,1.161381,0.173435,0.116330,0.821138,-0.038093,-0.290493,-0.068073,-0.257543
-0.050000,-0.050000,0.000000,0.000000,0.000000,0.000000,0.000000,0.000000,0.000000,0.100000,0.100000,-0.111140,-0.314685,-0.050000,-0.050000,0.382469,-0.548790,0.000000,0.000000,-0.479737,-0.012934,1.160817,0.182855,0.116618,0.815997,-0.039413,-0.283515,-0.069264,-0.249548
-0.050000,-0.050000,0.000000,0.000000,0.000000,0.000000,0.000000,0.000000,0.000000,0.100000,0.100000,-0.110910,-0.327804,-0.050000,-0.050000,0.387345,-0.561550,0.000000,0.000000,-0.483477,-0.003685,1.160334,0.192459,0.116793,0.811634,-0.040755,-0.277101,-0.070573,-0.241200
-0.050000,-0.050000,0.000000,0.000000,0.000000,0.000000,0.000000,0.000000,0.000000,0.100000,0.100000,-0.110628,-0.342654,-0.050000,-0.050000,0.392351,-0.574440,0.000000,0.000000,-0.487161,0.005775,1.160013,0.202430,0.116743,0.808826,-0.042138,-0.271815,-0.072121,-0.232146
-0.050000,-0.050000,0.000000,0.000000,0.000000,0.000000,0.000000,0.000000,0.000000,0.100000,0.100000,-0.110528,-0.358842,-0.050000,-0.050000,0.397310,-0.586639,0.000000,0.000000,-0.490788,0.015028,1.159815,0.212555,0.116534,0.807881,-0.043538,-0.268117,-0.073533,-0.223451
-0.050000,-0.050000,0.000000,0.000000,0.000000,0.000000,0.000000,0.000000,0.000000,0.100000,0.100000,-0.110518,-0.375700,-0.050000,-0.050000,0.402247,-0.598494,0.000000,0.000000,-0.494386,0.024177,1.159678,0.222757,0.116245,0.807867,-0.044946,-0.265213,-0.074878,-0.214934
-0.050000,-0.050000,0.000000,0.000000,0.000000,0.000000,0.000000,0.000000,0.000000,0.100000,0.100000,-0.111162,-0.393743,-0.050000,-0.050000,0.406784,-0.608301,0.000000,0.000000,-0.497912,0.032479,1.159498,0.233124,0.115744,0.810724,-0.046377,-0.264939,-0.075448,-0.208493
-0.050000,-0.050000,0.000000,0.000000,0.000000,0.000000,0.000000,0.000000,0.000000,0.100000,0.100000,-0.112141,-0.411849,-0.050000,-0.050000,0.411068,-0.617225,0.000000,0.000000,-0.501418,0.040385,1.159173,0.243592,0.115164,0.814395,-0.047833,-0.265477,-0.075598,-0.203124
-0.050000,-0.050000,0.000000,0.000000,0.000000,0.000000,0.000000,0.000000,0.000000,0.100000,0.100000,-0.113789,-0.430084,-0.050000,-0.050000,0.414844,-0.624384,0.000000,0.000000,-0.504884,0.047498,1.158561,0.254264,0.114424,0.819696,-0.049337,-0.267637,-0.074904,-0.199903
-0.050000,-0.050000,0.000000,0.000000,0.000000,0.000000,0.000000,0.000000,0.000000,0.100000,0.100000,-0.116270,-0.447733,-0.050000,-0.050000,0.417880,-0.629714,0.000000,0.000000,-0.508310,0.053779,1.157328,0.265310,0.113483,0.825976,-0.050957,-0.271029,-0.073144,-0.199191
-0.050000,-0.050000,0.000000,0.000000,0.000000,0.000000,0.000000,0.000000,0.000000,0.100000,0.100000,-0.119168,-0.465088,-0.050000,-0.050000,0.420546,-0.634129,0.000000,0.000000,-0.511718,0.059644,1.155784,0.276543,0.112442,0.832746,-0.052633,-0.275037,-0.070852,-0.199735
-0.050000,-0.050000,0.000000,0.000000,0.000000,0.000000,0.000000,0.000000,0.000000,0.100000,0.100000,-0.123412,-0.480514,-0.050000,-0.050000,0.421824,-0.636177,0.000000,0.000000,-0.515038,0.064520,1.152774,0.288612,0.111034,0.839523,-0.054624,-0.279993,-0.066835,-0.203944
-0.050000,-0.050000,0.000000,0.000000,0.000000,0.000000,0.000000,0.000000,0.000000,0.100000,0.100000,-0.128077,-0.494985,-0.050000,-0.050000,0.422583,-0.637668,0.000000,0.000000,-0.518309,0.069249,1.149112,0.301031,0.109495,0.845709,-0.056770,-0.284892,-0.062281,-0.209163
-0.050000,-0.050000,0.000000,0.000000,0.000000,0.000000,0.000000,0.000000,0.000000,0.100000,0.100000,-0.133583,-0.507547,-0.050000,-0.050000,0.422306,-0.638046,0.000000,0.000000,-0.521479,0.073681,1.144146,0.314149,0.107692,0.850713,-0.059228,-0.289678,-0.056650,-0.216404
-0.050000,-0.050000,0.000000,0.000000,0.000000,0.000000,0.000000,0.000000,0.000000,0.100000,0.100000,-0.139755,-0.517703,-0.050000,-0.050000,0.420978,-0.637833,0.000000,0.000000,-0.524484,0.078300,1.137641,0.328033,0.105657,0.853302,-0.062087,-0.293551,-0.050172,-0.225009
-0.050000,-0.050000,0.000000,0.000000,0.000000,0.000000,0.000000,0.000000,0.000000,0.100000,0.100000,-0.146261,-0.526656,-0.050000,-0.050000,0.419123,-0.637326,0.000000,0.000000,-0.527406,0.083011,1.130366,0.342301,0.103506,0.854684,-0.065145,-0.296967,-0.043272,-0.234296
-0.050000,-0.050000,0.000000,0.000000,0.000000,0.000000,0.000000,0.000000,0.000000,0.100000,0.100000,-0.153360,-0.531502,-0.050000,-0.050000,0.415813,-0.636577,0.000000,0.000000,-0.529957,0.088760,1.120638,0.357709,0.101142,0.850805,-0.068866,-0.297896,-0.035647,-0.244485
-0.050000,-0.050000,0.000000,0.000000,0.000000,0.000000,0.000000,0.000000,0.000000,0.100000,0.100000,-0.160492,-0.534908,-0.050000,-0.050000,0.412107,-0.635857,0.000000,0.000000,-0.532338,0.095077,1.110134,0.373469,0.098773,0.844780,-0.072789,-0.297705,-0.028006,-0.254583
-0.050000,-0.050000,0.000000,0.000000,0.000000,0.000000,0.000000,0.000000,0.000000,0.100000,0.100000,-0.167689,-0.535433,-0.050000,-0.050000,0.407606,-0.635193,0.000000,0.000000,-0.534381,0.102529,1.098082,0.389934,0.096398,0.834463,-0.077119,-0.295276,-0.020333,-0.264500
-0.050000,-0.050000,0.000000,0.000000,0.000000,0.000000,0.000000,0.000000,0.000000,0.100000,0.100000,-0.174614,-0.533138,-0.050000,-0.050000,0.402562,-0.634549,0.000000,0.000000,-0.535998,0.111437,1.084773,0.407054,0.094154,0.819486,-0.081724,-0.290278,-0.013102,-0.273482
-0.050000,-0.050000,0.000000,0.000000,0.000000,0.000000,0.000000,0.000000,0.000000,0.100000,0.100000,-0.181404,-0.529434,-0.050000,-0.050000,0.397247,-0.633915,0.000000,0.000000,-0.537402,0.121073,1.070837,0.424501,0.091974,0.802179,-0.086467,-0.283997,-0.006091,-0.281997
-0.050000,-0.050000,0.000000,0.000000,0.000000,0.000000,0.000000,0.000000,0.000000,0.100000,0.100000,-0.187355,-0.521911,-0.050000,-0.050000,0.391567,-0.632927,0.000000,0.000000,-0.538064,0.133171,1.055773,0.442969,0.090116,0.778006,-0.091280,-0.273802,-0.000367,-0.288060
-0.050000,-0.050000,0.000000,0.000000,0.000000,0.000000,0.000000,0.000000,0.000000,0.100000,0.100000,-0.192931,-0.513353,-0.050000,-0.050000,0.385920,-0.631632,0.000000,0.000000,-0.538464,0.146125,1.040677,0.461854,0.088358,0.751782,-0.095965,-0.262422,0.004780,-0.292994
-0.050000,-0.050000,0.000000,0.000000,0.000000,0.000000,0.000000,0.000000,0.000000,0.100000,0.100000,-0.197758,-0.502725,-0.050000,-0.050000,0.380339,-0.629720,0.000000,0.000000,-0.538340,0.160792,1.025515,0.481574,0.086799,0.721456,-0.100395,-0.248669,0.008776,-0.295669
-0.050000,-0.050000,0.000000,0.000000,0.000000,0.000000,0.000000,0.000000,0.000000,0.100000,0.100000,-0.201766,-0.490669,-0.050000,-0.050000,0.375099,-0.626810,0.000000,0.000000,-0.537718,0.177167,1.011089,0.502419,0.085323,0.687778,-0.104244,-0.233016,0.011499,-0.295581
-0.050000,-0.050000,0.000000,0.000000,0.000000,0.000000,0.000000,0.000000,0.000000,0.100000,0.100000,-0.205367,-0.477900,-0.050000,-0.050000,0.370029,-0.623400,0.000000,0.000000,-0.536848,0.194397,0.997032,0.523827,0.083889,0.652423,-0.107803,-0.216412,0.013584,-0.294113
-0.050000,-0.050000,0.000000,0.000000,0.000000,0.000000,0.000000,0.000000,0.000000,0.100000,0.100000,-0.207823,-0.464109,-0.050000,-0.050000,0.365771,-0.618064,0.000000,0.000000,-0.535363,0.214095,0.985310,0.547456,0.082313,0.613345,-0.110060,-0.197932,0.013848,-0.288046
-0.050000,-0.050000,0.000000,0.000000,0.000000,0.000000,0.000000,0.000000,0.000000,0.100000,0.100000,-0.209970,-0.450352,-0.050000,-0.050000,0.361834,-0.612021,0.000000,0.000000,-0.533739,0.234548,0.974732,0.571963,0.080608,0.573457,-0.111789,-0.179211,0.013610,-0.280440
-0.050000,-0.050000,0.000000,0.000000,0.000000,0.000000,0.000000,0.000000,0.000000,0.100000,0.100000,-0.211500,-0.436662,-0.050000,-0.050000,0.358541,-0.604565,0.000000,0.000000,-0.531835,0.256511,0.966442,0.598229,0.078647,0.531949,-0.112464,-0.160007,0.012371,-0.269759
-0.050000,-0.050000,0.000000,0.000000,0.000000,0.000000,0.000000,0.000000,0.000000,0.100000,0.100000,-0.212588,-0.423666,-0.050000,-0.050000,0.355898,-0.595733,0.000000,0.000000,-0.529781,0.279719,0.960971,0.626277,0.076347,0.489609,-0.112043,-0.141132,0.010439,-0.256363
-0.050000,-0.050000,0.000000,0.000000,0.000000,0.000000,0.000000,0.000000,0.000000,0.100000,0.100000,-0.213455,-0.411019,-0.050000,-0.050000,0.353580,-0.586213,0.000000,0.000000,-0.527653,0.303549,0.956909,0.655218,0.073879,0.446853,-0.111074,-0.122422,0.008162,-0.241609
-0.050000,-0.050000,0.000000,0.000000,0.000000,0.000000,0.000000,0.000000,0.000000,0.100000,0.100000,-0.213856,-0.400036,-0.050000,-0.050000,0.352139,-0.574906,0.000000,0.000000,-0.525423,0.328584,0.957458,0.686308,0.070942,0.403933,-0.108642,-0.105346,0.005355,-0.223894
-0.050000,-0.050000,0.000000,0.000000,0.000000,0.000000,0.000000,0.000000,0.000000,0.100000,0.100000,-0.214115,-0.389689,-0.050000,-0.050000,0.350939,-0.563156,0.000000,0.000000,-0.523156,0.353705,0.959520,0.717744,0.067902,0.361316,-0.105853,-0.089114,0.002524,-0.205708
-0.050000,-0.050000,0.000000,0.000000,0.000000,0.000000,0.000000,0.000000,0.000000,0.100000,0.100000,-0.214086,-0.380613,-0.050000,-0.050000,0.350222,-0.550519,0.000000,0.000000,-0.520815,0.378998,0.964607,0.749871,0.064659,0.319300,-0.102350,-0.074573,-0.000356,-0.186580
-0.050000,-0.050000,0.000000,0.000000,0.000000,0.000000,0.000000,0.000000,0.000000,0.100000,0.100000,-0.213647,-0.372756,-0.050000,-0.050000,0.349882,-0.537398,0.000000,0.000000,-0.518288,0.403703,0.972387,0.781675,0.061341,0.278623,-0.098487,-0.062067,-0.003061,-0.167650
-0.050000,-0.050000,0.000000,0.000000,0.000000,0.000000,0.000000,0.000000,0.000000,0.100000,0.100000,-0.213004,-0.365507,-0.050000,-0.050000,0.349732,-0.524036,0.000000,0.000000,-0.515670,0.428114,0.981514,0.813316,0.057987,0.238615,-0.094443,-0.050579,-0.005678,-0.148820
-0.050000,-0.050000,0.000000,0.000000,0.000000,0.000000,0.000000,0.000000,0.000000,0.100000,0.100000,-0.211353,-0.359804,-0.050000,-0.050000,0.350012,-0.510658,0.000000,0.000000,-0.512489,0.450484,0.993866,0.842863,0.054669,0.201710,-0.090428,-0.042218,-0.007848,-0.131808
-0.050000,-0.050000,0.000000,0.000000,0.000000,0.000000,0.000000,0.000000,0.000000,0.100000,0.100000,-0.209190,-0.354499,-0.050000,-0.050000,0.350400,-0.497527,0.000000,0.000000,-0.509013,0.471848,1.006960,0.871267,0.051390,0.166150,-0.086595,-0.034793,-0.009862,-0.115743
-0.050000,-0.050000,0.000000,0.000000,0.000000,0.000000,0.000000,0.000000,0.000000,0.100000,0.100000,-0.206003,-0.349989,-0.050000,-0.050000,0.351003,-0.484889,0.000000,0.000000,-0.504947,0.491197,1.021538,0.897388,0.048189,0.133281,-0.083123,-0.029237,-0.011562,-0.101572
-0.050000,-0.050000,0.000000,0.000000,0.000000,0.000000,0.000000,0.000000,0.000000,0.100000,0.100000,-0.201433,-0.346053,-0.050000,-0.050000,0.351755,-0.473227,0.000000,0.000000,-0.500129,0.508104,1.036914,0.920717,0.045104,0.103497,-0.080265,-0.025168,-0.013031,-0.089542
-0.050000,-0.050000,0.000000,0.000000,0.000000,0.000000,0.000000,0.000000,0.000000,0.100000,0.100000,-0.196171,-0.342403,-0.050000,-0.050000,0.352582,-0.462052,0.000000,0.000000,-0.494934,0.523790,1.052688,0.942652,0.042078,0.075255,-0.077713,-0.021842,-0.014384,-0.078583
-0.050000,-0.050000,0.000000,0.000000,0.000000,0.000000,0.000000,0.000000,0.000000,0.100000,0.100000,-0.188423,-0.339334,-0.050000,-0.050000,0.353524,-0.452947,0.000000,0.000000,-0.488555,0.535565,1.068714,0.960346,0.039363,0.051765,-0.076278,-0.020090,-0.015629,-0.070598
-0.050000,-0.050000,0.000000,0.000000,0.000000,0.000000,0.000000,0.000000,0.000000,0.100000,0.100000,-0.179792,-0.336384,-0.050000,-0.050000,0.354462,-0.444673,0.000000,0.000000,-0.481845,0.546078,1.084566,0.976827,0.036851,0.029746,-0.075214,-0.018663,-0.016942,-0.063394
-0.050000,-0.050000,0.000000,0.000000,0.000000,0.000000,0.000000,0.000000,0.000000,0.100000,0.100000,-0.169396,-0.333673,-0.050000,-0.050000,0.355391,-0.438059,0.000000,0.000000,-0.474473,0.554065,1.100073,0.990881,0.034743,0.010670,-0.074896,-0.017885,-0.018388,-0.057750
-0.050000,-0.050000,0.000000,0.000000,0.000000,0.000000,0.000000,0.000000,0.000000,0.100000,0.100000,-0.157346,-0.331084,-0.050000,-0.050000,0.356216,-0.433226,0.000000,0.000000,-0.466728,0.559777,1.114858,1.003207,0.033349,-0.005898,-0.075206,-0.017440,-0.020176,-0.053165
-0.050000,-0.050000,0.000000,0.000000,0.000000,0.000000,0.000000,0.000000,0.000000,0.100000,0.100000,-0.144469,-0.328555,-0.050000,-0.050000,0.356990,-0.429284,0.000000,0.000000,-0.458797,0.564353,1.129281,1.014668,0.032311,-0.021212,-0.075830,-0.017160,-0.022134,-0.049109
-0.050000,-0.050000,0.000000,0.000000,0.000000,0.000000,0.000000,0.000000,0.000000,0.100000,0.100000,-0.129619,-0.326066,-0.050000,-0.050000,0.357480,-0.427937,0.000000,0.000000,-0.450896,0.566005,1.142255,1.024748,0.032876,-0.033514,-0.077100,-0.017033,-0.024846,-0.046005
-0.050000,-0.050000,0.000000,0.000000,0.000000,0.000000,0.000000,0.000000,0.000000,0.100000,0.100000,-0.114378,-0.323551,-0.050000,-0.050000,0.357847,-0.427347,0.000000,0.000000,-0.443210,0.566838,1.154679,1.034732,0.034121,-0.045022,-0.078466,-0.016879,-0.027847,-0.043092
-0.050000,-0.050000,0.000000,0.000000,0.000000,0.000000,0.000000,0.000000,0.000000,0.100000,0.100000,-0.098355,-0.320984,-0.050000,-0.050000,0.357966,-0.428272,0.000000,0.000000,-0.435956,0.566034,1.166001,1.044526,0.036724,-0.054941,-0.080024,-0.016672,-0.031425,-0.040560
-0.050000,-0.050000,0.000000,0.000000,0.000000,0.000000,0.000000,0.000000,0.000000,0.100000,0.100000,-0.082210,-0.318300,-0.050000,-0.050000,0.357816,-0.430367,0.000000,0.000000,-0.429477,0.563837,1.176167,1.054645,0.040794,-0.063516,-0.081540,-0.016312,-0.035548,-0.038334
-0.050000,-0.050000,0.000000,0.000000,0.000000,0.000000,0.000000,0.000000,0.000000,0.100000,0.100000,-0.066005,-0.315557,-0.050000,-0.050000,0.357531,-0.433048,0.000000,0.000000,-0.423385,0.560944,1.185754,1.064927,0.045596,-0.071419,-0.083034,-0.015876,-0.039943,-0.036262
-0.050000,-0.050000,0.000000,0.000000,0.000000,0.000000,0.000000,0.000000,0.000000,0.100000,0.100000,-0.050675,-0.312544,-0.050000,-0.050000,0.356853,-0.436856,0.000000,0.000000,-0.418783,0.556218,1.193602,1.076039,0.052387,-0.077391,-0.084175,-0.015139,-0.044948,-0.034732
-0.050000,-0.050000,0.000000,0.000000,0.000000,0.000000,0.000000,0.000000,0.000000,0.100000,0.100000,-0.035969,-0.309406,-0.050000,-0.050000,0.356055,-0.440827,0.000000,0.000000,-0.414717,0.550946,1.200882,1.087393,0.059653,-0.082685,-0.085134,-0.014303,-0.050047,-0.033435
-0.050000,-0.050000,0.000000,0.000000,0.000000,0.000000,0.000000,0.000000,0.000000,0.100000,0.100000,-0.022514,-0.306017,-0.050000,-0.050000,0.355018,-0.445121,0.000000,0.000000,-0.411723,0.544583,1.207025,1.099230,0.067870,-0.086621,-0.085729,-0.013267,-0.055333,-0.032607
-0.050000,-0.050000,0.000000,0.000000,0.000000,0.000000,0.000000,0.000000,0.000000,0.100000,0.100000,-0.010870,-0.302297,-0.050000,-0.050000,0.353767,-0.449362,0.000000,0.000000,-0.409765,0.537271,1.212061,1.111225,0.076516,-0.089096,-0.085910,-0.012091,-0.060542,-0.032337
-0.050000,-0.050000,0.000000,0.000000,0.000000,0.000000,0.000000,0.000000,0.000000,0.100000,0.100000,-0.000133,-0.298411,-0.050000,-0.050000,0.352411,-0.453576,0.000000,0.000000,-0.408326,0.529485,1.216543,1.123298,0.085377,-0.090840,-0.085885,-0.010845,-0.065714,-0.032347
-0.050000,-0.050000,0.000000,0.000000,0.000000,0.000000,0.000000,0.000000,0.000000,0.100000,0.100000,0.007272,-0.293900,-0.050000,-0.050000,0.350778,-0.457273,0.000000,0.000000,-0.408290,0.520575,1.219386,1.134855,0.094057,-0.090334,-0.085294,-0.009559,-0.070355,-0.033243
-0.050000,-0.050000,0.000000,0.000000,0.000000,0.000000,0.000000,0.000000,0.000000,0.100000,0.100000,0.013447,-0.289151,-0.050000,-0.050000,0.349074,-0.460703,0.000000,0.000000,-0.408660,0.511429,1.221678,1.145953,0.102442,-0.089116,-0.084571,-0.008335,-0.074687,-0.034421
-0.050000,-0.050000,0.000000,0.000000,0.000000,0.000000,0.000000,0.000000,0.000000,0.100000,0.100000,0.017164,-0.283925,-0.050000,-0.050000,0.347229,-0.463601,0.000000,0.000000,-0.409845,0.501809,1.222868,1.156135,0.110237,-0.086474,-0.083586,-0.007234,-0.078402,-0.036163
-0.050000,-0.050000,0.000000,0.000000,0.000000,0.000000,0.000000,0.000000,0.000000,0.100000,0.100000,0.018361,-0.278234,-0.050000,-0.050000,0.345318,-0.465873,0.000000,0.000000,-0.411731,0.492045,1.222923,1.164872,0.117112,-0.082593,-0.082509,-0.006403,-0.081268,-0.038406
-0.050000,-0.050000,0.000000,0.000000,0.000000,0.000000,0.000000,0.000000,0.000000,0.100000,0.100000,0.018298,-0.272311,-0.050000,-0.050000,0.343373,-0.467831,0.000000,0.000000,-0.413968,0.482211,1.222412,1.172886,0.123527,-0.078092,-0.081386,-0.005707,-0.083710,-0.040900
-0.050000,-0.050000,0.000000,0.000000,0.000000,0.000000,0.000000,0.000000,0.000000,0.100000,0.100000,0.014601,-0.265885,-0.050000,-0.050000,0.341503,-0.468825,0.000000,0.000000,-0.417118,0.472675,1.220144,1.178170,0.128292,-0.072098,-0.080416,-0.005562,-0.084600,-0.044050
-0.050000,-0.050000,0.000000,0.000000,0.000000,0.000000,0.000000,0.000000,0.000000,0.100000,0.100000,0.009806,-0.259432,-0.050000,-0.050000,0.339736,-0.469516,0.000000,0.000000,-0.420534,0.463388,1.217282,1.182466,0.132479,-0.065722,-0.079581,-0.005605,-0.084916,-0.047401
-0.050000,-0.050000,0.000000,0.000000,0.000000,0.000000,0.000000,0.000000,0.000000,0.100000,0.100000,0.002817,-0.252927,-0.050000,-0.050000,0.338174,-0.469605,0.000000,0.000000,-0.424480,0.454602,1.213233,1.184789,0.135511,-0.058581,-0.079016,-0.006026,-0.084081,-0.051154
-0.050000,-0.050000,0.000000,0.000000,0.000000,0.000000,0.000000,0.000000,0.000000,0.100000,0.100000,-0.006043,-0.246793,-0.050000,-0.050000,0.336991,-0.469170,0.000000,0.000000,-0.428882,0.446535,1.208031,1.185224,0.137415,-0.050842,-0.078828,-0.006741,-0.082071,-0.055312
-0.050000,-0.050000,0.000000,0.000000,0.000000,0.000000,0.000000,0.000000,0.000000,0.100000,0.100000,-0.015839,-0.240846,-0.050000,-0.050000,0.335997,-0.468473,0.000000,0.000000,-0.433513,0.438828,1.202251,1.184716,0.138756,-0.042804,-0.078829,-0.007601,-0.079473,-0.059672
-0.050000,-0.050000,0.000000,0.000000,0.000000,0.000000,0.000000,0.000000,0.000000,0.100000,0.100000,-0.027869,-0.236225,-0.050000,-0.050000,0.335803,-0.467155,0.000000,0.000000,-0.438710,0.432390,1.194895,1.181795,0.138532,-0.034001,-0.079437,-0.008673,-0.075240,-0.064675
-0.050000,-0.050000,0.000000,0.000000,0.000000,0.000000,0.000000,0.000000,0.000000,0.100000,0.100000,-0.040437,-0.232301,-0.050000,-0.050000,0.335925,-0.465695,0.000000,0.000000,-0.444052,0.426396,1.187102,1.178252,0.137849,-0.024963,-0.080222,-0.009731,-0.070565,-0.069898
-0.050000,-0.050000,0.000000,0.000000,0.000000,0.000000,0.000000,0.000000,0.000000,0.100000,0.100000,-0.054084,-0.229768,-0.050000,-0.050000,0.336678,-0.463950,0.000000,0.000000,-0.449685,0.421292,1.178435,1.173466,0.136244,-0.015453,-0.081365,-0.010763,-0.065002,-0.075562
-0.050000,-0.050000,0.000000,0.000000,0.000000,0.000000,0.000000,0.000000,0.000000,0.100000,0.100000,-0.068391,-0.229017,-0.050000,-0.050000,0.338072,-0.462062,0.000000,0.000000,-0.455510,0.417055,1.169137,1.167766,0.133876,-0.005501,-0.082765,-0.011648,-0.058861,-0.081636
-0.050000,-0.050000,0.000000,0.000000,0.000000,0.000000,0.000000,0.000000,0.000000,0.100000,0.100000,-0.083029,-0.229157,-0.050000,-0.050000,0.339787,-0.460103,0.000000,0.000000,-0.461431,0.413251,1.159522,1.161608,0.131125,0.004672,-0.084294,-0.012460,-0.052430,-0.087913
-0.050000,-0.050000,0.000000,0.000000,0.000000,0.000000,0.000000,0.000000,0.000000,0.100000,0.100000,-0.098039,-0.232232,-0.050000,-0.050000,0.342333,-0.458155,0.000000,0.000000,-0.467474,0.410633,1.149395,1.154348,0.127519,0.015434,-0.086029,-0.013010,-0.045693,-0.094675
-0.050000,-0.050000,0.000000,0.000000,0.000000,0.000000,0.000000,0.000000,0.000000,0.100000,0.100000,-0.112971,-0.236236,-0.050000,-0.050000,0.345069,-0.456286,0.000000,0.000000,-0.473498,0.408341,1.139251,1.146709,0.123744,0.026358,-0.087773,-0.013510,-0.039049,-0.101539
-0.050000,-0.050000,0.000000,0.000000,0.000000,0.000000,0.000000,0.000000,0.000000,0.100000,0.100000,-0.127747,-0.242097,-0.050000,-0.050000,0.348186,-0.454573,0.000000,0.000000,-0.479481,0.406701,1.129075,1.138311,0.119632,0.037606,-0.089537,-0.013914,-0.032589,-0.108607
-0.050000,-0.050000,0.000000,0.000000,0.000000,0.000000,0.000000,0.000000,0.000000,0.100000,0.100000,-0.141975,-0.249436,-0.050000,-0.050000,0.351466,-0.453161,0.000000,0.000000,-0.485293,0.405499,1.119170,1.128946,0.115450,0.049121,-0.091219,-0.014384,-0.026660,-0.115771
-0.050000,-0.050000,0.000000,0.000000,0.000000,0.000000,0.000000,0.000000,0.000000,0.100000,0.100000,-0.155929,-0.257514,-0.050000,-0.050000,0.354827,-0.451899,0.000000,0.000000,-0.491019,0.404516,1.109401,1.119098,0.111233,0.060768,-0.092859,-0.014889,-0.020996,-0.122984
-0.050000,-0.050000,0.000000,0.000000,0.000000,0.000000,0.000000,0.000000,0.000000,0.100000,0.100000,-0.168511,-0.266890,-0.050000,-0.050000,0.358111,-0.451270,0.000000,0.000000,-0.496286,0.403748,1.100442,1.107346,0.107332,0.072788,-0.094257,-0.015798,-0.016510,-0.130264
-0.050000,-0.050000,0.000000,0.000000,0.000000,0.000000,0.000000,0.000000,0.000000,0.100000,0.100000,-0.180472,-0.276320,-0.050000,-0.050000,0.361287,-0.450892,0.000000,0.000000,-0.501334,0.402877,1.091857,1.094833,0.103671,0.084942,-0.095542,-0.016931,-0.012488,-0.137569
-0.050000,-0.050000,0.000000,0.000000,0.000000,0.000000,0.000000,0.000000,0.000000,0.100000,0.100000,-0.191193,-0.285862,-0.050000,-0.050000,0.364250,-0.451017,0.000000,0.000000,-0.505944,0.401800,1.084021,1.080800,0.100486,0.097361,-0.096605,-0.018514,-0.009391,-0.144927
-0.050000,-0.050000,0.000000,0.000000,0.000000,0.000000,0.000000,0.000000,0.000000,0.100000,0.100000,-0.200415,-0.294728,-0.050000,-0.050000,0.366924,-0.451659,0.000000,0.000000,-0.509996,0.400172,1.077066,1.065199,0.097987,0.110048,-0.097403,-0.020638,-0.007245,-0.152363
-0.050000,-0.050000,0.000000,0.000000,0.000000,0.000000,0.000000,0.000000,0.000000,0.100000,0.100000,-0.208889,-0.303257,-0.050000,-0.050000,0.369453,-0.452559,0.000000,0.000000,-0.513770,0.398268,1.070551,1.048816,0.095832,0.122868,-0.098068,-0.023032,-0.005574,-0.159838
-0.050000,-0.050000,0.000000,0.000000,0.000000,0.000000,0.000000,0.000000,0.000000,0.100000,0.100000,-0.214863,-0.309723,-0.050000,-0.050000,0.371580,-0.454125,0.000000,0.000000,-0.516562,0.395151,1.065434,1.030507,0.094881,0.135930,-0.098302,-0.026165,-0.005223,-0.167369
-0.050000,-0.050000,0.000000,0.000000,0.000000,0.000000,0.000000,0.000000,0.000000,0.100000,0.100000,-0.219972,-0.315240,-0.050000,-0.050000,0.373623,-0.455829,0.000000,0.000000,-0.518992,0.391585,1.060773,1.011889,0.094334,0.148926,-0.098391,-0.029437,-0.005245,-0.174826
-0.050000,-0.050000,0.000000,0.000000,0.000000,0.000000,0.000000,0.000000,0.000000,0.100000,0.100000,-0.223351,-0.318860,-0.050000,-0.050000,0.375500,-0.457811,0.000000,0.000000,-0.520701,0.387121,1.057024,0.992654,0.094593,0.161790,-0.098189,-0.032985,-0.006010,-0.182135
-0.050000,-0.050000,0.000000,0.000000,0.000000,0.000000,0.000000,0.000000,0.000000,0.100000,0.100000,-0.225040,-0.320306,-0.050000,-0.050000,0.377364,-0.459825,0.000000,0.000000,-0.521663,0.381881,1.054124,0.973802,0.095552,0.174020,-0.097717,-0.036435,-0.007349,-0.188928
-0.050000,-0.050000,0.000000,0.000000,0.000000,0.000000,0.000000,0.000000,0.000000,0.100000,0.100000,-0.225884,-0.320664,-0.050000,-0.050000,0.379221,-0.461855,0.000000,0.000000,-0.522250,0.376252,1.051648,0.955143,0.096862,0.185932,-0.097110,-0.039836,-0.008974,-0.195462
-0.050000,-0.050000,0.000000,0.000000,0.000000,0.000000,0.000000,0.000000,0.000000,0.100000,0.100000,-0.224390,-0.317733,-0.050000,-0.050000,0.381300,-0.463494,0.000000,0.000000,-0.521743,0.369947,1.050327,0.938859,0.098938,0.195914,-0.096156,-0.042381,-0.011182,-0.200453
-0.050000,-0.050000,0.000000,0.000000,0.000000,0.000000,0.000000,0.000000,0.000000,0.100000,0.100000,-0.222221,-0.313813,-0.050000,-0.050000,0.383518,-0.464853,0.000000,0.000000,-0.520899,0.363650,1.049361,0.923955,0.101155,0.204915,-0.095114,-0.044410,-0.013494,-0.204653
-0.050000,-0.050000,0.000000,0.000000,0.000000,0.000000,0.000000,0.000000,0.000000,0.100000,0.100000,-0.218698,-0.307915,-0.050000,-0.050000,0.386017,-0.465648,0.000000,0.000000,-0.519383,0.357367,1.049104,0.911814,0.103652,0.211953,-0.093896,-0.045407,-0.016013,-0.207273
-0.050000,-0.050000,0.000000,0.000000,0.000000,0.000000,0.000000,0.000000,0.000000,0.100000,0.100000,-0.214077,-0.300418,-0.050000,-0.050000,0.388867,-0.465600,0.000000,0.000000,-0.517280,0.351599,1.049530,0.903358,0.106201,0.216484,-0.092560,-0.045055,-0.018572,-0.207861
-0.050000,-0.050000,0.000000,0.000000,0.000000,0.000000,0.000000,0.000000,0.000000,0.100000,0.100000,-0.208905,-0.292123,-0.050000,-0.050000,0.391893,-0.465129,0.000000,0.000000,-0.514884,0.346090,1.050298,0.896743,0.108776,0.219762,-0.091166,-0.044028,-0.021150,-0.207432
-0.050000,-0.050000,0.000000,0.000000,0.000000,0.000000,0.000000,0.000000,0.000000,0.100000,0.100000,-0.202495,-0.282120,-0.050000,-0.050000,0.395430,-0.463040,0.000000,0.000000,-0.511753,0.341995,1.052110,0.896351,0.111136,0.218858,-0.089679,-0.040892,-0.023570,-0.203624
-0.050000,-0.050000,0.000000,0.000000,0.000000,0.000000,0.000000,0.000000,0.000000,0.100000,0.100000,-0.195801,-0.271780,-0.050000,-0.050000,0.399089,-0.460329,0.000000,0.000000,-0.508422,0.338507,1.054289,0.897985,0.113353,0.216592,-0.088180,-0.037169,-0.025880,-0.198733
-0.050000,-0.050000,0.000000,0.000000,0.000000,0.000000,0.000000,0.000000,0.000000,0.100000,0.100000,-0.188543,-0.260766,-0.050000,-0.050000,0.402995,-0.456376,0.000000,0.000000,-0.504691,0.336231,1.057201,0.903671,0.115286,0.211603,-0.086657,-0.032274,-0.027973,-0.191676
-0.050000,-0.050000,0.000000,0.000000,0.000000,0.000000,0.000000,0.000000,0.000000,0.100000,0.100000,-0.180937,-0.249488,-0.050000,-0.050000,0.406976,-0.451122,0.000000,0.000000,-0.500641,0.335237,1.060881,0.912776,0.116846,0.204317,-0.085126,-0.026670,-0.029781,-0.182847
-0.050000,-0.050000,0.000000,0.000000,0.000000,0.000000,0.000000,0.000000,0.000000,0.100000,0.100000,-0.173158,-0.238080,-0.050000,-0.050000,0.410994,-0.445218,0.000000,0.000000,-0.496432,0.334884,1.064945,0.923590,0.118220,0.195881,-0.083592,-0.020712,-0.031447,-0.173133
-0.050000,-0.050000,0.000000,0.000000,0.000000,0.000000,0.000000,0.000000,0.000000,0.100000,0.100000,-0.165091,-0.226783,-0.050000,-0.050000,0.414786,-0.437493,0.000000,0.000000,-0.491853,0.336278,1.070155,0.937979,0.118984,0.185092,-0.082035,-0.014519,-0.032669,-0.161701
-0.050000,-0.050000,0.000000,0.000000,0.000000,0.000000,0.000000,0.000000,0.000000,0.100000,0.100000,-0.156970,-0.215651,-0.050000,-0.050000,0.418382,-0.429287,0.000000,0.000000,-0.487189,0.338125,1.075709,0.952936,0.119551,0.173976,-0.080460,-0.008493,-0.033771,-0.150058
-0.050000,-0.050000,0.000000,0.000000,0.000000,0.000000,0.000000,0.000000,0.000000,0.100000,0.100000,-0.148743,-0.204851,-0.050000,-0.050000,0.421583,-0.420120,0.000000,0.000000,-0.482358,0.340879,1.081952,0.969030,0.119722,0.162203,-0.078849,-0.002801,-0.034632,-0.137993
-0.050000,-0.050000,0.000000,0.000000,0.000000,0.000000,0.000000,0.000000,0.000000,0.100000,0.100000,-0.140432,-0.194566,-0.050000,-0.050000,0.424165,-0.410406,0.000000,0.000000,-0.477459,0.344202,1.088711,0.984995,0.119552,0.150706,-0.077181,0.002229,-0.035377,-0.126187
-0.050000,-0.050000,0.000000,0.000000,0.000000,0.000000,0.000000,0.000000,0.000000,0.100000,0.100000,-0.132079,-0.184538,-0.050000,-0.050000,0.426437,-0.400419,0.000000,0.000000,-0.472525,0.347810,1.095727,1.000896,0.119211,0.139349,-0.075484,0.006926,-0.036063,-0.114510
-0.050000,-0.050000,0.000000,0.000000,0.000000,0.000000,0.000000,0.000000,0.000000,0.100000,0.100000,-0.123578,-0.175454,-0.050000,-0.050000,0.427531,-0.390398,0.000000,0.000000,-0.467679,0.351731,1.103088,1.014900,0.118501,0.129586,-0.073705,0.010410,-0.036845,-0.104021
-0.050000,-0.050000,0.000000,0.000000,0.000000,0.000000,0.000000,0.000000,0.000000,0.100000,0.100000,-0.115016,-0.166711,-0.050000,-0.050000,0.428197,-0.380646,0.000000,0.000000,-0.462936,0.355587,1.110369,1.027818,0.117732,0.120609,-0.071921,0.013487,-0.037767,-0.094102
-0.050000,-0.050000,0.000000,0.000000,0.000000,0.000000,0.000000,0.000000,0.000000,0.100000,0.100000,-0.106329,-0.158653,-0.050000,-0.050000,0.428006,-0.371430,0.000000,0.000000,-0.458401,0.359313,1.117490,1.038561,0.116847,0.113201,-0.070127,0.015749,-0.038967,-0.085324
-0.050000,-0.050000,0.000000,0.000000,0.000000,0.000000,0.000000,0.000000,0.000000,0.100000,0.100000,-0.097510,-0.151285,-0.050000,-0.050000,0.426994,-0.363253,0.000000,0.000000,-0.454227,0.362635,1.123984,1.046503,0.115991,0.107503,-0.068423,0.017267,-0.040650,-0.077859
-0.050000,-0.050000,0.000000,0.000000,0.000000,0.000000,0.000000,0.000000,0.000000,0.100000,0.100000,-0.088625,-0.144263,-0.050000,-0.050000,0.425572,-0.355597,0.000000,0.000000,-0.450233,0.365754,1.130164,1.053044,0.115151,0.102660,-0.066764,0.018413,-0.042575,-0.071051
-0.050000,-0.050000,0.000000,0.000000,0.000000,0.000000,0.000000,0.000000,0.000000,0.100000,0.100000,-0.079600,-0.138243,-0.050000,-0.050000,0.423143,-0.350064,0.000000,0.000000,-0.446984,0.368012,1.134666,1.054929,0.114563,0.099995,-0.065470,0.018586,-0.045435,-0.066254
-0.050000,-0.050000,0.000000,0.000000,0.000000,0.000000,0.000000,0.000000,0.000000,0.100000,0.100000,-0.070581,-0.132541,-0.050000,-0.050000,0.420497,-0.345339,0.000000,0.000000,-0.444029,0.369968,1.138385,1.055287,0.114103,0.097745,-0.064393,0.018482,-0.048622,-0.062077
-0.050000,-0.050000,0.000000,0.000000,0.000000,0.000000,0.000000,0.000000,0.000000,0.100000,0.100000,-0.061572,-0.127474,-0.050000,-0.050000,0.417418,-0.342233,0.000000,0.000000,-0.441662,0.371321,1.140537,1.052593,0.113903,0.096323,-0.063746,0.017825,-0.052463,-0.059139
-0.050000,-0.050000,0.000000,0.000000,0.000000,0.000000,0.000000,0.000000,0.000000,0.100000,0.100000,-0.052752,-0.123009,-0.050000,-0.050000,0.414203,-0.340767,0.000000,0.000000,-0.439917,0.372193,1.140792,1.047274,0.113971,0.094836,-0.063714,0.016717,-0.056847,-0.057220
-0.050000,-0.050000,0.000000,0.000000,0.000000,0.000000,0.000000,0.000000,0.000000,0.100000,0.100000,-0.044027,-0.118847,-0.050000,-0.050000,0.410920,-0.340120,0.000000,0.000000,-0.438482,0.372825,1.140097,1.040643,0.114173,0.093318,-0.063988,0.015384,-0.061503,-0.055811
-0.050000,-0.050000,0.000000,0.000000,0.000000,0.000000,0.000000,0.000000,0.000000,0.100000,0.100000,-0.035963,-0.115555,-0.050000,-0.050000,0.407899,-0.341714,0.000000,0.000000,-0.437934,0.373101,1.136330,1.031250,0.114643,0.090239,-0.065370,0.013568,-0.066598,-0.055440
-0.050000,-0.050000,0.000000,0.000000,0.000000,0.000000,0.000000,0.000000,0.000000,0.100000,0.100000,-0.028271,-0.112544,-0.050000,-0.050000,0.405108,-0.343914,0.000000,0.000000,-0.437641,0.373404,1.131574,1.021470,0.115113,0.086232,-0.067128,0.011674,-0.071665,-0.055224
-0.050000,-0.050000,0.000000,0.000000,0.000000,0.000000,0.000000,0.000000,0.000000,0.100000,0.100000,-0.021324,-0.110097,-0.050000,-0.050000,0.402773,-0.347326,0.000000,0.000000,-0.437857,0.373763,1.124842,1.010916,0.115582,0.080365,-0.069638,0.009626,-0.076674,-0.055317
-0.050000,-0.050000,0.000000,0.000000,0.000000,0.000000,0.000000,0.000000,0.000000,0.100000,0.100000,-0.015439,-0.108189,-0.050000,-0.050000,0.401104,-0.351561,0.000000,0.000000,-0.438468,0.374422,1.116444,1.000806,0.115826,0.072221,-0.072775,0.007622,-0.081238,-0.055360
-0.050000,-0.050000,0.000000,0.000000,0.000000,0.000000,0.000000,0.000000,0.000000,0.100000,0.100000,-0.010087,-0.106550,-0.050000,-0.050000,0.399768,-0.356208,0.000000,0.000000,-0.439277,0.375231,1.107212,0.990917,0.115956,0.062938,-0.076224,0.005640,-0.085581,-0.055379
-0.050000,-0.050000,0.000000,0.000000,0.000000,0.000000,0.000000,0.000000,0.000000,0.100000,0.100000,-0.006757,-0.105658,-0.050000,-0.050000,0.399587,-0.361396,0.000000,0.000000,-0.440506,0.376662,1.096269,0.983476,0.115437,0.050436,-0.080211,0.004027,-0.088738,-0.054967
-0.050000,-0.050000,0.000000,0.000000,0.000000,0.000000,0.000000,0.000000,0.000000,0.100000,0.100000,-0.004201,-0.104980,-0.050000,-0.050000,0.399780,-0.366516,0.000000,0.000000,-0.441830,0.378270,1.085099,0.977340,0.114639,0.037204,-0.084196,0.002621,-0.091381,-0.054387
-0.050000,-0.050000,0.000000,0.000000,0.000000,0.000000,0.000000,0.000000,0.000000,0.100000,0.100000,-0.003196,-0.104730,-0.050000,-0.050000,0.400722,-0.371502,0.000000,0.000000,-0.443345,0.380233,1.073475,0.973810,0.113284,0.022508,-0.088178,0.001631,-0.092998,-0.053470
-0.050000,-0.050000,0.000000,0.000000,0.000000,0.000000,0.000000,0.000000,0.000000,0.100000,0.100000,-0.003811,-0.104814,-0.050000,-0.050000,0.402271,-0.375887,0.000000,0.000000,-0.445007,0.382339,1.062167,0.973489,0.111379,0.007419,-0.091774,0.001169,-0.093499,-0.052351
-0.050000,-0.050000,0.000000,0.000000,0.000000,0.000000,0.000000,0.000000,0.000000,0.100000,0.100000,-0.005237,-0.105064,-0.050000,-0.050000,0.404124,-0.379973,0.000000,0.000000,-0.446743,0.384515,1.051016,0.974771,0.109199,-0.007868,-0.095178,0.000971,-0.093444,-0.051131
-0.050000,-0.050000,0.000000,0.000000,0.000000,0.000000,0.000000,0.000000,0.000000,0.100000,0.100000,-0.008974,-0.105645,-0.050000,-0.050000,0.406530,-0.382615,0.000000,0.000000,-0.448699,0.386460,1.041468,0.981063,0.106407,-0.021980,-0.097529,0.001619,-0.091822,-0.049981
-0.050000,-0.050000,0.000000,0.000000,0.000000,0.000000,0.000000,0.000000,0.000000,0.100000,0.100000,-0.013365,-0.106280,-0.050000,-0.050000,0.408973,-0.384683,0.000000,0.000000,-0.450737,0.388189,1.032772,0.988847,0.103531,-0.035206,-0.099438,0.002519,-0.089779,-0.048980
-0.050000,-0.050000,0.000000,0.000000,0.000000,0.000000,0.000000,0.000000,0.000000,0.100000,0.100000,-0.019065,-0.107024,-0.050000,-0.050000,0.411490,-0.385602,0.000000,0.000000,-0.452941,0.389486,1.025782,0.999616,0.100488,-0.046658,-0.100464,0.003926,-0.086891,-0.048277
-0.050000,-0.050000,0.000000,0.000000,0.000000,0.000000,0.000000,0.000000,0.000000,0.100000,0.100000,-0.025721,-0.107780,-0.050000,-0.050000,0.413782,-0.385395,0.000000,0.000000,-0.455311,0.390180,1.020932,1.012612,0.097549,-0.055754,-0.100589,0.005678,-0.083442,-0.048021
-0.050000,-0.050000,0.000000,0.000000,0.000000,0.000000,0.000000,0.000000,0.000000,0.100000,0.100000,-0.032855,-0.108542,-0.050000,-0.050000,0.415962,-0.384625,0.000000,0.000000,-0.457764,0.390574,1.017151,1.026720,0.094663,-0.063672,-0.100265,0.007603,-0.079713,-0.047989
-0.050000,-0.050000,0.000000,0.000000,0.000000,0.000000,0.000000,0.000000,0.000000,0.100000,0.100000,-0.040787,-0.109227,-0.050000,-0.050000,0.417425,-0.382495,0.000000,0.000000,-0.460380,0.390048,1.016836,1.042646,0.092249,-0.067916,-0.098799,0.009680,-0.075600,-0.048641
-0.050000,-0.050000,0.000000,0.000000,0.000000,0.000000,0.000000,0.000000,0.000000,0.100000,0.100000,-0.048768,-0.109875,-0.050000,-0.050000,0.418566,-0.380089,0.000000,0.000000,-0.462982,0.389283,1.017619,1.058643,0.090027,-0.071102,-0.097076,0.011668,-0.071494,-0.049465
-0.050000,-0.050000,0.000000,0.000000,0.000000,0.000000,0.000000,0.000000,0.000000,0.100000,0.100000,-0.056848,-0.110448,-0.050000,-0.050000,0.419064,-0.377130,0.000000,0.000000,-0.465558,0.388040,1.020598,1.074780,0.088189,-0.072172,-0.094840,0.013478,-0.067404,-0.050633
-0.050000,-0.050000,0.000000,0.000000,0.000000,0.000000,0.000000,0.000000,0.000000,0.100000,0.100000,-0.064647,-0.110968,-0.050000,-0.050000,0.418867,-0.374016,0.000000,0.000000,-0.467898,0.386534,1.025390,1.090113,0.086607,-0.071698,-0.092384,0.014874,-0.063522,-0.051984
-0.050000,-0.050000,0.000000,0.000000,0.000000,0.000000,0.000000,0.000000,0.000000,0.100000,0.100000,-0.072305,-0.111461,-0.050000,-0.050000,0.418323,-0.370825,0.000000,0.000000,-0.470119,0.384896,1.031090,1.105043,0.085152,-0.070453,-0.089818,0.016063,-0.059744,-0.053426
-0.050000,-0.050000,0.000000,0.000000,0.000000,0.000000,0.000000,0.000000,0.000000,0.100000,0.100000,-0.079124,-0.111972,-0.050000,-0.050000,0.416838,-0.367949,0.000000,0.000000,-0.471604,0.383168,1.038614,1.117725,0.083564,-0.067767,-0.087340,0.016426,-0.056411,-0.054931
-0.050000,-0.050000,0.000000,0.000000,0.000000,0.000000,0.000000,0.000000,0.000000,0.100000,0.100000,-0.085588,-0.112541,-0.050000,-0.050000,0.415125,-0.365317,0.000000,0.000000,-0.472714,0.381471,1.046376,1.129456,0.081661,-0.064803,-0.085000,0.016510,-0.053218,-0.056418
-0.050000,-0.050000,0.000000,0.000000,0.000000,0.000000,0.000000,0.000000,0.000000,0.100000,0.100000,-0.091344,-0.113225,-0.050000,-0.050000,0.412958,-0.363175,0.000000,0.000000,-0.473076,0.379837,1.054612,1.139284,0.079131,-0.061281,-0.082936,0.016035,-0.050306,-0.057870
-0.050000,-0.050000,0.000000,0.000000,0.000000,0.000000,0.000000,0.000000,0.000000,0.100000,0.100000,-0.096375,-0.114147,-0.050000,-0.050000,0.410579,-0.361702,0.000000,0.000000,-0.472466,0.378277,1.062514,1.147052,0.075294,-0.057327,-0.081287,0.015096,-0.047579,-0.059269
-0.050000,-0.050000,0.000000,0.000000,0.000000,0.000000,0.000000,0.000000,0.000000,0.100000,0.100000,-0.101043,-0.115187,-0.050000,-0.050000,0.408095,-0.360564,0.000000,0.000000,-0.471371,0.376754,1.070247,1.153790,0.070803,-0.053158,-0.079846,0.013924,-0.044943,-0.060641
-0.050000,-0.050000,0.000000,0.000000,0.000000,0.000000,0.000000,0.000000,0.000000,0.100000,0.100000,-0.104762,-0.116752,-0.050000,-0.050000,0.405701,-0.360571,0.000000,0.000000,-0.468574,0.375231,1.076259,1.157409,0.063235,-0.048145,-0.079120,0.012269,-0.042374,-0.061944
-0.050000,-0.050000,0.000000,0.000000,0.000000,0.000000,0.000000,0.000000,0.000000,0.100000,0.100000,-0.108245,-0.118531,-0.050000,-0.050000,0.403465,-0.360980,0.000000,0.000000,-0.465165,0.373654,1.081316,1.159994,0.054286,-0.042710,-0.078638,0.010515,-0.039756,-0.063218
-0.050000,-0.050000,0.000000,0.000000,0.000000,0.000000,0.000000,0.000000,0.000000,0.100000,0.100000,-0.111257,-0.120737,-0.050000,-0.050000,0.401544,-0.362191,0.000000,0.000000,-0.460533,0.371966,1.084465,1.160509,0.042571,-0.036429,-0.078644,0.008564,-0.037040,-0.064436
-0.050000,-0.050000,0.000000,0.000000,0.000000,0.000000,0.000000,0.000000,0.000000,0.100000,0.100000,-0.113985,-0.123386,-0.050000,-0.050000,0.400140,-0.364216,0.000000,0.000000,-0.454668,0.370073,1.085052,1.158904,0.027525,-0.028997,-0.079131,0.006476,-0.034109,-0.065556
-0.050000,-0.050000,0.000000,0.000000,0.000000,0.000000,0.000000,0.000000,0.000000,0.100000,0.100000,-0.116572,-0.126258,-0.050000,-0.050000,0.398994,-0.366646,0.000000,0.000000,-0.448186,0.368077,1.084358,1.156238,0.010814,-0.020988,-0.079858,0.004319,-0.031070,-0.066626
-0.050000,-0.050000,0.000000,0.000000,0.000000,0.000000,0.000000,0.000000,0.000000,0.100000,0.100000,-0.118995,-0.129720,-0.050000,-0.050000,0.398798,-0.370289,0.000000,0.000000,-0.439974,0.365692,1.079097,1.150192,-0.011319,-0.010920,-0.081314,0.001916,-0.027585,-0.067471
-0.050000,-0.050000,0.000000,0.000000,0.000000,0.000000,0.000000,0.000000,0.000000,0.100000,0.100000,-0.121433,-0.133327,-0.050000,-0.050000,0.398926,-0.374324,0.000000,0.000000,-0.431275,0.363173,1.072201,1.142934,-0.035182,-0.000128,-0.083030,-0.000619,-0.023921,-0.068237
-0.050000,-0.050000,0.000000,0.000000,0.000000,0.000000,0.000000,0.000000,0.000000,0.100000,0.100000,-0.123898,-0.137223,-0.050000,-0.050000,0.399703,-0.379144,0.000000,0.000000,-0.421604,0.360383,1.062035,1.133252,-0.062509,0.012112,-0.085268,-0.003415,-0.019900,-0.068843
-0.050000,-0.050000,0.000000,0.000000,0.000000,0.000000,0.000000,0.000000,0.000000,0.100000,0.100000,-0.126485,-0.141278,-0.050000,-0.050000,0.401051,-0.384685,0.000000,0.000000,-0.411253,0.357338,1.048721,1.121050,-0.092594,0.025710,-0.088089,-0.006603,-0.015473,-0.069369
-0.050000,-0.050000,0.000000,0.000000,0.000000,0.000000,0.000000,0.000000,0.000000,0.100000,0.100000,-0.129133,-0.145412,-0.050000,-0.050000,0.402683,-0.390586,0.000000,0.000000,-0.400563,0.354166,1.033834,1.107590,-0.124060,0.039988,-0.091203,-0.009986,-0.010843,-0.069855
-0.050000,-0.050000,0.000000,0.000000,0.000000,0.000000,0.000000,0.000000,0.000000,0.100000,0.100000,-0.132049,-0.149603,-0.050000,-0.050000,0.404935,-0.397372,0.000000,0.000000,-0.389462,0.350650,1.015052,1.090546,-0.157730,0.055929,-0.095274,-0.014107,-0.005543,-0.070501
-0.050000,-0.050000,0.000000,0.000000,0.000000,0.000000,0.000000,0.000000,0.000000,0.100000,0.100000,-0.135073,-0.153777,-0.050000,-0.050000,0.407293,-0.404342,0.000000,0.000000,-0.378470,0.347038,0.995479,1.072559,-0.191248,0.072221,-0.099657,-0.018479,-0.000015,-0.071331
-0.050000,-0.050000,0.000000,0.000000,0.000000,0.000000,0.000000,0.000000,0.000000,0.100000,0.100000,-0.138314,-0.157914,-0.050000,-0.050000,0.409865,-0.411682,0.000000,0.000000,-0.367696,0.343232,0.974321,1.052686,-0.224461,0.089217,-0.104663,-0.023353,0.005968,-0.072529
-0.050000,-0.050000,0.000000,0.000000,0.000000,0.000000,0.000000,0.000000,0.000000,0.100000,0.100000,-0.141797,-0.162011,-0.050000,-0.050000,0.412446,-0.419084,0.000000,0.000000,-0.357669,0.339297,0.952996,1.031893,-0.255357,0.106360,-0.110128,-0.028596,0.012351,-0.074353
-0.050000,-0.050000,0.000000,0.000000,0.000000,0.000000,0.000000,0.000000,0.000000,0.100000,0.100000,-0.145401,-0.166088,-0.050000,-0.050000,0.415031,-0.426517,0.000000,0.000000,-0.348017,0.335298,0.931589,1.010640,-0.285094,0.123577,-0.115822,-0.034024,0.018934,-0.076491
-0.050000,-0.050000,0.000000,0.000000,0.000000,0.000000,0.000000,0.000000,0.000000,0.100000,0.100000,-0.149393,-0.170204,-0.050000,-0.050000,0.417352,-0.433480,0.000000,0.000000,-0.340249,0.331288,0.912448,0.990139,-0.308489,0.139976,-0.121651,-0.039541,0.025885,-0.079809
-0.050000,-0.050000,0.000000,0.000000,0.000000,0.000000,0.000000,0.000000,0.000000,0.100000,0.100000,-0.153507,-0.174392,-0.050000,-0.050000,0.419506,-0.440088,0.000000,0.000000,-0.333324,0.327374,0.894913,0.970758,-0.329032,0.155709,-0.127244,-0.044851,0.032824,-0.083510
-0.050000,-0.050000,0.000000,0.000000,0.000000,0.000000,0.000000,0.000000,0.000000,0.100000,0.100000,-0.157866,-0.178726,-0.050000,-0.050000,0.421328,-0.445989,0.000000,0.000000,-0.328084,0.323654,0.880590,0.953616,-0.343874,0.170108,-0.132364,-0.049745,0.039740,-0.087976
-0.050000,-0.050000,0.000000,0.000000,0.000000,0.000000,0.000000,0.000000,0.000000,0.100000,0.100000,-0.162404,-0.183330,-0.050000,-0.050000,0.422687,-0.450825,0.000000,0.000000,-0.324836,0.320408,0.870915,0.940500,-0.352202,0.182351,-0.136353,-0.053640,0.046242,-0.092960
-0.050000,-0.050000,0.000000,0.000000,0.000000,0.000000,0.000000,0.000000,0.000000,0.100000,0.100000,-0.167030,-0.188071,-0.050000,-0.050000,0.423815,-0.455129,0.000000,0.000000,-0.322584,0.317399,0.863563,0.929396,-0.357275,0.193517,-0.139776,-0.057034,0.052537,-0.098203
-0.050000,-0.050000,0.000000,0.000000,0.000000,0.000000,0.000000,0.000000,0.000000,0.100000,0.100000,-0.171696,-0.193318,-0.050000,-0.050000,0.424086,-0.457429,0.000000,0.000000,-0.323548,0.315578,0.864527,0.926552,-0.352429,0.200295,-0.140622,-0.058043,0.057476,-0.103524
-0.050000,-0.050000,0.000000,0.000000,0.000000,0.000000,0.000000,0.000000,0.000000,0.100000,0.100000,-0.176251,-0.198701,-0.050000,-0.050000,0.424030,-0.458986,0.000000,0.000000,-0.325573,0.314293,0.868342,0.926874,-0.344527,0.205296,-0.140441,-0.058033,0.061699,-0.108560
-0.050000,-0.050000,0.000000,0.000000,0.000000,0.000000,0.000000,0.000000,0.000000,0.100000,0.100000,-0.180583,-0.204358,-0.050000,-0.050000,0.423321,-0.459053,0.000000,0.000000,-0.329721,0.314079,0.877859,0.933526,-0.330513,0.206743,-0.138210,-0.055986,0.064489,-0.113027
-0.050000,-0.050000,0.000000,0.000000,0.000000,0.000000,0.000000,0.000000,0.000000,0.100000,0.100000,-0.184356,-0.210037,-0.050000,-0.050000,0.421920,-0.457596,0.000000,0.000000,-0.335778,0.315089,0.892440,0.946425,-0.311286,0.204240,-0.133981,-0.051747,0.065390,-0.116266
-0.050000,-0.050000,0.000000,0.000000,0.000000,0.000000,0.000000,0.000000,0.000000,0.100000,0.100000,-0.187849,-0.215727,-0.050000,-0.050000,0.420173,-0.455375,0.000000,0.000000,-0.342791,0.316712,0.909554,0.962449,-0.289453,0.199761,-0.128755,-0.046413,0.065348,-0.118893
-0.050000,-0.050000,0.000000,0.000000,0.000000,0.000000,0.000000,0.000000,0.000000,0.100000,0.100000,-0.189935,-0.220791,-0.050000,-0.050000,0.417428,-0.450976,0.000000,0.000000,-0.352059,0.320097,0.932274,0.986263,-0.261491,0.189263,-0.121235,-0.038170,0.062117,-0.118867
-0.050000,-0.050000,0.000000,0.000000,0.000000,0.000000,0.000000,0.000000,0.000000,0.100000,0.100000,-0.191371,-0.225363,-0.050000,-0.050000,0.414405,-0.445938,0.000000,0.000000,-0.361792,0.323933,0.955975,1.011741,-0.232118,0.176949,-0.113342,-0.029293,0.057870,-0.117823
-0.050000,-0.050000,0.000000,0.000000,0.000000,0.000000,0.000000,0.000000,0.000000,0.100000,0.100000,-0.191508,-0.228948,-0.050000,-0.050000,0.410826,-0.439623,0.000000,0.000000,-0.372453,0.328671,0.981641,1.040544,-0.199926,0.161000,-0.104701,-0.019147,0.051593,-0.114742
-0.050000,-0.050000,0.000000,0.000000,0.000000,0.000000,0.000000,0.000000,0.000000,0.100000,0.100000,-0.190076,-0.230968,-0.050000,-0.050000,0.406889,-0.432313,0.000000,0.000000,-0.383356,0.333848,1.007391,1.070324,-0.166308,0.142306,-0.096207,-0.008696,0.043739,-0.109722
-0.050000,-0.050000,0.000000,0.000000,0.000000,0.000000,0.000000,0.000000,0.000000,0.100000,0.100000,-0.187859,-0.232207,-0.050000,-0.050000,0.402771,-0.424504,0.000000,0.000000,-0.394378,0.339245,1.033183,1.100594,-0.131976,0.122240,-0.087787,0.001907,0.035098,-0.103733
-0.050000,-0.050000,0.000000,0.000000,0.000000,0.000000,0.000000,0.000000,0.000000,0.100000,0.100000,-0.183113,-0.230441,-0.050000,-0.050000,0.398494,-0.415781,0.000000,0.000000,-0.404699,0.344481,1.056631,1.128743,-0.097766,0.100105,-0.080751,0.011423,0.025186,-0.095532
-0.050000,-0.050000,0.000000,0.000000,0.000000,0.000000,0.000000,0.000000,0.000000,0.100000,0.100000,-0.177564,-0.227595,-0.050000,-0.050000,0.394294,-0.406984,0.000000,0.000000,-0.414475,0.349417,1.078734,1.155182,-0.064355,0.078105,-0.074410,0.020158,0.015264,-0.086948
-0.050000,-0.050000,0.000000,0.000000,0.000000,0.000000,0.000000,0.000000,0.000000,0.100000,0.100000,-0.170406,-0.222590,-0.050000,-0.050000,0.390247,-0.398041,0.000000,0.000000,-0.423162,0.353750,1.098143,1.178200,-0.032543,0.056375,-0.069462,0.027331,0.005321,-0.077597
-0.050000,-0.050000,0.000000,0.000000,0.000000,0.000000,0.000000,0.000000,0.000000,0.100000,0.100000,-0.161922,-0.215638,-0.050000,-0.050000,0.386561,-0.389444,0.000000,0.000000,-0.430328,0.357164,1.114389,1.196490,-0.003658,0.036533,-0.065999,0.032483,-0.003925,-0.068241
-0.050000,-0.050000,0.000000,0.000000,0.000000,0.000000,0.000000,0.000000,0.000000,0.100000,0.100000,-0.152776,-0.207712,-0.050000,-0.050000,0.383057,-0.381020,0.000000,0.000000,-0.436734,0.360117,1.129054,1.212415,0.023764,0.017634,-0.063278,0.036625,-0.012822,-0.058883
-0.050000,-0.050000,0.000000,0.000000,0.000000,0.000000,0.000000,0.000000,0.000000,0.100000,0.100000,-0.142329,-0.197745,-0.050000,-0.050000,0.380277,-0.373821,0.000000,0.000000,-0.440597,0.361579,1.139235,1.220527,0.045442,0.003438,-0.062428,0.037684,-0.019994,-0.050458
-0.050000,-0.050000,0.000000,0.000000,0.000000,0.000000,0.000000,0.000000,0.000000,0.100000,0.100000,-0.131739,-0.187542,-0.050000,-0.050000,0.377757,-0.367240,0.000000,0.000000,-0.443661,0.362617,1.148248,1.226163,0.065053,-0.008854,-0.061985,0.037872,-0.026527,-0.042531
-0.050000,-0.050000,0.000000,0.000000,0.000000,0.000000,0.000000,0.000000,0.000000,0.100000,0.100000,-0.120862,-0.176865,-0.050000,-0.050000,0.375759,-0.361894,0.000000,0.000000,-0.445128,0.362810,1.154925,1.226851,0.080529,-0.017336,-0.062356,0.036321,-0.031782,-0.035602
-0.050000,-0.050000,0.000000,0.000000,0.000000,0.000000,0.000000,0.000000,0.000000,0.100000,0.100000,-0.110322,-0.166769,-0.050000,-0.050000,0.374275,-0.358139,0.000000,0.000000,-0.445332,0.362430,1.160144,1.223329,0.092183,-0.021907,-0.063065,0.033541,-0.035915,-0.029796
-0.050000,-0.050000,0.000000,0.000000,0.000000,0.000000,0.000000,0.000000,0.000000,0.100000,0.100000,-0.099950,-0.156963,-0.050000,-0.050000,0.373047,-0.355180,0.000000,0.000000,-0.444905,0.361764,1.164633,1.217701,0.101927,-0.024522,-0.063941,0.030147,-0.039488,-0.024550
-0.050000,-0.050000,0.000000,0.000000,0.000000,0.000000,0.000000,0.000000,0.000000,0.100000,0.100000,-0.090957,-0.149621,-0.050000,-0.050000,0.372583,-0.355022,0.000000,0.000000,-0.443308,0.360618,1.168189,1.207069,0.107139,-0.021677,-0.064739,0.025713,-0.041865,-0.020930
-0.050000,-0.050000,0.000000,0.000000,0.000000,0.000000,0.000000,0.000000,0.000000,0.100000,0.100000,-0.082652,-0.143556,-0.050000,-0.050000,0.372391,-0.355883,0.000000,0.000000,-0.441581,0.359361,1.171733,1.195111,0.111357,-0.017190,-0.065397,0.021137,-0.044024,-0.017820
-0.050000,-0.050000,0.000000,0.000000,0.000000,0.000000,0.000000,0.000000,0.000000,0.100000,0.100000,-0.075726,-0.140044,-0.050000,-0.050000,0.372745,-0.358780,0.000000,0.000000,-0.439594,0.357882,1.175249,1.180505,0.113590,-0.009420,-0.065775,0.016277,-0.045744,-0.015732
-0.050000,-0.050000,0.000000,0.000000,0.000000,0.000000,0.000000,0.000000,0.000000,0.100000,0.100000,-0.070459,-0.139708,-0.050000,-0.050000,0.373737,-0.363733,0.000000,0.000000,-0.437791,0.356046,1.178990,1.163554,0.114825,0.001441,-0.065835,0.011319,-0.047301,-0.014702
-0.050000,-0.050000,0.000000,0.000000,0.000000,0.000000,0.000000,0.000000,0.000000,0.100000,0.100000,-0.066022,-0.140960,-0.050000,-0.050000,0.375048,-0.369715,0.000000,0.000000,-0.436081,0.354031,1.182844,1.145432,0.115561,0.013847,-0.065737,0.006312,-0.048777,-0.014200
-0.050000,-0.050000,0.000000,0.000000,0.000000,0.000000,0.000000,0.000000,0.000000,0.100000,0.100000,-0.064200,-0.147338,-0.050000,-0.050000,0.377529,-0.378547,0.000000,0.000000,-0.435088,0.350945,1.186902,1.123638,0.115868,0.031012,-0.065347,0.001058,-0.050203,-0.015589
-0.050000,-0.050000,0.000000,0.000000,0.000000,0.000000,0.000000,0.000000,0.000000,0.100000,0.100000,-0.063204,-0.155338,-0.050000,-0.050000,0.380482,-0.388163,0.000000,0.000000,-0.434393,0.347258,1.190857,1.100435,0.116191,0.049901,-0.064974,-0.004424,-0.051602,-0.017784
-0.050000,-0.050000,0.000000,0.000000,0.000000,0.000000,0.000000,0.000000,0.000000,0.100000,0.100000,-0.063863,-0.166583,-0.050000,-0.050000,0.384380,-0.399348,0.000000,0.000000,-0.434292,0.342367,1.194605,1.074410,0.116550,0.072238,-0.064635,-0.010360,-0.052948,-0.021591
-0.050000,-0.050000,0.000000,0.000000,0.000000,0.000000,0.000000,0.000000,0.000000,0.100000,0.100000,-0.065971,-0.180522,-0.050000,-0.050000,0.389379,-0.411630,0.000000,0.000000,-0.434750,0.335792,1.197667,1.045170,0.116897,0.098262,-0.064580,-0.017183,-0.054120,-0.027417
-0.050000,-0.050000,0.000000,0.000000,0.000000,0.000000,0.000000,0.000000,0.000000,0.100000,0.100000,-0.068804,-0.195809,-0.050000,-0.050000,0.394928,-0.424460,0.000000,0.000000,-0.435487,0.328375,1.200387,1.014322,0.117237,0.126129,-0.064667,-0.024449,-0.055206,-0.034254
-0.050000,-0.050000,0.000000,0.000000,0.000000,0.000000,0.000000,0.000000,0.000000,0.100000,0.100000,-0.073439,-0.213886,-0.050000,-0.050000,0.402303,-0.438097,0.000000,0.000000,-0.436884,0.317950,1.201333,0.978421,0.117143,0.159386,-0.065484,-0.033743,-0.055825,-0.044601
-0.050000,-0.050000,0.000000,0.000000,0.000000,0.000000,0.000000,0.000000,0.000000,0.100000,0.100000,-0.078562,-0.232404,-0.050000,-0.050000,0.410313,-0.451721,0.000000,0.000000,-0.438438,0.306503,1.201470,0.940980,0.116739,0.194114,-0.066596,-0.043897,-0.056249,-0.056159
-0.050000,-0.050000,0.000000,0.000000,0.000000,0.000000,0.000000,0.000000,0.000000,0.100000,0.100000,-0.084660,-0.251799,-0.050000,-0.050000,0.419594,-0.465315,0.000000,0.000000,-0.440306,0.293012,1.199990,0.900456,0.115715,0.231785,-0.068298,-0.055770,-0.056286,-0.070138
-0.050000,-0.050000,0.000000,0.000000,0.000000,0.000000,0.000000,0.000000,0.000000,0.100000,0.100000,-0.091567,-0.271082,-0.050000,-0.050000,0.430127,-0.478391,0.000000,0.000000,-0.442414,0.277782,1.196557,0.857632,0.113838,0.271163,-0.070579,-0.069476,-0.055975,-0.086276
-0.050000,-0.050000,0.000000,0.000000,0.000000,0.000000,0.000000,0.000000,0.000000,0.100000,0.100000,-0.098877,-0.290308,-0.050000,-0.050000,0.441285,-0.491208,0.000000,0.000000,-0.444643,0.261682,1.192147,0.813657,0.111534,0.311394,-0.073150,-0.084098,-0.055490,-0.103493
-0.050000,-0.050000,0.000000,0.000000,0.000000,0.000000,0.000000,0.000000,0.000000,0.100000,0.100000,-0.107245,-0.308024,-0.050000,-0.050000,0.454187,-0.502751,0.000000,0.000000,-0.447217,0.243896,1.184440,0.768007,0.107836,0.351746,-0.076426,-0.101068,-0.054720,-0.123028
-0.050000,-0.050000,0.000000,0.000000,0.000000,0.000000,0.000000,0.000000,0.000000,0.100000,0.100000,-0.115933,-0.324866,-0.050000,-0.050000,0.467594,-0.513808,0.000000,0.000000,-0.449914,0.225949,1.175543,0.722484,0.103686,0.391314,-0.079853,-0.118481,-0.053970,-0.142900
-0.050000,-0.050000,0.000000,0.000000,0.000000,0.000000,0.000000,0.000000,0.000000,0.100000,0.100000,-0.125261,-0.339958,-0.050000,-0.050000,0.482010,-0.523892,0.000000,0.000000,-0.452854,0.207683,1.164265,0.677219,0.098633,0.429311,-0.083582,-0.136781,-0.053258,-0.163449
-0.050000,-0.050000,0.000000,0.000000,0.000000,0.000000,0.000000,0.000000,0.000000,0.100000,0.100000,-0.135154,-0.352714,-0.050000,-0.050000,0.497206,-0.533054,0.000000,0.000000,-0.456003,0.189919,1.150464,0.633518,0.092668,0.464448,-0.087426,-0.154999,-0.052799,-0.183701
-0.050000,-0.050000,0.000000,0.000000,0.000000,0.000000,0.000000,0.000000,0.000000,0.100000,0.100000,-0.145330,-0.364302,-0.050000,-0.050000,0.512793,-0.541754,0.000000,0.000000,-0.459255,0.172407,1.135403,0.590600,0.086247,0.498153,-0.091328,-0.173178,-0.052466,-0.203805
-0.050000,-0.050000,0.000000,0.000000,0.000000,0.000000,0.000000,0.000000,0.000000,0.100000,0.100000,-0.156161,-0.371719,-0.050000,-0.050000,0.529056,-0.549256,0.000000,0.000000,-0.462578,0.156669,1.116418,0.551546,0.078159,0.526554,-0.095142,-0.189738,-0.052680,-0.222066
-0.050000,-0.050000,0.000000,0.000000,0.000000,0.000000,0.000000,0.000000,0.000000,0.100000,0.100000,-0.167102,-0.377596,-0.050000,-0.050000,0.545312,-0.556382,0.000000,0.000000,-0.465758,0.141744,1.096124,0.514070,0.069262,0.553186,-0.098852,-0.205385,-0.053053,-0.239317
-0.050000,-0.050000,0.000000,0.000000,0.000000,0.000000,0.000000,0.000000,0.000000,0.100000,0.100000,-0.178262,-0.380394,-0.050000,-0.050000,0.561553,-0.562758,0.000000,0.000000,-0.468652,0.128446,1.073211,0.479752,0.058749,0.576282,-0.102357,-0.219204,-0.053743,-0.254547
-0.050000,-0.050000,0.000000,0.000000,0.000000,0.000000,0.000000,0.000000,0.000000,0.100000,0.100000,-0.189331,-0.379986,-0.050000,-0.050000,0.577150,-0.568235,0.000000,0.000000,-0.470766,0.116977,1.047841,0.448748,0.045807,0.596395,-0.105531,-0.230869,-0.054533,-0.267186
-0.050000,-0.050000,0.000000,0.000000,0.000000,0.000000,0.000000,0.000000,0.000000,0.100000,0.100000,-0.200353,-0.377975,-0.050000,-0.050000,0.592427,-0.573264,0.000000,0.000000,-0.472490,0.106422,1.021243,0.419400,0.031650,0.615017,-0.108539,-0.241456,-0.055373,-0.278529
-0.050000,-0.050000,0.000000,0.000000,0.000000,0.000000,0.000000,0.000000,0.000000,0.100000,0.100000,-0.210645,-0.371301,-0.050000,-0.050000,0.605570,-0.576371,0.000000,0.000000,-0.472157,0.098659,0.991546,0.394817,0.012374,0.630464,-0.110881,-0.248952,-0.055841,-0.285558
-0.050000,-0.050000,0.000000,0.000000,0.000000,0.000000,0.000000,0.000000,0.000000,0.100000,0.100000,-0.220474,-0.363260,-0.050000,-0.050000,0.617570,-0.578562,0.000000,0.000000,-0.470851,0.091810,0.961143,0.371708,-0.009060,0.645304,-0.112956,-0.255595,-0.055984,-0.291174
-0.050000,-0.050000,0.000000,0.000000,0.000000,0.000000,0.000000,0.000000,0.000000,0.100000,0.100000,-0.229379,-0.352485,-0.050000,-0.050000,0.627283,-0.578923,0.000000,0.000000,-0.467599,0.086789,0.929324,0.351547,-0.034808,0.658929,-0.114498,-0.260533,-0.055476,-0.293965
-0.050000,-0.050000,0.000000,0.000000,0.000000,0.000000,0.000000,0.000000,0.000000,0.100000,0.100000,-0.236942,-0.339650,-0.050000,-0.050000,0.633881,-0.576910,0.000000,0.000000,-0.461971,0.083592,0.896944,0.334193,-0.065386,0.672023,-0.115482,-0.264156,-0.053949,-0.294305
-0.050000,-0.050000,0.000000,0.000000,0.000000,0.000000,0.000000,0.000000,0.000000,0.100000,0.100000,-0.243836,-0.325786,-0.050000,-0.050000,0.638920,-0.573711,0.000000,0.000000,-0.455154,0.081306,0.864285,0.318242,-0.098379,0.684852,-0.116189,-0.267123,-0.051913,-0.293421
-0.050000,-0.050000,0.000000,0.000000,0.000000,0.000000,0.000000,0.000000,0.000000,0.100000,0.100000,-0.248249,-0.310249,-0.050000,-0.050000,0.638336,-0.566439,0.000000,0.000000,-0.444505,0.081837,0.832152,0.306534,-0.138432,0.697342,-0.116216,-0.268501,-0.047989,-0.289778
-0.050000,-0.050000,0.000000,0.000000,0.000000,0.000000,0.000000,0.000000,0.000000,0.100000,0.100000,-0.251768,-0.294697,-0.050000,-0.050000,0.635738,-0.557817,0.000000,0.000000,-0.432642,0.083336,0.800574,0.296307,-0.180411,0.709663,-0.116149,-0.269383,-0.043415,-0.285563
-0.050000,-0.050000,0.000000,0.000000,0.000000,0.000000,0.000000,0.000000,0.000000,0.100000,0.100000,-0.253496,-0.279116,-0.050000,-0.050000,0.629115,-0.546493,0.000000,0.000000,-0.418354,0.086774,0.770105,0.289043,-0.226240,0.721645,-0.115893,-0.269272,-0.037544,-0.280204
-0.050000,-0.050000,0.000000,0.000000,0.000000,0.000000,0.000000,0.000000,0.000000,0.100000,0.100000,-0.253517,-0.264543,-0.050000,-0.050000,0.618664,-0.532872,0.000000,0.000000,-0.402063,0.092105,0.741150,0.284830,-0.274424,0.732860,-0.115836,-0.268115,-0.030567,-0.274320
-0.050000,-0.050000,0.000000,0.000000,0.000000,0.000000,0.000000,0.000000,0.000000,0.100000,0.100000,-0.252684,-0.250474,-0.050000,-0.050000,0.606299,-0.518101,0.000000,0.000000,-0.384769,0.098381,0.712952,0.282143,-0.323784,0.743691,-0.115879,-0.266435,-0.023038,-0.268172
-0.050000,-0.050000,0.000000,0.000000,0.000000,0.000000,0.000000,0.000000,0.000000,0.100000,0.100000,-0.249727,-0.239096,-0.050000,-0.050000,0.589232,-0.500950,0.000000,0.000000,-0.365428,0.107118,0.686949,0.283839,-0.373830,0.752546,-0.116840,-0.263129,-0.014440,-0.261892
-0.050000,-0.050000,0.000000,0.000000,0.000000,0.000000,0.000000,0.000000,0.000000,0.100000,0.100000,-0.246289,-0.228819,-0.050000,-0.050000,0.571151,-0.483439,0.000000,0.000000,-0.345779,0.116434,0.661448,0.286766,-0.423115,0.760511,-0.118265,-0.259321,-0.005731,-0.255681
-0.050000,-0.050000,0.000000,0.000000,0.000000,0.000000,0.000000,0.000000,0.000000,0.100000,0.100000,-0.241885,-0.220743,-0.050000,-0.050000,0.551041,-0.465207,0.000000,0.000000,-0.325513,0.126912,0.636950,0.292156,-0.470875,0.766697,-0.120618,-0.254509,0.003200,-0.249610
-0.050000,-0.050000,0.000000,0.000000,0.000000,0.000000,0.000000,0.000000,0.000000,0.100000,0.100000,-0.237042,-0.214873,-0.050000,-0.050000,0.530241,-0.447125,0.000000,0.000000,-0.305374,0.137931,0.612780,0.299244,-0.515347,0.770880,-0.124025,-0.248921,0.011899,-0.243747
-0.050000,-0.050000,0.000000,0.000000,0.000000,0.000000,0.000000,0.000000,0.000000,0.100000,0.100000,-0.231979,-0.210104,-0.050000,-0.050000,0.509097,-0.429118,0.000000,0.000000,-0.285299,0.149220,0.588774,0.307180,-0.558173,0.774061,-0.127959,-0.242946,0.020482,-0.237990
-0.050000,-0.050000,0.000000,0.000000,0.000000,0.000000,0.000000,0.000000,0.000000,0.100000,0.100000,-0.227021,-0.208164,-0.050000,-0.050000,0.488949,-0.412467,0.000000,0.000000,-0.266394,0.160412,0.564326,0.316276,-0.594089,0.774304,-0.133343,-0.236296,0.028273,-0.232529
-0.050000,-0.050000,0.000000,0.000000,0.000000,0.000000,0.000000,0.000000,0.000000,0.100000,0.100000,-0.222303,-0.206911,-0.050000,-0.050000,0.469714,-0.396552,0.000000,0.000000,-0.248131,0.171347,0.539566,0.325322,-0.627333,0.773687,-0.139070,-0.229584,0.035763,-0.227153
-0.050000,-0.050000,0.000000,0.000000,0.000000,0.000000,0.000000,0.000000,0.000000,0.100000,0.100000,-0.218064,-0.207033,-0.050000,-0.050000,0.452304,-0.382107,0.000000,0.000000,-0.231150,0.181771,0.514184,0.334267,-0.655233,0.771352,-0.145486,-0.222747,0.042651,-0.221946
-0.050000,-0.050000,0.000000,0.000000,0.000000,0.000000,0.000000,0.000000,0.000000,0.100000,0.100000,-0.214553,-0.207971,-0.050000,-0.050000,0.437540,-0.369470,0.000000,0.000000,-0.215776,0.191480,0.488271,0.342471,-0.677655,0.767597,-0.152191,-0.216013,0.049080,-0.216886
-0.050000,-0.050000,0.000000,0.000000,0.000000,0.000000,0.000000,0.000000,0.000000,0.100000,0.100000,-0.211405,-0.209318,-0.050000,-0.050000,0.424099,-0.357736,0.000000,0.000000,-0.201206,0.200832,0.462092,0.350306,-0.697340,0.763132,-0.159041,-0.209330,0.055279,-0.211900
-0.050000,-0.050000,0.000000,0.000000,0.000000,0.000000,0.000000,0.000000,0.000000,0.100000,0.100000,-0.209416,-0.211152,-0.050000,-0.050000,0.415237,-0.348860,0.000000,0.000000,-0.189265,0.209161,0.435842,0.356573,-0.709398,0.756874,-0.165679,-0.202935,0.061229,-0.207112
-0.050000,-0.050000,0.000000,0.000000,0.000000,0.000000,0.000000,0.000000,0.000000,0.100000,0.100000,-0.207731,-0.212967,-0.050000,-0.050000,0.407904,-0.340876,0.000000,0.000000,-0.178193,0.217241,0.409927,0.362327,-0.719293,0.750050,-0.172060,-0.196620,0.067267,-0.202384
-0.050000,-0.050000,0.000000,0.000000,0.000000,0.000000,0.000000,0.000000,0.000000,0.100000,0.100000,-0.206654,-0.214745,-0.050000,-0.050000,0.403627,-0.334680,0.000000,0.000000,-0.168862,0.224824,0.384681,0.367053,-0.724861,0.742093,-0.177926,-0.190462,0.073481,-0.197777
-0.050000,-0.050000,0.000000,0.000000,0.000000,0.000000,0.000000,0.000000,0.000000,0.100000,0.100000,-0.205839,-0.216273,-0.050000,-0.050000,0.402090,-0.329991,0.000000,0.000000,-0.161145,0.232135,0.360837,0.370996,-0.727027,0.732901,-0.183019,-0.184376,0.080151,-0.193299
-0.050000,-0.050000,0.000000,0.000000,0.000000,0.000000,0.000000,0.000000,0.000000,0.100000,0.100000,-0.205154,-0.217676,-0.050000,-0.050000,0.401922,-0.326057,0.000000,0.000000,-0.154236,0.239310,0.337693,0.374547,-0.727491,0.723090,-0.187725,-0.178325,0.087049,-0.188887
-0.050000,-0.050000,0.000000,0.000000,0.000000,0.000000,0.000000,0.000000,0.000000,0.100000,0.100000,-0.204157,-0.218569,-0.050000,-0.050000,0.405090,-0.323836,0.000000,0.000000,-0.149470,0.246330,0.317485,0.377431,-0.724171,0.711108,-0.191086,-0.172288,0.094809,-0.184753
-0.050000,-0.050000,0.000000,0.000000,0.000000,0.000000,0.000000,0.000000,0.000000,0.100000,0.100000,-0.202805,-0.219290,-0.050000,-0.050000,0.409080,-0.322000,0.000000,0.000000,-0.145327,0.253323,0.298395,0.380253,-0.719918,0.698297,-0.193991,-0.166266,0.102809,-0.180774
-0.050000,-0.050000,0.000000,0.000000,0.000000,0.000000,0.000000,0.000000,0.000000,0.100000,0.100000,-0.200741,-0.219668,-0.050000,-0.050000,0.414715,-0.320932,0.000000,0.000000,-0.142430,0.260265,0.281540,0.382953,-0.713800,0.683831,-0.195987,-0.160273,0.111287,-0.177102
-0.050000,-0.050000,0.000000,0.000000,0.000000,0.000000,0.000000,0.000000,0.000000,0.100000,0.100000,-0.197534,-0.219744,-0.050000,-0.050000,0.421467,-0.320310,0.000000,0.000000,-0.140650,0.267089,0.266932,0.385775,-0.706133,0.667620,-0.197118,-0.154419,0.119922,-0.173911
-0.050000,-0.050000,0.000000,0.000000,0.000000,0.000000,0.000000,0.000000,0.000000,0.100000,0.100000,-0.193754,-0.219670,-0.050000,-0.050000,0.428778,-0.319911,0.000000,0.000000,-0.139428,0.273853,0.253445,0.388658,-0.697691,0.650537,-0.197818,-0.148634,0.128635,-0.170960
-0.050000,-0.050000,0.000000,0.000000,0.000000,0.000000,0.000000,0.000000,0.000000,0.100000,0.100000,-0.187867,-0.219236,-0.050000,-0.050000,0.437145,-0.319843,0.000000,0.000000,-0.139819,0.280226,0.243107,0.391997,-0.686841,0.631015,-0.197306,-0.143300,0.136829,-0.168985
-0.050000,-0.050000,0.000000,0.000000,0.000000,0.000000,0.000000,0.000000,0.000000,0.100000,0.100000,-0.181272,-0.218723,-0.050000,-0.050000,0.445723,-0.319828,0.000000,0.000000,-0.140773,0.286392,0.233746,0.395577,-0.675014,0.610852,-0.196409,-0.138188,0.144548,-0.167384
-0.050000,-0.050000,0.000000,0.000000,0.000000,0.000000,0.000000,0.000000,0.000000,0.100000,0.100000,-0.173260,-0.218050,-0.050000,-0.050000,0.454719,-0.319919,0.000000,0.000000,-0.142853,0.292144,0.226343,0.399638,-0.661231,0.589409,-0.194744,-0.133520,0.151318,-0.166531
-0.050000,-0.050000,0.000000,0.000000,0.000000,0.000000,0.000000,0.000000,0.000000,0.100000,0.100000,-0.164110,-0.217326,-0.050000,-0.050000,0.463933,-0.320106,0.000000,0.000000,-0.146187,0.297391,0.220926,0.404428,-0.645017,0.567207,-0.192341,-0.129355,0.156542,-0.166385
-0.050000,-0.050000,0.000000,0.000000,0.000000,0.000000,0.000000,0.000000,0.000000,0.100000,0.100000,-0.154391,-0.216576,-0.050000,-0.050000,0.473257,-0.320340,0.000000,0.000000,-0.150146,0.302385,0.216503,0.409583,-0.627589,0.544625,-0.189568,-0.125443,0.160993,-0.166591
-0.050000,-0.050000,0.000000,0.000000,0.000000,0.000000,0.000000,0.000000,0.000000,0.100000,0.100000,-0.143787,-0.215984,-0.050000,-0.050000,0.482629,-0.320810,0.000000,0.000000,-0.156218,0.306655,0.215530,0.416392,-0.605956,0.521799,-0.185762,-0.122194,0.162399,-0.167543
-0.050000,-0.050000,0.000000,0.000000,0.000000,0.000000,0.000000,0.000000,0.000000,0.100000,0.100000,-0.133264,-0.215551,-0.050000,-0.050000,0.491894,-0.321400,0.000000,0.000000,-0.163061,0.310757,0.216025,0.423998,-0.582888,0.499164,-0.181659,-0.119073,0.162656,-0.168566
-0.050000,-0.050000,0.000000,0.000000,0.000000,0.000000,0.000000,0.000000,0.000000,0.100000,0.100000,-0.122903,-0.215433,-0.050000,-0.050000,0.500945,-0.322233,0.000000,0.000000,-0.171446,0.314525,0.219456,0.433200,-0.556949,0.476914,-0.176962,-0.116209,0.160612,-0.169732
-0.050000,-0.050000,0.000000,0.000000,0.000000,0.000000,0.000000,0.000000,0.000000,0.100000,0.100000,-0.113543,-0.215879,-0.050000,-0.050000,0.509422,-0.323365,0.000000,0.000000,-0.181437,0.318205,0.226726,0.444549,-0.528492,0.455451,-0.171804,-0.113321,0.156279,-0.170608
