RRGGZZ/g1_deploy_sonic/data/example_scalelab/qwen_audio/g1_ref_en/case_test2/joint_pos.csv
joint_0,joint_1,joint_2,joint_3,joint_4,joint_5,joint_6,joint_7,joint_8,joint_9,joint_10,joint_11,joint_12,joint_13,joint_14,joint_15,joint_16,joint_17,joint_18,joint_19,joint_20,joint_21,joint_22,joint_23,joint_24,joint_25,joint_26,joint_27,joint_28
-0.050000,-0.050000,0.000000,0.000000,0.000000,0.000000,0.000000,0.000000,0.000000,0.100000,0.100000,-0.194178,-0.502147,-0.050000,-0.050000,0.412868,-0.735180,0.000000,0.000000,-0.490410,0.181454,1.127546,-0.041638,0.157594,-0.410083,-0.076782,-0.019667,0.024767,-0.618236
-0.050000,-0.050000,0.000000,0.000000,0.000000,0.000000,0.000000,0.000000,0.000000,0.100000,0.100000,-0.194541,-0.506733,-0.050000,-0.050000,0.404810,-0.741355,0.000000,0.000000,-0.487744,0.179342,1.146701,-0.035227,0.159805,-0.409870,-0.081766,-0.020578,0.026405,-0.620846
-0.050000,-0.050000,0.000000,0.000000,0.000000,0.000000,0.000000,0.000000,0.000000,0.100000,0.100000,-0.193622,-0.510544,-0.050000,-0.050000,0.397622,-0.747149,0.000000,0.000000,-0.484510,0.176642,1.164175,-0.029677,0.162307,-0.409698,-0.085498,-0.021111,0.027451,-0.622769
-0.050000,-0.050000,0.000000,0.000000,0.000000,0.000000,0.000000,0.000000,0.000000,0.100000,0.100000,-0.190139,-0.512803,-0.050000,-0.050000,0.392172,-0.752182,0.000000,0.000000,-0.480141,0.172767,1.178284,-0.025849,0.165393,-0.409610,-0.086724,-0.020889,0.027312,-0.623320
-0.050000,-0.050000,0.000000,0.000000,0.000000,0.000000,0.000000,0.000000,0.000000,0.100000,0.100000,-0.185065,-0.514259,-0.050000,-0.050000,0.387427,-0.756900,0.000000,0.000000,-0.475249,0.168347,1.190541,-0.023093,0.168657,-0.409483,-0.086601,-0.020138,0.026441,-0.623253
-0.050000,-0.050000,0.000000,0.000000,0.000000,0.000000,0.000000,0.000000,0.000000,0.100000,0.100000,-0.179193,-0.515313,-0.050000,-0.050000,0.383036,-0.761459,0.000000,0.000000,-0.470095,0.163654,1.201872,-0.020872,0.172009,-0.409336,-0.085803,-0.019121,0.025205,-0.622877
-0.050000,-0.050000,0.000000,0.000000,0.000000,0.000000,0.000000,0.000000,0.000000,0.100000,0.100000,-0.171906,-0.515791,-0.050000,-0.050000,0.379056,-0.765867,0.000000,0.000000,-0.464588,0.158588,1.211104,-0.020057,0.175350,-0.409001,-0.084044,-0.017764,0.023350,-0.622445
-0.050000,-0.050000,0.000000,0.000000,0.000000,0.000000,0.000000,0.000000,0.000000,0.100000,0.100000,-0.164389,-0.516209,-0.050000,-0.050000,0.375139,-0.770266,0.000000,0.000000,-0.459055,0.153450,1.219642,-0.019770,0.178625,-0.408603,-0.082200,-0.016441,0.021409,-0.622265
-0.050000,-0.050000,0.000000,0.000000,0.000000,0.000000,0.000000,0.000000,0.000000,0.100000,0.100000,-0.156411,-0.516508,-0.050000,-0.050000,0.371349,-0.774651,0.000000,0.000000,-0.453472,0.148167,1.226792,-0.020539,0.181767,-0.408080,-0.080186,-0.015186,0.019296,-0.622588
-0.050000,-0.050000,0.000000,0.000000,0.000000,0.000000,0.000000,0.000000,0.000000,0.100000,0.100000,-0.148347,-0.516818,-0.050000,-0.050000,0.367680,-0.779020,0.000000,0.000000,-0.447986,0.142735,1.232431,-0.022556,0.184684,-0.407503,-0.078338,-0.014235,0.017213,-0.623909
-0.050000,-0.050000,0.000000,0.000000,0.000000,0.000000,0.000000,0.000000,0.000000,0.100000,0.100000,-0.140239,-0.517135,-0.050000,-0.050000,0.364071,-0.783382,0.000000,0.000000,-0.442549,0.137227,1.237315,-0.025196,0.187489,-0.406900,-0.076573,-0.013435,0.015144,-0.625728
-0.050000,-0.050000,0.000000,0.000000,0.000000,0.000000,0.000000,0.000000,0.000000,0.100000,0.100000,-0.132454,-0.517512,-0.050000,-0.050000,0.360743,-0.787628,0.000000,0.000000,-0.437453,0.131398,1.239793,-0.029899,0.189877,-0.406381,-0.075404,-0.013293,0.013369,-0.629626
-0.050000,-0.050000,0.000000,0.000000,0.000000,0.000000,0.000000,0.000000,0.000000,0.100000,0.100000,-0.124902,-0.517885,-0.050000,-0.050000,0.357556,-0.791783,0.000000,0.000000,-0.432531,0.125426,1.241474,-0.035276,0.192124,-0.405947,-0.074498,-0.013375,0.011755,-0.634328
-0.050000,-0.050000,0.000000,0.000000,0.000000,0.000000,0.000000,0.000000,0.000000,0.100000,0.100000,-0.117818,-0.518250,-0.050000,-0.050000,0.354650,-0.795755,0.000000,0.000000,-0.427957,0.119166,1.241560,-0.042001,0.194089,-0.405685,-0.074117,-0.013905,0.010462,-0.640643
-0.050000,-0.050000,0.000000,0.000000,0.000000,0.000000,0.000000,0.000000,0.000000,0.100000,0.100000,-0.111417,-0.518510,-0.050000,-0.050000,0.352116,-0.799408,0.000000,0.000000,-0.423846,0.112579,1.240180,-0.049853,0.195817,-0.405676,-0.074287,-0.014779,0.009577,-0.648612
-0.050000,-0.050000,0.000000,0.000000,0.000000,0.000000,0.000000,0.000000,0.000000,0.100000,0.100000,-0.105358,-0.518718,-0.050000,-0.050000,0.349767,-0.802901,0.000000,0.000000,-0.419967,0.105829,1.238067,-0.058270,0.197426,-0.405794,-0.074732,-0.015824,0.008895,-0.657409
-0.050000,-0.050000,0.000000,0.000000,0.000000,0.000000,0.000000,0.000000,0.000000,0.100000,0.100000,-0.100597,-0.518604,-0.050000,-0.050000,0.348080,-0.805696,0.000000,0.000000,-0.416942,0.098617,1.234083,-0.067777,0.198787,-0.406324,-0.075912,-0.017113,0.008907,-0.668509
-0.050000,-0.050000,0.000000,0.000000,0.000000,0.000000,0.000000,0.000000,0.000000,0.100000,0.100000,-0.096341,-0.518337,-0.050000,-0.050000,0.346629,-0.808190,0.000000,0.000000,-0.414245,0.091298,1.229602,-0.077384,0.200100,-0.406960,-0.077282,-0.018380,0.009176,-0.680252
-0.050000,-0.050000,0.000000,0.000000,0.000000,0.000000,0.000000,0.000000,0.000000,0.100000,0.100000,-0.093097,-0.517763,-0.050000,-0.050000,0.345652,-0.810082,0.000000,0.000000,-0.412204,0.083763,1.224127,-0.087192,0.201316,-0.407806,-0.079028,-0.019605,0.009957,-0.693285
-0.050000,-0.050000,0.000000,0.000000,0.000000,0.000000,0.000000,0.000000,0.000000,0.100000,0.100000,-0.090962,-0.516834,-0.050000,-0.050000,0.345147,-0.811272,0.000000,0.000000,-0.410868,0.076166,1.217888,-0.096622,0.202462,-0.408713,-0.081026,-0.020611,0.011321,-0.707277
-0.050000,-0.050000,0.000000,0.000000,0.000000,0.000000,0.000000,0.000000,0.000000,0.100000,0.100000,-0.089381,-0.515728,-0.050000,-0.050000,0.344877,-0.812110,0.000000,0.000000,-0.409884,0.068538,1.211266,-0.105863,0.203573,-0.409651,-0.083151,-0.021507,0.012975,-0.721749
-0.050000,-0.050000,0.000000,0.000000,0.000000,0.000000,0.000000,0.000000,0.000000,0.100000,0.100000,-0.089515,-0.514114,-0.050000,-0.050000,0.345261,-0.811827,0.000000,0.000000,-0.409948,0.061116,1.203722,-0.113719,0.204520,-0.410355,-0.085509,-0.021909,0.015671,-0.737087
-0.050000,-0.050000,0.000000,0.000000,0.000000,0.000000,0.000000,0.000000,0.000000,0.100000,0.100000,-0.090198,-0.512372,-0.050000,-0.050000,0.345835,-0.811186,0.000000,0.000000,-0.410326,0.053870,1.195895,-0.120893,0.205357,-0.410868,-0.087927,-0.022138,0.018798,-0.752510
-0.050000,-0.050000,0.000000,0.000000,0.000000,0.000000,0.000000,0.000000,0.000000,0.100000,0.100000,-0.091979,-0.510372,-0.050000,-0.050000,0.346786,-0.809827,0.000000,0.000000,-0.411330,0.046977,1.187502,-0.126707,0.205978,-0.410996,-0.090463,-0.022021,0.022788,-0.768102
-0.050000,-0.050000,0.000000,0.000000,0.000000,0.000000,0.000000,0.000000,0.000000,0.100000,0.100000,-0.094734,-0.508239,-0.050000,-0.050000,0.348047,-0.807861,0.000000,0.000000,-0.412826,0.040642,1.178499,-0.130894,0.206238,-0.410565,-0.093147,-0.021643,0.027856,-0.783456
-0.050000,-0.050000,0.000000,0.000000,0.000000,0.000000,0.000000,0.000000,0.000000,0.100000,0.100000,-0.097975,-0.506039,-0.050000,-0.050000,0.349463,-0.805591,0.000000,0.000000,-0.414568,0.034586,1.169192,-0.134269,0.206319,-0.409855,-0.095906,-0.021135,0.033463,-0.798692
-0.050000,-0.050000,0.000000,0.000000,0.000000,0.000000,0.000000,0.000000,0.000000,0.100000,0.100000,-0.102372,-0.503831,-0.050000,-0.050000,0.351238,-0.802680,0.000000,0.000000,-0.416779,0.029627,1.158846,-0.135102,0.205675,-0.408224,-0.099017,-0.020518,0.041028,-0.813004
-0.050000,-0.050000,0.000000,0.000000,0.000000,0.000000,0.000000,0.000000,0.000000,0.100000,0.100000,-0.107026,-0.501662,-0.050000,-0.050000,0.353101,-0.799669,0.000000,0.000000,-0.419051,0.025097,1.148131,-0.135143,0.204764,-0.406333,-0.102298,-0.019991,0.049332,-0.826846
-0.050000,-0.050000,0.000000,0.000000,0.000000,0.000000,0.000000,0.000000,0.000000,0.100000,0.100000,-0.112196,-0.499571,-0.050000,-0.050000,0.355140,-0.796459,0.000000,0.000000,-0.421444,0.021428,1.136675,-0.133599,0.203322,-0.403919,-0.105920,-0.019645,0.059113,-0.839746
-0.050000,-0.050000,0.000000,0.000000,0.000000,0.000000,0.000000,0.000000,0.000000,0.100000,0.100000,-0.117607,-0.497568,-0.050000,-0.050000,0.357296,-0.793291,0.000000,0.000000,-0.423789,0.018713,1.124550,-0.130672,0.201408,-0.401182,-0.109948,-0.019747,0.070393,-0.851425
-0.050000,-0.050000,0.000000,0.000000,0.000000,0.000000,0.000000,0.000000,0.000000,0.100000,0.100000,-0.123138,-0.495609,-0.050000,-0.050000,0.359510,-0.790143,0.000000,0.000000,-0.426109,0.016476,1.112091,-0.127053,0.199259,-0.398285,-0.114181,-0.020072,0.082423,-0.862494
-0.050000,-0.050000,0.000000,0.000000,0.000000,0.000000,0.000000,0.000000,0.000000,0.100000,0.100000,-0.128648,-0.493686,-0.050000,-0.050000,0.361812,-0.787371,0.000000,0.000000,-0.428187,0.015787,1.099007,-0.121622,0.196645,-0.395205,-0.118967,-0.021363,0.096369,-0.871333
-0.050000,-0.050000,0.000000,0.000000,0.000000,0.000000,0.000000,0.000000,0.000000,0.100000,0.100000,-0.134048,-0.491728,-0.050000,-0.050000,0.364110,-0.784794,0.000000,0.000000,-0.430165,0.015658,1.085936,-0.115600,0.193982,-0.392094,-0.123841,-0.023004,0.110691,-0.879274
-0.050000,-0.050000,0.000000,0.000000,0.000000,0.000000,0.000000,0.000000,0.000000,0.100000,0.100000,-0.139231,-0.489701,-0.050000,-0.050000,0.366402,-0.782609,0.000000,0.000000,-0.431940,0.016651,1.072893,-0.108394,0.191222,-0.388918,-0.128891,-0.025342,0.125763,-0.885422
-0.050000,-0.050000,0.000000,0.000000,0.000000,0.000000,0.000000,0.000000,0.000000,0.100000,0.100000,-0.144065,-0.487547,-0.050000,-0.050000,0.368613,-0.780859,0.000000,0.000000,-0.433547,0.018874,1.060471,-0.099821,0.188553,-0.385471,-0.133753,-0.028248,0.140758,-0.889376
-0.050000,-0.050000,0.000000,0.000000,0.000000,0.000000,0.000000,0.000000,0.000000,0.100000,0.100000,-0.148725,-0.485330,-0.050000,-0.050000,0.370784,-0.779327,0.000000,0.000000,-0.435069,0.021712,1.048358,-0.090562,0.185929,-0.381888,-0.138521,-0.031438,0.155716,-0.892234
-0.050000,-0.050000,0.000000,0.000000,0.000000,0.000000,0.000000,0.000000,0.000000,0.100000,0.100000,-0.152785,-0.482990,-0.050000,-0.050000,0.372718,-0.778368,0.000000,0.000000,-0.436465,0.026558,1.038137,-0.078722,0.183593,-0.377151,-0.142280,-0.035032,0.169013,-0.891077
-0.050000,-0.050000,0.000000,0.000000,0.000000,0.000000,0.000000,0.000000,0.000000,0.100000,0.100000,-0.156650,-0.480692,-0.050000,-0.050000,0.374540,-0.777531,0.000000,0.000000,-0.437869,0.032103,1.028824,-0.065839,0.181349,-0.371689,-0.145450,-0.038565,0.181227,-0.888340
-0.050000,-0.050000,0.000000,0.000000,0.000000,0.000000,0.000000,0.000000,0.000000,0.100000,0.100000,-0.160126,-0.478479,-0.050000,-0.050000,0.376135,-0.776941,0.000000,0.000000,-0.439291,0.039043,1.021330,-0.050873,0.179291,-0.364777,-0.147443,-0.041977,0.191277,-0.882446
-0.050000,-0.050000,0.000000,0.000000,0.000000,0.000000,0.000000,0.000000,0.000000,0.100000,0.100000,-0.165703,-0.480078,-0.050000,-0.050000,0.377626,-0.777317,0.000000,0.000000,-0.440684,0.047503,1.015846,-0.030876,0.176938,-0.354572,-0.147400,-0.046013,0.198439,-0.872704
-0.050000,-0.050000,0.000000,0.000000,0.000000,0.000000,0.000000,0.000000,0.000000,0.100000,0.100000,-0.172330,-0.483583,-0.050000,-0.050000,0.379065,-0.778177,0.000000,0.000000,-0.442062,0.056721,1.011367,-0.008362,0.174438,-0.342720,-0.146338,-0.050360,0.204157,-0.861038
-0.050000,-0.050000,0.000000,0.000000,0.000000,0.000000,0.000000,0.000000,0.000000,0.100000,0.100000,-0.176161,-0.485450,-0.050000,-0.050000,0.379571,-0.778178,0.000000,0.000000,-0.443248,0.068182,1.011055,0.014924,0.172382,-0.327895,-0.142960,-0.052697,0.203611,-0.844244
-0.050000,-0.050000,0.000000,0.000000,0.000000,0.000000,0.000000,0.000000,0.000000,0.100000,0.100000,-0.179644,-0.487315,-0.050000,-0.050000,0.379974,-0.777932,0.000000,0.000000,-0.444467,0.079866,1.011716,0.038410,0.170397,-0.312031,-0.138865,-0.054560,0.201399,-0.826070
-0.050000,-0.050000,0.000000,0.000000,0.000000,0.000000,0.000000,0.000000,0.000000,0.100000,0.100000,-0.182430,-0.489178,-0.050000,-0.050000,0.380171,-0.777192,0.000000,0.000000,-0.445754,0.092000,1.014322,0.062293,0.168555,-0.294089,-0.133337,-0.055473,0.195855,-0.805136
-0.050000,-0.050000,0.000000,0.000000,0.000000,0.000000,0.000000,0.000000,0.000000,0.100000,0.100000,-0.184844,-0.491294,-0.050000,-0.050000,0.380210,-0.775999,0.000000,0.000000,-0.447047,0.103798,1.018405,0.085554,0.166891,-0.274702,-0.126797,-0.055963,0.187766,-0.782779
-0.050000,-0.050000,0.000000,0.000000,0.000000,0.000000,0.000000,0.000000,0.000000,0.100000,0.100000,-0.187073,-0.493537,-0.050000,-0.050000,0.380172,-0.774580,0.000000,0.000000,-0.448343,0.115429,1.023225,0.108503,0.165316,-0.254593,-0.119751,-0.056241,0.178406,-0.759710
-0.050000,-0.050000,0.000000,0.000000,0.000000,0.000000,0.000000,0.000000,0.000000,0.100000,0.100000,-0.188871,-0.495960,-0.050000,-0.050000,0.379942,-0.772592,0.000000,0.000000,-0.449482,0.125486,1.029409,0.128541,0.164079,-0.233763,-0.112215,-0.056860,0.166912,-0.737086
-0.050000,-0.050000,0.000000,0.000000,0.000000,0.000000,0.000000,0.000000,0.000000,0.100000,0.100000,-0.190547,-0.498316,-0.050000,-0.050000,0.379671,-0.770481,0.000000,0.000000,-0.450528,0.134744,1.035744,0.147060,0.162925,-0.213167,-0.104876,-0.057907,0.155314,-0.715453
-0.050000,-0.050000,0.000000,0.000000,0.000000,0.000000,0.000000,0.000000,0.000000,0.100000,0.100000,-0.191976,-0.500538,-0.050000,-0.050000,0.379319,-0.768123,0.000000,0.000000,-0.451387,0.142405,1.042379,0.162538,0.161935,-0.193039,-0.097928,-0.059809,0.143506,-0.695802
-0.050000,-0.050000,0.000000,0.000000,0.000000,0.000000,0.000000,0.000000,0.000000,0.100000,0.100000,-0.190772,-0.500014,-0.050000,-0.050000,0.378836,-0.764846,0.000000,0.000000,-0.452501,0.148345,1.048317,0.173120,0.161170,-0.175676,-0.092419,-0.062326,0.133624,-0.680448
-0.050000,-0.050000,0.000000,0.000000,0.000000,0.000000,0.000000,0.000000,0.000000,0.100000,0.100000,-0.188252,-0.498116,-0.050000,-0.050000,0.378288,-0.761109,0.000000,0.000000,-0.453741,0.153425,1.053906,0.181252,0.160516,-0.159697,-0.087630,-0.065152,0.124704,-0.667242
-0.050000,-0.050000,0.000000,0.000000,0.000000,0.000000,0.000000,0.000000,0.000000,0.100000,0.100000,-0.187962,-0.497914,-0.050000,-0.050000,0.378221,-0.758140,0.000000,0.000000,-0.454426,0.155856,1.058508,0.186056,0.159148,-0.143740,-0.083931,-0.070105,0.116599,-0.657623
-0.050000,-0.050000,0.000000,0.000000,0.000000,0.000000,0.000000,0.000000,0.000000,0.100000,0.100000,-0.188128,-0.497941,-0.050000,-0.050000,0.378291,-0.755370,0.000000,0.000000,-0.454988,0.157674,1.062490,0.189910,0.157438,-0.128191,-0.080763,-0.075485,0.109211,-0.649440
-0.050000,-0.050000,0.000000,0.000000,0.000000,0.000000,0.000000,0.000000,0.000000,0.100000,0.100000,-0.189202,-0.498428,-0.050000,-0.050000,0.378635,-0.752998,0.000000,0.000000,-0.455303,0.158268,1.065231,0.191867,0.155045,-0.113454,-0.078657,-0.081716,0.103257,-0.644132
-0.050000,-0.050000,0.000000,0.000000,0.000000,0.000000,0.000000,0.000000,0.000000,0.100000,0.100000,-0.191160,-0.499103,-0.050000,-0.050000,0.379446,-0.750916,0.000000,0.000000,-0.455538,0.158296,1.066178,0.192949,0.151766,-0.099350,-0.077511,-0.087965,0.098927,-0.640846
-0.050000,-0.050000,0.000000,0.000000,0.000000,0.000000,0.000000,0.000000,0.000000,0.100000,0.100000,-0.193560,-0.499871,-0.050000,-0.050000,0.380490,-0.748979,0.000000,0.000000,-0.455733,0.158041,1.066229,0.193593,0.148046,-0.085563,-0.076845,-0.094224,0.095408,-0.638572
-0.050000,-0.050000,0.000000,0.000000,0.000000,0.000000,0.000000,0.000000,0.000000,0.100000,0.100000,-0.197555,-0.500894,-0.050000,-0.050000,0.382644,-0.747400,0.000000,0.000000,-0.455941,0.157897,1.062765,0.194652,0.142730,-0.071946,-0.077189,-0.099318,0.094165,-0.637282
-0.050000,-0.050000,0.000000,0.000000,0.000000,0.000000,0.000000,0.000000,0.000000,0.100000,0.100000,-0.202170,-0.502021,-0.050000,-0.050000,0.385305,-0.745920,0.000000,0.000000,-0.456126,0.158044,1.057873,0.196277,0.136811,-0.058123,-0.077716,-0.103776,0.093606,-0.635647
-0.050000,-0.050000,0.000000,0.000000,0.000000,0.000000,0.000000,0.000000,0.000000,0.100000,0.100000,-0.208023,-0.503356,-0.050000,-0.050000,0.388980,-0.744639,0.000000,0.000000,-0.456263,0.158769,1.050121,0.199032,0.129683,-0.043889,-0.078608,-0.106963,0.094413,-0.633320
-0.050000,-0.050000,0.000000,0.000000,0.000000,0.000000,0.000000,0.000000,0.000000,0.100000,0.100000,-0.215173,-0.504867,-0.050000,-0.050000,0.393874,-0.743494,0.000000,0.000000,-0.456112,0.160311,1.039093,0.203200,0.121214,-0.028957,-0.079639,-0.108829,0.096536,-0.629375
-0.050000,-0.050000,0.000000,0.000000,0.000000,0.000000,0.000000,0.000000,0.000000,0.100000,0.100000,-0.222971,-0.506465,-0.050000,-0.050000,0.399377,-0.742417,0.000000,0.000000,-0.455816,0.162260,1.026427,0.208074,0.112073,-0.013676,-0.080739,-0.110033,0.099317,-0.624623
-0.050000,-0.050000,0.000000,0.000000,0.000000,0.000000,0.000000,0.000000,0.000000,0.100000,0.100000,-0.232542,-0.508091,-0.050000,-0.050000,0.406822,-0.741378,0.000000,0.000000,-0.454461,0.165290,1.008494,0.214545,0.100703,0.002550,-0.081902,-0.109835,0.104214,-0.617047
-0.050000,-0.050000,0.000000,0.000000,0.000000,0.000000,0.000000,0.000000,0.000000,0.100000,0.100000,-0.242562,-0.509591,-0.050000,-0.050000,0.414859,-0.740261,0.000000,0.000000,-0.452487,0.168479,0.988818,0.221140,0.088507,0.018907,-0.083100,-0.109511,0.109915,-0.608736
-0.050000,-0.050000,0.000000,0.000000,0.000000,0.000000,0.000000,0.000000,0.000000,0.100000,0.100000,-0.253478,-0.510840,-0.050000,-0.050000,0.424080,-0.738992,0.000000,0.000000,-0.449273,0.171989,0.965655,0.227980,0.074659,0.035527,-0.084366,-0.108932,0.117226,-0.598957
-0.050000,-0.050000,0.000000,0.000000,0.000000,0.000000,0.000000,0.000000,0.000000,0.100000,0.100000,-0.264875,-0.511527,-0.050000,-0.050000,0.434166,-0.737326,0.000000,0.000000,-0.444266,0.175224,0.939321,0.234084,0.058986,0.051936,-0.085809,-0.108856,0.126356,-0.588614
-0.050000,-0.050000,0.000000,0.000000,0.000000,0.000000,0.000000,0.000000,0.000000,0.100000,0.100000,-0.276511,-0.511932,-0.050000,-0.050000,0.444683,-0.735463,0.000000,0.000000,-0.438363,0.178322,0.911402,0.239819,0.042399,0.068240,-0.087341,-0.109031,0.136394,-0.577989
-0.050000,-0.050000,0.000000,0.000000,0.000000,0.000000,0.000000,0.000000,0.000000,0.100000,0.100000,-0.288158,-0.511103,-0.050000,-0.050000,0.455711,-0.732574,0.000000,0.000000,-0.429074,0.180056,0.879611,0.243236,0.022832,0.083698,-0.089348,-0.110856,0.149323,-0.568143
-0.050000,-0.050000,0.000000,0.000000,0.000000,0.000000,0.000000,0.000000,0.000000,0.100000,0.100000,-0.299587,-0.509799,-0.050000,-0.050000,0.466577,-0.729195,0.000000,0.000000,-0.418515,0.181076,0.846927,0.245689,0.002217,0.098827,-0.091576,-0.113365,0.163180,-0.559024
-0.050000,-0.050000,0.000000,0.000000,0.000000,0.000000,0.000000,0.000000,0.000000,0.100000,0.100000,-0.310583,-0.507546,-0.050000,-0.050000,0.477117,-0.724837,0.000000,0.000000,-0.405416,0.180671,0.812456,0.246216,-0.020492,0.113299,-0.094246,-0.117239,0.178892,-0.551359
-0.050000,-0.050000,0.000000,0.000000,0.000000,0.000000,0.000000,0.000000,0.000000,0.100000,0.100000,-0.320818,-0.504384,-0.050000,-0.050000,0.486632,-0.719252,0.000000,0.000000,-0.389742,0.178555,0.777089,0.244942,-0.045306,0.127284,-0.097444,-0.122358,0.196177,-0.545714
-0.050000,-0.050000,0.000000,0.000000,0.000000,0.000000,0.000000,0.000000,0.000000,0.100000,0.100000,-0.330673,-0.500767,-0.050000,-0.050000,0.495635,-0.713054,0.000000,0.000000,-0.372779,0.175585,0.741274,0.242769,-0.071172,0.141027,-0.100907,-0.128098,0.214248,-0.541079
-0.050000,-0.050000,0.000000,0.000000,0.000000,0.000000,0.000000,0.000000,0.000000,0.100000,0.100000,-0.339131,-0.496053,-0.050000,-0.050000,0.502219,-0.704813,0.000000,0.000000,-0.352288,0.170039,0.705433,0.238691,-0.099989,0.154527,-0.105222,-0.135072,0.233984,-0.539665
-0.050000,-0.050000,0.000000,0.000000,0.000000,0.000000,0.000000,0.000000,0.000000,0.100000,0.100000,-0.347114,-0.491090,-0.050000,-0.050000,0.507828,-0.695908,0.000000,0.000000,-0.330851,0.163751,0.669965,0.234329,-0.129631,0.168109,-0.109816,-0.142182,0.253987,-0.539209
-0.050000,-0.050000,0.000000,0.000000,0.000000,0.000000,0.000000,0.000000,0.000000,0.100000,0.100000,-0.354149,-0.485630,-0.050000,-0.050000,0.511489,-0.685675,0.000000,0.000000,-0.307519,0.155979,0.635245,0.229399,-0.160922,0.181856,-0.114968,-0.149564,0.274523,-0.540665
-0.050000,-0.050000,0.000000,0.000000,0.000000,0.000000,0.000000,0.000000,0.000000,0.100000,0.100000,-0.361068,-0.481648,-0.050000,-0.050000,0.515182,-0.674241,0.000000,0.000000,-0.281878,0.146265,0.598358,0.223771,-0.195902,0.196777,-0.119154,-0.157192,0.296398,-0.543593
-0.050000,-0.050000,0.000000,0.000000,0.000000,0.000000,0.000000,0.000000,0.000000,0.100000,0.100000,-0.367929,-0.478405,-0.050000,-0.050000,0.518892,-0.662207,0.000000,0.000000,-0.255083,0.135580,0.560386,0.217794,-0.232726,0.212284,-0.122858,-0.164942,0.318942,-0.547257
-0.050000,-0.050000,0.000000,0.000000,0.000000,0.000000,0.000000,0.000000,0.000000,0.100000,0.100000,-0.372561,-0.473034,-0.050000,-0.050000,0.517816,-0.649052,0.000000,0.000000,-0.228436,0.125193,0.529393,0.213653,-0.266977,0.227228,-0.128625,-0.170989,0.338678,-0.552423
-0.050000,-0.050000,0.000000,0.000000,0.000000,0.000000,0.000000,0.000000,0.000000,0.100000,0.100000,-0.376812,-0.467397,-0.050000,-0.050000,0.516125,-0.635876,0.000000,0.000000,-0.201889,0.114652,0.499630,0.209764,-0.300961,0.242181,-0.134752,-0.176683,0.357837,-0.557859
-0.050000,-0.050000,0.000000,0.000000,0.000000,0.000000,0.000000,0.000000,0.000000,0.100000,0.100000,-0.380303,-0.461229,-0.050000,-0.050000,0.513204,-0.622656,0.000000,0.000000,-0.175544,0.103801,0.472330,0.206382,-0.334409,0.257151,-0.141598,-0.181670,0.375843,-0.563837
-0.050000,-0.050000,0.000000,0.000000,0.000000,0.000000,0.000000,0.000000,0.000000,0.100000,0.100000,-0.383025,-0.454632,-0.050000,-0.050000,0.510141,-0.609921,0.000000,0.000000,-0.149820,0.092770,0.447017,0.203302,-0.366772,0.271750,-0.148642,-0.185943,0.392533,-0.569973
-0.050000,-0.050000,0.000000,0.000000,0.000000,0.000000,0.000000,0.000000,0.000000,0.100000,0.100000,-0.385365,-0.447820,-0.050000,-0.050000,0.507005,-0.597430,0.000000,0.000000,-0.124407,0.081649,0.422699,0.200374,-0.398593,0.286164,-0.155786,-0.189858,0.408566,-0.576187
-0.050000,-0.050000,0.000000,0.000000,0.000000,0.000000,0.000000,0.000000,0.000000,0.100000,0.100000,-0.386266,-0.440207,-0.050000,-0.050000,0.504941,-0.586418,0.000000,0.000000,-0.100368,0.070449,0.400870,0.197464,-0.427758,0.299216,-0.162826,-0.192804,0.422558,-0.582327
-0.050000,-0.050000,0.000000,0.000000,0.000000,0.000000,0.000000,0.000000,0.000000,0.100000,0.100000,-0.386561,-0.432261,-0.050000,-0.050000,0.503540,-0.576100,0.000000,0.000000,-0.076854,0.059259,0.379698,0.194426,-0.455735,0.311556,-0.169758,-0.195475,0.435916,-0.588399
-0.050000,-0.050000,0.000000,0.000000,0.000000,0.000000,0.000000,0.000000,0.000000,0.100000,0.100000,-0.385644,-0.423652,-0.050000,-0.050000,0.503463,-0.567169,0.000000,0.000000,-0.054387,0.048089,0.359838,0.191134,-0.481335,0.322473,-0.176472,-0.197595,0.448007,-0.594335
-0.050000,-0.050000,0.000000,0.000000,0.000000,0.000000,0.000000,0.000000,0.000000,0.100000,0.100000,-0.383281,-0.414279,-0.050000,-0.050000,0.504994,-0.559858,0.000000,0.000000,-0.032954,0.036975,0.340959,0.187437,-0.504091,0.331584,-0.182892,-0.199271,0.459017,-0.600121
-0.050000,-0.050000,0.000000,0.000000,0.000000,0.000000,0.000000,0.000000,0.000000,0.100000,0.100000,-0.380195,-0.404525,-0.050000,-0.050000,0.507329,-0.553357,0.000000,0.000000,-0.012036,0.025889,0.322570,0.183539,-0.525425,0.339791,-0.189164,-0.200724,0.469488,-0.605831
-0.050000,-0.050000,0.000000,0.000000,0.000000,0.000000,0.000000,0.000000,0.000000,0.100000,0.100000,-0.374714,-0.393543,-0.050000,-0.050000,0.511960,-0.549331,0.000000,0.000000,0.007512,0.014911,0.305262,0.179013,-0.542063,0.345007,-0.194940,-0.201679,0.478680,-0.611332
-0.050000,-0.050000,0.000000,0.000000,0.000000,0.000000,0.000000,0.000000,0.000000,0.100000,0.100000,-0.368424,-0.382144,-0.050000,-0.050000,0.517157,-0.546039,0.000000,0.000000,0.026683,0.003973,0.288249,0.174320,-0.557102,0.349239,-0.200539,-0.202530,0.487555,-0.616758
-0.050000,-0.050000,0.000000,0.000000,0.000000,0.000000,0.000000,0.000000,0.000000,0.100000,0.100000,-0.360518,-0.369908,-0.050000,-0.050000,0.523488,-0.544217,0.000000,0.000000,0.045101,-0.006886,0.271827,0.169291,-0.568940,0.351505,-0.205783,-0.203174,0.495798,-0.622038
-0.050000,-0.050000,0.000000,0.000000,0.000000,0.000000,0.000000,0.000000,0.000000,0.100000,0.100000,-0.351117,-0.356850,-0.050000,-0.050000,0.530329,-0.543505,0.000000,0.000000,0.062901,-0.017655,0.256022,0.164048,-0.577745,0.352034,-0.210632,-0.203736,0.503575,-0.627117
-0.050000,-0.050000,0.000000,0.000000,0.000000,0.000000,0.000000,0.000000,0.000000,0.100000,0.100000,-0.340968,-0.343381,-0.050000,-0.050000,0.537425,-0.543349,0.000000,0.000000,0.080391,-0.028380,0.240527,0.158698,-0.585034,0.351694,-0.215283,-0.204259,0.511119,-0.632096
-0.050000,-0.050000,0.000000,0.000000,0.000000,0.000000,0.000000,0.000000,0.000000,0.100000,0.100000,-0.328953,-0.328759,-0.050000,-0.050000,0.544220,-0.544139,0.000000,0.000000,0.097029,-0.038940,0.226246,0.153207,-0.588365,0.349329,-0.219242,-0.204827,0.518086,-0.636597
-0.050000,-0.050000,0.000000,0.000000,0.000000,0.000000,0.000000,0.000000,0.000000,0.100000,0.100000,-0.316484,-0.313808,-0.050000,-0.050000,0.550582,-0.544981,0.000000,0.000000,0.113348,-0.049424,0.212533,0.147722,-0.590667,0.346538,-0.222928,-0.205449,0.524844,-0.640852
-0.050000,-0.050000,0.000000,0.000000,0.000000,0.000000,0.000000,0.000000,0.000000,0.100000,0.100000,-0.303108,-0.298199,-0.050000,-0.050000,0.556077,-0.545929,0.000000,0.000000,0.129033,-0.059754,0.199954,0.142247,-0.590912,0.342894,-0.226066,-0.206176,0.531187,-0.644613
-0.050000,-0.050000,0.000000,0.000000,0.000000,0.000000,0.000000,0.000000,0.000000,0.100000,0.100000,-0.289205,-0.282117,-0.050000,-0.050000,0.560198,-0.546494,0.000000,0.000000,0.143894,-0.069852,0.188910,0.136882,-0.589803,0.338961,-0.228568,-0.207034,0.536966,-0.647673
-0.050000,-0.050000,0.000000,0.000000,0.000000,0.000000,0.000000,0.000000,0.000000,0.100000,0.100000,-0.275038,-0.265798,-0.050000,-0.050000,0.563632,-0.546868,0.000000,0.000000,0.158344,-0.079834,0.178633,0.131573,-0.588018,0.334884,-0.230753,-0.207957,0.542464,-0.650381
-0.050000,-0.050000,0.000000,0.000000,0.000000,0.000000,0.000000,0.000000,0.000000,0.100000,0.100000,-0.260651,-0.249176,-0.050000,-0.050000,0.564577,-0.546089,0.000000,0.000000,0.171148,-0.089295,0.171234,0.126594,-0.585334,0.331259,-0.231878,-0.209036,0.546745,-0.651717
-0.050000,-0.050000,0.000000,0.000000,0.000000,0.000000,0.000000,0.000000,0.000000,0.100000,0.100000,-0.246366,-0.232627,-0.050000,-0.050000,0.564670,-0.544805,0.000000,0.000000,0.183252,-0.098511,0.164926,0.121784,-0.582715,0.328075,-0.232628,-0.210132,0.550463,-0.652507
-0.050000,-0.050000,0.000000,0.000000,0.000000,0.000000,0.000000,0.000000,0.000000,0.100000,0.100000,-0.232283,-0.216223,-0.050000,-0.050000,0.563060,-0.542513,0.000000,0.000000,0.193956,-0.107238,0.160800,0.117310,-0.580223,0.325772,-0.232632,-0.211261,0.553057,-0.652205
-0.050000,-0.050000,0.000000,0.000000,0.000000,0.000000,0.000000,0.000000,0.000000,0.100000,0.100000,-0.218705,-0.200357,-0.050000,-0.050000,0.559922,-0.539132,0.000000,0.000000,0.202998,-0.115324,0.158900,0.113272,-0.578480,0.324861,-0.231886,-0.212326,0.554206,-0.650692
-0.050000,-0.050000,0.000000,0.000000,0.000000,0.000000,0.000000,0.000000,0.000000,0.100000,0.100000,-0.205380,-0.184761,-0.050000,-0.050000,0.556020,-0.535207,0.000000,0.000000,0.211211,-0.123090,0.158112,0.109451,-0.577111,0.324645,-0.230766,-0.213360,0.554635,-0.648575
-0.050000,-0.050000,0.000000,0.000000,0.000000,0.000000,0.000000,0.000000,0.000000,0.100000,0.100000,-0.193185,-0.170559,-0.050000,-0.050000,0.550360,-0.529756,0.000000,0.000000,0.216708,-0.129690,0.160299,0.106346,-0.577504,0.327058,-0.228584,-0.214130,0.552522,-0.644586
-0.050000,-0.050000,0.000000,0.000000,0.000000,0.000000,0.000000,0.000000,0.000000,0.100000,0.100000,-0.181460,-0.156991,-0.050000,-0.050000,0.544356,-0.523897,0.000000,0.000000,0.221302,-0.135850,0.163215,0.103454,-0.578552,0.330404,-0.226092,-0.214757,0.549513,-0.639996
-0.050000,-0.050000,0.000000,0.000000,0.000000,0.000000,0.000000,0.000000,0.000000,0.100000,0.100000,-0.170677,-0.144691,-0.050000,-0.050000,0.537664,-0.517219,0.000000,0.000000,0.224091,-0.141131,0.167588,0.100988,-0.580910,0.335616,-0.222979,-0.215100,0.544713,-0.634206
-0.050000,-0.050000,0.000000,0.000000,0.000000,0.000000,0.000000,0.000000,0.000000,0.100000,0.100000,-0.160966,-0.133896,-0.050000,-0.050000,0.530850,-0.510023,0.000000,0.000000,0.225242,-0.145473,0.172682,0.098798,-0.584351,0.342469,-0.219391,-0.215073,0.538248,-0.627357
-0.050000,-0.050000,0.000000,0.000000,0.000000,0.000000,0.000000,0.000000,0.000000,0.100000,0.100000,-0.151791,-0.123853,-0.050000,-0.050000,0.523974,-0.502568,0.000000,0.000000,0.225575,-0.149345,0.178136,0.096747,-0.588335,0.350142,-0.215566,-0.214860,0.530952,-0.619980
-0.050000,-0.050000,0.000000,0.000000,0.000000,0.000000,0.000000,0.000000,0.000000,0.100000,0.100000,-0.144344,-0.116246,-0.050000,-0.050000,0.517794,-0.494892,0.000000,0.000000,0.223902,-0.151784,0.183452,0.094779,-0.593036,0.359373,-0.211350,-0.214030,0.521757,-0.611391
-0.050000,-0.050000,0.000000,0.000000,0.000000,0.000000,0.000000,0.000000,0.000000,0.100000,0.100000,-0.137494,-0.109451,-0.050000,-0.050000,0.512123,-0.487344,0.000000,0.000000,0.221745,-0.153756,0.188358,0.092726,-0.597522,0.368668,-0.207145,-0.213012,0.512254,-0.602587
-0.050000,-0.050000,0.000000,0.000000,0.000000,0.000000,0.000000,0.000000,0.000000,0.100000,0.100000,-0.131839,-0.104278,-0.050000,-0.050000,0.507469,-0.480055,0.000000,0.000000,0.218621,-0.154797,0.192445,0.090500,-0.601577,0.378087,-0.202962,-0.211616,0.502137,-0.593351
-0.050000,-0.050000,0.000000,0.000000,0.000000,0.000000,0.000000,0.000000,0.000000,0.100000,0.100000,-0.127404,-0.100640,-0.050000,-0.050000,0.504289,-0.473422,0.000000,0.000000,0.214899,-0.154966,0.195208,0.087939,-0.604170,0.386587,-0.199123,-0.209963,0.492226,-0.584175
-0.050000,-0.050000,0.000000,0.000000,0.000000,0.000000,0.000000,0.000000,0.000000,0.100000,0.100000,-0.123580,-0.097769,-0.050000,-0.050000,0.501846,-0.467117,0.000000,0.000000,0.210878,-0.154701,0.197308,0.085212,-0.606033,0.394628,-0.195456,-0.208180,0.482418,-0.575030
-0.050000,-0.050000,0.000000,0.000000,0.000000,0.000000,0.000000,0.000000,0.000000,0.100000,0.100000,-0.121621,-0.096990,-0.050000,-0.050000,0.502095,-0.462315,0.000000,0.000000,0.206418,-0.153281,0.197118,0.081935,-0.604347,0.399924,-0.192747,-0.206301,0.474182,-0.566816
-0.050000,-0.050000,0.000000,0.000000,0.000000,0.000000,0.000000,0.000000,0.000000,0.100000,0.100000,-0.120300,-0.096833,-0.050000,-0.050000,0.503321,-0.458140,0.000000,0.000000,0.201910,-0.151543,0.196219,0.078542,-0.601219,0.404051,-0.190444,-0.204498,0.466811,-0.559178
-0.050000,-0.050000,0.000000,0.000000,0.000000,0.000000,0.000000,0.000000,0.000000,0.100000,0.100000,-0.120253,-0.097921,-0.050000,-0.050000,0.506503,-0.455222,0.000000,0.000000,0.197306,-0.149171,0.193904,0.074914,-0.595206,0.405842,-0.188958,-0.202850,0.461173,-0.552694
-0.050000,-0.050000,0.000000,0.000000,0.000000,0.000000,0.000000,0.000000,0.000000,0.100000,0.100000,-0.121517,-0.100118,-0.050000,-0.050000,0.511665,-0.453703,0.000000,0.000000,0.192668,-0.146323,0.190539,0.071339,-0.586346,0.405366,-0.188283,-0.201534,0.457632,-0.547741
-0.050000,-0.050000,0.000000,0.000000,0.000000,0.000000,0.000000,0.000000,0.000000,0.100000,0.100000,-0.123435,-0.102869,-0.050000,-0.050000,0.517816,-0.452884,0.000000,0.000000,0.188013,-0.143238,0.186649,0.067790,-0.576064,0.403757,-0.188013,-0.200384,0.455137,-0.543553
-0.050000,-0.050000,0.000000,0.000000,0.000000,0.000000,0.000000,0.000000,0.000000,0.100000,0.100000,-0.127357,-0.107111,-0.050000,-0.050000,0.526832,-0.454230,0.000000,0.000000,0.183206,-0.139675,0.181987,0.064912,-0.562458,0.399745,-0.188680,-0.199870,0.455685,-0.541813
-0.050000,-0.050000,0.000000,0.000000,0.000000,0.000000,0.000000,0.000000,0.000000,0.100000,0.100000,-0.131944,-0.111803,-0.050000,-0.050000,0.536752,-0.456285,0.000000,0.000000,0.178257,-0.136020,0.177368,0.062469,-0.548290,0.395488,-0.189512,-0.199573,0.456986,-0.540761
-0.050000,-0.050000,0.000000,0.000000,0.000000,0.000000,0.000000,0.000000,0.000000,0.100000,0.100000,-0.137864,-0.117394,-0.050000,-0.050000,0.548478,-0.459755,0.000000,0.000000,0.173025,-0.132178,0.172838,0.060896,-0.533001,0.390738,-0.190673,-0.199709,0.459796,-0.541089
-0.050000,-0.050000,0.000000,0.000000,0.000000,0.000000,0.000000,0.000000,0.000000,0.100000,0.100000,-0.145063,-0.123795,-0.050000,-0.050000,0.561913,-0.464580,0.000000,0.000000,0.167257,-0.128236,0.168985,0.060555,-0.517897,0.386797,-0.191879,-0.200258,0.463231,-0.542196
-0.050000,-0.050000,0.000000,0.000000,0.000000,0.000000,0.000000,0.000000,0.000000,0.100000,0.100000,-0.152903,-0.130602,-0.050000,-0.050000,0.576203,-0.470082,0.000000,0.000000,0.161221,-0.124245,0.165470,0.060831,-0.502887,0.383261,-0.193108,-0.201013,0.466979,-0.543692
-0.050000,-0.050000,0.000000,0.000000,0.000000,0.000000,0.000000,0.000000,0.000000,0.100000,0.100000,-0.162485,-0.138502,-0.050000,-0.050000,0.592931,-0.477503,0.000000,0.000000,0.153974,-0.120159,0.163756,0.063286,-0.490005,0.382764,-0.194131,-0.202422,0.470067,-0.545087
-0.050000,-0.050000,0.000000,0.000000,0.000000,0.000000,0.000000,0.000000,0.000000,0.100000,0.100000,-0.172556,-0.146729,-0.050000,-0.050000,0.610416,-0.485518,0.000000,0.000000,0.146207,-0.116040,0.162856,0.066485,-0.478293,0.383738,-0.195062,-0.204101,0.472426,-0.545990
-0.050000,-0.050000,0.000000,0.000000,0.000000,0.000000,0.000000,0.000000,0.000000,0.100000,0.100000,-0.183604,-0.155607,-0.050000,-0.050000,0.629416,-0.494721,0.000000,0.000000,0.137397,-0.111855,0.163586,0.071172,-0.468918,0.387654,-0.195806,-0.206321,0.473328,-0.545909
-0.050000,-0.050000,0.000000,0.000000,0.000000,0.000000,0.000000,0.000000,0.000000,0.100000,0.100000,-0.195395,-0.165079,-0.050000,-0.050000,0.649713,-0.504974,0.000000,0.000000,0.127396,-0.107573,0.166276,0.077192,-0.462364,0.395000,-0.196403,-0.209255,0.472011,-0.544071
-0.050000,-0.050000,0.000000,0.000000,0.000000,0.000000,0.000000,0.000000,0.000000,0.100000,0.100000,-0.207557,-0.174847,-0.050000,-0.050000,0.670659,-0.515752,0.000000,0.000000,0.116800,-0.103242,0.169945,0.083879,-0.457220,0.404061,-0.196928,-0.212546,0.469586,-0.541353
-0.050000,-0.050000,0.000000,0.000000,0.000000,0.000000,0.000000,0.000000,0.000000,0.100000,0.100000,-0.220450,-0.185451,-0.050000,-0.050000,0.692938,-0.527776,0.000000,0.000000,0.104369,-0.098691,0.176903,0.092119,-0.456405,0.418327,-0.197316,-0.217163,0.463282,-0.535315
-0.050000,-0.050000,0.000000,0.000000,0.000000,0.000000,0.000000,0.000000,0.000000,0.100000,0.100000,-0.233467,-0.196331,-0.050000,-0.050000,0.715332,-0.540052,0.000000,0.000000,0.091380,-0.094037,0.185022,0.100688,-0.456914,0.434149,-0.197666,-0.222264,0.455714,-0.528146
-0.050000,-0.050000,0.000000,0.000000,0.000000,0.000000,0.000000,0.000000,0.000000,0.100000,0.100000,-0.246728,-0.207762,-0.050000,-0.050000,0.737954,-0.552832,0.000000,0.000000,0.077277,-0.089177,0.195461,0.109914,-0.460075,0.453083,-0.197939,-0.228335,0.445619,-0.518715
-0.050000,-0.050000,0.000000,0.000000,0.000000,0.000000,0.000000,0.000000,0.000000,0.100000,0.100000,-0.260023,-0.219753,-0.050000,-0.050000,0.759896,-0.565688,0.000000,0.000000,0.062310,-0.084037,0.208221,0.119398,-0.465503,0.474458,-0.198086,-0.235316,0.433423,-0.507365
-0.050000,-0.050000,0.000000,0.000000,0.000000,0.000000,0.000000,0.000000,0.000000,0.100000,0.100000,-0.273336,-0.232024,-0.050000,-0.050000,0.781497,-0.578582,0.000000,0.000000,0.046910,-0.078759,0.222141,0.129013,-0.472064,0.497053,-0.198170,-0.242751,0.420176,-0.495056
-0.050000,-0.050000,0.000000,0.000000,0.000000,0.000000,0.000000,0.000000,0.000000,0.100000,0.100000,-0.286432,-0.245136,-0.050000,-0.050000,0.800453,-0.590848,0.000000,0.000000,0.030774,-0.072939,0.239276,0.138442,-0.481394,0.521959,-0.197934,-0.251223,0.404795,-0.480805
-0.050000,-0.050000,0.000000,0.000000,0.000000,0.000000,0.000000,0.000000,0.000000,0.100000,0.100000,-0.299372,-0.258508,-0.050000,-0.050000,0.817972,-0.602650,0.000000,0.000000,0.014617,-0.066894,0.257281,0.147629,-0.491433,0.547116,-0.197551,-0.259870,0.389101,-0.466278
-0.050000,-0.050000,0.000000,0.000000,0.000000,0.000000,0.000000,0.000000,0.000000,0.100000,0.100000,-0.312000,-0.272398,-0.050000,-0.050000,0.832615,-0.613523,0.000000,0.000000,-0.001581,-0.060398,0.277026,0.156332,-0.502890,0.572777,-0.196877,-0.268866,0.372780,-0.451199
-0.050000,-0.050000,0.000000,0.000000,0.000000,0.000000,0.000000,0.000000,0.000000,0.100000,0.100000,-0.324131,-0.286696,-0.050000,-0.050000,0.843416,-0.622996,0.000000,0.000000,-0.017378,-0.053360,0.297842,0.164199,-0.515283,0.597874,-0.195904,-0.277820,0.356615,-0.436268
-0.050000,-0.050000,0.000000,0.000000,0.000000,0.000000,0.000000,0.000000,0.000000,0.100000,0.100000,-0.336015,-0.301198,-0.050000,-0.050000,0.852295,-0.631767,0.000000,0.000000,-0.032973,-0.046051,0.319195,0.171648,-0.528143,0.622690,-0.194782,-0.286753,0.340528,-0.421411
-0.050000,-0.050000,0.000000,0.000000,0.000000,0.000000,0.000000,0.000000,0.000000,0.100000,0.100000,-0.346838,-0.316028,-0.050000,-0.050000,0.854426,-0.637842,0.000000,0.000000,-0.047470,-0.037801,0.340788,0.177313,-0.541455,0.645225,-0.193367,-0.295068,0.325655,-0.407563
-0.050000,-0.050000,0.000000,0.000000,0.000000,0.000000,0.000000,0.000000,0.000000,0.100000,0.100000,-0.357193,-0.330845,-0.050000,-0.050000,0.854190,-0.642868,0.000000,0.000000,-0.061548,-0.029205,0.361921,0.182210,-0.554476,0.666650,-0.191958,-0.303036,0.311401,-0.394187
-0.050000,-0.050000,0.000000,0.000000,0.000000,0.000000,0.000000,0.000000,0.000000,0.100000,0.100000,-0.366615,-0.345633,-0.050000,-0.050000,0.849220,-0.645795,0.000000,0.000000,-0.074793,-0.019916,0.382135,0.185568,-0.566913,0.685854,-0.190559,-0.310306,0.298384,-0.381758
-0.050000,-0.050000,0.000000,0.000000,0.000000,0.000000,0.000000,0.000000,0.000000,0.100000,0.100000,-0.371211,-0.357243,-0.050000,-0.050000,0.840235,-0.645341,0.000000,0.000000,-0.087015,-0.010251,0.397613,0.185621,-0.576733,0.701057,-0.188817,-0.316027,0.287724,-0.371299
-0.050000,-0.050000,0.000000,0.000000,0.000000,0.000000,0.000000,0.000000,0.000000,0.100000,0.100000,-0.373394,-0.367263,-0.050000,-0.050000,0.829241,-0.643195,0.000000,0.000000,-0.098726,-0.000397,0.410724,0.184020,-0.585242,0.714257,-0.186904,-0.320972,0.278242,-0.361826
-0.050000,-0.050000,0.000000,0.000000,0.000000,0.000000,0.000000,0.000000,0.000000,0.100000,0.100000,-0.376987,-0.378994,-0.050000,-0.050000,0.812524,-0.638362,0.000000,0.000000,-0.110781,0.011020,0.421954,0.180516,-0.590723,0.725757,-0.185914,-0.325329,0.269146,-0.352265
-0.050000,-0.050000,0.000000,0.000000,0.000000,0.000000,0.000000,0.000000,0.000000,0.100000,0.100000,-0.380495,-0.390822,-0.050000,-0.050000,0.794343,-0.632595,0.000000,0.000000,-0.123309,0.022799,0.431919,0.176264,-0.594187,0.736469,-0.185255,-0.329359,0.260165,-0.342718
-0.050000,-0.050000,0.000000,0.000000,0.000000,0.000000,0.000000,0.000000,0.000000,0.100000,0.100000,-0.383836,-0.402845,-0.050000,-0.050000,0.773234,-0.624959,0.000000,0.000000,-0.136780,0.035300,0.439351,0.170518,-0.593613,0.745610,-0.185261,-0.332736,0.251414,-0.333199
-0.050000,-0.050000,0.000000,0.000000,0.000000,0.000000,0.000000,0.000000,0.000000,0.100000,0.100000,-0.386481,-0.414541,-0.050000,-0.050000,0.750241,-0.615490,0.000000,0.000000,-0.151931,0.048360,0.443658,0.163015,-0.587590,0.753514,-0.185676,-0.335455,0.242429,-0.323548
-0.050000,-0.050000,0.000000,0.000000,0.000000,0.000000,0.000000,0.000000,0.000000,0.100000,0.100000,-0.388777,-0.426075,-0.050000,-0.050000,0.726304,-0.605105,0.000000,0.000000,-0.167921,0.061701,0.446402,0.154634,-0.578842,0.760801,-0.186295,-0.337844,0.233326,-0.313831
-0.050000,-0.050000,0.000000,0.000000,0.000000,0.000000,0.000000,0.000000,0.000000,0.100000,0.100000,-0.394349,-0.440100,-0.050000,-0.050000,0.698455,-0.593419,0.000000,0.000000,-0.186885,0.075373,0.446734,0.143709,-0.557184,0.767274,-0.187437,-0.339408,0.223310,-0.303163
-0.050000,-0.050000,0.000000,0.000000,0.000000,0.000000,0.000000,0.000000,0.000000,0.100000,0.100000,-0.398381,-0.452895,-0.050000,-0.050000,0.671407,-0.581001,0.000000,0.000000,-0.207211,0.088953,0.445354,0.131912,-0.533039,0.773640,-0.188157,-0.340722,0.212532,-0.292489
-0.050000,-0.050000,0.000000,0.000000,0.000000,0.000000,0.000000,0.000000,0.000000,0.100000,0.100000,-0.399330,-0.463229,-0.050000,-0.050000,0.645959,-0.567117,0.000000,0.000000,-0.230262,0.102352,0.440552,0.118373,-0.503919,0.779791,-0.188036,-0.341532,0.200231,-0.281803
-0.050000,-0.050000,0.000000,0.000000,0.000000,0.000000,0.000000,0.000000,0.000000,0.100000,0.100000,-0.399002,-0.472439,-0.050000,-0.050000,0.622109,-0.552460,0.000000,0.000000,-0.255754,0.115432,0.434301,0.103387,-0.469988,0.786229,-0.187136,-0.342251,0.185978,-0.270942
-0.050000,-0.050000,0.000000,0.000000,0.000000,0.000000,0.000000,0.000000,0.000000,0.100000,0.100000,-0.398034,-0.481087,-0.050000,-0.050000,0.599058,-0.537417,0.000000,0.000000,-0.282467,0.128353,0.427326,0.087677,-0.433651,0.792812,-0.185847,-0.342924,0.170749,-0.259995
-0.050000,-0.050000,0.000000,0.000000,0.000000,0.000000,0.000000,0.000000,0.000000,0.100000,0.100000,-0.396168,-0.488904,-0.050000,-0.050000,0.578931,-0.522460,0.000000,0.000000,-0.311916,0.140326,0.420887,0.070739,-0.392441,0.800050,-0.183631,-0.343850,0.152727,-0.249235
-0.050000,-0.050000,0.000000,0.000000,0.000000,0.000000,0.000000,0.000000,0.000000,0.100000,0.100000,-0.394137,-0.496585,-0.050000,-0.050000,0.559842,-0.507853,0.000000,0.000000,-0.341804,0.151829,0.415437,0.053680,-0.350580,0.807448,-0.181236,-0.344958,0.134076,-0.238734
-0.050000,-0.050000,0.000000,0.000000,0.000000,0.000000,0.000000,0.000000,0.000000,0.100000,0.100000,-0.391776,-0.503994,-0.050000,-0.050000,0.542831,-0.493944,0.000000,0.000000,-0.372570,0.162394,0.411964,0.036379,-0.307418,0.815163,-0.178482,-0.346432,0.114169,-0.228752
-0.050000,-0.050000,0.000000,0.000000,0.000000,0.000000,0.000000,0.000000,0.000000,0.100000,0.100000,-0.389113,-0.511259,-0.050000,-0.050000,0.527750,-0.481198,0.000000,0.000000,-0.403079,0.171764,0.411853,0.019376,-0.264808,0.822882,-0.175581,-0.348344,0.094020,-0.219643
-0.050000,-0.050000,0.000000,0.000000,0.000000,0.000000,0.000000,0.000000,0.000000,0.100000,0.100000,-0.386298,-0.518452,-0.050000,-0.050000,0.513635,-0.469032,0.000000,0.000000,-0.433460,0.180536,0.413424,0.002522,-0.222475,0.830603,-0.172605,-0.350475,0.073751,-0.210972
-0.050000,-0.050000,0.000000,0.000000,0.000000,0.000000,0.000000,0.000000,0.000000,0.100000,0.100000,-0.382789,-0.525442,-0.050000,-0.050000,0.501883,-0.459046,0.000000,0.000000,-0.461756,0.187294,0.421608,-0.013102,-0.183179,0.837726,-0.169497,-0.353140,0.054853,-0.203942
-0.050000,-0.050000,0.000000,0.000000,0.000000,0.000000,0.000000,0.000000,0.000000,0.100000,0.100000,-0.378904,-0.532322,-0.050000,-0.050000,0.490691,-0.449851,0.000000,0.000000,-0.488868,0.193376,0.432304,-0.028062,-0.145382,0.844459,-0.166302,-0.355874,0.036906,-0.197485
-0.050000,-0.050000,0.000000,0.000000,0.000000,0.000000,0.000000,0.000000,0.000000,0.100000,0.100000,-0.374266,-0.538985,-0.050000,-0.050000,0.480621,-0.442237,0.000000,0.000000,-0.513609,0.198109,0.448024,-0.041694,-0.110584,0.850415,-0.162936,-0.358745,0.020860,-0.192174
-0.050000,-0.050000,0.000000,0.000000,0.000000,0.000000,0.000000,0.000000,0.000000,0.100000,0.100000,-0.368524,-0.545290,-0.050000,-0.050000,0.471221,-0.436191,0.000000,0.000000,-0.535254,0.201638,0.468893,-0.053528,-0.079267,0.855329,-0.159271,-0.361455,0.007305,-0.187918
-0.050000,-0.050000,0.000000,0.000000,0.000000,0.000000,0.000000,0.000000,0.000000,0.100000,0.100000,-0.362232,-0.551416,-0.050000,-0.050000,0.462156,-0.430929,0.000000,0.000000,-0.555351,0.204565,0.492337,-0.064465,-0.049691,0.859722,-0.155455,-0.364084,-0.005003,-0.184191
-0.050000,-0.050000,0.000000,0.000000,0.000000,0.000000,0.000000,0.000000,0.000000,0.100000,0.100000,-0.353803,-0.556772,-0.050000,-0.050000,0.453545,-0.427828,0.000000,0.000000,-0.570171,0.206095,0.522941,-0.072143,-0.025453,0.862434,-0.151087,-0.366045,-0.013415,-0.181805
-0.050000,-0.050000,0.000000,0.000000,0.000000,0.000000,0.000000,0.000000,0.000000,0.100000,0.100000,-0.344555,-0.561809,-0.050000,-0.050000,0.444964,-0.425338,0.000000,0.000000,-0.583179,0.207332,0.555513,-0.078628,-0.002883,0.864651,-0.146561,-0.367695,-0.020691,-0.179785
-0.050000,-0.050000,0.000000,0.000000,0.000000,0.000000,0.000000,0.000000,0.000000,0.100000,0.100000,-0.333669,-0.566207,-0.050000,-0.050000,0.436443,-0.424071,0.000000,0.000000,-0.592565,0.207983,0.592021,-0.082725,0.016353,0.865877,-0.141719,-0.368722,-0.025696,-0.178498
-0.050000,-0.050000,0.000000,0.000000,0.000000,0.000000,0.000000,0.000000,0.000000,0.100000,0.100000,-0.321092,-0.569910,-0.050000,-0.050000,0.427885,-0.423744,0.000000,0.000000,-0.598526,0.208390,0.631265,-0.084427,0.032688,0.866442,-0.136721,-0.369113,-0.029051,-0.177827
-0.050000,-0.050000,0.000000,0.000000,0.000000,0.000000,0.000000,0.000000,0.000000,0.100000,0.100000,-0.307671,-0.573266,-0.050000,-0.050000,0.419308,-0.423888,0.000000,0.000000,-0.602775,0.208676,0.671877,-0.084932,0.047572,0.866675,-0.131645,-0.369185,-0.031580,-0.177465
-0.050000,-0.050000,0.000000,0.000000,0.000000,0.000000,0.000000,0.000000,0.000000,0.100000,0.100000,-0.291913,-0.575639,-0.050000,-0.050000,0.410727,-0.424962,0.000000,0.000000,-0.602566,0.209002,0.714468,-0.082167,0.058949,0.866608,-0.126661,-0.368536,-0.032738,-0.177951
-0.050000,-0.050000,0.000000,0.000000,0.000000,0.000000,0.000000,0.000000,0.000000,0.100000,0.100000,-0.275528,-0.577752,-0.050000,-0.050000,0.402213,-0.426183,0.000000,0.000000,-0.601192,0.209413,0.756989,-0.078508,0.069459,0.866692,-0.121811,-0.367780,-0.033779,-0.178722
-0.050000,-0.050000,0.000000,0.000000,0.000000,0.000000,0.000000,0.000000,0.000000,0.100000,0.100000,-0.257891,-0.579347,-0.050000,-0.050000,0.393833,-0.427699,0.000000,0.000000,-0.597487,0.209992,0.799371,-0.073064,0.078240,0.867080,-0.117226,-0.366813,-0.034590,-0.180062
-0.050000,-0.050000,0.000000,0.000000,0.000000,0.000000,0.000000,0.000000,0.000000,0.100000,0.100000,-0.239445,-0.580636,-0.050000,-0.050000,0.385775,-0.429220,0.000000,0.000000,-0.592193,0.210742,0.840291,-0.066326,0.085865,0.868210,-0.113045,-0.365930,-0.035678,-0.182004
-0.050000,-0.050000,0.000000,0.000000,0.000000,0.000000,0.000000,0.000000,0.000000,0.100000,0.100000,-0.220596,-0.581771,-0.050000,-0.050000,0.377878,-0.430744,0.000000,0.000000,-0.586103,0.211577,0.880481,-0.058942,0.092912,0.869711,-0.109065,-0.365089,-0.036906,-0.184247
-0.050000,-0.050000,0.000000,0.000000,0.000000,0.000000,0.000000,0.000000,0.000000,0.100000,0.100000,-0.201347,-0.582809,-0.050000,-0.050000,0.370751,-0.431953,0.000000,0.000000,-0.578740,0.212498,0.916922,-0.050362,0.098932,0.872757,-0.105758,-0.364724,-0.038949,-0.187441
-0.050000,-0.050000,0.000000,0.000000,0.000000,0.000000,0.000000,0.000000,0.000000,0.100000,0.100000,-0.182260,-0.583923,-0.050000,-0.050000,0.363955,-0.433001,0.000000,0.000000,-0.571281,0.213366,0.951778,-0.041595,0.104771,0.876362,-0.102655,-0.364573,-0.041275,-0.190951
-0.050000,-0.050000,0.000000,0.000000,0.000000,0.000000,0.000000,0.000000,0.000000,0.100000,0.100000,-0.163499,-0.585190,-0.050000,-0.050000,0.357823,-0.433728,0.000000,0.000000,-0.563630,0.214126,0.983465,-0.032452,0.110249,0.881085,-0.099958,-0.364848,-0.044163,-0.195095
-0.050000,-0.050000,0.000000,0.000000,0.000000,0.000000,0.000000,0.000000,0.000000,0.100000,0.100000,-0.145657,-0.586754,-0.050000,-0.050000,0.352448,-0.434136,0.000000,0.000000,-0.556297,0.214623,1.011686,-0.023243,0.115531,0.886814,-0.097566,-0.365519,-0.047427,-0.199812
-0.050000,-0.050000,0.000000,0.000000,0.000000,0.000000,0.000000,0.000000,0.000000,0.100000,0.100000,-0.128275,-0.588468,-0.050000,-0.050000,0.347452,-0.434384,0.000000,0.000000,-0.549121,0.214989,1.038174,-0.014002,0.120716,0.893046,-0.095325,-0.366388,-0.050878,-0.204816
-0.050000,-0.050000,0.000000,0.000000,0.000000,0.000000,0.000000,0.000000,0.000000,0.100000,0.100000,-0.113093,-0.590694,-0.050000,-0.050000,0.343647,-0.434312,0.000000,0.000000,-0.542914,0.214820,1.059489,-0.004982,0.125655,0.900386,-0.093351,-0.367637,-0.054411,-0.210476
-0.050000,-0.050000,0.000000,0.000000,0.000000,0.000000,0.000000,0.000000,0.000000,0.100000,0.100000,-0.098866,-0.593060,-0.050000,-0.050000,0.340235,-0.434226,0.000000,0.000000,-0.537103,0.214465,1.079193,0.003884,0.130478,0.907916,-0.091408,-0.368910,-0.057788,-0.216245
-0.050000,-0.050000,0.000000,0.000000,0.000000,0.000000,0.000000,0.000000,0.000000,0.100000,0.100000,-0.086550,-0.595710,-0.050000,-0.050000,0.337609,-0.434108,0.000000,0.000000,-0.532086,0.213737,1.095678,0.012438,0.135069,0.915826,-0.089526,-0.370235,-0.060852,-0.222230
-0.050000,-0.050000,0.000000,0.000000,0.000000,0.000000,0.000000,0.000000,0.000000,0.100000,0.100000,-0.076433,-0.598502,-0.050000,-0.050000,0.335731,-0.434176,0.000000,0.000000,-0.527851,0.212690,1.109275,0.020511,0.139303,0.923728,-0.087628,-0.371410,-0.063272,-0.228131
-0.050000,-0.050000,0.000000,0.000000,0.000000,0.000000,0.000000,0.000000,0.000000,0.100000,0.100000,-0.067417,-0.601366,-0.050000,-0.050000,0.334226,-0.434337,0.000000,0.000000,-0.524009,0.211484,1.121429,0.028341,0.143359,0.931627,-0.085723,-0.372511,-0.065369,-0.233989
-0.050000,-0.050000,0.000000,0.000000,0.000000,0.000000,0.000000,0.000000,0.000000,0.100000,0.100000,-0.058540,-0.601188,-0.050000,-0.050000,0.333932,-0.434496,0.000000,0.000000,-0.521934,0.210296,1.128857,0.033830,0.146167,0.937966,-0.083771,-0.372875,-0.065898,-0.239163
-0.050000,-0.050000,0.000000,0.000000,0.000000,0.000000,0.000000,0.000000,0.000000,0.100000,0.100000,-0.051350,-0.601403,-0.050000,-0.050000,0.333933,-0.434980,0.000000,0.000000,-0.519906,0.209031,1.135405,0.039062,0.148842,0.944200,-0.081869,-0.373151,-0.065986,-0.244061
-0.050000,-0.050000,0.000000,0.000000,0.000000,0.000000,0.000000,0.000000,0.000000,0.100000,0.100000,-0.047535,-0.602403,-0.050000,-0.050000,0.334527,-0.436113,0.000000,0.000000,-0.517969,0.207611,1.140192,0.043783,0.151252,0.950223,-0.080068,-0.373247,-0.065193,-0.248409
-0.050000,-0.050000,0.000000,0.000000,0.000000,0.000000,0.000000,0.000000,0.000000,0.100000,0.100000,-0.046160,-0.603675,-0.050000,-0.050000,0.335585,-0.437928,0.000000,0.000000,-0.516123,0.206190,1.143310,0.047533,0.153002,0.955541,-0.078366,-0.373076,-0.063517,-0.251741
-0.050000,-0.050000,0.000000,0.000000,0.000000,0.000000,0.000000,0.000000,0.000000,0.100000,0.100000,-0.046005,-0.605083,-0.050000,-0.050000,0.336876,-0.440084,0.000000,0.000000,-0.514323,0.204768,1.145593,0.050798,0.154421,0.960505,-0.076715,-0.372769,-0.061399,-0.254565
-0.050000,-0.050000,0.000000,0.000000,0.000000,0.000000,0.000000,0.000000,0.000000,0.100000,0.100000,-0.048518,-0.606456,-0.050000,-0.050000,0.338789,-0.443105,0.000000,0.000000,-0.512530,0.203513,1.145589,0.052088,0.154651,0.964139,-0.075287,-0.372157,-0.058135,-0.255697
-0.050000,-0.050000,0.000000,0.000000,0.000000,0.000000,0.000000,0.000000,0.000000,0.100000,0.100000,-0.051645,-0.607781,-0.050000,-0.050000,0.340888,-0.446323,0.000000,0.000000,-0.510702,0.202354,1.144923,0.052603,0.154473,0.967309,-0.073968,-0.371509,-0.054601,-0.256323
-0.050000,-0.050000,0.000000,0.000000,0.000000,0.000000,0.000000,0.000000,0.000000,0.100000,0.100000,-0.055996,-0.609008,-0.050000,-0.050000,0.343358,-0.449937,0.000000,0.000000,-0.508804,0.201386,1.142930,0.051569,0.153481,0.969550,-0.072864,-0.370787,-0.050527,-0.255937
-0.050000,-0.050000,0.000000,0.000000,0.000000,0.000000,0.000000,0.000000,0.000000,0.100000,0.100000,-0.061090,-0.610197,-0.050000,-0.050000,0.346154,-0.453714,0.000000,0.000000,-0.506819,0.200674,1.139843,0.048904,0.151736,0.970919,-0.072032,-0.370130,-0.046186,-0.254833
-0.050000,-0.050000,0.000000,0.000000,0.000000,0.000000,0.000000,0.000000,0.000000,0.100000,0.100000,-0.066554,-0.611367,-0.050000,-0.050000,0.349114,-0.457573,0.000000,0.000000,-0.504791,0.200092,1.136210,0.045423,0.149614,0.971850,-0.071335,-0.369506,-0.041712,-0.253370
-0.050000,-0.050000,0.000000,0.000000,0.000000,0.000000,0.000000,0.000000,0.000000,0.100000,0.100000,-0.072544,-0.612682,-0.050000,-0.050000,0.352503,-0.461321,0.000000,0.000000,-0.502698,0.199982,1.131319,0.039596,0.146551,0.971633,-0.071091,-0.369122,-0.037249,-0.251400
-0.050000,-0.050000,0.000000,0.000000,0.000000,0.000000,0.000000,0.000000,0.000000,0.100000,0.100000,-0.078571,-0.614123,-0.050000,-0.050000,0.356016,-0.464940,0.000000,0.000000,-0.500623,0.200056,1.126139,0.033087,0.143259,0.971089,-0.070996,-0.368827,-0.032908,-0.249431
-0.050000,-0.050000,0.000000,0.000000,0.000000,0.000000,0.000000,0.000000,0.000000,0.100000,0.100000,-0.084670,-0.615818,-0.050000,-0.050000,0.359775,-0.468298,0.000000,0.000000,-0.498584,0.200499,1.120381,0.025212,0.139508,0.969888,-0.071198,-0.368706,-0.028810,-0.247464
-0.050000,-0.050000,0.000000,0.000000,0.000000,0.000000,0.000000,0.000000,0.000000,0.100000,0.100000,-0.090676,-0.617900,-0.050000,-0.050000,0.363732,-0.471299,0.000000,0.000000,-0.496660,0.201359,1.114294,0.016268,0.135478,0.968097,-0.071671,-0.368682,-0.025121,-0.245685
-0.050000,-0.050000,0.000000,0.000000,0.000000,0.000000,0.000000,0.000000,0.000000,0.100000,0.100000,-0.096636,-0.620175,-0.050000,-0.050000,0.367788,-0.474120,0.000000,0.000000,-0.494794,0.202426,1.108042,0.006789,0.131307,0.966010,-0.072278,-0.368706,-0.021638,-0.244001
-0.050000,-0.050000,0.000000,0.000000,0.000000,0.000000,0.000000,0.000000,0.000000,0.100000,0.100000,-0.102351,-0.623138,-0.050000,-0.050000,0.372045,-0.476396,0.000000,0.000000,-0.493169,0.204173,1.101626,-0.003752,0.126949,0.963037,-0.073235,-0.368647,-0.018892,-0.242577
-0.050000,-0.050000,0.000000,0.000000,0.000000,0.000000,0.000000,0.000000,0.000000,0.100000,0.100000,-0.107979,-0.626327,-0.050000,-0.050000,0.376326,-0.478522,0.000000,0.000000,-0.491626,0.206156,1.095245,-0.014450,0.122583,0.959743,-0.074294,-0.368473,-0.016388,-0.241146
-0.050000,-0.050000,0.000000,0.000000,0.000000,0.000000,0.000000,0.000000,0.000000,0.100000,0.100000,-0.113434,-0.629968,-0.050000,-0.050000,0.380656,-0.480347,0.000000,0.000000,-0.490248,0.208610,1.088934,-0.025461,0.118200,0.955807,-0.075558,-0.368071,-0.014369,-0.239701
-0.050000,-0.050000,0.000000,0.000000,0.000000,0.000000,0.000000,0.000000,0.000000,0.100000,0.100000,-0.118730,-0.633978,-0.050000,-0.050000,0.384931,-0.481958,0.000000,0.000000,-0.489008,0.211524,1.082830,-0.036381,0.113859,0.951171,-0.077016,-0.367310,-0.012745,-0.237979
-0.050000,-0.050000,0.000000,0.000000,0.000000,0.000000,0.000000,0.000000,0.000000,0.100000,0.100000,-0.123946,-0.638172,-0.050000,-0.050000,0.389177,-0.483460,0.000000,0.000000,-0.487836,0.214668,1.076830,-0.047257,0.109540,0.946186,-0.078572,-0.366368,-0.011319,-0.236119
-0.050000,-0.050000,0.000000,0.000000,0.000000,0.000000,0.000000,0.000000,0.000000,0.100000,0.100000,-0.128940,-0.642713,-0.050000,-0.050000,0.393165,-0.484736,0.000000,0.000000,-0.486821,0.218428,1.071292,-0.057428,0.105319,0.940149,-0.080428,-0.364825,-0.010272,-0.233508
-0.050000,-0.050000,0.000000,0.000000,0.000000,0.000000,0.000000,0.000000,0.000000,0.100000,0.100000,-0.133854,-0.647290,-0.050000,-0.050000,0.397012,-0.485946,0.000000,0.000000,-0.485848,0.222350,1.065946,-0.067204,0.101139,0.933813,-0.082387,-0.363114,-0.009273,-0.230601
-0.050000,-0.050000,0.000000,0.000000,0.000000,0.000000,0.000000,0.000000,0.000000,0.100000,0.100000,-0.138610,-0.651938,-0.050000,-0.050000,0.400574,-0.487023,0.000000,0.000000,-0.484962,0.226593,1.060983,-0.076186,0.097039,0.926882,-0.084552,-0.361068,-0.008369,-0.227101
-0.050000,-0.050000,0.000000,0.000000,0.000000,0.000000,0.000000,0.000000,0.000000,0.100000,0.100000,-0.143170,-0.656503,-0.050000,-0.050000,0.403762,-0.487946,0.000000,0.000000,-0.484169,0.231031,1.056462,-0.084144,0.093048,0.919581,-0.086910,-0.358836,-0.007423,-0.223079
-0.050000,-0.050000,0.000000,0.000000,0.000000,0.000000,0.000000,0.000000,0.000000,0.100000,0.100000,-0.147632,-0.661026,-0.050000,-0.050000,0.406764,-0.488792,0.000000,0.000000,-0.483422,0.235568,1.052162,-0.091588,0.089112,0.912096,-0.089364,-0.356511,-0.006458,-0.218796
-0.050000,-0.050000,0.000000,0.000000,0.000000,0.000000,0.000000,0.000000,0.000000,0.100000,0.100000,-0.151720,-0.665235,-0.050000,-0.050000,0.409129,-0.489351,0.000000,0.000000,-0.482847,0.240170,1.048583,-0.097317,0.085419,0.904531,-0.092035,-0.354187,-0.005315,-0.214044
-0.050000,-0.050000,0.000000,0.000000,0.000000,0.000000,0.000000,0.000000,0.000000,0.100000,0.100000,-0.155653,-0.669294,-0.050000,-0.050000,0.411281,-0.489804,0.000000,0.000000,-0.482337,0.244714,1.045255,-0.102477,0.081843,0.897113,-0.094736,-0.351947,-0.004109,-0.209276
-0.050000,-0.050000,0.000000,0.000000,0.000000,0.000000,0.000000,0.000000,0.000000,0.100000,0.100000,-0.159277,-0.673055,-0.050000,-0.050000,0.413005,-0.490044,0.000000,0.000000,-0.481960,0.249142,1.042425,-0.106499,0.078500,0.889986,-0.097497,-0.349873,-0.002777,-0.204476
-0.050000,-0.050000,0.000000,0.000000,0.000000,0.000000,0.000000,0.000000,0.000000,0.100000,0.100000,-0.162544,-0.676467,-0.050000,-0.050000,0.414346,-0.490084,0.000000,0.000000,-0.481716,0.253306,1.040084,-0.109502,0.075460,0.883444,-0.100211,-0.348072,-0.001370,-0.199914
-0.050000,-0.050000,0.000000,0.000000,0.000000,0.000000,0.000000,0.000000,0.000000,0.100000,0.100000,-0.165632,-0.679704,-0.050000,-0.050000,0.415494,-0.490025,0.000000,0.000000,-0.481539,0.257340,1.037986,-0.111995,0.072572,0.877195,-0.102901,-0.346408,0.000074,-0.195470
