RRGGZZ/g1_deploy_sonic/data/example_scalelab/qwen_50fps_waist/case_test02_waist/joint_pos.csv
joint_0,joint_1,joint_2,joint_3,joint_4,joint_5,joint_6,joint_7,joint_8,joint_9,joint_10,joint_11,joint_12,joint_13,joint_14,joint_15,joint_16,joint_17,joint_18,joint_19,joint_20,joint_21,joint_22,joint_23,joint_24,joint_25,joint_26,joint_27,joint_28
-0.050000,-0.050000,-0.049735,0.000000,0.000000,-0.049903,0.000000,0.000000,0.265188,0.100000,0.100000,-0.197489,-0.502477,-0.050000,-0.050000,0.413575,-0.733813,0.000000,0.000000,-0.492606,0.184462,1.123271,-0.042078,0.156247,-0.409415,-0.077954,-0.020109,0.025426,-0.618233
-0.050000,-0.050000,-0.047771,0.000000,0.000000,-0.044568,0.000000,0.000000,0.271446,0.100000,0.100000,-0.202783,-0.510430,-0.050000,-0.050000,0.401203,-0.742194,0.000000,0.000000,-0.491157,0.184598,1.149733,-0.032296,0.158332,-0.408551,-0.088035,-0.022599,0.029294,-0.623007
-0.050000,-0.050000,-0.047268,0.000000,0.000000,-0.040230,0.000000,0.000000,0.275593,0.100000,0.100000,-0.202648,-0.514668,-0.050000,-0.050000,0.393872,-0.748190,0.000000,0.000000,-0.487562,0.182067,1.167225,-0.026719,0.161320,-0.408227,-0.092164,-0.023558,0.030627,-0.624851
-0.050000,-0.050000,-0.047257,0.000000,0.000000,-0.036512,0.000000,0.000000,0.278161,0.100000,0.100000,-0.199206,-0.516801,-0.050000,-0.050000,0.388815,-0.753006,0.000000,0.000000,-0.483055,0.178210,1.180425,-0.023354,0.164579,-0.408222,-0.093082,-0.023368,0.030456,-0.625187
-0.050000,-0.050000,-0.047392,0.000000,0.000000,-0.033140,0.000000,0.000000,0.279830,0.100000,0.100000,-0.193918,-0.517645,-0.050000,-0.050000,0.384840,-0.757219,0.000000,0.000000,-0.478187,0.173701,1.191454,-0.021216,0.167935,-0.408394,-0.092355,-0.022470,0.029510,-0.624742
-0.050000,-0.050000,-0.047376,0.000000,0.000000,-0.029757,0.000000,0.000000,0.281157,0.100000,0.100000,-0.187079,-0.517847,-0.050000,-0.050000,0.381230,-0.761298,0.000000,0.000000,-0.472913,0.168692,1.201242,-0.019899,0.171327,-0.408437,-0.090592,-0.021055,0.027910,-0.623915
-0.050000,-0.050000,-0.047307,0.000000,0.000000,-0.026390,0.000000,0.000000,0.282237,0.100000,0.100000,-0.179572,-0.517658,-0.050000,-0.050000,0.377806,-0.765326,0.000000,0.000000,-0.467535,0.163499,1.210090,-0.019218,0.174720,-0.408399,-0.088364,-0.019421,0.026029,-0.622999
-0.050000,-0.050000,-0.047083,0.000000,0.000000,-0.022949,0.000000,0.000000,0.283259,0.100000,0.100000,-0.171489,-0.517344,-0.050000,-0.050000,0.374395,-0.769413,0.000000,0.000000,-0.462027,0.158146,1.218093,-0.019175,0.178048,-0.408188,-0.085869,-0.017706,0.023897,-0.622259
-0.050000,-0.050000,-0.046716,0.000000,0.000000,-0.019467,0.000000,0.000000,0.284257,0.100000,0.100000,-0.163138,-0.517055,-0.050000,-0.050000,0.370978,-0.773574,0.000000,0.000000,-0.456500,0.152696,1.225009,-0.020006,0.181235,-0.407820,-0.083379,-0.016131,0.021663,-0.622094
-0.050000,-0.050000,-0.046269,0.000000,0.000000,-0.015957,0.000000,0.000000,0.285267,0.100000,0.100000,-0.154604,-0.516721,-0.050000,-0.050000,0.367582,-0.777799,0.000000,0.000000,-0.450973,0.147169,1.231182,-0.021384,0.184314,-0.407359,-0.080849,-0.014630,0.019351,-0.622324
-0.050000,-0.050000,-0.045646,0.000000,0.000000,-0.012510,0.000000,0.000000,0.286263,0.100000,0.100000,-0.146207,-0.516649,-0.050000,-0.050000,0.364214,-0.782043,0.000000,0.000000,-0.445606,0.141500,1.235637,-0.024294,0.187089,-0.406808,-0.078790,-0.013677,0.017180,-0.624009
-0.050000,-0.050000,-0.044966,0.000000,0.000000,-0.009127,0.000000,0.000000,0.287292,0.100000,0.100000,-0.137883,-0.516520,-0.050000,-0.050000,0.360985,-0.786283,0.000000,0.000000,-0.440362,0.135675,1.239087,-0.028003,0.189665,-0.406281,-0.076908,-0.012961,0.015088,-0.626563
-0.050000,-0.050000,-0.044190,0.000000,0.000000,-0.005894,0.000000,0.000000,0.288287,0.100000,0.100000,-0.129876,-0.516495,-0.050000,-0.050000,0.357908,-0.790439,0.000000,0.000000,-0.435370,0.129639,1.241085,-0.033003,0.191967,-0.405821,-0.075505,-0.012729,0.013222,-0.630524
-0.050000,-0.050000,-0.043365,0.000000,0.000000,-0.002877,0.000000,0.000000,0.289232,0.100000,0.100000,-0.122361,-0.516486,-0.050000,-0.050000,0.355087,-0.794425,0.000000,0.000000,-0.430717,0.123321,1.241602,-0.039273,0.193996,-0.405525,-0.074647,-0.012950,0.011679,-0.636063
-0.050000,-0.050000,-0.042469,0.000000,0.000000,-0.000027,0.000000,0.000000,0.290185,0.100000,0.100000,-0.115121,-0.516356,-0.050000,-0.050000,0.352505,-0.798258,0.000000,0.000000,-0.426309,0.116744,1.241171,-0.046352,0.195818,-0.405384,-0.074083,-0.013432,0.010317,-0.642636
-0.050000,-0.050000,-0.041593,0.000000,0.000000,0.002449,0.000000,0.000000,0.290944,0.100000,0.100000,-0.108921,-0.516248,-0.050000,-0.050000,0.350324,-0.801679,0.000000,0.000000,-0.422521,0.109801,1.238910,-0.054869,0.197381,-0.405539,-0.074362,-0.014410,0.009547,-0.651353
-0.050000,-0.050000,-0.040654,0.000000,0.000000,0.004692,0.000000,0.000000,0.291710,0.100000,0.100000,-0.103189,-0.515880,-0.050000,-0.050000,0.348506,-0.804788,0.000000,0.000000,-0.419095,0.102556,1.235845,-0.063913,0.198776,-0.405930,-0.074912,-0.015497,0.009038,-0.661135
-0.050000,-0.050000,-0.039724,0.000000,0.000000,0.006614,0.000000,0.000000,0.292322,0.100000,0.100000,-0.098371,-0.515346,-0.050000,-0.050000,0.347095,-0.807421,0.000000,0.000000,-0.416252,0.095021,1.231634,-0.073613,0.200036,-0.406577,-0.075975,-0.016748,0.008999,-0.672373
-0.050000,-0.050000,-0.038801,0.000000,0.000000,0.008236,0.000000,0.000000,0.292812,0.100000,0.100000,-0.094541,-0.514532,-0.050000,-0.050000,0.346129,-0.809482,0.000000,0.000000,-0.414038,0.087275,1.226503,-0.083499,0.201205,-0.407425,-0.077418,-0.017970,0.009459,-0.684850
-0.050000,-0.050000,-0.037815,0.000000,0.000000,0.009621,0.000000,0.000000,0.293247,0.100000,0.100000,-0.091336,-0.513512,-0.050000,-0.050000,0.345514,-0.811125,0.000000,0.000000,-0.412268,0.079339,1.220832,-0.093453,0.202287,-0.408442,-0.079066,-0.019170,0.010233,-0.698156
-0.050000,-0.050000,-0.036916,0.000000,0.000000,0.010723,0.000000,0.000000,0.293470,0.100000,0.100000,-0.089661,-0.512126,-0.050000,-0.050000,0.345402,-0.811898,0.000000,0.000000,-0.411388,0.071451,1.214185,-0.102828,0.203336,-0.409441,-0.081102,-0.020081,0.011804,-0.712592
-0.050000,-0.050000,-0.035913,0.000000,0.000000,0.011635,0.000000,0.000000,0.293678,0.100000,0.100000,-0.088679,-0.510574,-0.050000,-0.050000,0.345637,-0.812188,0.000000,0.000000,-0.410989,0.063564,1.207200,-0.111653,0.204276,-0.410416,-0.083213,-0.020834,0.013799,-0.727560
-0.050000,-0.050000,-0.034911,0.000000,0.000000,0.012395,0.000000,0.000000,0.293784,0.100000,0.100000,-0.088855,-0.508779,-0.050000,-0.050000,0.346242,-0.811773,0.000000,0.000000,-0.411260,0.055904,1.199634,-0.119461,0.205122,-0.411172,-0.085497,-0.021280,0.016501,-0.743020
-0.050000,-0.050000,-0.033839,0.000000,0.000000,0.013069,0.000000,0.000000,0.293867,0.100000,0.100000,-0.090083,-0.506812,-0.050000,-0.050000,0.347182,-0.810701,0.000000,0.000000,-0.412116,0.048620,1.191554,-0.125936,0.205765,-0.411546,-0.087899,-0.021415,0.020030,-0.758654
-0.050000,-0.050000,-0.032695,0.000000,0.000000,0.013664,0.000000,0.000000,0.293951,0.100000,0.100000,-0.091975,-0.504888,-0.050000,-0.050000,0.348353,-0.809226,0.000000,0.000000,-0.413381,0.041617,1.183169,-0.131398,0.206236,-0.411629,-0.090350,-0.021409,0.024137,-0.774425
-0.050000,-0.050000,-0.031467,0.000000,0.000000,0.014341,0.000000,0.000000,0.294086,0.100000,0.100000,-0.095160,-0.502743,-0.050000,-0.050000,0.349835,-0.806983,0.000000,0.000000,-0.415192,0.035456,1.173945,-0.134760,0.206280,-0.410949,-0.093049,-0.021027,0.029651,-0.789757
-0.050000,-0.050000,-0.030134,0.000000,0.000000,0.015020,0.000000,0.000000,0.294303,0.100000,0.100000,-0.098807,-0.500855,-0.050000,-0.050000,0.351481,-0.804504,0.000000,0.000000,-0.417271,0.029774,1.164351,-0.136887,0.205997,-0.409835,-0.095839,-0.020659,0.036004,-0.804841
-0.050000,-0.050000,-0.028707,0.000000,0.000000,0.015834,0.000000,0.000000,0.294647,0.100000,0.100000,-0.103207,-0.499005,-0.050000,-0.050000,0.353301,-0.801636,0.000000,0.000000,-0.419582,0.024924,1.154039,-0.137296,0.205250,-0.408092,-0.098896,-0.020241,0.043672,-0.819245
-0.050000,-0.050000,-0.027183,0.000000,0.000000,0.016795,0.000000,0.000000,0.295160,0.100000,0.100000,-0.108081,-0.497303,-0.050000,-0.050000,0.355262,-0.798596,0.000000,0.000000,-0.421987,0.020935,1.143032,-0.136167,0.204009,-0.405838,-0.102271,-0.020000,0.052739,-0.832768
-0.050000,-0.050000,-0.025633,0.000000,0.000000,0.017867,0.000000,0.000000,0.295794,0.100000,0.100000,-0.113185,-0.495885,-0.050000,-0.050000,0.357270,-0.795495,0.000000,0.000000,-0.424429,0.017587,1.131555,-0.133889,0.202435,-0.403217,-0.105874,-0.019985,0.062813,-0.845676
-0.050000,-0.050000,-0.024005,0.000000,0.000000,0.019194,0.000000,0.000000,0.296681,0.100000,0.100000,-0.118657,-0.494362,-0.050000,-0.050000,0.359428,-0.792424,0.000000,0.000000,-0.426729,0.015495,1.119205,-0.129995,0.200298,-0.400251,-0.110026,-0.020458,0.074747,-0.856956
-0.050000,-0.050000,-0.022437,0.000000,0.000000,0.020641,0.000000,0.000000,0.297671,0.100000,0.100000,-0.124040,-0.493121,-0.050000,-0.050000,0.361562,-0.789512,0.000000,0.000000,-0.428937,0.014094,1.106542,-0.125150,0.197938,-0.397130,-0.114437,-0.021419,0.087630,-0.867327
-0.050000,-0.050000,-0.020918,0.000000,0.000000,0.022270,0.000000,0.000000,0.298823,0.100000,0.100000,-0.129419,-0.491813,-0.050000,-0.050000,0.363736,-0.786850,0.000000,0.000000,-0.430918,0.013766,1.093487,-0.119171,0.195324,-0.393936,-0.119231,-0.023002,0.101724,-0.876179
-0.050000,-0.050000,-0.019531,0.000000,0.000000,0.024024,0.000000,0.000000,0.300065,0.100000,0.100000,-0.134585,-0.490445,-0.050000,-0.050000,0.365889,-0.784545,0.000000,0.000000,-0.432689,0.014488,1.080444,-0.112105,0.192624,-0.390693,-0.124208,-0.025236,0.116539,-0.883357
-0.050000,-0.050000,-0.018291,0.000000,0.000000,0.025888,0.000000,0.000000,0.301321,0.100000,0.100000,-0.139551,-0.489150,-0.050000,-0.050000,0.367951,-0.782504,0.000000,0.000000,-0.434265,0.015997,1.067467,-0.104199,0.189932,-0.387392,-0.129332,-0.028000,0.131805,-0.889316
-0.050000,-0.050000,-0.017254,0.000000,0.000000,0.027799,0.000000,0.000000,0.302614,0.100000,0.100000,-0.144158,-0.487456,-0.050000,-0.050000,0.369998,-0.781004,0.000000,0.000000,-0.435642,0.019032,1.055325,-0.094716,0.187340,-0.383784,-0.134154,-0.031334,0.146840,-0.892493
-0.050000,-0.050000,-0.016426,0.000000,0.000000,0.029768,0.000000,0.000000,0.303778,0.100000,0.100000,-0.148485,-0.485902,-0.050000,-0.050000,0.371862,-0.779781,0.000000,0.000000,-0.436881,0.022951,1.043875,-0.084100,0.184883,-0.379730,-0.138704,-0.035018,0.161367,-0.893985
-0.050000,-0.050000,-0.015809,0.000000,0.000000,0.031726,0.000000,0.000000,0.304853,0.100000,0.100000,-0.152472,-0.484207,-0.050000,-0.050000,0.373605,-0.778945,0.000000,0.000000,-0.438030,0.028229,1.033753,-0.071789,0.182603,-0.374855,-0.142516,-0.038876,0.174625,-0.892763
-0.050000,-0.050000,-0.015382,0.000000,0.000000,0.033659,0.000000,0.000000,0.305749,0.100000,0.100000,-0.156128,-0.482606,-0.050000,-0.050000,0.375144,-0.778359,0.000000,0.000000,-0.439172,0.034799,1.025295,-0.057575,0.180486,-0.368650,-0.145264,-0.042639,0.185887,-0.888626
-0.050000,-0.050000,-0.015132,0.000000,0.000000,0.035594,0.000000,0.000000,0.306466,0.100000,0.100000,-0.159630,-0.481303,-0.050000,-0.050000,0.376509,-0.777980,0.000000,0.000000,-0.440247,0.042379,1.018074,-0.041881,0.178442,-0.361307,-0.147209,-0.046316,0.195523,-0.882282
-0.050000,-0.050000,-0.014983,0.000000,0.000000,0.037454,0.000000,0.000000,0.307026,0.100000,0.100000,-0.162681,-0.480176,-0.050000,-0.050000,0.377616,-0.777624,0.000000,0.000000,-0.441519,0.051520,1.013591,-0.023541,0.176543,-0.351437,-0.147128,-0.049273,0.201380,-0.871688
-0.050000,-0.050000,-0.014956,0.000000,0.000000,0.039331,0.000000,0.000000,0.307371,0.100000,0.100000,-0.165698,-0.479685,-0.050000,-0.050000,0.378529,-0.777320,0.000000,0.000000,-0.442756,0.061500,1.010546,-0.003768,0.174611,-0.339858,-0.145959,-0.051848,0.204900,-0.858688
-0.050000,-0.050000,-0.014973,0.000000,0.000000,0.041209,0.000000,0.000000,0.307630,0.100000,0.100000,-0.168438,-0.479703,-0.050000,-0.050000,0.379205,-0.776843,0.000000,0.000000,-0.444129,0.072466,1.009744,0.017829,0.172725,-0.325889,-0.143036,-0.053653,0.204947,-0.842350
-0.050000,-0.050000,-0.015023,0.000000,0.000000,0.043146,0.000000,0.000000,0.307817,0.100000,0.100000,-0.171003,-0.480409,-0.050000,-0.050000,0.379663,-0.776135,0.000000,0.000000,-0.445554,0.083960,1.010811,0.040465,0.170871,-0.309790,-0.138660,-0.054863,0.201883,-0.823417
-0.050000,-0.050000,-0.015116,0.000000,0.000000,0.045132,0.000000,0.000000,0.307987,0.100000,0.100000,-0.173543,-0.481640,-0.050000,-0.050000,0.379983,-0.775236,0.000000,0.000000,-0.446952,0.095769,1.013186,0.063719,0.169034,-0.292161,-0.133254,-0.055510,0.196533,-0.802577
-0.050000,-0.050000,-0.015198,0.000000,0.000000,0.047288,0.000000,0.000000,0.308299,0.100000,0.100000,-0.175646,-0.483539,-0.050000,-0.050000,0.380047,-0.773845,0.000000,0.000000,-0.448414,0.107299,1.017492,0.086593,0.167396,-0.272688,-0.126527,-0.055920,0.188084,-0.780132
-0.050000,-0.050000,-0.015328,0.000000,0.000000,0.049537,0.000000,0.000000,0.308714,0.100000,0.100000,-0.177776,-0.485693,-0.050000,-0.050000,0.380028,-0.772244,0.000000,0.000000,-0.449736,0.118401,1.022578,0.108690,0.165867,-0.252507,-0.119366,-0.056167,0.178232,-0.757178
-0.050000,-0.050000,-0.015492,0.000000,0.000000,0.051979,0.000000,0.000000,0.309378,0.100000,0.100000,-0.179587,-0.488145,-0.050000,-0.050000,0.379855,-0.770281,0.000000,0.000000,-0.450973,0.128493,1.028609,0.128948,0.164556,-0.231822,-0.111864,-0.056761,0.166978,-0.734600
-0.050000,-0.050000,-0.015741,0.000000,0.000000,0.054589,0.000000,0.000000,0.310319,0.100000,0.100000,-0.181218,-0.490625,-0.050000,-0.050000,0.379598,-0.768098,0.000000,0.000000,-0.452014,0.137255,1.035010,0.146670,0.163399,-0.211372,-0.104599,-0.058045,0.155305,-0.713523
-0.050000,-0.050000,-0.016017,0.000000,0.000000,0.057314,0.000000,0.000000,0.311510,0.100000,0.100000,-0.182735,-0.492799,-0.050000,-0.050000,0.379294,-0.765724,0.000000,0.000000,-0.452939,0.144857,1.041636,0.162237,0.162392,-0.191298,-0.097639,-0.059790,0.143515,-0.693768
-0.050000,-0.050000,-0.016477,0.000000,0.000000,0.060243,0.000000,0.000000,0.313070,0.100000,0.100000,-0.183985,-0.495017,-0.050000,-0.050000,0.378960,-0.763301,0.000000,0.000000,-0.453585,0.150346,1.047904,0.173697,0.161305,-0.172433,-0.091753,-0.063217,0.132624,-0.677838
-0.050000,-0.050000,-0.016971,0.000000,0.000000,0.063223,0.000000,0.000000,0.314912,0.100000,0.100000,-0.185254,-0.496588,-0.050000,-0.050000,0.378678,-0.760809,0.000000,0.000000,-0.454125,0.154585,1.053833,0.182773,0.160146,-0.154504,-0.086631,-0.067266,0.122521,-0.664141
-0.050000,-0.050000,-0.017598,0.000000,0.000000,0.066273,0.000000,0.000000,0.317026,0.100000,0.100000,-0.186519,-0.497972,-0.050000,-0.050000,0.378509,-0.758401,0.000000,0.000000,-0.454496,0.157130,1.058884,0.188623,0.158631,-0.137892,-0.082716,-0.072561,0.113889,-0.654045
-0.050000,-0.050000,-0.018297,0.000000,0.000000,0.069297,0.000000,0.000000,0.319375,0.100000,0.100000,-0.188030,-0.499006,-0.050000,-0.050000,0.378580,-0.756098,0.000000,0.000000,-0.454779,0.158469,1.062766,0.192209,0.156595,-0.122414,-0.079903,-0.078496,0.106803,-0.646872
-0.050000,-0.050000,-0.019018,0.000000,0.000000,0.072274,0.000000,0.000000,0.321910,0.100000,0.100000,-0.189716,-0.499761,-0.050000,-0.050000,0.378887,-0.753853,0.000000,0.000000,-0.455065,0.158936,1.065690,0.194178,0.154096,-0.107792,-0.077877,-0.084816,0.100920,-0.641848
-0.050000,-0.050000,-0.019800,0.000000,0.000000,0.075070,0.000000,0.000000,0.324523,0.100000,0.100000,-0.192213,-0.500592,-0.050000,-0.050000,0.379789,-0.751901,0.000000,0.000000,-0.455287,0.158713,1.066293,0.194994,0.150540,-0.093969,-0.077046,-0.091099,0.097076,-0.639256
-0.050000,-0.050000,-0.020529,0.000000,0.000000,0.077712,0.000000,0.000000,0.327254,0.100000,0.100000,-0.195141,-0.501418,-0.050000,-0.050000,0.381191,-0.750024,0.000000,0.000000,-0.455589,0.158322,1.065419,0.195547,0.146278,-0.080448,-0.076651,-0.097010,0.094294,-0.637565
-0.050000,-0.050000,-0.021207,0.000000,0.000000,0.080081,0.000000,0.000000,0.329933,0.100000,0.100000,-0.199084,-0.502465,-0.050000,-0.050000,0.383400,-0.748384,0.000000,0.000000,-0.455885,0.158074,1.062009,0.196505,0.140919,-0.066946,-0.076879,-0.102061,0.093025,-0.636360
-0.050000,-0.050000,-0.021767,0.000000,0.000000,0.082156,0.000000,0.000000,0.332532,0.100000,0.100000,-0.204033,-0.503772,-0.050000,-0.050000,0.386547,-0.746913,0.000000,0.000000,-0.456144,0.158324,1.055987,0.198438,0.134460,-0.053088,-0.077384,-0.106006,0.092981,-0.634637
-0.050000,-0.050000,-0.022247,0.000000,0.000000,0.083971,0.000000,0.000000,0.335079,0.100000,0.100000,-0.209679,-0.505470,-0.050000,-0.050000,0.390510,-0.745563,0.000000,0.000000,-0.456358,0.159028,1.047772,0.201305,0.127097,-0.038808,-0.077936,-0.109043,0.093803,-0.632270
-0.050000,-0.050000,-0.022509,0.000000,0.000000,0.085355,0.000000,0.000000,0.337257,0.100000,0.100000,-0.217021,-0.507250,-0.050000,-0.050000,0.395896,-0.744398,0.000000,0.000000,-0.456127,0.160801,1.035639,0.205914,0.118184,-0.023699,-0.078750,-0.110521,0.096241,-0.627907
-0.050000,-0.050000,-0.022679,0.000000,0.000000,0.086445,0.000000,0.000000,0.339316,0.100000,0.100000,-0.224910,-0.509417,-0.050000,-0.050000,0.402256,-0.743260,0.000000,0.000000,-0.455579,0.163059,1.021030,0.211450,0.108255,-0.008019,-0.079351,-0.111266,0.099489,-0.622270
-0.050000,-0.050000,-0.022660,0.000000,0.000000,0.087133,0.000000,0.000000,0.340956,0.100000,0.100000,-0.234084,-0.511460,-0.050000,-0.050000,0.409926,-0.742129,0.000000,0.000000,-0.454199,0.166107,1.002807,0.218053,0.096847,0.008259,-0.080045,-0.111109,0.104222,-0.614682
-0.050000,-0.050000,-0.022500,0.000000,0.000000,0.087450,0.000000,0.000000,0.342209,0.100000,0.100000,-0.244010,-0.513342,-0.050000,-0.050000,0.418719,-0.740864,0.000000,0.000000,-0.451765,0.169479,0.981398,0.224977,0.083973,0.024825,-0.080714,-0.110669,0.110365,-0.605700
-0.050000,-0.050000,-0.022253,0.000000,0.000000,0.087432,0.000000,0.000000,0.343156,0.100000,0.100000,-0.254364,-0.514973,-0.050000,-0.050000,0.428403,-0.739407,0.000000,0.000000,-0.448425,0.173002,0.957395,0.231970,0.069959,0.041513,-0.081335,-0.110069,0.117639,-0.595691
-0.050000,-0.050000,-0.021796,0.000000,0.000000,0.086976,0.000000,0.000000,0.343351,0.100000,0.100000,-0.265525,-0.515739,-0.050000,-0.050000,0.439022,-0.737515,0.000000,0.000000,-0.442892,0.176243,0.929816,0.238013,0.053793,0.057878,-0.082334,-0.110125,0.127173,-0.585100
-0.050000,-0.050000,-0.021295,0.000000,0.000000,0.086176,0.000000,0.000000,0.343198,0.100000,0.100000,-0.276555,-0.515887,-0.050000,-0.050000,0.450144,-0.735168,0.000000,0.000000,-0.436093,0.178987,0.900157,0.243136,0.036397,0.073890,-0.083379,-0.110666,0.137952,-0.574493
-0.050000,-0.050000,-0.020628,0.000000,0.000000,0.084967,0.000000,0.000000,0.342293,0.100000,0.100000,-0.287699,-0.515003,-0.050000,-0.050000,0.461500,-0.732115,0.000000,0.000000,-0.426911,0.180759,0.868020,0.246529,0.016969,0.089247,-0.084888,-0.112387,0.150794,-0.564566
-0.050000,-0.050000,-0.019861,0.000000,0.000000,0.083373,0.000000,0.000000,0.340755,0.100000,0.100000,-0.298465,-0.513136,-0.050000,-0.050000,0.472665,-0.728215,0.000000,0.000000,-0.415562,0.181291,0.834205,0.248131,-0.004300,0.103961,-0.086768,-0.115265,0.165336,-0.555862
-0.050000,-0.050000,-0.019018,0.000000,0.000000,0.081445,0.000000,0.000000,0.338676,0.100000,0.100000,-0.308779,-0.510334,-0.050000,-0.050000,0.483524,-0.723560,0.000000,0.000000,-0.402449,0.180779,0.799160,0.248153,-0.026941,0.118096,-0.089119,-0.119059,0.181237,-0.548292
-0.050000,-0.050000,-0.017991,0.000000,0.000000,0.079087,0.000000,0.000000,0.335651,0.100000,0.100000,-0.318422,-0.506566,-0.050000,-0.050000,0.493085,-0.717539,0.000000,0.000000,-0.386243,0.178216,0.763249,0.246130,-0.052199,0.131745,-0.092052,-0.124357,0.199036,-0.543146
-0.050000,-0.050000,-0.016936,0.000000,0.000000,0.076437,0.000000,0.000000,0.332139,0.100000,0.100000,-0.327354,-0.501994,-0.050000,-0.050000,0.501774,-0.710639,0.000000,0.000000,-0.368507,0.174598,0.726985,0.242847,-0.078668,0.145031,-0.095535,-0.130285,0.217769,-0.539445
-0.050000,-0.050000,-0.015747,0.000000,0.000000,0.073423,0.000000,0.000000,0.327819,0.100000,0.100000,-0.335444,-0.496795,-0.050000,-0.050000,0.508660,-0.702373,0.000000,0.000000,-0.348296,0.169179,0.690891,0.238371,-0.107245,0.158259,-0.099605,-0.137044,0.237637,-0.537982
-0.050000,-0.050000,-0.014513,0.000000,0.000000,0.070117,0.000000,0.000000,0.322904,0.100000,0.100000,-0.342709,-0.491109,-0.050000,-0.050000,0.513855,-0.692968,0.000000,0.000000,-0.326382,0.162484,0.655392,0.233266,-0.137317,0.171580,-0.104212,-0.144098,0.258069,-0.538266
-0.050000,-0.050000,-0.013253,0.000000,0.000000,0.066583,0.000000,0.000000,0.317491,0.100000,0.100000,-0.349307,-0.485104,-0.050000,-0.050000,0.517518,-0.682653,0.000000,0.000000,-0.303147,0.154851,0.620521,0.227760,-0.168439,0.185018,-0.109513,-0.151311,0.278814,-0.539898
-0.050000,-0.050000,-0.011958,0.000000,0.000000,0.062747,0.000000,0.000000,0.311462,0.100000,0.100000,-0.354971,-0.478918,-0.050000,-0.050000,0.518910,-0.671079,0.000000,0.000000,-0.278334,0.145821,0.587312,0.222512,-0.201097,0.199017,-0.115099,-0.158267,0.299520,-0.543251
-0.050000,-0.050000,-0.010698,0.000000,0.000000,0.058766,0.000000,0.000000,0.305100,0.100000,0.100000,-0.360138,-0.472600,-0.050000,-0.050000,0.519033,-0.658961,0.000000,0.000000,-0.252927,0.136359,0.555148,0.217376,-0.234183,0.213219,-0.121352,-0.164977,0.319921,-0.547406
-0.050000,-0.050000,-0.009468,0.000000,0.000000,0.054577,0.000000,0.000000,0.298373,0.100000,0.100000,-0.364545,-0.466201,-0.050000,-0.050000,0.517531,-0.646161,0.000000,0.000000,-0.226870,0.126109,0.524858,0.212855,-0.267846,0.227865,-0.127838,-0.171093,0.339680,-0.552523
-0.050000,-0.050000,-0.008290,0.000000,0.000000,0.050262,0.000000,0.000000,0.291438,0.100000,0.100000,-0.368352,-0.459678,-0.050000,-0.050000,0.515119,-0.633186,0.000000,0.000000,-0.200748,0.115534,0.496229,0.208809,-0.301389,0.242653,-0.134630,-0.176615,0.358561,-0.558137
-0.050000,-0.050000,-0.007150,0.000000,0.000000,0.045845,0.000000,0.000000,0.284340,0.100000,0.100000,-0.371709,-0.453048,-0.050000,-0.050000,0.511975,-0.620122,0.000000,0.000000,-0.174672,0.104727,0.469005,0.205152,-0.334654,0.257517,-0.141818,-0.181649,0.376575,-0.564067
-0.050000,-0.050000,-0.006054,0.000000,0.000000,0.041323,0.000000,0.000000,0.277261,0.100000,0.100000,-0.374080,-0.446097,-0.050000,-0.050000,0.508848,-0.607592,0.000000,0.000000,-0.149187,0.093692,0.443923,0.201979,-0.366864,0.272026,-0.148772,-0.185838,0.393239,-0.570208
-0.050000,-0.050000,-0.004949,0.000000,0.000000,0.036741,0.000000,0.000000,0.270135,0.100000,0.100000,-0.375994,-0.438873,-0.050000,-0.050000,0.505748,-0.595446,0.000000,0.000000,-0.124169,0.082619,0.420036,0.198918,-0.398121,0.286164,-0.156011,-0.189586,0.408868,-0.576372
-0.050000,-0.050000,-0.003828,0.000000,0.000000,0.032111,0.000000,0.000000,0.263191,0.100000,0.100000,-0.376827,-0.431164,-0.050000,-0.050000,0.503534,-0.584385,0.000000,0.000000,-0.100078,0.071504,0.397840,0.195923,-0.427599,0.299371,-0.162966,-0.192658,0.423179,-0.582491
-0.050000,-0.050000,-0.003404,0.000000,0.000000,0.027507,0.000000,0.000000,0.261146,0.100000,0.100000,-0.380069,-0.426883,-0.050000,-0.050000,0.504595,-0.574282,0.000000,0.000000,-0.075205,0.058987,0.374006,0.191775,-0.458211,0.312297,-0.168798,-0.195268,0.437459,-0.588926
-0.050000,-0.050000,-0.002498,0.000000,0.000000,0.022641,0.000000,0.000000,0.256531,0.100000,0.100000,-0.380578,-0.420058,-0.050000,-0.050000,0.505158,-0.565086,0.000000,0.000000,-0.052052,0.047509,0.353358,0.188408,-0.484755,0.323458,-0.174888,-0.197176,0.449812,-0.594910
-0.050000,-0.050000,-0.001189,0.000000,0.000000,0.017853,0.000000,0.000000,0.251078,0.100000,0.100000,-0.378356,-0.411118,-0.050000,-0.050000,0.507102,-0.557925,0.000000,0.000000,-0.030570,0.036430,0.334591,0.184722,-0.507221,0.332299,-0.180984,-0.198646,0.460682,-0.600666
-0.050000,-0.050000,0.000310,0.000000,0.000000,0.013122,0.000000,0.000000,0.245380,0.100000,0.100000,-0.374881,-0.401139,-0.050000,-0.050000,0.509692,-0.551682,0.000000,0.000000,-0.009861,0.025370,0.316408,0.180589,-0.527585,0.339858,-0.187209,-0.199915,0.470830,-0.606363
-0.050000,-0.050000,0.001962,0.000000,0.000000,0.008488,0.000000,0.000000,0.239989,0.100000,0.100000,-0.369551,-0.390155,-0.050000,-0.050000,0.513990,-0.547322,0.000000,0.000000,0.009817,0.014395,0.298989,0.175971,-0.544576,0.345261,-0.193019,-0.200834,0.480130,-0.611911
-0.050000,-0.050000,0.003685,0.000000,0.000000,0.003943,0.000000,0.000000,0.234881,0.100000,0.100000,-0.362792,-0.378362,-0.050000,-0.050000,0.519238,-0.544212,0.000000,0.000000,0.028803,0.003482,0.282054,0.171000,-0.558773,0.348944,-0.198563,-0.201552,0.488849,-0.617347
-0.050000,-0.050000,0.005444,0.000000,0.000000,-0.000507,0.000000,0.000000,0.230053,0.100000,0.100000,-0.354793,-0.365899,-0.050000,-0.050000,0.525181,-0.542127,0.000000,0.000000,0.047265,-0.007371,0.265487,0.165750,-0.570558,0.351170,-0.203854,-0.202123,0.497136,-0.622689
-0.050000,-0.050000,0.007121,0.000000,0.000000,-0.004752,0.000000,0.000000,0.225824,0.100000,0.100000,-0.345058,-0.352551,-0.050000,-0.050000,0.531929,-0.541497,0.000000,0.000000,0.064972,-0.018094,0.249660,0.160289,-0.578850,0.351381,-0.208625,-0.202603,0.504885,-0.627777
-0.050000,-0.050000,0.008720,0.000000,0.000000,-0.008839,0.000000,0.000000,0.221848,0.100000,0.100000,-0.334389,-0.338622,-0.050000,-0.050000,0.538604,-0.541379,0.000000,0.000000,0.082337,-0.028749,0.234222,0.154698,-0.585159,0.350539,-0.213161,-0.203077,0.512377,-0.632719
-0.050000,-0.050000,0.010086,0.000000,0.000000,-0.012655,0.000000,0.000000,0.218447,0.100000,0.100000,-0.322412,-0.323938,-0.050000,-0.050000,0.545192,-0.542047,0.000000,0.000000,0.099065,-0.039271,0.219692,0.149050,-0.588698,0.348285,-0.217162,-0.203595,0.519452,-0.637294
-0.050000,-0.050000,0.011193,0.000000,0.000000,-0.016199,0.000000,0.000000,0.215442,0.100000,0.100000,-0.309618,-0.308669,-0.050000,-0.050000,0.551099,-0.542910,0.000000,0.000000,0.115270,-0.049667,0.206080,0.143407,-0.590331,0.345214,-0.220730,-0.204211,0.526178,-0.641471
-0.050000,-0.050000,0.012061,0.000000,0.000000,-0.019483,0.000000,0.000000,0.212788,0.100000,0.100000,-0.296205,-0.292915,-0.050000,-0.050000,0.556294,-0.543862,0.000000,0.000000,0.131002,-0.059959,0.193359,0.137790,-0.590445,0.341544,-0.223918,-0.204926,0.532585,-0.645259
-0.050000,-0.050000,0.012457,0.000000,0.000000,-0.022390,0.000000,0.000000,0.210696,0.100000,0.100000,-0.282196,-0.276679,-0.050000,-0.050000,0.560085,-0.544462,0.000000,0.000000,0.145755,-0.069986,0.182421,0.132340,-0.589043,0.337540,-0.226357,-0.205789,0.538329,-0.648239
-0.050000,-0.050000,0.012615,0.000000,0.000000,-0.025023,0.000000,0.000000,0.208858,0.100000,0.100000,-0.268048,-0.260174,-0.050000,-0.050000,0.562837,-0.544753,0.000000,0.000000,0.159900,-0.079872,0.172694,0.127011,-0.586919,0.333513,-0.228450,-0.206766,0.543604,-0.650669
-0.050000,-0.050000,0.012325,0.000000,0.000000,-0.027297,0.000000,0.000000,0.207484,0.100000,0.100000,-0.253782,-0.243524,-0.050000,-0.050000,0.563913,-0.544228,0.000000,0.000000,0.172808,-0.089388,0.165091,0.121965,-0.584252,0.329858,-0.229769,-0.207849,0.547973,-0.652104
-0.050000,-0.050000,0.011742,0.000000,0.000000,-0.029276,0.000000,0.000000,0.206399,0.100000,0.100000,-0.239721,-0.226940,-0.050000,-0.050000,0.563578,-0.542929,0.000000,0.000000,0.184563,-0.098552,0.159413,0.117223,-0.581586,0.326871,-0.230520,-0.208994,0.551396,-0.652610
-0.050000,-0.050000,0.010928,0.000000,0.000000,-0.031006,0.000000,0.000000,0.205570,0.100000,0.100000,-0.225967,-0.210519,-0.050000,-0.050000,0.562039,-0.540907,0.000000,0.000000,0.195217,-0.107388,0.155536,0.112801,-0.579121,0.324617,-0.230799,-0.210185,0.553892,-0.652251
-0.050000,-0.050000,0.009812,0.000000,0.000000,-0.032459,0.000000,0.000000,0.205039,0.100000,0.100000,-0.212711,-0.194724,-0.050000,-0.050000,0.558786,-0.537602,0.000000,0.000000,0.203984,-0.115491,0.154153,0.108881,-0.577492,0.323910,-0.230169,-0.211296,0.554792,-0.650547
-0.050000,-0.050000,0.008606,0.000000,0.000000,-0.033745,0.000000,0.000000,0.204659,0.100000,0.100000,-0.200063,-0.179428,-0.050000,-0.050000,0.554727,-0.533686,0.000000,0.000000,0.211609,-0.123212,0.154420,0.105363,-0.576566,0.324291,-0.229191,-0.212371,0.554557,-0.647963
-0.050000,-0.050000,0.007255,0.000000,0.000000,-0.034851,0.000000,0.000000,0.204457,0.100000,0.100000,-0.188156,-0.165183,-0.050000,-0.050000,0.549408,-0.528601,0.000000,0.000000,0.217267,-0.130063,0.156759,0.102363,-0.576918,0.326555,-0.227387,-0.213245,0.552531,-0.644063
-0.050000,-0.050000,0.005887,0.000000,0.000000,-0.035852,0.000000,0.000000,0.204340,0.100000,0.100000,-0.177093,-0.151991,-0.050000,-0.050000,0.543480,-0.522814,0.000000,0.000000,0.221409,-0.136220,0.160541,0.099801,-0.578415,0.330427,-0.225080,-0.213910,0.548948,-0.639102
-0.050000,-0.050000,0.004523,0.000000,0.000000,-0.036786,0.000000,0.000000,0.204305,0.100000,0.100000,-0.166819,-0.139848,-0.050000,-0.050000,0.537110,-0.516422,0.000000,0.000000,0.224208,-0.141731,0.165482,0.097638,-0.580957,0.335751,-0.222326,-0.214355,0.543971,-0.633216
-0.050000,-0.050000,0.003203,0.000000,0.000000,-0.037653,0.000000,0.000000,0.204240,0.100000,0.100000,-0.157612,-0.129368,-0.050000,-0.050000,0.530490,-0.509342,0.000000,0.000000,0.225147,-0.146124,0.171131,0.095733,-0.584676,0.342883,-0.218947,-0.214389,0.537187,-0.626175
-0.050000,-0.050000,0.001941,0.000000,0.000000,-0.038517,0.000000,0.000000,0.204208,0.100000,0.100000,-0.149227,-0.120013,-0.050000,-0.050000,0.524000,-0.502031,0.000000,0.000000,0.225143,-0.149942,0.177173,0.094072,-0.589034,0.351023,-0.215303,-0.214140,0.529352,-0.618464
-0.050000,-0.050000,0.000759,0.000000,0.000000,-0.039338,0.000000,0.000000,0.204063,0.100000,0.100000,-0.141960,-0.112388,-0.050000,-0.050000,0.517932,-0.494487,0.000000,0.000000,0.223681,-0.152649,0.182924,0.092382,-0.593815,0.360201,-0.211309,-0.213450,0.520239,-0.609938
-0.050000,-0.050000,-0.000352,0.000000,0.000000,-0.040144,0.000000,0.000000,0.203846,0.100000,0.100000,-0.135684,-0.106178,-0.050000,-0.050000,0.512599,-0.487051,0.000000,0.000000,0.221376,-0.154565,0.188105,0.090618,-0.598408,0.369671,-0.207226,-0.212406,0.510505,-0.600988
-0.050000,-0.050000,-0.001416,0.000000,0.000000,-0.040934,0.000000,0.000000,0.203563,0.100000,0.100000,-0.130289,-0.101253,-0.050000,-0.050000,0.508003,-0.479760,0.000000,0.000000,0.218382,-0.155745,0.192562,0.088715,-0.602564,0.379143,-0.203108,-0.211041,0.500421,-0.591782
-0.050000,-0.050000,-0.002418,0.000000,0.000000,-0.041608,0.000000,0.000000,0.203047,0.100000,0.100000,-0.126162,-0.097973,-0.050000,-0.050000,0.504981,-0.473165,0.000000,0.000000,0.214666,-0.155894,0.195444,0.086353,-0.605129,0.387631,-0.199325,-0.209401,0.490524,-0.582618
-0.050000,-0.050000,-0.003418,0.000000,0.000000,-0.042251,0.000000,0.000000,0.202490,0.100000,0.100000,-0.122845,-0.095773,-0.050000,-0.050000,0.502902,-0.466967,0.000000,0.000000,0.210668,-0.155469,0.197344,0.083790,-0.606408,0.395217,-0.195754,-0.207571,0.481109,-0.573726
-0.050000,-0.050000,-0.004406,0.000000,0.000000,-0.042706,0.000000,0.000000,0.201675,0.100000,0.100000,-0.120814,-0.095003,-0.050000,-0.050000,0.502780,-0.461899,0.000000,0.000000,0.206326,-0.154169,0.197482,0.080738,-0.605090,0.400782,-0.192882,-0.205703,0.472829,-0.565506
-0.050000,-0.050000,-0.005430,0.000000,0.000000,-0.043019,0.000000,0.000000,0.200738,0.100000,0.100000,-0.119837,-0.095350,-0.050000,-0.050000,0.504183,-0.457760,0.000000,0.000000,0.201864,-0.152278,0.196352,0.077456,-0.601366,0.404418,-0.190615,-0.203893,0.465969,-0.558218
-0.050000,-0.050000,-0.006498,0.000000,0.000000,-0.043177,0.000000,0.000000,0.199684,0.100000,0.100000,-0.119853,-0.096685,-0.050000,-0.050000,0.507022,-0.454547,0.000000,0.000000,0.197316,-0.149867,0.194095,0.073999,-0.595336,0.406184,-0.188954,-0.202216,0.460556,-0.551903
-0.050000,-0.050000,-0.007645,0.000000,0.000000,-0.043042,0.000000,0.000000,0.198394,0.100000,0.100000,-0.121267,-0.099166,-0.050000,-0.050000,0.512131,-0.452966,0.000000,0.000000,0.192720,-0.146933,0.190623,0.070521,-0.586195,0.405468,-0.188218,-0.200903,0.457343,-0.547184
-0.050000,-0.050000,-0.008861,0.000000,0.000000,-0.042756,0.000000,0.000000,0.197070,0.100000,0.100000,-0.123646,-0.102483,-0.050000,-0.050000,0.518414,-0.452231,0.000000,0.000000,0.188038,-0.143662,0.186584,0.067236,-0.575183,0.403309,-0.187961,-0.199862,0.455670,-0.543619
-0.050000,-0.050000,-0.010188,0.000000,0.000000,-0.042157,0.000000,0.000000,0.195560,0.100000,0.100000,-0.127441,-0.106785,-0.050000,-0.050000,0.526903,-0.453194,0.000000,0.000000,0.183251,-0.140091,0.182001,0.064407,-0.561851,0.399483,-0.188423,-0.199297,0.456071,-0.541731
-0.050000,-0.050000,-0.011606,0.000000,0.000000,-0.041343,0.000000,0.000000,0.194016,0.100000,0.100000,-0.132425,-0.111930,-0.050000,-0.050000,0.536901,-0.455343,0.000000,0.000000,0.178223,-0.136321,0.177420,0.062287,-0.547313,0.394996,-0.189250,-0.199139,0.457898,-0.541084
-0.050000,-0.050000,-0.013097,0.000000,0.000000,-0.040325,0.000000,0.000000,0.192451,0.100000,0.100000,-0.138545,-0.117825,-0.050000,-0.050000,0.548328,-0.458636,0.000000,0.000000,0.172917,-0.132424,0.173039,0.060961,-0.532021,0.390253,-0.190357,-0.199382,0.460820,-0.541445
-0.050000,-0.050000,-0.014691,0.000000,0.000000,-0.039025,0.000000,0.000000,0.190866,0.100000,0.100000,-0.146003,-0.124519,-0.050000,-0.050000,0.561726,-0.463490,0.000000,0.000000,0.167079,-0.128464,0.169349,0.060909,-0.516862,0.386307,-0.191582,-0.200070,0.464425,-0.542655
-0.050000,-0.050000,-0.016299,0.000000,0.000000,-0.037580,0.000000,0.000000,0.189361,0.100000,0.100000,-0.154511,-0.131878,-0.050000,-0.050000,0.576287,-0.469290,0.000000,0.000000,0.160728,-0.124460,0.166442,0.061944,-0.502219,0.383306,-0.192878,-0.201164,0.468163,-0.544141
-0.050000,-0.050000,-0.017951,0.000000,0.000000,-0.035881,0.000000,0.000000,0.187951,0.100000,0.100000,-0.164194,-0.139918,-0.050000,-0.050000,0.592689,-0.476526,0.000000,0.000000,0.153532,-0.120442,0.164826,0.064497,-0.489164,0.382531,-0.194059,-0.202705,0.471340,-0.545494
-0.050000,-0.050000,-0.019559,0.000000,0.000000,-0.034016,0.000000,0.000000,0.186713,0.100000,0.100000,-0.174864,-0.148568,-0.050000,-0.050000,0.610446,-0.484839,0.000000,0.000000,0.145469,-0.116410,0.164636,0.068424,-0.477987,0.384137,-0.195174,-0.204754,0.473447,-0.546150
-0.050000,-0.050000,-0.021106,0.000000,0.000000,-0.032000,0.000000,0.000000,0.185658,0.100000,0.100000,-0.186437,-0.157757,-0.050000,-0.050000,0.629438,-0.494133,0.000000,0.000000,0.136513,-0.112372,0.165895,0.073637,-0.468809,0.388208,-0.196254,-0.207311,0.474244,-0.545868
-0.050000,-0.050000,-0.022533,0.000000,0.000000,-0.029762,0.000000,0.000000,0.184922,0.100000,0.100000,-0.198707,-0.167486,-0.050000,-0.050000,0.649857,-0.504559,0.000000,0.000000,0.126316,-0.108248,0.169155,0.080194,-0.462580,0.395875,-0.197126,-0.210557,0.472741,-0.543791
-0.050000,-0.050000,-0.023825,0.000000,0.000000,-0.027410,0.000000,0.000000,0.184418,0.100000,0.100000,-0.211699,-0.177672,-0.050000,-0.050000,0.671147,-0.515747,0.000000,0.000000,0.115193,-0.104104,0.174033,0.087816,-0.458503,0.406108,-0.198081,-0.214439,0.469460,-0.540210
-0.050000,-0.050000,-0.024913,0.000000,0.000000,-0.024832,0.000000,0.000000,0.184344,0.100000,0.100000,-0.225046,-0.188353,-0.050000,-0.050000,0.693353,-0.527781,0.000000,0.000000,0.102769,-0.099787,0.181142,0.096386,-0.457427,0.419974,-0.198839,-0.219184,0.463450,-0.534306
-0.050000,-0.050000,-0.025798,0.000000,0.000000,-0.022094,0.000000,0.000000,0.184628,0.100000,0.100000,-0.238769,-0.199481,-0.050000,-0.050000,0.715950,-0.540373,0.000000,0.000000,0.089335,-0.095341,0.190250,0.105679,-0.458727,0.436642,-0.199601,-0.224757,0.455202,-0.526401
-0.050000,-0.050000,-0.026494,0.000000,0.000000,-0.019194,0.000000,0.000000,0.185272,0.100000,0.100000,-0.252776,-0.211030,-0.050000,-0.050000,0.738665,-0.553366,0.000000,0.000000,0.074954,-0.090714,0.201209,0.115486,-0.462106,0.455774,-0.200335,-0.231063,0.444915,-0.516639
-0.050000,-0.050000,-0.026925,0.000000,0.000000,-0.016080,0.000000,0.000000,0.186432,0.100000,0.100000,-0.266656,-0.223098,-0.050000,-0.050000,0.760700,-0.566430,0.000000,0.000000,0.059657,-0.085784,0.214506,0.125451,-0.467832,0.477455,-0.200823,-0.238294,0.432441,-0.504905
-0.050000,-0.050000,-0.027219,0.000000,0.000000,-0.012804,0.000000,0.000000,0.187901,0.100000,0.100000,-0.280698,-0.235543,-0.050000,-0.050000,0.782054,-0.579531,0.000000,0.000000,0.043767,-0.080603,0.229381,0.135565,-0.475051,0.500715,-0.201271,-0.246045,0.418540,-0.491850
-0.050000,-0.050000,-0.027273,0.000000,0.000000,-0.009327,0.000000,0.000000,0.189891,0.100000,0.100000,-0.294337,-0.248535,-0.050000,-0.050000,0.801416,-0.592088,0.000000,0.000000,0.027415,-0.075018,0.246419,0.145355,-0.484141,0.525483,-0.201340,-0.254496,0.403248,-0.477559
-0.050000,-0.050000,-0.027214,0.000000,0.000000,-0.005664,0.000000,0.000000,0.192230,0.100000,0.100000,-0.307747,-0.261939,-0.050000,-0.050000,0.818653,-0.604050,0.000000,0.000000,0.010933,-0.069024,0.264951,0.154775,-0.494488,0.550921,-0.201174,-0.263264,0.387197,-0.462622
-0.050000,-0.050000,-0.027069,0.000000,0.000000,-0.001821,0.000000,0.000000,0.194893,0.100000,0.100000,-0.320801,-0.275732,-0.050000,-0.050000,0.833503,-0.615256,0.000000,0.000000,-0.005502,-0.062594,0.284713,0.163672,-0.505835,0.576637,-0.200692,-0.272175,0.370719,-0.447350
-0.050000,-0.050000,-0.026824,0.000000,0.000000,0.002168,0.000000,0.000000,0.197940,0.100000,0.100000,-0.333171,-0.289949,-0.050000,-0.050000,0.844343,-0.624954,0.000000,0.000000,-0.021467,-0.055605,0.305600,0.171627,-0.518206,0.601791,-0.199828,-0.281103,0.354417,-0.432270
-0.050000,-0.050000,-0.026613,0.000000,0.000000,0.006362,0.000000,0.000000,0.201189,0.100000,0.100000,-0.344992,-0.304372,-0.050000,-0.050000,0.852405,-0.633684,0.000000,0.000000,-0.036953,-0.048102,0.326875,0.178758,-0.530941,0.626265,-0.198678,-0.289755,0.338369,-0.417514
-0.050000,-0.050000,-0.025959,0.000000,0.000000,0.009726,0.000000,0.000000,0.200784,0.100000,0.100000,-0.349305,-0.313860,-0.050000,-0.050000,0.855171,-0.638825,0.000000,0.000000,-0.050726,-0.039949,0.344069,0.181758,-0.542196,0.646225,-0.196489,-0.296803,0.325071,-0.405352
-0.050000,-0.050000,-0.025670,0.000000,0.000000,0.013547,0.000000,0.000000,0.201747,0.100000,0.100000,-0.354256,-0.324633,-0.050000,-0.050000,0.854400,-0.642506,0.000000,0.000000,-0.063599,-0.031056,0.361392,0.183639,-0.553858,0.665532,-0.194145,-0.303627,0.312175,-0.393579
-0.050000,-0.050000,-0.025702,0.000000,0.000000,0.017797,0.000000,0.000000,0.204263,0.100000,0.100000,-0.360852,-0.337423,-0.050000,-0.050000,0.850168,-0.645098,0.000000,0.000000,-0.075942,-0.021622,0.379520,0.185371,-0.565777,0.684187,-0.192018,-0.310309,0.299570,-0.381931
-0.050000,-0.050000,-0.025899,0.000000,0.000000,0.022204,0.000000,0.000000,0.207632,0.100000,0.100000,-0.367755,-0.351075,-0.050000,-0.050000,0.841349,-0.645651,0.000000,0.000000,-0.087993,-0.011467,0.396840,0.186227,-0.576626,0.700896,-0.190407,-0.316477,0.287883,-0.370752
-0.050000,-0.050000,-0.026213,0.000000,0.000000,0.026812,0.000000,0.000000,0.211464,0.100000,0.100000,-0.374268,-0.364874,-0.050000,-0.050000,0.829453,-0.644806,0.000000,0.000000,-0.099753,-0.000835,0.412998,0.186040,-0.585984,0.715832,-0.189084,-0.322065,0.277137,-0.360189
-0.050000,-0.050000,-0.026697,0.000000,0.000000,0.031469,0.000000,0.000000,0.215739,0.100000,0.100000,-0.380051,-0.378496,-0.050000,-0.050000,0.813389,-0.641490,0.000000,0.000000,-0.111750,0.010580,0.426506,0.184104,-0.592393,0.728449,-0.188402,-0.326880,0.267362,-0.350117
-0.050000,-0.050000,-0.027332,0.000000,0.000000,0.036222,0.000000,0.000000,0.220293,0.100000,0.100000,-0.384833,-0.391632,-0.050000,-0.050000,0.794494,-0.636297,0.000000,0.000000,-0.124117,0.022513,0.437336,0.180405,-0.595359,0.739125,-0.188107,-0.330932,0.258397,-0.340524
-0.050000,-0.050000,-0.028110,0.000000,0.000000,0.041002,0.000000,0.000000,0.225075,0.100000,0.100000,-0.388585,-0.404152,-0.050000,-0.050000,0.773196,-0.629272,0.000000,0.000000,-0.137083,0.034892,0.445338,0.174937,-0.594585,0.748143,-0.188150,-0.334247,0.250025,-0.331258
-0.050000,-0.050000,-0.029063,0.000000,0.000000,0.045755,0.000000,0.000000,0.230166,0.100000,0.100000,-0.391267,-0.416030,-0.050000,-0.050000,0.749857,-0.620124,0.000000,0.000000,-0.151711,0.047889,0.449737,0.167374,-0.588280,0.755733,-0.188520,-0.336824,0.241546,-0.321948
-0.050000,-0.050000,-0.030051,0.000000,0.000000,0.050413,0.000000,0.000000,0.235398,0.100000,0.100000,-0.392947,-0.427101,-0.050000,-0.050000,0.725306,-0.609545,0.000000,0.000000,-0.167385,0.061009,0.451539,0.158207,-0.577647,0.762332,-0.188918,-0.338787,0.233165,-0.312710
-0.050000,-0.050000,-0.031131,0.000000,0.000000,0.054943,0.000000,0.000000,0.240922,0.100000,0.100000,-0.393679,-0.437536,-0.050000,-0.050000,0.700083,-0.597229,0.000000,0.000000,-0.185690,0.074592,0.449978,0.147046,-0.560465,0.768309,-0.189246,-0.340202,0.223675,-0.303064
-0.050000,-0.050000,-0.032128,0.000000,0.000000,0.059236,0.000000,0.000000,0.246583,0.100000,0.100000,-0.393579,-0.447218,-0.050000,-0.050000,0.674804,-0.583759,0.000000,0.000000,-0.205988,0.088142,0.446140,0.134372,-0.537932,0.774004,-0.189228,-0.341206,0.213253,-0.293165
-0.050000,-0.050000,-0.033013,0.000000,0.000000,0.063278,0.000000,0.000000,0.252358,0.100000,0.100000,-0.392834,-0.456239,-0.050000,-0.050000,0.649888,-0.569377,0.000000,0.000000,-0.228396,0.101616,0.440451,0.120381,-0.510469,0.779690,-0.188828,-0.341909,0.201578,-0.282949
-0.050000,-0.050000,-0.033727,0.000000,0.000000,0.067040,0.000000,0.000000,0.258223,0.100000,0.100000,-0.391462,-0.464803,-0.050000,-0.050000,0.626203,-0.554452,0.000000,0.000000,-0.253443,0.114914,0.433534,0.105111,-0.477647,0.785694,-0.187735,-0.342528,0.187950,-0.272428
-0.050000,-0.050000,-0.034188,0.000000,0.000000,0.070464,0.000000,0.000000,0.264083,0.100000,0.100000,-0.389771,-0.472808,-0.050000,-0.050000,0.603460,-0.539175,0.000000,0.000000,-0.280089,0.127787,0.426092,0.089075,-0.441464,0.792004,-0.186288,-0.343077,0.172948,-0.261754
-0.050000,-0.050000,-0.034447,0.000000,0.000000,0.074435,0.000000,0.000000,0.274057,0.100000,0.100000,-0.392691,-0.483537,-0.050000,-0.050000,0.580719,-0.524650,0.000000,0.000000,-0.308313,0.138668,0.420713,0.071634,-0.396663,0.798887,-0.183809,-0.343577,0.156034,-0.250787
-0.050000,-0.050000,-0.034197,0.000000,0.000000,0.077710,0.000000,0.000000,0.282297,0.100000,0.100000,-0.393551,-0.492817,-0.050000,-0.050000,0.560496,-0.510597,0.000000,0.000000,-0.338039,0.149249,0.416366,0.054414,-0.352723,0.806242,-0.181231,-0.344345,0.137688,-0.240245
-0.050000,-0.050000,-0.033597,0.000000,0.000000,0.080330,0.000000,0.000000,0.288725,0.100000,0.100000,-0.392259,-0.500639,-0.050000,-0.050000,0.542832,-0.496812,0.000000,0.000000,-0.368769,0.159569,0.413181,0.037245,-0.309658,0.813934,-0.178727,-0.345608,0.118047,-0.230172
-0.050000,-0.050000,-0.032717,0.000000,0.000000,0.082618,0.000000,0.000000,0.294422,0.100000,0.100000,-0.390059,-0.507982,-0.050000,-0.050000,0.527475,-0.484014,0.000000,0.000000,-0.399412,0.168857,0.413061,0.020260,-0.267095,0.821675,-0.175914,-0.347432,0.097941,-0.220950
-0.050000,-0.050000,-0.031658,0.000000,0.000000,0.084716,0.000000,0.000000,0.299806,0.100000,0.100000,-0.387611,-0.515138,-0.050000,-0.050000,0.513389,-0.471909,0.000000,0.000000,-0.429835,0.177417,0.415335,0.003542,-0.225216,0.829382,-0.173423,-0.349561,0.077682,-0.212332
-0.050000,-0.050000,-0.030362,0.000000,0.000000,0.086712,0.000000,0.000000,0.304914,0.100000,0.100000,-0.384493,-0.522167,-0.050000,-0.050000,0.501132,-0.461484,0.000000,0.000000,-0.458641,0.184516,0.422464,-0.012291,-0.185490,0.836630,-0.170518,-0.352122,0.058511,-0.204963
-0.050000,-0.050000,-0.028928,0.000000,0.000000,0.088652,0.000000,0.000000,0.309893,0.100000,0.100000,-0.380936,-0.529099,-0.050000,-0.050000,0.489892,-0.452286,0.000000,0.000000,-0.485879,0.190603,0.433569,-0.027176,-0.147960,0.843369,-0.167709,-0.354886,0.040561,-0.198529
-0.050000,-0.050000,-0.027387,0.000000,0.000000,0.090578,0.000000,0.000000,0.314784,0.100000,0.100000,-0.376757,-0.535911,-0.050000,-0.050000,0.479486,-0.444381,0.000000,0.000000,-0.511166,0.195666,0.448807,-0.040949,-0.112865,0.849464,-0.164869,-0.357766,0.024201,-0.193029
-0.050000,-0.050000,-0.025706,0.000000,0.000000,0.092506,0.000000,0.000000,0.319615,0.100000,0.100000,-0.371441,-0.542370,-0.050000,-0.050000,0.469896,-0.438151,0.000000,0.000000,-0.533283,0.199442,0.469338,-0.052936,-0.081293,0.854515,-0.161587,-0.360536,0.010390,-0.188655
-0.050000,-0.050000,-0.024034,0.000000,0.000000,0.094459,0.000000,0.000000,0.324435,0.100000,0.100000,-0.365367,-0.548691,-0.050000,-0.050000,0.460571,-0.432929,0.000000,0.000000,-0.553308,0.202598,0.493374,-0.063634,-0.052053,0.858861,-0.158345,-0.363192,-0.001717,-0.184966
-0.050000,-0.050000,-0.022227,0.000000,0.000000,0.096411,0.000000,0.000000,0.329267,0.100000,0.100000,-0.357615,-0.554367,-0.050000,-0.050000,0.451724,-0.429391,0.000000,0.000000,-0.569267,0.204599,0.522703,-0.071917,-0.026803,0.861941,-0.154416,-0.365351,-0.010858,-0.182298
-0.050000,-0.050000,-0.020457,0.000000,0.000000,0.098375,0.000000,0.000000,0.334111,0.100000,0.100000,-0.348572,-0.559647,-0.050000,-0.050000,0.442941,-0.426903,0.000000,0.000000,-0.582292,0.206129,0.555573,-0.078278,-0.004367,0.864167,-0.150306,-0.367080,-0.017999,-0.180273
-0.050000,-0.050000,-0.018704,0.000000,0.000000,0.100330,0.000000,0.000000,0.338971,0.100000,0.100000,-0.338118,-0.564435,-0.050000,-0.050000,0.434183,-0.425403,0.000000,0.000000,-0.592278,0.207241,0.591595,-0.082661,0.015385,0.865603,-0.145932,-0.368318,-0.023312,-0.178824
-0.050000,-0.050000,-0.016931,0.000000,0.000000,0.102227,0.000000,0.000000,0.343816,0.100000,0.100000,-0.325882,-0.568465,-0.050000,-0.050000,0.425503,-0.424947,0.000000,0.000000,-0.598659,0.207977,0.630606,-0.084575,0.032052,0.866287,-0.141245,-0.368887,-0.026777,-0.178035
-0.050000,-0.050000,-0.015281,0.000000,0.000000,0.104084,0.000000,0.000000,0.348609,0.100000,0.100000,-0.312415,-0.572116,-0.050000,-0.050000,0.416735,-0.425047,0.000000,0.000000,-0.602664,0.208714,0.671260,-0.084842,0.046841,0.866600,-0.136515,-0.369084,-0.029258,-0.177613
-0.050000,-0.050000,-0.013623,0.000000,0.000000,0.105811,0.000000,0.000000,0.353282,0.100000,0.100000,-0.297182,-0.574920,-0.050000,-0.050000,0.408122,-0.425897,0.000000,0.000000,-0.603318,0.209321,0.713403,-0.082672,0.058946,0.866644,-0.131675,-0.368694,-0.030639,-0.177855
-0.050000,-0.050000,-0.012100,0.000000,0.000000,0.107415,0.000000,0.000000,0.357761,0.100000,0.100000,-0.280719,-0.577282,-0.050000,-0.050000,0.399602,-0.427067,0.000000,0.000000,-0.601777,0.210082,0.755852,-0.078860,0.069403,0.866781,-0.126950,-0.368059,-0.031633,-0.178528
-0.050000,-0.050000,-0.010678,0.000000,0.000000,0.108867,0.000000,0.000000,0.362015,0.100000,0.100000,-0.263183,-0.579213,-0.050000,-0.050000,0.391251,-0.428450,0.000000,0.000000,-0.598285,0.210972,0.798036,-0.073584,0.078463,0.867192,-0.122369,-0.367267,-0.032505,-0.179650
-0.050000,-0.050000,-0.009337,0.000000,0.000000,0.110110,0.000000,0.000000,0.365896,0.100000,0.100000,-0.244734,-0.580730,-0.050000,-0.050000,0.383270,-0.429905,0.000000,0.000000,-0.593067,0.211955,0.838955,-0.066906,0.086209,0.868264,-0.118106,-0.366476,-0.033546,-0.181401
-0.050000,-0.050000,-0.008096,0.000000,0.000000,0.111163,0.000000,0.000000,0.369475,0.100000,0.100000,-0.225691,-0.582071,-0.050000,-0.050000,0.375588,-0.431297,0.000000,0.000000,-0.586749,0.213054,0.878599,-0.059371,0.093213,0.869895,-0.114017,-0.365786,-0.034905,-0.183523
-0.050000,-0.050000,-0.006908,0.000000,0.000000,0.111957,0.000000,0.000000,0.372500,0.100000,0.100000,-0.206391,-0.583250,-0.050000,-0.050000,0.368504,-0.432494,0.000000,0.000000,-0.579552,0.214117,0.915561,-0.050960,0.099408,0.872636,-0.110421,-0.365393,-0.036799,-0.186401
-0.050000,-0.050000,-0.005756,0.000000,0.000000,0.112505,0.000000,0.000000,0.375057,0.100000,0.100000,-0.187077,-0.584460,-0.050000,-0.050000,0.361995,-0.433447,0.000000,0.000000,-0.571948,0.215114,0.950027,-0.042078,0.105164,0.876280,-0.107081,-0.365313,-0.039217,-0.189787
-0.050000,-0.050000,-0.004609,0.000000,0.000000,0.112814,0.000000,0.000000,0.377130,0.100000,0.100000,-0.168040,-0.585775,-0.050000,-0.050000,0.356067,-0.434125,0.000000,0.000000,-0.564218,0.215957,0.981815,-0.032907,0.110621,0.880840,-0.104013,-0.365567,-0.042125,-0.193693
-0.050000,-0.050000,-0.003446,0.000000,0.000000,0.112871,0.000000,0.000000,0.378577,0.100000,0.100000,-0.149866,-0.587331,-0.050000,-0.050000,0.350870,-0.434489,0.000000,0.000000,-0.556764,0.216524,1.010191,-0.023637,0.115849,0.886434,-0.101307,-0.366211,-0.045431,-0.198220
-0.050000,-0.050000,-0.002211,0.000000,0.000000,0.112722,0.000000,0.000000,0.379624,0.100000,0.100000,-0.132324,-0.589086,-0.050000,-0.050000,0.346253,-0.434642,0.000000,0.000000,-0.549561,0.216817,1.036096,-0.014341,0.120918,0.892693,-0.098675,-0.367092,-0.049033,-0.203119
-0.050000,-0.050000,-0.000363,0.000000,0.000000,0.111815,0.000000,0.000000,0.377278,0.100000,0.100000,-0.112696,-0.587938,-0.050000,-0.050000,0.343059,-0.433999,0.000000,0.000000,-0.544332,0.216805,1.056493,-0.006489,0.125207,0.899041,-0.095898,-0.367884,-0.052332,-0.208602
-0.050000,-0.050000,0.001497,0.000000,0.000000,0.110877,0.000000,0.000000,0.374917,0.100000,0.100000,-0.095171,-0.587313,-0.050000,-0.050000,0.340533,-0.433261,0.000000,0.000000,-0.539479,0.216373,1.074410,0.001140,0.129573,0.905921,-0.093263,-0.368861,-0.055580,-0.214509
-0.050000,-0.050000,0.003103,0.000000,0.000000,0.110047,0.000000,0.000000,0.373208,0.100000,0.100000,-0.080957,-0.588342,-0.050000,-0.050000,0.338282,-0.432755,0.000000,0.000000,-0.534716,0.215601,1.090658,0.008996,0.134067,0.913380,-0.090965,-0.370011,-0.058704,-0.220606
-0.050000,-0.050000,0.004519,0.000000,0.000000,0.109183,0.000000,0.000000,0.371489,0.100000,0.100000,-0.069641,-0.590289,-0.050000,-0.050000,0.336492,-0.432541,0.000000,0.000000,-0.530481,0.214594,1.104503,0.016752,0.138363,0.921071,-0.088944,-0.371132,-0.061288,-0.226648
-0.050000,-0.050000,0.005912,0.000000,0.000000,0.108282,0.000000,0.000000,0.369798,0.100000,0.100000,-0.060153,-0.592726,-0.050000,-0.050000,0.335125,-0.432583,0.000000,0.000000,-0.526704,0.213322,1.116555,0.024349,0.142389,0.928827,-0.086901,-0.372164,-0.063461,-0.232574
-0.050000,-0.050000,0.007120,0.000000,0.000000,0.107299,0.000000,0.000000,0.367754,0.100000,0.100000,-0.053405,-0.595322,-0.050000,-0.050000,0.334395,-0.433062,0.000000,0.000000,-0.523570,0.211942,1.125974,0.031348,0.145958,0.936280,-0.085024,-0.372940,-0.064640,-0.238024
-0.050000,-0.050000,0.008260,0.000000,0.000000,0.106272,0.000000,0.000000,0.365562,0.100000,0.100000,-0.048608,-0.597953,-0.050000,-0.050000,0.334195,-0.433970,0.000000,0.000000,-0.520903,0.210379,1.133437,0.037703,0.149026,0.943341,-0.083084,-0.373451,-0.065058,-0.242967
-0.050000,-0.050000,0.009286,0.000000,0.000000,0.105195,0.000000,0.000000,0.363185,0.100000,0.100000,-0.045683,-0.600481,-0.050000,-0.050000,0.334494,-0.435338,0.000000,0.000000,-0.518616,0.208720,1.139093,0.043286,0.151558,0.949874,-0.081122,-0.373666,-0.064675,-0.247272
-0.050000,-0.050000,0.010110,0.000000,0.000000,0.104042,0.000000,0.000000,0.360578,0.100000,0.100000,-0.044802,-0.602781,-0.050000,-0.050000,0.335331,-0.437279,0.000000,0.000000,-0.516605,0.207091,1.142811,0.047738,0.153396,0.955613,-0.079249,-0.373563,-0.063327,-0.250627
-0.050000,-0.050000,0.010821,0.000000,0.000000,0.102851,0.000000,0.000000,0.357903,0.100000,0.100000,-0.045242,-0.604874,-0.050000,-0.050000,0.336546,-0.439624,0.000000,0.000000,-0.514780,0.205410,1.145196,0.051258,0.154663,0.960729,-0.077342,-0.373209,-0.061356,-0.253292
-0.050000,-0.050000,0.011252,0.000000,0.000000,0.101534,0.000000,0.000000,0.355031,0.100000,0.100000,-0.047477,-0.606652,-0.050000,-0.050000,0.338268,-0.442550,0.000000,0.000000,-0.513005,0.203936,1.145789,0.053206,0.155092,0.964792,-0.075676,-0.372622,-0.058471,-0.254752
-0.050000,-0.050000,0.011493,0.000000,0.000000,0.100128,0.000000,0.000000,0.352140,0.100000,0.100000,-0.050823,-0.608174,-0.050000,-0.050000,0.340358,-0.445835,0.000000,0.000000,-0.511237,0.202565,1.145106,0.053782,0.154804,0.968008,-0.074129,-0.371888,-0.055035,-0.255363
-0.050000,-0.050000,0.011537,0.000000,0.000000,0.098606,0.000000,0.000000,0.349235,0.100000,0.100000,-0.055076,-0.609471,-0.050000,-0.050000,0.342787,-0.449400,0.000000,0.000000,-0.509417,0.201366,1.143280,0.052948,0.153834,0.970383,-0.072764,-0.371077,-0.051158,-0.255206
-0.050000,-0.050000,0.011356,0.000000,0.000000,0.096915,0.000000,0.000000,0.346352,0.100000,0.100000,-0.060115,-0.610633,-0.050000,-0.050000,0.345567,-0.453152,0.000000,0.000000,-0.507504,0.200450,1.140303,0.050458,0.152123,0.971840,-0.071698,-0.370304,-0.046939,-0.254305
-0.050000,-0.050000,0.011006,0.000000,0.000000,0.095095,0.000000,0.000000,0.343547,0.100000,0.100000,-0.065577,-0.611672,-0.050000,-0.050000,0.348612,-0.456942,0.000000,0.000000,-0.505506,0.199725,1.136547,0.046714,0.149869,0.972603,-0.070820,-0.369560,-0.042574,-0.253032
-0.050000,-0.050000,0.010450,0.000000,0.000000,0.093048,0.000000,0.000000,0.340857,0.100000,0.100000,-0.071433,-0.612817,-0.050000,-0.050000,0.351970,-0.460665,0.000000,0.000000,-0.503448,0.199402,1.131869,0.041260,0.146961,0.972521,-0.070333,-0.369012,-0.038175,-0.251355
-0.050000,-0.050000,0.009729,0.000000,0.000000,0.090814,0.000000,0.000000,0.338328,0.100000,0.100000,-0.077434,-0.614065,-0.050000,-0.050000,0.355583,-0.464202,0.000000,0.000000,-0.501343,0.199394,1.126585,0.034509,0.143582,0.971773,-0.070120,-0.368602,-0.033893,-0.249618
-0.050000,-0.050000,0.008873,0.000000,0.000000,0.088385,0.000000,0.000000,0.335966,0.100000,0.100000,-0.083466,-0.615521,-0.050000,-0.050000,0.359418,-0.467485,0.000000,0.000000,-0.499240,0.199724,1.120831,0.026601,0.139835,0.970438,-0.070177,-0.368330,-0.029829,-0.247957
-0.050000,-0.050000,0.007906,0.000000,0.000000,0.085735,0.000000,0.000000,0.333800,0.100000,0.100000,-0.089438,-0.617354,-0.050000,-0.050000,0.363452,-0.470432,0.000000,0.000000,-0.497225,0.200479,1.114712,0.017589,0.135791,0.968511,-0.070533,-0.368186,-0.026124,-0.246440
-0.050000,-0.050000,0.006844,0.000000,0.000000,0.082915,0.000000,0.000000,0.331794,0.100000,0.100000,-0.095335,-0.619465,-0.050000,-0.050000,0.367645,-0.473085,0.000000,0.000000,-0.495239,0.201555,1.108385,0.007832,0.131559,0.966112,-0.071101,-0.368082,-0.022729,-0.245142
-0.050000,-0.050000,0.005749,0.000000,0.000000,0.079868,0.000000,0.000000,0.329981,0.100000,0.100000,-0.101057,-0.622130,-0.050000,-0.050000,0.371954,-0.475366,0.000000,0.000000,-0.493459,0.203137,1.101951,-0.002669,0.127210,0.963126,-0.071941,-0.367953,-0.019853,-0.243959
-0.050000,-0.050000,0.004622,0.000000,0.000000,0.076652,0.000000,0.000000,0.328309,0.100000,0.100000,-0.106646,-0.625213,-0.050000,-0.050000,0.376341,-0.477350,0.000000,0.000000,-0.491787,0.205125,1.095521,-0.013572,0.122803,0.959610,-0.072992,-0.367704,-0.017397,-0.242860
-0.050000,-0.050000,0.003502,0.000000,0.000000,0.073284,0.000000,0.000000,0.326745,0.100000,0.100000,-0.112099,-0.628707,-0.050000,-0.050000,0.380750,-0.479084,0.000000,0.000000,-0.490242,0.207515,1.089182,-0.024676,0.118397,0.955571,-0.074232,-0.367260,-0.015340,-0.241715
-0.050000,-0.050000,0.002451,0.000000,0.000000,0.069774,0.000000,0.000000,0.325265,0.100000,0.100000,-0.117397,-0.632617,-0.050000,-0.050000,0.385106,-0.480608,0.000000,0.000000,-0.488858,0.210361,1.083035,-0.035737,0.114033,0.950905,-0.075672,-0.366509,-0.013683,-0.240301
-0.050000,-0.050000,0.001438,0.000000,0.000000,0.066179,0.000000,0.000000,0.323828,0.100000,0.100000,-0.122601,-0.636825,-0.050000,-0.050000,0.389390,-0.481978,0.000000,0.000000,-0.487556,0.213528,1.077079,-0.046634,0.109710,0.945768,-0.077282,-0.365506,-0.012289,-0.238624
-0.050000,-0.050000,0.000588,0.000000,0.000000,0.062497,0.000000,0.000000,0.322430,0.100000,0.100000,-0.127638,-0.641305,-0.050000,-0.050000,0.393473,-0.483222,0.000000,0.000000,-0.486411,0.217153,1.071464,-0.057009,0.105468,0.939921,-0.079100,-0.364086,-0.011169,-0.236339
-0.050000,-0.050000,-0.000145,0.000000,0.000000,0.058797,0.000000,0.000000,0.321042,0.100000,0.100000,-0.132556,-0.645953,-0.050000,-0.050000,0.397331,-0.484358,0.000000,0.000000,-0.485359,0.221088,1.066179,-0.066772,0.101298,0.933556,-0.081117,-0.362371,-0.010185,-0.233507
-0.050000,-0.050000,-0.000739,0.000000,0.000000,0.055111,0.000000,0.000000,0.319666,0.100000,0.100000,-0.137348,-0.650679,-0.050000,-0.050000,0.400920,-0.485403,0.000000,0.000000,-0.484398,0.225289,1.061247,-0.075799,0.097204,0.926744,-0.083326,-0.360408,-0.009254,-0.230105
-0.050000,-0.050000,-0.001157,0.000000,0.000000,0.051496,0.000000,0.000000,0.318330,0.100000,0.100000,-0.141961,-0.655362,-0.050000,-0.050000,0.404152,-0.486333,0.000000,0.000000,-0.483545,0.229715,1.056740,-0.083852,0.093213,0.919547,-0.085727,-0.358245,-0.008304,-0.226130
-0.050000,-0.050000,-0.001454,0.000000,0.000000,0.047964,0.000000,0.000000,0.317004,0.100000,0.100000,-0.146444,-0.660013,-0.050000,-0.050000,0.407079,-0.487177,0.000000,0.000000,-0.482787,0.234274,1.052589,-0.091099,0.089316,0.912155,-0.088297,-0.356010,-0.007288,-0.221702
-0.050000,-0.050000,-0.001567,0.000000,0.000000,0.044622,0.000000,0.000000,0.315792,0.100000,0.100000,-0.150654,-0.664409,-0.050000,-0.050000,0.409552,-0.487835,0.000000,0.000000,-0.482158,0.238891,1.048940,-0.097115,0.085586,0.904694,-0.091002,-0.353757,-0.006155,-0.216936
-0.050000,-0.050000,-0.001553,0.000000,0.000000,0.041472,0.000000,0.000000,0.314646,0.100000,0.100000,-0.154631,-0.668600,-0.050000,-0.050000,0.411638,-0.488351,0.000000,0.000000,-0.481662,0.243489,1.045729,-0.102120,0.082035,0.897353,-0.093815,-0.351608,-0.004892,-0.211960
-0.050000,-0.050000,-0.001435,0.000000,0.000000,0.038547,0.000000,0.000000,0.313600,0.100000,0.100000,-0.158352,-0.672536,-0.050000,-0.050000,0.413354,-0.488713,0.000000,0.000000,-0.481294,0.247986,1.042941,-0.106159,0.078690,0.890295,-0.096681,-0.349629,-0.003512,-0.206945
-0.050000,-0.050000,-0.001234,0.000000,0.000000,0.035913,0.000000,0.000000,0.312702,0.100000,0.100000,-0.161736,-0.676125,-0.050000,-0.050000,0.414688,-0.488884,0.000000,0.000000,-0.481058,0.252260,1.040615,-0.109188,0.075620,0.883738,-0.099512,-0.347887,-0.002051,-0.202110
-0.050000,-0.050000,-0.000970,0.000000,0.000000,0.033499,0.000000,0.000000,0.311885,0.100000,0.100000,-0.164874,-0.679466,-0.050000,-0.050000,0.415740,-0.488957,0.000000,0.000000,-0.480939,0.256354,1.038630,-0.111508,0.072784,0.877637,-0.102314,-0.346371,-0.000524,-0.197422
