RRGGZZ/g1_deploy_sonic/data/example_scalelab/qwen_50fps/case_test05/joint_pos.csv
joint_0,joint_1,joint_2,joint_3,joint_4,joint_5,joint_6,joint_7,joint_8,joint_9,joint_10,joint_11,joint_12,joint_13,joint_14,joint_15,joint_16,joint_17,joint_18,joint_19,joint_20,joint_21,joint_22,joint_23,joint_24,joint_25,joint_26,joint_27,joint_28
-0.050000,-0.050000,0.000000,0.000000,0.000000,0.000000,0.000000,0.000000,0.000000,0.100000,0.100000,-0.200407,-0.517715,-0.050000,-0.050000,0.386643,-0.717857,0.000000,0.000000,-0.512921,0.299732,1.111078,-0.038452,0.144323,-0.395092,-0.081644,-0.033176,0.038476,-0.549505
-0.050000,-0.050000,0.000000,0.000000,0.000000,0.000000,0.000000,0.000000,0.000000,0.100000,0.100000,-0.209226,-0.532861,-0.050000,-0.050000,0.373993,-0.723279,0.000000,0.000000,-0.512963,0.299698,1.137704,-0.026662,0.147655,-0.392930,-0.093551,-0.035071,0.040627,-0.556175
-0.050000,-0.050000,0.000000,0.000000,0.000000,0.000000,0.000000,0.000000,0.000000,0.100000,0.100000,-0.210452,-0.542705,-0.050000,-0.050000,0.366912,-0.726464,0.000000,0.000000,-0.511935,0.296399,1.153793,-0.019309,0.151217,-0.390789,-0.098444,-0.035212,0.039880,-0.559447
-0.050000,-0.050000,0.000000,0.000000,0.000000,0.000000,0.000000,0.000000,0.000000,0.100000,0.100000,-0.207808,-0.549680,-0.050000,-0.050000,0.362383,-0.728748,0.000000,0.000000,-0.510507,0.291333,1.165133,-0.013752,0.154530,-0.388560,-0.100002,-0.034027,0.037862,-0.561338
-0.050000,-0.050000,0.000000,0.000000,0.000000,0.000000,0.000000,0.000000,0.000000,0.100000,0.100000,-0.203299,-0.555166,-0.050000,-0.050000,0.359031,-0.730654,0.000000,0.000000,-0.509038,0.285344,1.174274,-0.009040,0.157651,-0.386239,-0.100005,-0.032133,0.035276,-0.562631
-0.050000,-0.050000,0.000000,0.000000,0.000000,0.000000,0.000000,0.000000,0.000000,0.100000,0.100000,-0.197571,-0.559664,-0.050000,-0.050000,0.356255,-0.732951,0.000000,0.000000,-0.506992,0.278445,1.182287,-0.003997,0.160164,-0.383338,-0.099113,-0.029547,0.032536,-0.563768
-0.050000,-0.050000,0.000000,0.000000,0.000000,0.000000,0.000000,0.000000,0.000000,0.100000,0.100000,-0.191424,-0.563633,-0.050000,-0.050000,0.353764,-0.735466,0.000000,0.000000,-0.504825,0.271258,1.189530,0.001077,0.162337,-0.380112,-0.097843,-0.026801,0.029784,-0.564942
-0.050000,-0.050000,0.000000,0.000000,0.000000,0.000000,0.000000,0.000000,0.000000,0.100000,0.100000,-0.185023,-0.567067,-0.050000,-0.050000,0.351466,-0.738445,0.000000,0.000000,-0.502217,0.263759,1.196111,0.006538,0.163931,-0.376438,-0.096352,-0.023900,0.027186,-0.566363
-0.050000,-0.050000,0.000000,0.000000,0.000000,0.000000,0.000000,0.000000,0.000000,0.100000,0.100000,-0.178691,-0.569903,-0.050000,-0.050000,0.349353,-0.741845,0.000000,0.000000,-0.499197,0.256128,1.201851,0.012281,0.164860,-0.372393,-0.094838,-0.021053,0.024882,-0.568303
-0.050000,-0.050000,0.000000,0.000000,0.000000,0.000000,0.000000,0.000000,0.000000,0.100000,0.100000,-0.172383,-0.572399,-0.050000,-0.050000,0.347361,-0.745517,0.000000,0.000000,-0.495996,0.248419,1.207041,0.018201,0.165368,-0.368098,-0.093272,-0.018313,0.022735,-0.570619
-0.050000,-0.050000,0.000000,0.000000,0.000000,0.000000,0.000000,0.000000,0.000000,0.100000,0.100000,-0.166619,-0.573891,-0.050000,-0.050000,0.345622,-0.749484,0.000000,0.000000,-0.492229,0.240693,1.210915,0.024327,0.164911,-0.363561,-0.091991,-0.015815,0.021176,-0.573988
-0.050000,-0.050000,0.000000,0.000000,0.000000,0.000000,0.000000,0.000000,0.000000,0.100000,0.100000,-0.161081,-0.574920,-0.050000,-0.050000,0.344060,-0.753491,0.000000,0.000000,-0.488415,0.232941,1.214090,0.030487,0.163999,-0.358931,-0.090782,-0.013558,0.019837,-0.577989
-0.050000,-0.050000,0.000000,0.000000,0.000000,0.000000,0.000000,0.000000,0.000000,0.100000,0.100000,-0.156092,-0.575127,-0.050000,-0.050000,0.342722,-0.757426,0.000000,0.000000,-0.484382,0.225211,1.216214,0.036691,0.162414,-0.354254,-0.089855,-0.011565,0.018941,-0.582905
-0.050000,-0.050000,0.000000,0.000000,0.000000,0.000000,0.000000,0.000000,0.000000,0.100000,0.100000,-0.151719,-0.574516,-0.050000,-0.050000,0.341621,-0.761023,0.000000,0.000000,-0.480341,0.217544,1.217344,0.042925,0.160251,-0.349582,-0.089231,-0.009835,0.018460,-0.588730
-0.050000,-0.050000,0.000000,0.000000,0.000000,0.000000,0.000000,0.000000,0.000000,0.100000,0.100000,-0.147678,-0.573377,-0.050000,-0.050000,0.340721,-0.764388,0.000000,0.000000,-0.476346,0.209856,1.217864,0.049171,0.157709,-0.344936,-0.088757,-0.008303,0.018212,-0.595153
-0.050000,-0.050000,0.000000,0.000000,0.000000,0.000000,0.000000,0.000000,0.000000,0.100000,0.100000,-0.144677,-0.571145,-0.050000,-0.050000,0.340078,-0.766860,0.000000,0.000000,-0.472611,0.202455,1.217236,0.055633,0.154634,-0.340261,-0.088763,-0.007003,0.018522,-0.602500
-0.050000,-0.050000,0.000000,0.000000,0.000000,0.000000,0.000000,0.000000,0.000000,0.100000,0.100000,-0.142029,-0.568439,-0.050000,-0.050000,0.339662,-0.768851,0.000000,0.000000,-0.469170,0.195127,1.216201,0.062268,0.151347,-0.335561,-0.088882,-0.005864,0.019023,-0.610227
-0.050000,-0.050000,0.000000,0.000000,0.000000,0.000000,0.000000,0.000000,0.000000,0.100000,0.100000,-0.140139,-0.564996,-0.050000,-0.050000,0.339457,-0.769987,0.000000,0.000000,-0.466200,0.188130,1.214539,0.069299,0.147872,-0.330709,-0.089272,-0.004883,0.019867,-0.618304
-0.050000,-0.050000,0.000000,0.000000,0.000000,0.000000,0.000000,0.000000,0.000000,0.100000,0.100000,-0.138956,-0.560913,-0.050000,-0.050000,0.339482,-0.770246,0.000000,0.000000,-0.463910,0.181602,1.212460,0.076971,0.144416,-0.325529,-0.089823,-0.004056,0.020986,-0.626361
-0.050000,-0.050000,0.000000,0.000000,0.000000,0.000000,0.000000,0.000000,0.000000,0.100000,0.100000,-0.138166,-0.556483,-0.050000,-0.050000,0.339681,-0.769955,0.000000,0.000000,-0.462056,0.175339,1.210158,0.085114,0.140962,-0.320118,-0.090458,-0.003390,0.022277,-0.634397
-0.050000,-0.050000,0.000000,0.000000,0.000000,0.000000,0.000000,0.000000,0.000000,0.100000,0.100000,-0.138460,-0.551193,-0.050000,-0.050000,0.340144,-0.768479,0.000000,0.000000,-0.461448,0.170152,1.207434,0.094646,0.137945,-0.313814,-0.091211,-0.002890,0.023891,-0.641581
-0.050000,-0.050000,0.000000,0.000000,0.000000,0.000000,0.000000,0.000000,0.000000,0.100000,0.100000,-0.139107,-0.545662,-0.050000,-0.050000,0.340795,-0.766565,0.000000,0.000000,-0.461436,0.165443,1.204600,0.105071,0.135153,-0.306944,-0.091942,-0.002618,0.025644,-0.648210
-0.050000,-0.050000,0.000000,0.000000,0.000000,0.000000,0.000000,0.000000,0.000000,0.100000,0.100000,-0.140538,-0.539540,-0.050000,-0.050000,0.341675,-0.763913,0.000000,0.000000,-0.462494,0.161764,1.201476,0.116963,0.132891,-0.299063,-0.092671,-0.002554,0.027607,-0.653628
-0.050000,-0.050000,0.000000,0.000000,0.000000,0.000000,0.000000,0.000000,0.000000,0.100000,0.100000,-0.142676,-0.532843,-0.050000,-0.050000,0.342808,-0.760738,0.000000,0.000000,-0.464596,0.159204,1.198019,0.130538,0.131227,-0.289996,-0.093358,-0.002729,0.029772,-0.657448
-0.050000,-0.050000,0.000000,0.000000,0.000000,0.000000,0.000000,0.000000,0.000000,0.100000,0.100000,-0.145190,-0.525920,-0.050000,-0.050000,0.344100,-0.757270,0.000000,0.000000,-0.467356,0.157357,1.194338,0.145338,0.129941,-0.280071,-0.093984,-0.003184,0.032068,-0.660178
-0.050000,-0.050000,0.000000,0.000000,0.000000,0.000000,0.000000,0.000000,0.000000,0.100000,0.100000,-0.148857,-0.517829,-0.050000,-0.050000,0.345763,-0.753273,0.000000,0.000000,-0.471561,0.157452,1.189872,0.162692,0.129588,-0.268383,-0.094634,-0.003838,0.034687,-0.659920
-0.050000,-0.050000,0.000000,0.000000,0.000000,0.000000,0.000000,0.000000,0.000000,0.100000,0.100000,-0.152818,-0.509490,-0.050000,-0.050000,0.347593,-0.749185,0.000000,0.000000,-0.476334,0.158389,1.184976,0.181479,0.129587,-0.255777,-0.095243,-0.004840,0.037479,-0.658103
-0.050000,-0.050000,0.000000,0.000000,0.000000,0.000000,0.000000,0.000000,0.000000,0.100000,0.100000,-0.157624,-0.500190,-0.050000,-0.050000,0.349705,-0.744836,0.000000,0.000000,-0.482075,0.161006,1.179224,0.202389,0.130218,-0.241916,-0.095944,-0.006068,0.040586,-0.653560
-0.050000,-0.050000,0.000000,0.000000,0.000000,0.000000,0.000000,0.000000,0.000000,0.100000,0.100000,-0.163134,-0.489992,-0.050000,-0.050000,0.352064,-0.740325,0.000000,0.000000,-0.488572,0.165311,1.172546,0.225318,0.131315,-0.227156,-0.096811,-0.007584,0.044047,-0.646233
-0.050000,-0.050000,0.000000,0.000000,0.000000,0.000000,0.000000,0.000000,0.000000,0.100000,0.100000,-0.169000,-0.479347,-0.050000,-0.050000,0.354559,-0.735665,0.000000,0.000000,-0.495539,0.170708,1.165215,0.249682,0.132698,-0.211817,-0.097754,-0.009348,0.047738,-0.636967
-0.050000,-0.050000,0.000000,0.000000,0.000000,0.000000,0.000000,0.000000,0.000000,0.100000,0.100000,-0.176059,-0.467061,-0.050000,-0.050000,0.357329,-0.730629,0.000000,0.000000,-0.503369,0.178960,1.156488,0.276669,0.134571,-0.196163,-0.099188,-0.011311,0.051993,-0.623574
-0.050000,-0.050000,0.000000,0.000000,0.000000,0.000000,0.000000,0.000000,0.000000,0.100000,0.100000,-0.183314,-0.454491,-0.050000,-0.050000,0.360130,-0.725292,0.000000,0.000000,-0.511483,0.188441,1.147186,0.305091,0.136580,-0.180603,-0.100771,-0.013525,0.056452,-0.608152
-0.050000,-0.050000,0.000000,0.000000,0.000000,0.000000,0.000000,0.000000,0.000000,0.100000,0.100000,-0.191385,-0.440862,-0.050000,-0.050000,0.362996,-0.719358,0.000000,0.000000,-0.520086,0.200405,1.136949,0.335637,0.138844,-0.165593,-0.102783,-0.015842,0.061268,-0.589418
-0.050000,-0.050000,0.000000,0.000000,0.000000,0.000000,0.000000,0.000000,0.000000,0.100000,0.100000,-0.199965,-0.426675,-0.050000,-0.050000,0.365764,-0.712611,0.000000,0.000000,-0.529024,0.214688,1.126209,0.368304,0.141271,-0.151618,-0.105106,-0.018220,0.066193,-0.567673
-0.050000,-0.050000,0.000000,0.000000,0.000000,0.000000,0.000000,0.000000,0.000000,0.100000,0.100000,-0.208844,-0.412307,-0.050000,-0.050000,0.368410,-0.705071,0.000000,0.000000,-0.538083,0.230580,1.115181,0.402536,0.143801,-0.138547,-0.107648,-0.020615,0.071172,-0.543845
-0.050000,-0.050000,0.000000,0.000000,0.000000,0.000000,0.000000,0.000000,0.000000,0.100000,0.100000,-0.218386,-0.397449,-0.050000,-0.050000,0.370650,-0.695908,0.000000,0.000000,-0.547538,0.249906,1.104237,0.439926,0.146543,-0.127627,-0.110402,-0.022692,0.075719,-0.515998
-0.050000,-0.050000,0.000000,0.000000,0.000000,0.000000,0.000000,0.000000,0.000000,0.100000,0.100000,-0.227962,-0.383102,-0.050000,-0.050000,0.372544,-0.685494,0.000000,0.000000,-0.556898,0.270654,1.093715,0.479186,0.149344,-0.118034,-0.113148,-0.024628,0.079840,-0.486365
-0.050000,-0.050000,0.000000,0.000000,0.000000,0.000000,0.000000,0.000000,0.000000,0.100000,0.100000,-0.237765,-0.369066,-0.050000,-0.050000,0.373843,-0.673188,0.000000,0.000000,-0.566323,0.293852,1.084063,0.521297,0.152280,-0.110537,-0.115730,-0.026033,0.083002,-0.453817
-0.050000,-0.050000,0.000000,0.000000,0.000000,0.000000,0.000000,0.000000,0.000000,0.100000,0.100000,-0.247430,-0.355939,-0.050000,-0.050000,0.374430,-0.658903,0.000000,0.000000,-0.575547,0.318666,1.075843,0.566121,0.155262,-0.104941,-0.117845,-0.026790,0.084808,-0.419030
-0.050000,-0.050000,0.000000,0.000000,0.000000,0.000000,0.000000,0.000000,0.000000,0.100000,0.100000,-0.257077,-0.343502,-0.050000,-0.050000,0.374492,-0.642896,0.000000,0.000000,-0.584486,0.344560,1.068711,0.612927,0.158278,-0.100975,-0.119674,-0.027116,0.085633,-0.382734
-0.050000,-0.050000,0.000000,0.000000,0.000000,0.000000,0.000000,0.000000,0.000000,0.100000,0.100000,-0.265985,-0.332530,-0.050000,-0.050000,0.373385,-0.624374,0.000000,0.000000,-0.592891,0.371376,1.064385,0.662870,0.161164,-0.099168,-0.120246,-0.026154,0.083861,-0.344190
-0.050000,-0.050000,0.000000,0.000000,0.000000,0.000000,0.000000,0.000000,0.000000,0.100000,0.100000,-0.274653,-0.322452,-0.050000,-0.050000,0.371717,-0.604268,0.000000,0.000000,-0.600654,0.398138,1.061548,0.714162,0.163916,-0.098754,-0.120314,-0.024713,0.080871,-0.305017
-0.050000,-0.050000,0.000000,0.000000,0.000000,0.000000,0.000000,0.000000,0.000000,0.100000,0.100000,-0.282390,-0.313650,-0.050000,-0.050000,0.369091,-0.582331,0.000000,0.000000,-0.607490,0.424259,1.061302,0.766978,0.166321,-0.099888,-0.119165,-0.022250,0.075660,-0.265116
-0.050000,-0.050000,0.000000,0.000000,0.000000,0.000000,0.000000,0.000000,0.000000,0.100000,0.100000,-0.289197,-0.306006,-0.050000,-0.050000,0.365717,-0.559227,0.000000,0.000000,-0.613091,0.448823,1.063263,0.819955,0.168170,-0.102078,-0.117011,-0.019109,0.068775,-0.225622
-0.050000,-0.050000,0.000000,0.000000,0.000000,0.000000,0.000000,0.000000,0.000000,0.100000,0.100000,-0.295442,-0.298862,-0.050000,-0.050000,0.361802,-0.535229,0.000000,0.000000,-0.617806,0.472066,1.066771,0.872807,0.169639,-0.105296,-0.114182,-0.015433,0.060730,-0.186520
-0.050000,-0.050000,0.000000,0.000000,0.000000,0.000000,0.000000,0.000000,0.000000,0.100000,0.100000,-0.299779,-0.293446,-0.050000,-0.050000,0.357143,-0.511293,0.000000,0.000000,-0.620249,0.491668,1.072806,0.923130,0.169733,-0.108540,-0.110068,-0.011378,0.051231,-0.150019
-0.050000,-0.050000,0.000000,0.000000,0.000000,0.000000,0.000000,0.000000,0.000000,0.100000,0.100000,-0.303634,-0.288189,-0.050000,-0.050000,0.352186,-0.487594,0.000000,0.000000,-0.621620,0.509353,1.079670,0.971319,0.169158,-0.112034,-0.105632,-0.007103,0.041448,-0.115194
-0.050000,-0.050000,0.000000,0.000000,0.000000,0.000000,0.000000,0.000000,0.000000,0.100000,0.100000,-0.305894,-0.284146,-0.050000,-0.050000,0.346919,-0.465126,0.000000,0.000000,-0.620823,0.523356,1.087793,1.015118,0.167035,-0.114681,-0.100579,-0.003020,0.031552,-0.084049
-0.050000,-0.050000,0.000000,0.000000,0.000000,0.000000,0.000000,0.000000,0.000000,0.100000,0.100000,-0.307052,-0.280839,-0.050000,-0.050000,0.341599,-0.444458,0.000000,0.000000,-0.618172,0.534205,1.096259,1.053669,0.163387,-0.116022,-0.095416,0.000633,0.022384,-0.056944
-0.050000,-0.050000,0.000000,0.000000,0.000000,0.000000,0.000000,0.000000,0.000000,0.100000,0.100000,-0.307439,-0.277833,-0.050000,-0.050000,0.336210,-0.425339,0.000000,0.000000,-0.614244,0.542791,1.104885,1.088014,0.158615,-0.116319,-0.090179,0.004193,0.013820,-0.032818
-0.050000,-0.050000,0.000000,0.000000,0.000000,0.000000,0.000000,0.000000,0.000000,0.100000,0.100000,-0.306164,-0.276517,-0.050000,-0.050000,0.331215,-0.409743,0.000000,0.000000,-0.607736,0.547158,1.113037,1.113525,0.151369,-0.113288,-0.085292,0.006253,0.007431,-0.015583
-0.050000,-0.050000,0.000000,0.000000,0.000000,0.000000,0.000000,0.000000,0.000000,0.100000,0.100000,-0.304506,-0.275172,-0.050000,-0.050000,0.326320,-0.396193,0.000000,0.000000,-0.600457,0.550128,1.120654,1.134295,0.143139,-0.108635,-0.080646,0.008265,0.002177,-0.001367
-0.050000,-0.050000,0.000000,0.000000,0.000000,0.000000,0.000000,0.000000,0.000000,0.100000,0.100000,-0.301785,-0.275122,-0.050000,-0.050000,0.321938,-0.385964,0.000000,0.000000,-0.591597,0.550344,1.127316,1.147260,0.133087,-0.100747,-0.076558,0.008999,-0.000833,0.007087
-0.050000,-0.050000,0.000000,0.000000,0.000000,0.000000,0.000000,0.000000,0.000000,0.100000,0.100000,-0.298599,-0.275773,-0.050000,-0.050000,0.318021,-0.378559,0.000000,0.000000,-0.582105,0.549151,1.132953,1.153902,0.122001,-0.090255,-0.072975,0.009027,-0.002033,0.011248
-0.050000,-0.050000,0.000000,0.000000,0.000000,0.000000,0.000000,0.000000,0.000000,0.100000,0.100000,-0.295069,-0.276853,-0.050000,-0.050000,0.314405,-0.373327,0.000000,0.000000,-0.572171,0.546962,1.137806,1.155720,0.110162,-0.077754,-0.069760,0.008633,-0.001886,0.012270
-0.050000,-0.050000,0.000000,0.000000,0.000000,0.000000,0.000000,0.000000,0.000000,0.100000,0.100000,-0.291223,-0.279582,-0.050000,-0.050000,0.311697,-0.371377,0.000000,0.000000,-0.562278,0.543747,1.141361,1.150320,0.097896,-0.062341,-0.067163,0.006921,0.000285,0.008339
-0.050000,-0.050000,0.000000,0.000000,0.000000,0.000000,0.000000,0.000000,0.000000,0.100000,0.100000,-0.287471,-0.282489,-0.050000,-0.050000,0.309244,-0.370963,0.000000,0.000000,-0.552653,0.540476,1.144295,1.141644,0.085683,-0.045761,-0.064730,0.005198,0.003144,0.002682
-0.050000,-0.050000,0.000000,0.000000,0.000000,0.000000,0.000000,0.000000,0.000000,0.100000,0.100000,-0.283870,-0.286723,-0.050000,-0.050000,0.307552,-0.372732,0.000000,0.000000,-0.543826,0.537203,1.146361,1.128301,0.073999,-0.027731,-0.062565,0.002727,0.006941,-0.005718
-0.050000,-0.050000,0.000000,0.000000,0.000000,0.000000,0.000000,0.000000,0.000000,0.100000,0.100000,-0.280710,-0.291718,-0.050000,-0.050000,0.306387,-0.375893,0.000000,0.000000,-0.535944,0.534380,1.147811,1.112015,0.063125,-0.009170,-0.060418,0.000106,0.010935,-0.015308
-0.050000,-0.050000,0.000000,0.000000,0.000000,0.000000,0.000000,0.000000,0.000000,0.100000,0.100000,-0.277897,-0.297321,-0.050000,-0.050000,0.305639,-0.380037,0.000000,0.000000,-0.528773,0.531855,1.148805,1.093564,0.052900,0.009692,-0.058250,-0.002669,0.015010,-0.025707
-0.050000,-0.050000,0.000000,0.000000,0.000000,0.000000,0.000000,0.000000,0.000000,0.100000,0.100000,-0.276012,-0.304136,-0.050000,-0.050000,0.305672,-0.385358,0.000000,0.000000,-0.523170,0.530287,1.149024,1.072545,0.043959,0.028294,-0.055952,-0.005604,0.018544,-0.036366
-0.050000,-0.050000,0.000000,0.000000,0.000000,0.000000,0.000000,0.000000,0.000000,0.100000,0.100000,-0.274617,-0.311213,-0.050000,-0.050000,0.306007,-0.391045,0.000000,0.000000,-0.518034,0.528928,1.148778,1.050437,0.035354,0.046728,-0.053518,-0.008452,0.021668,-0.046844
-0.050000,-0.050000,0.000000,0.000000,0.000000,0.000000,0.000000,0.000000,0.000000,0.100000,0.100000,-0.274170,-0.318954,-0.050000,-0.050000,0.306889,-0.397198,0.000000,0.000000,-0.513907,0.528193,1.147648,1.026877,0.027187,0.064690,-0.050967,-0.011305,0.023909,-0.056674
-0.050000,-0.050000,0.000000,0.000000,0.000000,0.000000,0.000000,0.000000,0.000000,0.100000,0.100000,-0.274492,-0.326799,-0.050000,-0.050000,0.308080,-0.403377,0.000000,0.000000,-0.510042,0.527506,1.145508,1.002428,0.018462,0.082519,-0.048393,-0.014113,0.025345,-0.065646
-0.050000,-0.050000,0.000000,0.000000,0.000000,0.000000,0.000000,0.000000,0.000000,0.100000,0.100000,-0.275388,-0.334714,-0.050000,-0.050000,0.309567,-0.409526,0.000000,0.000000,-0.506412,0.526825,1.142518,0.977301,0.009197,0.100214,-0.045776,-0.016937,0.026121,-0.073906
-0.050000,-0.050000,0.000000,0.000000,0.000000,0.000000,0.000000,0.000000,0.000000,0.100000,0.100000,-0.277322,-0.342187,-0.050000,-0.050000,0.311118,-0.415150,0.000000,0.000000,-0.502245,0.525588,1.137492,0.951350,-0.002740,0.118570,-0.043528,-0.019873,0.025939,-0.080733
-0.050000,-0.050000,0.000000,0.000000,0.000000,0.000000,0.000000,0.000000,0.000000,0.100000,0.100000,-0.279573,-0.349296,-0.050000,-0.050000,0.312823,-0.420394,0.000000,0.000000,-0.497741,0.523844,1.131333,0.925034,-0.016449,0.137399,-0.041366,-0.022939,0.025338,-0.086897
-0.050000,-0.050000,0.000000,0.000000,0.000000,0.000000,0.000000,0.000000,0.000000,0.100000,0.100000,-0.282519,-0.355489,-0.050000,-0.050000,0.314281,-0.424669,0.000000,0.000000,-0.491970,0.520964,1.122911,0.898299,-0.034159,0.157668,-0.039779,-0.026287,0.024258,-0.091896
-0.050000,-0.050000,0.000000,0.000000,0.000000,0.000000,0.000000,0.000000,0.000000,0.100000,0.100000,-0.285760,-0.360752,-0.050000,-0.050000,0.315485,-0.427915,0.000000,0.000000,-0.484901,0.516879,1.112516,0.871482,-0.055924,0.179527,-0.038672,-0.029952,0.023088,-0.096134
-0.050000,-0.050000,0.000000,0.000000,0.000000,0.000000,0.000000,0.000000,0.000000,0.100000,0.100000,-0.289177,-0.365227,-0.050000,-0.050000,0.316477,-0.430251,0.000000,0.000000,-0.476814,0.511829,1.100480,0.844642,-0.081063,0.202674,-0.037962,-0.033968,0.021908,-0.099779
-0.050000,-0.050000,0.000000,0.000000,0.000000,0.000000,0.000000,0.000000,0.000000,0.100000,0.100000,-0.292864,-0.368160,-0.050000,-0.050000,0.316489,-0.430598,0.000000,0.000000,-0.466038,0.504661,1.085554,0.818366,-0.113015,0.228784,-0.038271,-0.038441,0.021276,-0.102717
-0.050000,-0.050000,0.000000,0.000000,0.000000,0.000000,0.000000,0.000000,0.000000,0.100000,0.100000,-0.296418,-0.370491,-0.050000,-0.050000,0.316292,-0.429990,0.000000,0.000000,-0.454408,0.496704,1.069285,0.792508,-0.148134,0.256099,-0.038925,-0.043311,0.021037,-0.105407
-0.050000,-0.050000,0.000000,0.000000,0.000000,0.000000,0.000000,0.000000,0.000000,0.100000,0.100000,-0.299998,-0.371587,-0.050000,-0.050000,0.315034,-0.427395,0.000000,0.000000,-0.440272,0.486872,1.050659,0.767770,-0.189231,0.285985,-0.040566,-0.048602,0.021778,-0.107854
-0.050000,-0.050000,0.000000,0.000000,0.000000,0.000000,0.000000,0.000000,0.000000,0.100000,0.100000,-0.303420,-0.372073,-0.050000,-0.050000,0.313198,-0.423428,0.000000,0.000000,-0.424652,0.475907,1.030500,0.744237,-0.234247,0.317398,-0.042872,-0.054258,0.023514,-0.110363
-0.050000,-0.050000,0.000000,0.000000,0.000000,0.000000,0.000000,0.000000,0.000000,0.100000,0.100000,-0.306692,-0.372087,-0.050000,-0.050000,0.310756,-0.418214,0.000000,0.000000,-0.407750,0.464027,1.009091,0.721780,-0.282378,0.350003,-0.045905,-0.060322,0.026099,-0.112927
-0.050000,-0.050000,0.000000,0.000000,0.000000,0.000000,0.000000,0.000000,0.000000,0.100000,0.100000,-0.309936,-0.371632,-0.050000,-0.050000,0.307572,-0.411532,0.000000,0.000000,-0.388800,0.450600,0.986133,0.701512,-0.334319,0.384000,-0.049941,-0.066565,0.030330,-0.116131
-0.050000,-0.050000,0.000000,0.000000,0.000000,0.000000,0.000000,0.000000,0.000000,0.100000,0.100000,-0.313045,-0.371264,-0.050000,-0.050000,0.304167,-0.404210,0.000000,0.000000,-0.369297,0.436783,0.962538,0.682348,-0.387333,0.418198,-0.054655,-0.073207,0.035320,-0.119609
-0.050000,-0.050000,0.000000,0.000000,0.000000,0.000000,0.000000,0.000000,0.000000,0.100000,0.100000,-0.316234,-0.370942,-0.050000,-0.050000,0.300583,-0.396305,0.000000,0.000000,-0.348538,0.421885,0.938121,0.665276,-0.441519,0.452529,-0.060307,-0.079973,0.041743,-0.124026
-0.050000,-0.050000,0.000000,0.000000,0.000000,0.000000,0.000000,0.000000,0.000000,0.100000,0.100000,-0.319503,-0.371015,-0.050000,-0.050000,0.297298,-0.388496,0.000000,0.000000,-0.327411,0.406515,0.913385,0.649674,-0.494992,0.486135,-0.066682,-0.086979,0.049109,-0.129226
-0.050000,-0.050000,0.000000,0.000000,0.000000,0.000000,0.000000,0.000000,0.000000,0.100000,0.100000,-0.322864,-0.371420,-0.050000,-0.050000,0.294168,-0.380760,0.000000,0.000000,-0.305923,0.390705,0.888411,0.635300,-0.547599,0.519022,-0.073854,-0.094246,0.057165,-0.135078
-0.050000,-0.050000,0.000000,0.000000,0.000000,0.000000,0.000000,0.000000,0.000000,0.100000,0.100000,-0.326536,-0.372470,-0.050000,-0.050000,0.292500,-0.374543,0.000000,0.000000,-0.284485,0.374323,0.863569,0.622617,-0.596813,0.549733,-0.081590,-0.101559,0.066364,-0.142367
-0.050000,-0.050000,0.000000,0.000000,0.000000,0.000000,0.000000,0.000000,0.000000,0.100000,0.100000,-0.330329,-0.373934,-0.050000,-0.050000,0.291251,-0.368886,0.000000,0.000000,-0.263122,0.357745,0.838775,0.610601,-0.643802,0.579108,-0.089959,-0.109176,0.075853,-0.150154
-0.050000,-0.050000,0.000000,0.000000,0.000000,0.000000,0.000000,0.000000,0.000000,0.100000,0.100000,-0.334370,-0.375986,-0.050000,-0.050000,0.291962,-0.365484,0.000000,0.000000,-0.242263,0.340860,0.814438,0.599623,-0.686005,0.605621,-0.098700,-0.116887,0.086102,-0.159195
-0.050000,-0.050000,0.000000,0.000000,0.000000,0.000000,0.000000,0.000000,0.000000,0.100000,0.100000,-0.338510,-0.378433,-0.050000,-0.050000,0.294000,-0.363784,0.000000,0.000000,-0.221879,0.323856,0.790517,0.589066,-0.723985,0.629661,-0.107803,-0.124808,0.096677,-0.168938
-0.050000,-0.050000,0.000000,0.000000,0.000000,0.000000,0.000000,0.000000,0.000000,0.100000,0.100000,-0.342706,-0.381150,-0.050000,-0.050000,0.297214,-0.363647,0.000000,0.000000,-0.201920,0.306738,0.766978,0.578808,-0.758165,0.651475,-0.117235,-0.132914,0.107493,-0.179287
-0.050000,-0.050000,0.000000,0.000000,0.000000,0.000000,0.000000,0.000000,0.000000,0.100000,0.100000,-0.346713,-0.384104,-0.050000,-0.050000,0.302962,-0.366674,0.000000,0.000000,-0.182938,0.289742,0.744345,0.568668,-0.785924,0.669459,-0.126721,-0.141120,0.118764,-0.190466
-0.050000,-0.050000,0.000000,0.000000,0.000000,0.000000,0.000000,0.000000,0.000000,0.100000,0.100000,-0.350589,-0.387023,-0.050000,-0.050000,0.309291,-0.370757,0.000000,0.000000,-0.164266,0.272705,0.722083,0.558442,-0.810444,0.685551,-0.136427,-0.149465,0.130090,-0.201906
-0.050000,-0.050000,0.000000,0.000000,0.000000,0.000000,0.000000,0.000000,0.000000,0.100000,0.100000,-0.353923,-0.389822,-0.050000,-0.050000,0.317725,-0.377638,0.000000,0.000000,-0.146538,0.255985,0.700796,0.547990,-0.829191,0.698156,-0.146068,-0.157831,0.141699,-0.213783
-0.050000,-0.050000,0.000000,0.000000,0.000000,0.000000,0.000000,0.000000,0.000000,0.100000,0.100000,-0.356722,-0.392280,-0.050000,-0.050000,0.326917,-0.385892,0.000000,0.000000,-0.129363,0.239489,0.680219,0.537243,-0.844046,0.708447,-0.155676,-0.166166,0.153356,-0.225740
-0.050000,-0.050000,0.000000,0.000000,0.000000,0.000000,0.000000,0.000000,0.000000,0.100000,0.100000,-0.358953,-0.394355,-0.050000,-0.050000,0.336850,-0.395446,0.000000,0.000000,-0.112705,0.223246,0.660293,0.526192,-0.855469,0.716671,-0.165214,-0.174440,0.165064,-0.237756
-0.050000,-0.050000,0.000000,0.000000,0.000000,0.000000,0.000000,0.000000,0.000000,0.100000,0.100000,-0.360067,-0.395748,-0.050000,-0.050000,0.347639,-0.406548,0.000000,0.000000,-0.097067,0.207712,0.641612,0.514754,-0.862407,0.722247,-0.174298,-0.182380,0.176672,-0.249460
-0.050000,-0.050000,0.000000,0.000000,0.000000,0.000000,0.000000,0.000000,0.000000,0.100000,0.100000,-0.360588,-0.396560,-0.050000,-0.050000,0.358319,-0.418004,0.000000,0.000000,-0.081781,0.192455,0.623489,0.503048,-0.867191,0.726587,-0.183183,-0.190110,0.188142,-0.260951
-0.050000,-0.050000,0.000000,0.000000,0.000000,0.000000,0.000000,0.000000,0.000000,0.100000,0.100000,-0.359903,-0.396532,-0.050000,-0.050000,0.369083,-0.430070,0.000000,0.000000,-0.067598,0.178119,0.606635,0.491067,-0.868737,0.729135,-0.191334,-0.197277,0.199198,-0.271704
-0.050000,-0.050000,0.000000,0.000000,0.000000,0.000000,0.000000,0.000000,0.000000,0.100000,0.100000,-0.358374,-0.395711,-0.050000,-0.050000,0.379285,-0.441923,0.000000,0.000000,-0.054176,0.164503,0.590658,0.478922,-0.868457,0.730803,-0.198847,-0.203924,0.209694,-0.281666
-0.050000,-0.050000,0.000000,0.000000,0.000000,0.000000,0.000000,0.000000,0.000000,0.100000,0.100000,-0.356022,-0.394157,-0.050000,-0.050000,0.389016,-0.453581,0.000000,0.000000,-0.041490,0.151592,0.575512,0.466646,-0.866646,0.731754,-0.205725,-0.210077,0.219623,-0.290837
-0.050000,-0.050000,0.000000,0.000000,0.000000,0.000000,0.000000,0.000000,0.000000,0.100000,0.100000,-0.352614,-0.391643,-0.050000,-0.050000,0.397546,-0.464131,0.000000,0.000000,-0.030396,0.140163,0.561619,0.454375,-0.863341,0.732314,-0.211283,-0.215296,0.228174,-0.298245
-0.050000,-0.050000,0.000000,0.000000,0.000000,0.000000,0.000000,0.000000,0.000000,0.100000,0.100000,-0.348617,-0.388447,-0.050000,-0.050000,0.405413,-0.474067,0.000000,0.000000,-0.019920,0.129389,0.548344,0.442080,-0.859405,0.732776,-0.216220,-0.220074,0.235848,-0.304650
-0.050000,-0.050000,0.000000,0.000000,0.000000,0.000000,0.000000,0.000000,0.000000,0.100000,0.100000,-0.343793,-0.384371,-0.050000,-0.050000,0.411796,-0.482284,0.000000,0.000000,-0.011286,0.120311,0.536098,0.429874,-0.854766,0.733450,-0.219665,-0.223899,0.241570,-0.308851
-0.050000,-0.050000,0.000000,0.000000,0.000000,0.000000,0.000000,0.000000,0.000000,0.100000,0.100000,-0.338426,-0.379560,-0.050000,-0.050000,0.417173,-0.489162,0.000000,0.000000,-0.003880,0.112378,0.524447,0.417722,-0.849891,0.734453,-0.222057,-0.227111,0.245510,-0.311272
-0.050000,-0.050000,0.000000,0.000000,0.000000,0.000000,0.000000,0.000000,0.000000,0.100000,0.100000,-0.332568,-0.374097,-0.050000,-0.050000,0.421623,-0.494711,0.000000,0.000000,0.002287,0.105556,0.513333,0.405638,-0.844892,0.735822,-0.223426,-0.229752,0.247684,-0.311966
-0.050000,-0.050000,0.000000,0.000000,0.000000,0.000000,0.000000,0.000000,0.000000,0.100000,0.100000,-0.326250,-0.367853,-0.050000,-0.050000,0.424667,-0.497931,0.000000,0.000000,0.006133,0.100653,0.502579,0.393595,-0.839762,0.737741,-0.223046,-0.231500,0.246718,-0.309923
-0.050000,-0.050000,0.000000,0.000000,0.000000,0.000000,0.000000,0.000000,0.000000,0.100000,0.100000,-0.319574,-0.361037,-0.050000,-0.050000,0.427323,-0.500114,0.000000,0.000000,0.009038,0.096465,0.492056,0.381597,-0.834644,0.739911,-0.221836,-0.232867,0.243928,-0.306431
-0.050000,-0.050000,0.000000,0.000000,0.000000,0.000000,0.000000,0.000000,0.000000,0.100000,0.100000,-0.312598,-0.353552,-0.050000,-0.050000,0.429007,-0.500006,0.000000,0.000000,0.009411,0.094137,0.481439,0.369589,-0.829233,0.742315,-0.218802,-0.233378,0.237602,-0.300341
-0.050000,-0.050000,0.000000,0.000000,0.000000,0.000000,0.000000,0.000000,0.000000,0.100000,0.100000,-0.305361,-0.345513,-0.050000,-0.050000,0.430566,-0.498558,0.000000,0.000000,0.008207,0.092775,0.470659,0.357630,-0.823416,0.744545,-0.214532,-0.233335,0.228656,-0.292620
-0.050000,-0.050000,0.000000,0.000000,0.000000,0.000000,0.000000,0.000000,0.000000,0.100000,0.100000,-0.297935,-0.337014,-0.050000,-0.050000,0.432008,-0.495744,0.000000,0.000000,0.005370,0.092404,0.459641,0.345703,-0.817132,0.746513,-0.209046,-0.232726,0.217194,-0.283403
-0.050000,-0.050000,0.000000,0.000000,0.000000,0.000000,0.000000,0.000000,0.000000,0.100000,0.100000,-0.290474,-0.328091,-0.050000,-0.050000,0.433727,-0.491296,0.000000,0.000000,-0.000202,0.093581,0.447926,0.334029,-0.809328,0.747367,-0.201768,-0.231196,0.202252,-0.272499
-0.050000,-0.050000,0.000000,0.000000,0.000000,0.000000,0.000000,0.000000,0.000000,0.100000,0.100000,-0.282959,-0.318903,-0.050000,-0.050000,0.435876,-0.485997,0.000000,0.000000,-0.006898,0.095245,0.435975,0.322584,-0.800647,0.747412,-0.193649,-0.229202,0.185603,-0.260911
-0.050000,-0.050000,0.000000,0.000000,0.000000,0.000000,0.000000,0.000000,0.000000,0.100000,0.100000,-0.275729,-0.309588,-0.050000,-0.050000,0.438899,-0.479548,0.000000,0.000000,-0.016403,0.098398,0.423259,0.311855,-0.789536,0.745470,-0.184032,-0.226210,0.166190,-0.248426
-0.050000,-0.050000,0.000000,0.000000,0.000000,0.000000,0.000000,0.000000,0.000000,0.100000,0.100000,-0.268892,-0.300346,-0.050000,-0.050000,0.442812,-0.472470,0.000000,0.000000,-0.027488,0.102282,0.410293,0.302031,-0.776414,0.741715,-0.173726,-0.222549,0.145576,-0.235868
-0.050000,-0.050000,0.000000,0.000000,0.000000,0.000000,0.000000,0.000000,0.000000,0.100000,0.100000,-0.262595,-0.291322,-0.050000,-0.050000,0.447597,-0.464847,0.000000,0.000000,-0.040251,0.107025,0.397067,0.293193,-0.761180,0.736094,-0.162884,-0.218248,0.123920,-0.223336
-0.050000,-0.050000,0.000000,0.000000,0.000000,0.000000,0.000000,0.000000,0.000000,0.100000,0.100000,-0.257580,-0.282852,-0.050000,-0.050000,0.453755,-0.457066,0.000000,0.000000,-0.055350,0.113137,0.383958,0.286644,-0.742571,0.727418,-0.151811,-0.212920,0.102197,-0.211584
-0.050000,-0.050000,0.000000,0.000000,0.000000,0.000000,0.000000,0.000000,0.000000,0.100000,0.100000,-0.253560,-0.275038,-0.050000,-0.050000,0.460501,-0.449029,0.000000,0.000000,-0.071466,0.119846,0.371235,0.281561,-0.722210,0.717035,-0.141003,-0.207225,0.080801,-0.200455
-0.050000,-0.050000,0.000000,0.000000,0.000000,0.000000,0.000000,0.000000,0.000000,0.100000,0.100000,-0.251663,-0.268211,-0.050000,-0.050000,0.468447,-0.441333,0.000000,0.000000,-0.089614,0.128066,0.359606,0.279891,-0.698689,0.703469,-0.130853,-0.200528,0.061144,-0.190896
-0.050000,-0.050000,0.000000,0.000000,0.000000,0.000000,0.000000,0.000000,0.000000,0.100000,0.100000,-0.251809,-0.262568,-0.050000,-0.050000,0.476761,-0.433802,0.000000,0.000000,-0.108801,0.137242,0.349554,0.281121,-0.673552,0.687898,-0.121712,-0.193366,0.043591,-0.182729
-0.050000,-0.050000,0.000000,0.000000,0.000000,0.000000,0.000000,0.000000,0.000000,0.100000,0.100000,-0.254174,-0.258138,-0.050000,-0.050000,0.485418,-0.426619,0.000000,0.000000,-0.129085,0.147480,0.341243,0.285412,-0.646949,0.670395,-0.113699,-0.185749,0.028285,-0.175940
-0.050000,-0.050000,0.000000,0.000000,0.000000,0.000000,0.000000,0.000000,0.000000,0.100000,0.100000,-0.259933,-0.255202,-0.050000,-0.050000,0.494050,-0.420147,0.000000,0.000000,-0.150313,0.159264,0.336473,0.294650,-0.619617,0.650710,-0.107259,-0.177257,0.017468,-0.171439
-0.050000,-0.050000,0.000000,0.000000,0.000000,0.000000,0.000000,0.000000,0.000000,0.100000,0.100000,-0.268076,-0.253719,-0.050000,-0.050000,0.502264,-0.413942,0.000000,0.000000,-0.172192,0.171919,0.334155,0.306754,-0.592253,0.630063,-0.102028,-0.168668,0.009038,-0.167978
-0.050000,-0.050000,0.000000,0.000000,0.000000,0.000000,0.000000,0.000000,0.000000,0.100000,0.100000,-0.280044,-0.253710,-0.050000,-0.050000,0.509642,-0.408497,0.000000,0.000000,-0.194355,0.186178,0.336804,0.324355,-0.566101,0.608094,-0.098235,-0.159127,0.005945,-0.166723
-0.050000,-0.050000,0.000000,0.000000,0.000000,0.000000,0.000000,0.000000,0.000000,0.100000,0.100000,-0.294932,-0.255197,-0.050000,-0.050000,0.515847,-0.403386,0.000000,0.000000,-0.216622,0.201515,0.343525,0.345620,-0.541771,0.585835,-0.095468,-0.149291,0.006189,-0.166492
-0.050000,-0.050000,0.000000,0.000000,0.000000,0.000000,0.000000,0.000000,0.000000,0.100000,0.100000,-0.312647,-0.257919,-0.050000,-0.050000,0.520805,-0.398629,0.000000,0.000000,-0.238780,0.217922,0.354455,0.370589,-0.519561,0.563381,-0.093530,-0.139030,0.009821,-0.167213
-0.050000,-0.050000,0.000000,0.000000,0.000000,0.000000,0.000000,0.000000,0.000000,0.100000,0.100000,-0.333390,-0.261683,-0.050000,-0.050000,0.523766,-0.394132,0.000000,0.000000,-0.259690,0.235562,0.371293,0.399983,-0.501829,0.541501,-0.091978,-0.127939,0.017712,-0.168772
-0.050000,-0.050000,0.000000,0.000000,0.000000,0.000000,0.000000,0.000000,0.000000,0.100000,0.100000,-0.356018,-0.266442,-0.050000,-0.050000,0.525401,-0.389719,0.000000,0.000000,-0.280174,0.253933,0.391500,0.431626,-0.486617,0.520041,-0.090820,-0.116772,0.027390,-0.170344
-0.050000,-0.050000,0.000000,0.000000,0.000000,0.000000,0.000000,0.000000,0.000000,0.100000,0.100000,-0.380566,-0.271644,-0.050000,-0.050000,0.524842,-0.385249,0.000000,0.000000,-0.298111,0.273132,0.417330,0.466557,-0.477258,0.499953,-0.089401,-0.104811,0.040305,-0.171867
-0.050000,-0.050000,0.000000,0.000000,0.000000,0.000000,0.000000,0.000000,0.000000,0.100000,0.100000,-0.405980,-0.277298,-0.050000,-0.050000,0.522922,-0.380687,0.000000,0.000000,-0.314275,0.292735,0.446239,0.502746,-0.471727,0.480950,-0.087931,-0.092797,0.054353,-0.172760
-0.050000,-0.050000,0.000000,0.000000,0.000000,0.000000,0.000000,0.000000,0.000000,0.100000,0.100000,-0.431823,-0.283017,-0.050000,-0.050000,0.519697,-0.375915,0.000000,0.000000,-0.328129,0.312587,0.478008,0.539949,-0.470285,0.463076,-0.086179,-0.080615,0.069473,-0.172983
-0.050000,-0.050000,0.000000,0.000000,0.000000,0.000000,0.000000,0.000000,0.000000,0.100000,0.100000,-0.456963,-0.288426,-0.050000,-0.050000,0.515411,-0.370882,0.000000,0.000000,-0.338049,0.332008,0.511951,0.576788,-0.474011,0.447079,-0.084078,-0.068627,0.085369,-0.172087
-0.050000,-0.050000,0.000000,0.000000,0.000000,0.000000,0.000000,0.000000,0.000000,0.100000,0.100000,-0.481480,-0.293584,-0.050000,-0.050000,0.510740,-0.365738,0.000000,0.000000,-0.345959,0.351314,0.546447,0.613023,-0.480215,0.431869,-0.081819,-0.056902,0.101206,-0.170513
-0.050000,-0.050000,0.000000,0.000000,0.000000,0.000000,0.000000,0.000000,0.000000,0.100000,0.100000,-0.503824,-0.298047,-0.050000,-0.050000,0.505957,-0.360416,0.000000,0.000000,-0.349204,0.369151,0.580721,0.646701,-0.490654,0.418777,-0.079495,-0.046148,0.117181,-0.167945
-0.050000,-0.050000,0.000000,0.000000,0.000000,0.000000,0.000000,0.000000,0.000000,0.100000,0.100000,-0.524234,-0.301924,-0.050000,-0.050000,0.501579,-0.355196,0.000000,0.000000,-0.349821,0.385927,0.613390,0.677783,-0.502844,0.406875,-0.077271,-0.036346,0.132788,-0.165033
-0.050000,-0.050000,0.000000,0.000000,0.000000,0.000000,0.000000,0.000000,0.000000,0.100000,0.100000,-0.542393,-0.305113,-0.050000,-0.050000,0.497740,-0.350058,0.000000,0.000000,-0.347494,0.401272,0.644092,0.705834,-0.516751,0.396371,-0.075200,-0.027650,0.148140,-0.161914
-0.050000,-0.050000,0.000000,0.000000,0.000000,0.000000,0.000000,0.000000,0.000000,0.100000,0.100000,-0.557179,-0.307774,-0.050000,-0.050000,0.494862,-0.345300,0.000000,0.000000,-0.341839,0.413771,0.670800,0.728707,-0.531727,0.388198,-0.073891,-0.021200,0.163115,-0.159323
-0.050000,-0.050000,0.000000,0.000000,0.000000,0.000000,0.000000,0.000000,0.000000,0.100000,0.100000,-0.569869,-0.309748,-0.050000,-0.050000,0.492583,-0.340899,0.000000,0.000000,-0.334613,0.425045,0.694787,0.748608,-0.547027,0.381140,-0.072736,-0.015664,0.177839,-0.157199
-0.050000,-0.050000,0.000000,0.000000,0.000000,0.000000,0.000000,0.000000,0.000000,0.100000,0.100000,-0.578751,-0.311620,-0.050000,-0.050000,0.491128,-0.337172,0.000000,0.000000,-0.324809,0.432432,0.713374,0.762108,-0.562374,0.377174,-0.072808,-0.013092,0.192141,-0.156738
-0.050000,-0.050000,0.000000,0.000000,0.000000,0.000000,0.000000,0.000000,0.000000,0.100000,0.100000,-0.585125,-0.313108,-0.050000,-0.050000,0.489897,-0.334107,0.000000,0.000000,-0.314016,0.437734,0.728073,0.771552,-0.577406,0.375088,-0.073356,-0.011946,0.206179,-0.157711
-0.050000,-0.050000,0.000000,0.000000,0.000000,0.000000,0.000000,0.000000,0.000000,0.100000,0.100000,-0.588907,-0.314525,-0.050000,-0.050000,0.488747,-0.331714,0.000000,0.000000,-0.302230,0.440415,0.738701,0.776524,-0.592064,0.375250,-0.074654,-0.012617,0.219938,-0.160379
-0.050000,-0.050000,0.000000,0.000000,0.000000,0.000000,0.000000,0.000000,0.000000,0.100000,0.100000,-0.589752,-0.316413,-0.050000,-0.050000,0.486904,-0.330205,0.000000,0.000000,-0.289965,0.439545,0.744203,0.775839,-0.606137,0.378471,-0.077009,-0.015724,0.233119,-0.165700
-0.050000,-0.050000,0.000000,0.000000,0.000000,0.000000,0.000000,0.000000,0.000000,0.100000,0.100000,-0.588942,-0.318070,-0.050000,-0.050000,0.484551,-0.329352,0.000000,0.000000,-0.277552,0.437144,0.746796,0.772163,-0.619775,0.383115,-0.079726,-0.019696,0.246179,-0.172438
-0.050000,-0.050000,0.000000,0.000000,0.000000,0.000000,0.000000,0.000000,0.000000,0.100000,0.100000,-0.585650,-0.320716,-0.050000,-0.050000,0.480504,-0.329388,0.000000,0.000000,-0.265483,0.431195,0.744345,0.762848,-0.632660,0.390654,-0.083586,-0.026096,0.258414,-0.182182
-0.050000,-0.050000,0.000000,0.000000,0.000000,0.000000,0.000000,0.000000,0.000000,0.100000,0.100000,-0.581060,-0.323394,-0.050000,-0.050000,0.475207,-0.330136,0.000000,0.000000,-0.253916,0.423797,0.738868,0.750448,-0.644731,0.399276,-0.087907,-0.033320,0.270377,-0.193570
-0.050000,-0.050000,0.000000,0.000000,0.000000,0.000000,0.000000,0.000000,0.000000,0.100000,0.100000,-0.575213,-0.326501,-0.050000,-0.050000,0.468392,-0.331491,0.000000,0.000000,-0.243020,0.414627,0.730229,0.734657,-0.655877,0.409014,-0.092873,-0.041717,0.281864,-0.206761
-0.050000,-0.050000,0.000000,0.000000,0.000000,0.000000,0.000000,0.000000,0.000000,0.100000,0.100000,-0.568363,-0.330236,-0.050000,-0.050000,0.459745,-0.333547,0.000000,0.000000,-0.233522,0.403953,0.717777,0.715087,-0.664979,0.419221,-0.098665,-0.051263,0.292653,-0.221848
-0.050000,-0.050000,0.000000,0.000000,0.000000,0.000000,0.000000,0.000000,0.000000,0.100000,0.100000,-0.560924,-0.333844,-0.050000,-0.050000,0.450074,-0.335983,0.000000,0.000000,-0.224727,0.392565,0.703224,0.693498,-0.672655,0.429270,-0.104792,-0.061216,0.303298,-0.237860
-0.050000,-0.050000,0.000000,0.000000,0.000000,0.000000,0.000000,0.000000,0.000000,0.100000,0.100000,-0.553034,-0.338032,-0.050000,-0.050000,0.439028,-0.339006,0.000000,0.000000,-0.218043,0.380466,0.684694,0.668435,-0.676434,0.438450,-0.111779,-0.072019,0.313137,-0.255200
-0.050000,-0.050000,0.000000,0.000000,0.000000,0.000000,0.000000,0.000000,0.000000,0.100000,0.100000,-0.544889,-0.341919,-0.050000,-0.050000,0.427503,-0.342286,0.000000,0.000000,-0.212558,0.368200,0.663842,0.641581,-0.676997,0.446414,-0.119036,-0.082914,0.322839,-0.272987
-0.050000,-0.050000,0.000000,0.000000,0.000000,0.000000,0.000000,0.000000,0.000000,0.100000,0.100000,-0.536625,-0.345719,-0.050000,-0.050000,0.415660,-0.345771,0.000000,0.000000,-0.208613,0.355894,0.640392,0.612794,-0.673665,0.452886,-0.126598,-0.093978,0.332188,-0.291111
-0.050000,-0.050000,0.000000,0.000000,0.000000,0.000000,0.000000,0.000000,0.000000,0.100000,0.100000,-0.528484,-0.349188,-0.050000,-0.050000,0.404438,-0.349499,0.000000,0.000000,-0.206780,0.344114,0.613994,0.582238,-0.664388,0.457176,-0.134341,-0.104868,0.341096,-0.309003
-0.050000,-0.050000,0.000000,0.000000,0.000000,0.000000,0.000000,0.000000,0.000000,0.100000,0.100000,-0.520239,-0.352215,-0.050000,-0.050000,0.393459,-0.353063,0.000000,0.000000,-0.205808,0.332372,0.586011,0.550716,-0.651763,0.460044,-0.141845,-0.115539,0.349954,-0.326686
-0.050000,-0.050000,0.000000,0.000000,0.000000,0.000000,0.000000,0.000000,0.000000,0.100000,0.100000,-0.512363,-0.354641,-0.050000,-0.050000,0.384338,-0.356797,0.000000,0.000000,-0.207117,0.321724,0.555487,0.518110,-0.632194,0.460575,-0.149023,-0.125570,0.358195,-0.343215
-0.050000,-0.050000,0.000000,0.000000,0.000000,0.000000,0.000000,0.000000,0.000000,0.100000,0.100000,-0.504482,-0.356464,-0.050000,-0.050000,0.376247,-0.360190,0.000000,0.000000,-0.209174,0.311399,0.523948,0.485182,-0.609127,0.459865,-0.155448,-0.135002,0.366238,-0.358776
-0.050000,-0.050000,0.000000,0.000000,0.000000,0.000000,0.000000,0.000000,0.000000,0.100000,0.100000,-0.496809,-0.357705,-0.050000,-0.050000,0.369731,-0.363410,0.000000,0.000000,-0.212281,0.301777,0.491434,0.452099,-0.582240,0.457917,-0.161046,-0.143718,0.373762,-0.373002
-0.050000,-0.050000,0.000000,0.000000,0.000000,0.000000,0.000000,0.000000,0.000000,0.100000,0.100000,-0.489350,-0.358196,-0.050000,-0.050000,0.365181,-0.366370,0.000000,0.000000,-0.216171,0.293143,0.458943,0.419578,-0.552619,0.455288,-0.165326,-0.151303,0.380488,-0.385118
-0.050000,-0.050000,0.000000,0.000000,0.000000,0.000000,0.000000,0.000000,0.000000,0.100000,0.100000,-0.482026,-0.358369,-0.050000,-0.050000,0.361660,-0.368952,0.000000,0.000000,-0.220244,0.284836,0.426627,0.387468,-0.522025,0.452382,-0.168688,-0.158287,0.386563,-0.395910
-0.050000,-0.050000,0.000000,0.000000,0.000000,0.000000,0.000000,0.000000,0.000000,0.100000,0.100000,-0.474922,-0.357782,-0.050000,-0.050000,0.360038,-0.371284,0.000000,0.000000,-0.224497,0.277826,0.396127,0.356982,-0.491961,0.449895,-0.170279,-0.163714,0.391315,-0.403832
-0.050000,-0.050000,0.000000,0.000000,0.000000,0.000000,0.000000,0.000000,0.000000,0.100000,0.100000,-0.468024,-0.357029,-0.050000,-0.050000,0.359231,-0.373259,0.000000,0.000000,-0.228422,0.271305,0.367364,0.327804,-0.464001,0.448098,-0.170788,-0.168297,0.394912,-0.409897
-0.050000,-0.050000,0.000000,0.000000,0.000000,0.000000,0.000000,0.000000,0.000000,0.100000,0.100000,-0.461361,-0.356019,-0.050000,-0.050000,0.359318,-0.375011,0.000000,0.000000,-0.231967,0.265595,0.341010,0.300348,-0.439101,0.447279,-0.170093,-0.171779,0.397166,-0.413795
-0.050000,-0.050000,0.000000,0.000000,0.000000,0.000000,0.000000,0.000000,0.000000,0.100000,0.100000,-0.454847,-0.354761,-0.050000,-0.050000,0.359771,-0.376524,0.000000,0.000000,-0.234653,0.260846,0.318494,0.275456,-0.420163,0.448059,-0.167884,-0.173770,0.397819,-0.415227
-0.050000,-0.050000,0.000000,0.000000,0.000000,0.000000,0.000000,0.000000,0.000000,0.100000,0.100000,-0.448759,-0.353688,-0.050000,-0.050000,0.360660,-0.377981,0.000000,0.000000,-0.236871,0.256590,0.298366,0.252167,-0.405042,0.449906,-0.165144,-0.175119,0.397181,-0.415149
-0.050000,-0.050000,0.000000,0.000000,0.000000,0.000000,0.000000,0.000000,0.000000,0.100000,0.100000,-0.442685,-0.352397,-0.050000,-0.050000,0.361134,-0.379285,0.000000,0.000000,-0.237815,0.253434,0.283414,0.232314,-0.398679,0.453730,-0.160746,-0.174628,0.394924,-0.412755
-0.050000,-0.050000,0.000000,0.000000,0.000000,0.000000,0.000000,0.000000,0.000000,0.100000,0.100000,-0.437081,-0.351442,-0.050000,-0.050000,0.361643,-0.380691,0.000000,0.000000,-0.238121,0.250818,0.271530,0.214610,-0.397652,0.458743,-0.155907,-0.173423,0.391382,-0.409125
-0.050000,-0.050000,0.000000,0.000000,0.000000,0.000000,0.000000,0.000000,0.000000,0.100000,0.100000,-0.431682,-0.350635,-0.050000,-0.050000,0.361750,-0.382129,0.000000,0.000000,-0.237569,0.248869,0.263301,0.199492,-0.402900,0.465009,-0.150305,-0.171185,0.386737,-0.404298
-0.050000,-0.050000,0.000000,0.000000,0.000000,0.000000,0.000000,0.000000,0.000000,0.100000,0.100000,-0.426338,-0.349992,-0.050000,-0.050000,0.361241,-0.383661,0.000000,0.000000,-0.236134,0.247576,0.258869,0.187382,-0.414792,0.472364,-0.143990,-0.167900,0.381096,-0.398620
-0.050000,-0.050000,0.000000,0.000000,0.000000,0.000000,0.000000,0.000000,0.000000,0.100000,0.100000,-0.421313,-0.349720,-0.050000,-0.050000,0.360618,-0.385347,0.000000,0.000000,-0.234281,0.246684,0.256628,0.177068,-0.430334,0.480358,-0.137512,-0.164254,0.374745,-0.392452
-0.050000,-0.050000,0.000000,0.000000,0.000000,0.000000,0.000000,0.000000,0.000000,0.100000,0.100000,-0.415892,-0.349533,-0.050000,-0.050000,0.359179,-0.387106,0.000000,0.000000,-0.231676,0.246331,0.257709,0.170026,-0.451461,0.488954,-0.130522,-0.159755,0.367812,-0.386092
-0.050000,-0.050000,0.000000,0.000000,0.000000,0.000000,0.000000,0.000000,0.000000,0.100000,0.100000,-0.410456,-0.349720,-0.050000,-0.050000,0.357667,-0.389010,0.000000,0.000000,-0.228895,0.246288,0.260262,0.164788,-0.474762,0.497765,-0.123656,-0.155242,0.360449,-0.379721
-0.050000,-0.050000,0.000000,0.000000,0.000000,0.000000,0.000000,0.000000,0.000000,0.100000,0.100000,-0.404616,-0.350100,-0.050000,-0.050000,0.355836,-0.390965,0.000000,0.000000,-0.225880,0.246524,0.264314,0.161647,-0.500147,0.506657,-0.116831,-0.150626,0.352848,-0.373534
-0.050000,-0.050000,0.000000,0.000000,0.000000,0.000000,0.000000,0.000000,0.000000,0.100000,0.100000,-0.398048,-0.350674,-0.050000,-0.050000,0.353894,-0.392970,0.000000,0.000000,-0.222926,0.246954,0.269268,0.160672,-0.526250,0.515374,-0.110378,-0.146196,0.345055,-0.367771
-0.050000,-0.050000,0.000000,0.000000,0.000000,0.000000,0.000000,0.000000,0.000000,0.100000,0.100000,-0.391038,-0.351444,-0.050000,-0.050000,0.351886,-0.394965,0.000000,0.000000,-0.220012,0.247580,0.274652,0.160992,-0.552515,0.523978,-0.104171,-0.142046,0.337181,-0.362219
-0.050000,-0.050000,0.000000,0.000000,0.000000,0.000000,0.000000,0.000000,0.000000,0.100000,0.100000,-0.382812,-0.352276,-0.050000,-0.050000,0.350021,-0.396969,0.000000,0.000000,-0.217553,0.248270,0.280121,0.163516,-0.577541,0.532098,-0.098683,-0.138343,0.329156,-0.357326
-0.050000,-0.050000,0.000000,0.000000,0.000000,0.000000,0.000000,0.000000,0.000000,0.100000,0.100000,-0.373856,-0.353185,-0.050000,-0.050000,0.348240,-0.398911,0.000000,0.000000,-0.215395,0.249120,0.285403,0.167246,-0.601335,0.539916,-0.093646,-0.135081,0.321075,-0.352717
-0.050000,-0.050000,0.000000,0.000000,0.000000,0.000000,0.000000,0.000000,0.000000,0.100000,0.100000,-0.363979,-0.354068,-0.050000,-0.050000,0.346666,-0.400823,0.000000,0.000000,-0.213696,0.250045,0.290323,0.172356,-0.623325,0.547302,-0.089162,-0.132234,0.312907,-0.348521
-0.050000,-0.050000,0.000000,0.000000,0.000000,0.000000,0.000000,0.000000,0.000000,0.100000,0.100000,-0.353235,-0.354771,-0.050000,-0.050000,0.345496,-0.402743,0.000000,0.000000,-0.212666,0.251063,0.294628,0.178879,-0.642710,0.554079,-0.085313,-0.129735,0.304604,-0.344784
-0.050000,-0.050000,0.000000,0.000000,0.000000,0.000000,0.000000,0.000000,0.000000,0.100000,0.100000,-0.341898,-0.355362,-0.050000,-0.050000,0.344400,-0.404604,0.000000,0.000000,-0.211938,0.252190,0.298556,0.186195,-0.660544,0.560492,-0.081778,-0.127485,0.296304,-0.341265
-0.050000,-0.050000,0.000000,0.000000,0.000000,0.000000,0.000000,0.000000,0.000000,0.100000,0.100000,-0.330084,-0.355430,-0.050000,-0.050000,0.344058,-0.406624,0.000000,0.000000,-0.212136,0.253430,0.301659,0.194926,-0.674859,0.565928,-0.078883,-0.125286,0.287845,-0.338316
-0.050000,-0.050000,0.000000,0.000000,0.000000,0.000000,0.000000,0.000000,0.000000,0.100000,0.100000,-0.318096,-0.355144,-0.050000,-0.050000,0.343875,-0.408660,0.000000,0.000000,-0.212690,0.254800,0.304386,0.204249,-0.687293,0.570731,-0.076234,-0.123084,0.279453,-0.335626
-0.050000,-0.050000,0.000000,0.000000,0.000000,0.000000,0.000000,0.000000,0.000000,0.100000,0.100000,-0.306200,-0.354304,-0.050000,-0.050000,0.344178,-0.410853,0.000000,0.000000,-0.213815,0.256290,0.306627,0.214279,-0.697300,0.574642,-0.073880,-0.120708,0.271079,-0.333317
-0.050000,-0.050000,0.000000,0.000000,0.000000,0.000000,0.000000,0.000000,0.000000,0.100000,0.100000,-0.294971,-0.352683,-0.050000,-0.050000,0.345059,-0.413304,0.000000,0.000000,-0.215522,0.257961,0.308449,0.224833,-0.704687,0.577311,-0.071757,-0.117960,0.262827,-0.331427
-0.050000,-0.050000,0.000000,0.000000,0.000000,0.000000,0.000000,0.000000,0.000000,0.100000,0.100000,-0.284103,-0.350612,-0.050000,-0.050000,0.346087,-0.415834,0.000000,0.000000,-0.217513,0.259676,0.310130,0.235525,-0.710621,0.579216,-0.069741,-0.114976,0.254707,-0.329783
-0.050000,-0.050000,0.000000,0.000000,0.000000,0.000000,0.000000,0.000000,0.000000,0.100000,0.100000,-0.274948,-0.347398,-0.050000,-0.050000,0.347953,-0.418838,0.000000,0.000000,-0.220182,0.261673,0.311455,0.246425,-0.713635,0.579256,-0.067878,-0.111331,0.246816,-0.328576
-0.050000,-0.050000,0.000000,0.000000,0.000000,0.000000,0.000000,0.000000,0.000000,0.100000,0.100000,-0.266777,-0.343627,-0.050000,-0.050000,0.349901,-0.421951,0.000000,0.000000,-0.223129,0.263703,0.312838,0.257037,-0.715331,0.578217,-0.066034,-0.107321,0.239121,-0.327561
-0.050000,-0.050000,0.000000,0.000000,0.000000,0.000000,0.000000,0.000000,0.000000,0.100000,0.100000,-0.260174,-0.339055,-0.050000,-0.050000,0.352239,-0.425351,0.000000,0.000000,-0.226506,0.265885,0.314171,0.267350,-0.715314,0.575722,-0.064212,-0.102805,0.231610,-0.326735
-0.050000,-0.050000,0.000000,0.000000,0.000000,0.000000,0.000000,0.000000,0.000000,0.100000,0.100000,-0.255522,-0.333713,-0.050000,-0.050000,0.354820,-0.428993,0.000000,0.000000,-0.230386,0.268282,0.315535,0.277015,-0.713648,0.571578,-0.062305,-0.097790,0.224210,-0.325907
-0.050000,-0.050000,0.000000,0.000000,0.000000,0.000000,0.000000,0.000000,0.000000,0.100000,0.100000,-0.251990,-0.327912,-0.050000,-0.050000,0.357432,-0.432703,0.000000,0.000000,-0.234549,0.270669,0.317068,0.286161,-0.711087,0.566451,-0.060358,-0.092452,0.216873,-0.325098
-0.050000,-0.050000,0.000000,0.000000,0.000000,0.000000,0.000000,0.000000,0.000000,0.100000,0.100000,-0.251023,-0.321395,-0.050000,-0.050000,0.360219,-0.436606,0.000000,0.000000,-0.239544,0.273542,0.318551,0.294218,-0.706655,0.559359,-0.058139,-0.086653,0.209308,-0.323831
-0.050000,-0.050000,0.000000,0.000000,0.000000,0.000000,0.000000,0.000000,0.000000,0.100000,0.100000,-0.251213,-0.314596,-0.050000,-0.050000,0.362889,-0.440423,0.000000,0.000000,-0.245003,0.276480,0.320233,0.301527,-0.701291,0.551312,-0.055742,-0.080626,0.201489,-0.322238
-0.050000,-0.050000,0.000000,0.000000,0.000000,0.000000,0.000000,0.000000,0.000000,0.100000,0.100000,-0.252991,-0.307508,-0.050000,-0.050000,0.365520,-0.444182,0.000000,0.000000,-0.251218,0.279793,0.321908,0.307938,-0.694585,0.542045,-0.053076,-0.074391,0.193167,-0.320005
-0.050000,-0.050000,0.000000,0.000000,0.000000,0.000000,0.000000,0.000000,0.000000,0.100000,0.100000,-0.256140,-0.300388,-0.050000,-0.050000,0.368070,-0.447693,0.000000,0.000000,-0.258493,0.283681,0.323500,0.313438,-0.686100,0.531650,-0.050000,-0.068042,0.183900,-0.316712
-0.050000,-0.050000,0.000000,0.000000,0.000000,0.000000,0.000000,0.000000,0.000000,0.100000,0.100000,-0.260026,-0.293221,-0.050000,-0.050000,0.370543,-0.451009,0.000000,0.000000,-0.266292,0.287765,0.325133,0.318465,-0.676575,0.520602,-0.046764,-0.061660,0.174067,-0.312794
-0.050000,-0.050000,0.000000,0.000000,0.000000,0.000000,0.000000,0.000000,0.000000,0.100000,0.100000,-0.265019,-0.286527,-0.050000,-0.050000,0.373089,-0.453814,0.000000,0.000000,-0.275931,0.293088,0.326368,0.322721,-0.663942,0.508445,-0.042914,-0.055307,0.162357,-0.306878
-0.050000,-0.050000,0.000000,0.000000,0.000000,0.000000,0.000000,0.000000,0.000000,0.100000,0.100000,-0.270260,-0.280145,-0.050000,-0.050000,0.375698,-0.456247,0.000000,0.000000,-0.286298,0.298833,0.327555,0.326946,-0.649525,0.495816,-0.038912,-0.049054,0.149625,-0.299856
-0.050000,-0.050000,0.000000,0.000000,0.000000,0.000000,0.000000,0.000000,0.000000,0.100000,0.100000,-0.275778,-0.274403,-0.050000,-0.050000,0.378512,-0.458200,0.000000,0.000000,-0.298033,0.305574,0.328455,0.331140,-0.632376,0.482594,-0.034653,-0.042957,0.135276,-0.291107
-0.050000,-0.050000,0.000000,0.000000,0.000000,0.000000,0.000000,0.000000,0.000000,0.100000,0.100000,-0.281172,-0.269614,-0.050000,-0.050000,0.381743,-0.459629,0.000000,0.000000,-0.311225,0.313439,0.329174,0.335780,-0.611870,0.468879,-0.030222,-0.037031,0.119140,-0.280344
-0.050000,-0.050000,0.000000,0.000000,0.000000,0.000000,0.000000,0.000000,0.000000,0.100000,0.100000,-0.286458,-0.265428,-0.050000,-0.050000,0.385148,-0.460674,0.000000,0.000000,-0.325061,0.321869,0.329810,0.340902,-0.589439,0.454887,-0.025974,-0.031396,0.101927,-0.268376
-0.050000,-0.050000,0.000000,0.000000,0.000000,0.000000,0.000000,0.000000,0.000000,0.100000,0.100000,-0.291119,-0.262882,-0.050000,-0.050000,0.389391,-0.461231,0.000000,0.000000,-0.340772,0.331859,0.330549,0.347099,-0.562421,0.440446,-0.021742,-0.025953,0.082628,-0.253790
-0.050000,-0.050000,0.000000,0.000000,0.000000,0.000000,0.000000,0.000000,0.000000,0.100000,0.100000,-0.295388,-0.261237,-0.050000,-0.050000,0.393875,-0.461484,0.000000,0.000000,-0.356809,0.342274,0.331588,0.354245,-0.533495,0.425882,-0.018062,-0.020926,0.062552,-0.238079
-0.050000,-0.050000,0.000000,0.000000,0.000000,0.000000,0.000000,0.000000,0.000000,0.100000,0.100000,-0.299069,-0.260904,-0.050000,-0.050000,0.398885,-0.461528,0.000000,0.000000,-0.373648,0.353467,0.333155,0.362434,-0.501875,0.411152,-0.014947,-0.016268,0.041521,-0.220868
-0.050000,-0.050000,0.000000,0.000000,0.000000,0.000000,0.000000,0.000000,0.000000,0.100000,0.100000,-0.302020,-0.261935,-0.050000,-0.050000,0.404266,-0.461579,0.000000,0.000000,-0.390645,0.364891,0.335847,0.371622,-0.468327,0.396484,-0.012620,-0.012128,0.020311,-0.202700
-0.050000,-0.050000,0.000000,0.000000,0.000000,0.000000,0.000000,0.000000,0.000000,0.100000,0.100000,-0.304688,-0.263803,-0.050000,-0.050000,0.409739,-0.461562,0.000000,0.000000,-0.407696,0.376502,0.339188,0.381494,-0.433754,0.381859,-0.011215,-0.008484,-0.001038,-0.183983
-0.050000,-0.050000,0.000000,0.000000,0.000000,0.000000,0.000000,0.000000,0.000000,0.100000,0.100000,-0.306243,-0.267253,-0.050000,-0.050000,0.415356,-0.462116,0.000000,0.000000,-0.423888,0.387275,0.345010,0.391801,-0.398565,0.367824,-0.010739,-0.005696,-0.020970,-0.165429
-0.050000,-0.050000,0.000000,0.000000,0.000000,0.000000,0.000000,0.000000,0.000000,0.100000,0.100000,-0.307583,-0.271365,-0.050000,-0.050000,0.420648,-0.462952,0.000000,0.000000,-0.439389,0.397468,0.352147,0.402115,-0.363762,0.354282,-0.011296,-0.003623,-0.039861,-0.147403
-0.050000,-0.050000,0.000000,0.000000,0.000000,0.000000,0.000000,0.000000,0.000000,0.100000,0.100000,-0.308273,-0.276337,-0.050000,-0.050000,0.425556,-0.464464,0.000000,0.000000,-0.453559,0.406304,0.361542,0.411978,-0.329971,0.341598,-0.012712,-0.002473,-0.056710,-0.130615
-0.050000,-0.050000,0.000000,0.000000,0.000000,0.000000,0.000000,0.000000,0.000000,0.100000,0.100000,-0.308378,-0.281945,-0.050000,-0.050000,0.429664,-0.466859,0.000000,0.000000,-0.465744,0.413019,0.373568,0.420591,-0.298352,0.330241,-0.014894,-0.002545,-0.070612,-0.116191
-0.050000,-0.050000,0.000000,0.000000,0.000000,0.000000,0.000000,0.000000,0.000000,0.100000,0.100000,-0.308380,-0.287822,-0.050000,-0.050000,0.433190,-0.469868,0.000000,0.000000,-0.477024,0.418716,0.387127,0.428323,-0.268017,0.319689,-0.017725,-0.003225,-0.082761,-0.103192
-0.050000,-0.050000,0.000000,0.000000,0.000000,0.000000,0.000000,0.000000,0.000000,0.100000,0.100000,-0.307441,-0.294219,-0.050000,-0.050000,0.435243,-0.474251,0.000000,0.000000,-0.484683,0.420257,0.404533,0.433159,-0.241941,0.311532,-0.020819,-0.005916,-0.089871,-0.095162
-0.050000,-0.050000,0.000000,0.000000,0.000000,0.000000,0.000000,0.000000,0.000000,0.100000,0.100000,-0.306668,-0.300544,-0.050000,-0.050000,0.436413,-0.479425,0.000000,0.000000,-0.491293,0.420362,0.423536,0.436210,-0.217791,0.304516,-0.024241,-0.009281,-0.094670,-0.089716
-0.050000,-0.050000,0.000000,0.000000,0.000000,0.000000,0.000000,0.000000,0.000000,0.100000,0.100000,-0.305542,-0.306941,-0.050000,-0.050000,0.436325,-0.485591,0.000000,0.000000,-0.495452,0.417348,0.445093,0.436612,-0.196834,0.299319,-0.027625,-0.014036,-0.095757,-0.088606
-0.050000,-0.050000,0.000000,0.000000,0.000000,0.000000,0.000000,0.000000,0.000000,0.100000,0.100000,-0.304402,-0.313228,-0.050000,-0.050000,0.435009,-0.492596,0.000000,0.000000,-0.497493,0.411352,0.468797,0.434182,-0.178838,0.295835,-0.030830,-0.020120,-0.093302,-0.092270
-0.050000,-0.050000,0.000000,0.000000,0.000000,0.000000,0.000000,0.000000,0.000000,0.100000,0.100000,-0.303472,-0.319272,-0.050000,-0.050000,0.432905,-0.500194,0.000000,0.000000,-0.498542,0.403783,0.493775,0.429876,-0.162543,0.293264,-0.033898,-0.026773,-0.088774,-0.098804
-0.050000,-0.050000,0.000000,0.000000,0.000000,0.000000,0.000000,0.000000,0.000000,0.100000,0.100000,-0.302657,-0.325145,-0.050000,-0.050000,0.429571,-0.508290,0.000000,0.000000,-0.496944,0.392233,0.520718,0.422340,-0.149478,0.292488,-0.036338,-0.035155,-0.080207,-0.111800
-0.050000,-0.050000,0.000000,0.000000,0.000000,0.000000,0.000000,0.000000,0.000000,0.100000,0.100000,-0.302467,-0.330565,-0.050000,-0.050000,0.425824,-0.516594,0.000000,0.000000,-0.494942,0.379622,0.548137,0.413302,-0.137470,0.292059,-0.038463,-0.043756,-0.070214,-0.127420
-0.050000,-0.050000,0.000000,0.000000,0.000000,0.000000,0.000000,0.000000,0.000000,0.100000,0.100000,-0.302795,-0.335623,-0.050000,-0.050000,0.421644,-0.524859,0.000000,0.000000,-0.491740,0.364873,0.576047,0.402580,-0.127010,0.292193,-0.040009,-0.053032,-0.058196,-0.146927
-0.050000,-0.050000,0.000000,0.000000,0.000000,0.000000,0.000000,0.000000,0.000000,0.100000,0.100000,-0.304063,-0.340088,-0.050000,-0.050000,0.417562,-0.532807,0.000000,0.000000,-0.487963,0.348905,0.603484,0.390952,-0.117534,0.292335,-0.041015,-0.062364,-0.044950,-0.169187
-0.050000,-0.050000,0.000000,0.000000,0.000000,0.000000,0.000000,0.000000,0.000000,0.100000,0.100000,-0.305888,-0.344152,-0.050000,-0.050000,0.413635,-0.540457,0.000000,0.000000,-0.483898,0.332190,0.630514,0.378737,-0.108680,0.292255,-0.041508,-0.071644,-0.031062,-0.193072
-0.050000,-0.050000,0.000000,0.000000,0.000000,0.000000,0.000000,0.000000,0.000000,0.100000,0.100000,-0.309401,-0.347160,-0.050000,-0.050000,0.410757,-0.547307,0.000000,0.000000,-0.479452,0.315071,0.655283,0.366916,-0.100723,0.291693,-0.041525,-0.080118,-0.016648,-0.218339
-0.050000,-0.050000,0.000000,0.000000,0.000000,0.000000,0.000000,0.000000,0.000000,0.100000,0.100000,-0.313683,-0.349614,-0.050000,-0.050000,0.408767,-0.553633,0.000000,0.000000,-0.475036,0.298086,0.678440,0.355439,-0.093320,0.290571,-0.041049,-0.087894,-0.002360,-0.243530
-0.050000,-0.050000,0.000000,0.000000,0.000000,0.000000,0.000000,0.000000,0.000000,0.100000,0.100000,-0.319431,-0.351059,-0.050000,-0.050000,0.408213,-0.559255,0.000000,0.000000,-0.470590,0.281717,0.698814,0.345053,-0.086708,0.288826,-0.040292,-0.094428,0.011645,-0.267937
-0.050000,-0.050000,0.000000,0.000000,0.000000,0.000000,0.000000,0.000000,0.000000,0.100000,0.100000,-0.326777,-0.351384,-0.050000,-0.050000,0.409476,-0.564258,0.000000,0.000000,-0.466200,0.266639,0.715728,0.336117,-0.081217,0.286482,-0.039428,-0.099420,0.025056,-0.290221
-0.050000,-0.050000,0.000000,0.000000,0.000000,0.000000,0.000000,0.000000,0.000000,0.100000,0.100000,-0.334859,-0.351165,-0.050000,-0.050000,0.412069,-0.568792,0.000000,0.000000,-0.461814,0.252238,0.730277,0.328132,-0.076559,0.283802,-0.038244,-0.103478,0.037979,-0.311067
-0.050000,-0.050000,0.000000,0.000000,0.000000,0.000000,0.000000,0.000000,0.000000,0.100000,0.100000,-0.345666,-0.349113,-0.050000,-0.050000,0.417361,-0.572844,0.000000,0.000000,-0.457465,0.240744,0.739353,0.322406,-0.074009,0.280670,-0.037690,-0.105253,0.050050,-0.327253
-0.050000,-0.050000,0.000000,0.000000,0.000000,0.000000,0.000000,0.000000,0.000000,0.100000,0.100000,-0.357080,-0.346703,-0.050000,-0.050000,0.424193,-0.576620,0.000000,0.000000,-0.453030,0.230272,0.745609,0.317588,-0.072808,0.277551,-0.036982,-0.106261,0.061586,-0.341074
-0.050000,-0.050000,0.000000,0.000000,0.000000,0.000000,0.000000,0.000000,0.000000,0.100000,0.100000,-0.370361,-0.343168,-0.050000,-0.050000,0.433082,-0.580185,0.000000,0.000000,-0.448503,0.222194,0.747513,0.314141,-0.073590,0.274429,-0.036872,-0.105940,0.072584,-0.350929
-0.050000,-0.050000,0.000000,0.000000,0.000000,0.000000,0.000000,0.000000,0.000000,0.100000,0.100000,-0.385086,-0.339008,-0.050000,-0.050000,0.443746,-0.583635,0.000000,0.000000,-0.443751,0.216215,0.745359,0.311421,-0.076418,0.271577,-0.037387,-0.104894,0.083259,-0.357156
-0.050000,-0.050000,0.000000,0.000000,0.000000,0.000000,0.000000,0.000000,0.000000,0.100000,0.100000,-0.400503,-0.334585,-0.050000,-0.050000,0.455617,-0.587007,0.000000,0.000000,-0.438854,0.211499,0.740502,0.309207,-0.080595,0.268984,-0.038156,-0.103470,0.093693,-0.361057
-0.050000,-0.050000,0.000000,0.000000,0.000000,0.000000,0.000000,0.000000,0.000000,0.100000,0.100000,-0.417933,-0.329758,-0.050000,-0.050000,0.469003,-0.590283,0.000000,0.000000,-0.433494,0.209520,0.730631,0.306700,-0.087093,0.266988,-0.040400,-0.101965,0.104299,-0.361045
-0.050000,-0.050000,0.000000,0.000000,0.000000,0.000000,0.000000,0.000000,0.000000,0.100000,0.100000,-0.435518,-0.325260,-0.050000,-0.050000,0.483017,-0.593485,0.000000,0.000000,-0.427844,0.208286,0.718489,0.303854,-0.094498,0.265450,-0.042973,-0.100769,0.115005,-0.359718
-0.050000,-0.050000,0.000000,0.000000,0.000000,0.000000,0.000000,0.000000,0.000000,0.100000,0.100000,-0.453999,-0.321130,-0.050000,-0.050000,0.497494,-0.596500,0.000000,0.000000,-0.421719,0.208491,0.702953,0.299910,-0.102952,0.264519,-0.046681,-0.100220,0.126161,-0.356720
-0.050000,-0.050000,0.000000,0.000000,0.000000,0.000000,0.000000,0.000000,0.000000,0.100000,0.100000,-0.472634,-0.317900,-0.050000,-0.050000,0.511859,-0.599202,0.000000,0.000000,-0.415053,0.209317,0.684580,0.294358,-0.111689,0.264196,-0.051346,-0.100719,0.137935,-0.353340
-0.050000,-0.050000,0.000000,0.000000,0.000000,0.000000,0.000000,0.000000,0.000000,0.100000,0.100000,-0.491224,-0.315222,-0.050000,-0.050000,0.526073,-0.601715,0.000000,0.000000,-0.407970,0.210575,0.664303,0.287737,-0.120392,0.264248,-0.056611,-0.101856,0.150143,-0.349833
-0.050000,-0.050000,0.000000,0.000000,0.000000,0.000000,0.000000,0.000000,0.000000,0.100000,0.100000,-0.509378,-0.314405,-0.050000,-0.050000,0.539041,-0.603420,0.000000,0.000000,-0.400037,0.211694,0.640642,0.278076,-0.128167,0.264908,-0.063285,-0.104914,0.163477,-0.347695
-0.050000,-0.050000,0.000000,0.000000,0.000000,0.000000,0.000000,0.000000,0.000000,0.100000,0.100000,-0.526753,-0.314335,-0.050000,-0.050000,0.551250,-0.604763,0.000000,0.000000,-0.391518,0.212608,0.615375,0.267071,-0.134899,0.265649,-0.070361,-0.108658,0.177392,-0.346679
-0.050000,-0.050000,0.000000,0.000000,0.000000,0.000000,0.000000,0.000000,0.000000,0.100000,0.100000,-0.542991,-0.315859,-0.050000,-0.050000,0.561871,-0.605257,0.000000,0.000000,-0.382161,0.212806,0.587727,0.253624,-0.139934,0.266483,-0.078264,-0.113828,0.192222,-0.347824
-0.050000,-0.050000,0.000000,0.000000,0.000000,0.000000,0.000000,0.000000,0.000000,0.100000,0.100000,-0.557604,-0.318718,-0.050000,-0.050000,0.570742,-0.604876,0.000000,0.000000,-0.371911,0.212041,0.558073,0.238179,-0.142901,0.267006,-0.086625,-0.120042,0.207887,-0.351527
-0.050000,-0.050000,0.000000,0.000000,0.000000,0.000000,0.000000,0.000000,0.000000,0.100000,0.100000,-0.570937,-0.322335,-0.050000,-0.050000,0.578332,-0.603876,0.000000,0.000000,-0.360865,0.210705,0.526928,0.221346,-0.144157,0.267151,-0.095192,-0.126855,0.224107,-0.357016
-0.050000,-0.050000,0.000000,0.000000,0.000000,0.000000,0.000000,0.000000,0.000000,0.100000,0.100000,-0.581520,-0.327682,-0.050000,-0.050000,0.583175,-0.601445,0.000000,0.000000,-0.348621,0.207588,0.493702,0.202412,-0.142623,0.266384,-0.104000,-0.134764,0.241235,-0.366331
-0.050000,-0.050000,0.000000,0.000000,0.000000,0.000000,0.000000,0.000000,0.000000,0.100000,0.100000,-0.590443,-0.333303,-0.050000,-0.050000,0.586689,-0.598373,0.000000,0.000000,-0.335486,0.203954,0.459321,0.182682,-0.139303,0.264752,-0.112579,-0.142764,0.258735,-0.377420
-0.050000,-0.050000,0.000000,0.000000,0.000000,0.000000,0.000000,0.000000,0.000000,0.100000,0.100000,-0.596839,-0.339730,-0.050000,-0.050000,0.588033,-0.594165,0.000000,0.000000,-0.321290,0.199065,0.423792,0.161996,-0.133909,0.262001,-0.120871,-0.151054,0.276643,-0.391222
-0.050000,-0.050000,0.000000,0.000000,0.000000,0.000000,0.000000,0.000000,0.000000,0.100000,0.100000,-0.600908,-0.346318,-0.050000,-0.050000,0.587650,-0.589050,0.000000,0.000000,-0.306196,0.193398,0.387698,0.141065,-0.126906,0.258078,-0.128569,-0.159125,0.294658,-0.406980
-0.050000,-0.050000,0.000000,0.000000,0.000000,0.000000,0.000000,0.000000,0.000000,0.100000,0.100000,-0.603262,-0.352927,-0.050000,-0.050000,0.585971,-0.583252,0.000000,0.000000,-0.290362,0.187268,0.351117,0.119947,-0.118683,0.253211,-0.135769,-0.166971,0.312634,-0.424050
-0.050000,-0.050000,0.000000,0.000000,0.000000,0.000000,0.000000,0.000000,0.000000,0.100000,0.100000,-0.602907,-0.359199,-0.050000,-0.050000,0.582615,-0.576491,0.000000,0.000000,-0.273990,0.180453,0.315366,0.099665,-0.109604,0.247228,-0.141811,-0.174011,0.330144,-0.442516
-0.050000,-0.050000,0.000000,0.000000,0.000000,0.000000,0.000000,0.000000,0.000000,0.100000,0.100000,-0.601352,-0.364991,-0.050000,-0.050000,0.578534,-0.569294,0.000000,0.000000,-0.257391,0.173700,0.280036,0.079909,-0.100100,0.240622,-0.147167,-0.180481,0.347130,-0.461281
-0.050000,-0.050000,0.000000,0.000000,0.000000,0.000000,0.000000,0.000000,0.000000,0.100000,0.100000,-0.598179,-0.369978,-0.050000,-0.050000,0.573733,-0.561591,0.000000,0.000000,-0.240939,0.166969,0.246395,0.061533,-0.090698,0.233563,-0.151335,-0.185960,0.363168,-0.480032
-0.050000,-0.050000,0.000000,0.000000,0.000000,0.000000,0.000000,0.000000,0.000000,0.100000,0.100000,-0.594153,-0.373926,-0.050000,-0.050000,0.568824,-0.553648,0.000000,0.000000,-0.225191,0.160738,0.214964,0.044819,-0.081922,0.226534,-0.154322,-0.190411,0.377927,-0.497939
-0.050000,-0.050000,0.000000,0.000000,0.000000,0.000000,0.000000,0.000000,0.000000,0.100000,0.100000,-0.589732,-0.377164,-0.050000,-0.050000,0.563853,-0.545518,0.000000,0.000000,-0.210064,0.154848,0.185345,0.029365,-0.073793,0.219658,-0.156588,-0.194197,0.391672,-0.515096
-0.050000,-0.050000,0.000000,0.000000,0.000000,0.000000,0.000000,0.000000,0.000000,0.100000,0.100000,-0.585163,-0.378613,-0.050000,-0.050000,0.559785,-0.537509,0.000000,0.000000,-0.197112,0.150246,0.160153,0.016926,-0.067528,0.213825,-0.156953,-0.196419,0.403120,-0.529871
-0.050000,-0.050000,0.000000,0.000000,0.000000,0.000000,0.000000,0.000000,0.000000,0.100000,0.100000,-0.581257,-0.379334,-0.050000,-0.050000,0.556257,-0.529526,0.000000,0.000000,-0.185592,0.146258,0.137720,0.006089,-0.062702,0.208924,-0.156756,-0.198136,0.413231,-0.543115
-0.050000,-0.050000,0.000000,0.000000,0.000000,0.000000,0.000000,0.000000,0.000000,0.100000,0.100000,-0.578243,-0.378575,-0.050000,-0.050000,0.553977,-0.521839,0.000000,0.000000,-0.176726,0.143611,0.119779,-0.001979,-0.060105,0.205603,-0.155136,-0.198722,0.421107,-0.553741
-0.050000,-0.050000,0.000000,0.000000,0.000000,0.000000,0.000000,0.000000,0.000000,0.100000,0.100000,-0.576752,-0.376690,-0.050000,-0.050000,0.552881,-0.514445,0.000000,0.000000,-0.170669,0.142207,0.106247,-0.007578,-0.059963,0.204133,-0.152493,-0.198524,0.426832,-0.561801
-0.050000,-0.050000,0.000000,0.000000,0.000000,0.000000,0.000000,0.000000,0.000000,0.100000,0.100000,-0.576806,-0.374081,-0.050000,-0.050000,0.552753,-0.507296,0.000000,0.000000,-0.166843,0.141562,0.096408,-0.011252,-0.061871,0.204219,-0.149343,-0.197905,0.430999,-0.567870
-0.050000,-0.050000,0.000000,0.000000,0.000000,0.000000,0.000000,0.000000,0.000000,0.100000,0.100000,-0.579176,-0.370055,-0.050000,-0.050000,0.553993,-0.500662,0.000000,0.000000,-0.167317,0.142884,0.092269,-0.011817,-0.067200,0.206958,-0.144705,-0.196224,0.432075,-0.570573
-0.050000,-0.050000,0.000000,0.000000,0.000000,0.000000,0.000000,0.000000,0.000000,0.100000,0.100000,-0.583674,-0.365729,-0.050000,-0.050000,0.555838,-0.494296,0.000000,0.000000,-0.170063,0.144688,0.091832,-0.010778,-0.074784,0.211392,-0.139998,-0.194455,0.431694,-0.571522
-0.050000,-0.050000,0.000000,0.000000,0.000000,0.000000,0.000000,0.000000,0.000000,0.100000,0.100000,-0.590561,-0.360686,-0.050000,-0.050000,0.558215,-0.488366,0.000000,0.000000,-0.176428,0.147802,0.096003,-0.007526,-0.085316,0.218025,-0.134565,-0.192159,0.428836,-0.570019
-0.050000,-0.050000,0.000000,0.000000,0.000000,0.000000,0.000000,0.000000,0.000000,0.100000,0.100000,-0.599751,-0.355465,-0.050000,-0.050000,0.560476,-0.482817,0.000000,0.000000,-0.185596,0.151575,0.104000,-0.002724,-0.098404,0.226457,-0.129001,-0.189771,0.424019,-0.566764
-0.050000,-0.050000,0.000000,0.000000,0.000000,0.000000,0.000000,0.000000,0.000000,0.100000,0.100000,-0.610897,-0.350176,-0.050000,-0.050000,0.562512,-0.477635,0.000000,0.000000,-0.196907,0.155702,0.115045,0.003278,-0.113409,0.236243,-0.123478,-0.187371,0.417741,-0.562220
-0.050000,-0.050000,0.000000,0.000000,0.000000,0.000000,0.000000,0.000000,0.000000,0.100000,0.100000,-0.623940,-0.345077,-0.050000,-0.050000,0.563149,-0.472931,0.000000,0.000000,-0.211010,0.160345,0.129375,0.010454,-0.130937,0.247600,-0.117955,-0.185103,0.409173,-0.556305
-0.050000,-0.050000,0.000000,0.000000,0.000000,0.000000,0.000000,0.000000,0.000000,0.100000,0.100000,-0.638339,-0.340294,-0.050000,-0.050000,0.562813,-0.468696,0.000000,0.000000,-0.226205,0.164736,0.145688,0.018262,-0.149676,0.259747,-0.112860,-0.183151,0.399616,-0.549840
-0.050000,-0.050000,0.000000,0.000000,0.000000,0.000000,0.000000,0.000000,0.000000,0.100000,0.100000,-0.653603,-0.336108,-0.050000,-0.050000,0.560519,-0.464984,0.000000,0.000000,-0.242648,0.168840,0.163706,0.026546,-0.169794,0.272662,-0.108205,-0.181697,0.388660,-0.542968
-0.050000,-0.050000,0.000000,0.000000,0.000000,0.000000,0.000000,0.000000,0.000000,0.100000,0.100000,-0.669141,-0.332650,-0.050000,-0.050000,0.556337,-0.461902,0.000000,0.000000,-0.259267,0.172158,0.182604,0.035058,-0.190584,0.285952,-0.104234,-0.180901,0.376972,-0.536209
-0.050000,-0.050000,0.000000,0.000000,0.000000,0.000000,0.000000,0.000000,0.000000,0.100000,0.100000,-0.684661,-0.329762,-0.050000,-0.050000,0.550546,-0.459381,0.000000,0.000000,-0.275844,0.174876,0.201968,0.043751,-0.211713,0.299479,-0.100729,-0.180629,0.364749,-0.529585
-0.050000,-0.050000,0.000000,0.000000,0.000000,0.000000,0.000000,0.000000,0.000000,0.100000,0.100000,-0.699079,-0.328160,-0.050000,-0.050000,0.542296,-0.457728,0.000000,0.000000,-0.291243,0.175915,0.220994,0.052333,-0.232965,0.313045,-0.098324,-0.181427,0.352437,-0.523920
-0.050000,-0.050000,0.000000,0.000000,0.000000,0.000000,0.000000,0.000000,0.000000,0.100000,0.100000,-0.712632,-0.327157,-0.050000,-0.050000,0.532768,-0.456789,0.000000,0.000000,-0.305686,0.176162,0.239542,0.061030,-0.253961,0.326636,-0.096388,-0.182757,0.340195,-0.518773
-0.050000,-0.050000,0.000000,0.000000,0.000000,0.000000,0.000000,0.000000,0.000000,0.100000,0.100000,-0.724461,-0.327342,-0.050000,-0.050000,0.521570,-0.456776,0.000000,0.000000,-0.318233,0.174688,0.257037,0.069627,-0.274639,0.340173,-0.095403,-0.184986,0.328513,-0.514806
-0.050000,-0.050000,0.000000,0.000000,0.000000,0.000000,0.000000,0.000000,0.000000,0.100000,0.100000,-0.734545,-0.328456,-0.050000,-0.050000,0.509414,-0.457712,0.000000,0.000000,-0.328892,0.171848,0.273266,0.078236,-0.294861,0.353693,-0.095115,-0.187827,0.317596,-0.511888
-0.050000,-0.050000,0.000000,0.000000,0.000000,0.000000,0.000000,0.000000,0.000000,0.100000,0.100000,-0.743071,-0.330315,-0.050000,-0.050000,0.496558,-0.459419,0.000000,0.000000,-0.337981,0.168035,0.288294,0.086866,-0.314682,0.367230,-0.095265,-0.191138,0.307318,-0.509774
-0.050000,-0.050000,0.000000,0.000000,0.000000,0.000000,0.000000,0.000000,0.000000,0.100000,0.100000,-0.749254,-0.333436,-0.050000,-0.050000,0.483493,-0.462373,0.000000,0.000000,-0.344355,0.162221,0.301502,0.095311,-0.334089,0.380778,-0.096408,-0.195025,0.298567,-0.509171
-0.050000,-0.050000,0.000000,0.000000,0.000000,0.000000,0.000000,0.000000,0.000000,0.100000,0.100000,-0.753980,-0.337123,-0.050000,-0.050000,0.470445,-0.466044,0.000000,0.000000,-0.349407,0.155866,0.313290,0.103698,-0.353148,0.394381,-0.097778,-0.199100,0.290552,-0.509163
-0.050000,-0.050000,0.000000,0.000000,0.000000,0.000000,0.000000,0.000000,0.000000,0.100000,0.100000,-0.756786,-0.341781,-0.050000,-0.050000,0.457991,-0.470788,0.000000,0.000000,-0.352262,0.148134,0.323311,0.111697,-0.371931,0.407989,-0.099847,-0.203446,0.283947,-0.510240
-0.050000,-0.050000,0.000000,0.000000,0.000000,0.000000,0.000000,0.000000,0.000000,0.100000,0.100000,-0.758087,-0.347105,-0.050000,-0.050000,0.446402,-0.476346,0.000000,0.000000,-0.353588,0.139761,0.331591,0.119147,-0.390429,0.421525,-0.102342,-0.207881,0.278408,-0.511939
-0.050000,-0.050000,0.000000,0.000000,0.000000,0.000000,0.000000,0.000000,0.000000,0.100000,0.100000,-0.758139,-0.352936,-0.050000,-0.050000,0.435595,-0.482503,0.000000,0.000000,-0.353687,0.130944,0.338395,0.126082,-0.408715,0.434984,-0.105121,-0.212351,0.273713,-0.514112
-0.050000,-0.050000,0.000000,0.000000,0.000000,0.000000,0.000000,0.000000,0.000000,0.100000,0.100000,-0.756732,-0.359517,-0.050000,-0.050000,0.426690,-0.489551,0.000000,0.000000,-0.352022,0.121514,0.343046,0.131586,-0.426524,0.447981,-0.108684,-0.216938,0.270329,-0.516789
-0.050000,-0.050000,0.000000,0.000000,0.000000,0.000000,0.000000,0.000000,0.000000,0.100000,0.100000,-0.754342,-0.366341,-0.050000,-0.050000,0.418789,-0.496839,0.000000,0.000000,-0.349551,0.112148,0.346192,0.136194,-0.443967,0.460636,-0.112443,-0.221466,0.267507,-0.519626
-0.050000,-0.050000,0.000000,0.000000,0.000000,0.000000,0.000000,0.000000,0.000000,0.100000,0.100000,-0.750857,-0.373610,-0.050000,-0.050000,0.412882,-0.504598,0.000000,0.000000,-0.345773,0.102725,0.347336,0.139020,-0.460624,0.472492,-0.116888,-0.226118,0.265591,-0.522578
-0.050000,-0.050000,0.000000,0.000000,0.000000,0.000000,0.000000,0.000000,0.000000,0.100000,0.100000,-0.746414,-0.381031,-0.050000,-0.050000,0.408593,-0.512406,0.000000,0.000000,-0.341089,0.093604,0.346743,0.140192,-0.476302,0.483432,-0.121778,-0.230827,0.264221,-0.525476
-0.050000,-0.050000,0.000000,0.000000,0.000000,0.000000,0.000000,0.000000,0.000000,0.100000,0.100000,-0.741124,-0.388510,-0.050000,-0.050000,0.405653,-0.520156,0.000000,0.000000,-0.335629,0.084777,0.344695,0.139902,-0.491095,0.493512,-0.127017,-0.235558,0.263274,-0.528351
-0.050000,-0.050000,0.000000,0.000000,0.000000,0.000000,0.000000,0.000000,0.000000,0.100000,0.100000,-0.734811,-0.396004,-0.050000,-0.050000,0.404960,-0.527734,0.000000,0.000000,-0.329130,0.076554,0.340886,0.137282,-0.503776,0.501911,-0.132912,-0.240549,0.262817,-0.530879
-0.050000,-0.050000,0.000000,0.000000,0.000000,0.000000,0.000000,0.000000,0.000000,0.100000,0.100000,-0.727609,-0.403265,-0.050000,-0.050000,0.405267,-0.534843,0.000000,0.000000,-0.322053,0.068775,0.336065,0.133384,-0.515149,0.509213,-0.138949,-0.245488,0.262562,-0.533375
-0.050000,-0.050000,0.000000,0.000000,0.000000,0.000000,0.000000,0.000000,0.000000,0.100000,0.100000,-0.719355,-0.410242,-0.050000,-0.050000,0.407357,-0.541462,0.000000,0.000000,-0.314226,0.061700,0.330281,0.127669,-0.523955,0.514693,-0.145288,-0.250585,0.262544,-0.535538
-0.050000,-0.050000,0.000000,0.000000,0.000000,0.000000,0.000000,0.000000,0.000000,0.100000,0.100000,-0.710001,-0.416727,-0.050000,-0.050000,0.410536,-0.547371,0.000000,0.000000,-0.305946,0.055236,0.324232,0.120868,-0.530354,0.518555,-0.151526,-0.255606,0.262611,-0.537580
-0.050000,-0.050000,0.000000,0.000000,0.000000,0.000000,0.000000,0.000000,0.000000,0.100000,0.100000,-0.699705,-0.422758,-0.050000,-0.050000,0.414556,-0.552633,0.000000,0.000000,-0.297295,0.049303,0.318069,0.113184,-0.534626,0.520996,-0.157659,-0.260549,0.262741,-0.539547
-0.050000,-0.050000,0.000000,0.000000,0.000000,0.000000,0.000000,0.000000,0.000000,0.100000,0.100000,-0.687915,-0.427928,-0.050000,-0.050000,0.419716,-0.557051,0.000000,0.000000,-0.288644,0.044167,0.313225,0.105270,-0.535120,0.521329,-0.162972,-0.265144,0.262759,-0.541359
-0.050000,-0.050000,0.000000,0.000000,0.000000,0.000000,0.000000,0.000000,0.000000,0.100000,0.100000,-0.675219,-0.432513,-0.050000,-0.050000,0.425098,-0.560737,0.000000,0.000000,-0.280033,0.039486,0.309288,0.097360,-0.533486,0.520432,-0.167763,-0.269417,0.262690,-0.543272
-0.050000,-0.050000,0.000000,0.000000,0.000000,0.000000,0.000000,0.000000,0.000000,0.100000,0.100000,-0.661033,-0.436112,-0.050000,-0.050000,0.431014,-0.563664,0.000000,0.000000,-0.272061,0.035533,0.308025,0.090433,-0.528217,0.517775,-0.171079,-0.272932,0.262278,-0.545222
-0.050000,-0.050000,0.000000,0.000000,0.000000,0.000000,0.000000,0.000000,0.000000,0.100000,0.100000,-0.645717,-0.438875,-0.050000,-0.050000,0.436861,-0.565908,0.000000,0.000000,-0.264993,0.032192,0.309661,0.084952,-0.520081,0.513877,-0.172898,-0.275559,0.261388,-0.547324
-0.050000,-0.050000,0.000000,0.000000,0.000000,0.000000,0.000000,0.000000,0.000000,0.100000,0.100000,-0.629537,-0.440960,-0.050000,-0.050000,0.442541,-0.567626,0.000000,0.000000,-0.258819,0.029368,0.314057,0.080909,-0.509491,0.508985,-0.173442,-0.277417,0.260016,-0.549540
-0.050000,-0.050000,0.000000,0.000000,0.000000,0.000000,0.000000,0.000000,0.000000,0.100000,0.100000,-0.611817,-0.441895,-0.050000,-0.050000,0.447845,-0.568850,0.000000,0.000000,-0.254990,0.027479,0.324101,0.080365,-0.495166,0.502970,-0.170935,-0.277351,0.257352,-0.551859
-0.050000,-0.050000,0.000000,0.000000,0.000000,0.000000,0.000000,0.000000,0.000000,0.100000,0.100000,-0.593813,-0.442433,-0.050000,-0.050000,0.452467,-0.569765,0.000000,0.000000,-0.252499,0.026083,0.337451,0.081845,-0.478875,0.496501,-0.167204,-0.276394,0.253789,-0.554149
-0.050000,-0.050000,0.000000,0.000000,0.000000,0.000000,0.000000,0.000000,0.000000,0.100000,0.100000,-0.574697,-0.442073,-0.050000,-0.050000,0.456271,-0.570507,0.000000,0.000000,-0.252976,0.025646,0.356993,0.087383,-0.459327,0.489472,-0.160339,-0.273244,0.248296,-0.556264
-0.050000,-0.050000,0.000000,0.000000,0.000000,0.000000,0.000000,0.000000,0.000000,0.100000,0.100000,-0.555360,-0.441320,-0.050000,-0.050000,0.458987,-0.571242,0.000000,0.000000,-0.255933,0.025931,0.381517,0.096112,-0.437403,0.482286,-0.151461,-0.268492,0.240884,-0.557949
-0.050000,-0.050000,0.000000,0.000000,0.000000,0.000000,0.000000,0.000000,0.000000,0.100000,0.100000,-0.535937,-0.440275,-0.050000,-0.050000,0.460576,-0.572048,0.000000,0.000000,-0.261176,0.026802,0.410585,0.107744,-0.413338,0.475055,-0.140994,-0.262330,0.231556,-0.559118
-0.050000,-0.050000,0.000000,0.000000,0.000000,0.000000,0.000000,0.000000,0.000000,0.100000,0.100000,-0.516096,-0.438743,-0.050000,-0.050000,0.460659,-0.573254,0.000000,0.000000,-0.270165,0.028619,0.446113,0.123192,-0.386237,0.467724,-0.127700,-0.253842,0.219005,-0.559208
-0.050000,-0.050000,0.000000,0.000000,0.000000,0.000000,0.000000,0.000000,0.000000,0.100000,0.100000,-0.496816,-0.437221,-0.050000,-0.050000,0.459298,-0.574736,0.000000,0.000000,-0.280913,0.030675,0.485158,0.140485,-0.357391,0.460483,-0.114000,-0.244533,0.204461,-0.558444
-0.050000,-0.050000,0.000000,0.000000,0.000000,0.000000,0.000000,0.000000,0.000000,0.100000,0.100000,-0.477448,-0.435410,-0.050000,-0.050000,0.456218,-0.576892,0.000000,0.000000,-0.294795,0.033249,0.529278,0.159953,-0.325885,0.453008,-0.098738,-0.233679,0.186740,-0.556307
-0.050000,-0.050000,0.000000,0.000000,0.000000,0.000000,0.000000,0.000000,0.000000,0.100000,0.100000,-0.458568,-0.433528,-0.050000,-0.050000,0.451442,-0.579681,0.000000,0.000000,-0.310320,0.035742,0.576434,0.179915,-0.292572,0.445236,-0.083605,-0.222448,0.166860,-0.553080
-0.050000,-0.050000,0.000000,0.000000,0.000000,0.000000,0.000000,0.000000,0.000000,0.100000,0.100000,-0.439936,-0.431441,-0.050000,-0.050000,0.445019,-0.583048,0.000000,0.000000,-0.327227,0.038089,0.626073,0.199975,-0.257513,0.437061,-0.068896,-0.210937,0.145062,-0.548906
-0.050000,-0.050000,0.000000,0.000000,0.000000,0.000000,0.000000,0.000000,0.000000,0.100000,0.100000,-0.421478,-0.429198,-0.050000,-0.050000,0.436918,-0.587524,0.000000,0.000000,-0.345140,0.039742,0.677457,0.217981,-0.221163,0.427852,-0.055101,-0.200260,0.121749,-0.543956
-0.050000,-0.050000,0.000000,0.000000,0.000000,0.000000,0.000000,0.000000,0.000000,0.100000,0.100000,-0.403209,-0.426548,-0.050000,-0.050000,0.427396,-0.592479,0.000000,0.000000,-0.363125,0.040732,0.729435,0.234357,-0.183952,0.417966,-0.042836,-0.190238,0.097813,-0.538797
-0.050000,-0.050000,0.000000,0.000000,0.000000,0.000000,0.000000,0.000000,0.000000,0.100000,0.100000,-0.384997,-0.423717,-0.050000,-0.050000,0.416634,-0.598531,0.000000,0.000000,-0.380652,0.040387,0.780961,0.246586,-0.146807,0.406800,-0.032524,-0.182368,0.074086,-0.533961
-0.050000,-0.050000,0.000000,0.000000,0.000000,0.000000,0.000000,0.000000,0.000000,0.100000,0.100000,-0.366831,-0.420489,-0.050000,-0.050000,0.404963,-0.605186,0.000000,0.000000,-0.397094,0.038728,0.831118,0.254952,-0.110335,0.394688,-0.024330,-0.176508,0.051371,-0.530093
-0.050000,-0.050000,0.000000,0.000000,0.000000,0.000000,0.000000,0.000000,0.000000,0.100000,0.100000,-0.348541,-0.416869,-0.050000,-0.050000,0.392631,-0.612373,0.000000,0.000000,-0.412445,0.035844,0.879688,0.259505,-0.074723,0.381694,-0.018000,-0.172556,0.029870,-0.527338
-0.050000,-0.050000,0.000000,0.000000,0.000000,0.000000,0.000000,0.000000,0.000000,0.100000,0.100000,-0.330556,-0.413400,-0.050000,-0.050000,0.380145,-0.620280,0.000000,0.000000,-0.425376,0.030848,0.924524,0.258124,-0.042050,0.368017,-0.014227,-0.172257,0.011402,-0.527153
-0.050000,-0.050000,0.000000,0.000000,0.000000,0.000000,0.000000,0.000000,0.000000,0.100000,0.100000,-0.312396,-0.409520,-0.050000,-0.050000,0.367601,-0.628276,0.000000,0.000000,-0.437141,0.024860,0.967027,0.253546,-0.010954,0.353941,-0.011736,-0.173434,-0.005331,-0.528631
-0.050000,-0.050000,0.000000,0.000000,0.000000,0.000000,0.000000,0.000000,0.000000,0.100000,0.100000,-0.294817,-0.406185,-0.050000,-0.050000,0.355528,-0.636608,0.000000,0.000000,-0.446313,0.016888,1.004866,0.243815,0.016285,0.340025,-0.011300,-0.177959,-0.018461,-0.533302
-0.050000,-0.050000,0.000000,0.000000,0.000000,0.000000,0.000000,0.000000,0.000000,0.100000,0.100000,-0.277554,-0.403085,-0.050000,-0.050000,0.344054,-0.644833,0.000000,0.000000,-0.453987,0.007853,1.039024,0.231139,0.040691,0.326595,-0.011913,-0.184148,-0.029094,-0.540386
-0.050000,-0.050000,0.000000,0.000000,0.000000,0.000000,0.000000,0.000000,0.000000,0.100000,0.100000,-0.260695,-0.400461,-0.050000,-0.050000,0.333256,-0.652959,0.000000,0.000000,-0.460234,-0.002165,1.069647,0.215930,0.062337,0.313759,-0.013362,-0.191876,-0.037389,-0.549705
-0.050000,-0.050000,0.000000,0.000000,0.000000,0.000000,0.000000,0.000000,0.000000,0.100000,0.100000,-0.245121,-0.398966,-0.050000,-0.050000,0.323627,-0.660827,0.000000,0.000000,-0.464720,-0.013209,1.095203,0.198739,0.080133,0.302865,-0.015875,-0.201238,-0.042631,-0.561865
-0.050000,-0.050000,0.000000,0.000000,0.000000,0.000000,0.000000,0.000000,0.000000,0.100000,0.100000,-0.229944,-0.398100,-0.050000,-0.050000,0.314854,-0.668501,0.000000,0.000000,-0.468633,-0.024484,1.117956,0.180928,0.095965,0.292984,-0.018451,-0.211053,-0.046508,-0.575355
-0.050000,-0.050000,0.000000,0.000000,0.000000,0.000000,0.000000,0.000000,0.000000,0.100000,0.100000,-0.216452,-0.398525,-0.050000,-0.050000,0.307407,-0.675850,0.000000,0.000000,-0.471467,-0.036082,1.136112,0.163189,0.108683,0.285824,-0.021606,-0.221448,-0.048114,-0.590698
-0.050000,-0.050000,0.000000,0.000000,0.000000,0.000000,0.000000,0.000000,0.000000,0.100000,0.100000,-0.204024,-0.399896,-0.050000,-0.050000,0.301106,-0.683073,0.000000,0.000000,-0.474034,-0.047440,1.151253,0.146494,0.119574,0.280781,-0.024649,-0.231700,-0.048606,-0.606668
-0.050000,-0.050000,0.000000,0.000000,0.000000,0.000000,0.000000,0.000000,0.000000,0.100000,0.100000,-0.192768,-0.402273,-0.050000,-0.050000,0.295855,-0.690212,0.000000,0.000000,-0.476322,-0.058518,1.163594,0.131105,0.128830,0.277915,-0.027613,-0.241831,-0.048108,-0.623033
-0.050000,-0.050000,0.000000,0.000000,0.000000,0.000000,0.000000,0.000000,0.000000,0.100000,0.100000,-0.183654,-0.405373,-0.050000,-0.050000,0.292053,-0.697306,0.000000,0.000000,-0.478508,-0.068832,1.172576,0.118566,0.136326,0.278377,-0.030523,-0.251053,-0.046448,-0.639017
-0.050000,-0.050000,0.000000,0.000000,0.000000,0.000000,0.000000,0.000000,0.000000,0.100000,0.100000,-0.175450,-0.409317,-0.050000,-0.050000,0.289159,-0.704644,0.000000,0.000000,-0.480725,-0.078651,1.179753,0.107947,0.142838,0.280759,-0.033039,-0.259980,-0.044384,-0.654389
-0.050000,-0.050000,0.000000,0.000000,0.000000,0.000000,0.000000,0.000000,0.000000,0.100000,0.100000,-0.169637,-0.413355,-0.050000,-0.050000,0.287684,-0.712154,0.000000,0.000000,-0.482956,-0.087386,1.184192,0.100989,0.147967,0.286282,-0.035399,-0.267591,-0.041375,-0.668299
-0.050000,-0.050000,0.000000,0.000000,0.000000,0.000000,0.000000,0.000000,0.000000,0.100000,0.100000,-0.165280,-0.417629,-0.050000,-0.050000,0.287259,-0.720104,0.000000,0.000000,-0.485215,-0.095359,1.186931,0.096862,0.152064,0.293860,-0.037386,-0.274435,-0.037877,-0.680598
-0.050000,-0.050000,0.000000,0.000000,0.000000,0.000000,0.000000,0.000000,0.000000,0.100000,0.100000,-0.162484,-0.421907,-0.050000,-0.050000,0.287809,-0.728432,0.000000,0.000000,-0.487472,-0.102554,1.188080,0.095562,0.155192,0.303355,-0.039106,-0.280472,-0.033860,-0.691221
-0.050000,-0.050000,0.000000,0.000000,0.000000,0.000000,0.000000,0.000000,0.000000,0.100000,0.100000,-0.162112,-0.425179,-0.050000,-0.050000,0.289691,-0.737265,0.000000,0.000000,-0.489498,-0.108515,1.187282,0.098028,0.156862,0.314502,-0.040702,-0.284943,-0.028932,-0.699278
-0.050000,-0.050000,0.000000,0.000000,0.000000,0.000000,0.000000,0.000000,0.000000,0.100000,0.100000,-0.162806,-0.428456,-0.050000,-0.050000,0.292309,-0.746525,0.000000,0.000000,-0.491486,-0.114002,1.185445,0.102637,0.157608,0.326690,-0.042059,-0.288924,-0.023671,-0.705648
-0.050000,-0.050000,0.000000,0.000000,0.000000,0.000000,0.000000,0.000000,0.000000,0.100000,0.100000,-0.166022,-0.430126,-0.050000,-0.050000,0.296207,-0.756259,0.000000,0.000000,-0.492982,-0.118170,1.181785,0.110719,0.156677,0.339344,-0.043526,-0.291222,-0.017422,-0.709328
-0.050000,-0.050000,0.000000,0.000000,0.000000,0.000000,0.000000,0.000000,0.000000,0.100000,0.100000,-0.170658,-0.431154,-0.050000,-0.050000,0.300953,-0.766323,0.000000,0.000000,-0.494203,-0.121663,1.176932,0.120921,0.154451,0.351994,-0.045017,-0.292699,-0.010689,-0.711081
-0.050000,-0.050000,0.000000,0.000000,0.000000,0.000000,0.000000,0.000000,0.000000,0.100000,0.100000,-0.176825,-0.431238,-0.050000,-0.050000,0.306540,-0.776612,0.000000,0.000000,-0.495061,-0.124371,1.170863,0.133147,0.150947,0.364310,-0.046651,-0.293211,-0.003423,-0.711032
-0.050000,-0.050000,0.000000,0.000000,0.000000,0.000000,0.000000,0.000000,0.000000,0.100000,0.100000,-0.185151,-0.429734,-0.050000,-0.050000,0.313192,-0.787008,0.000000,0.000000,-0.495196,-0.125825,1.163072,0.147483,0.145702,0.375180,-0.048741,-0.292377,0.004533,-0.708880
-0.050000,-0.050000,0.000000,0.000000,0.000000,0.000000,0.000000,0.000000,0.000000,0.100000,0.100000,-0.194363,-0.427804,-0.050000,-0.050000,0.320463,-0.797284,0.000000,0.000000,-0.495114,-0.126839,1.154367,0.162788,0.139476,0.385218,-0.050985,-0.291001,0.012655,-0.705612
-0.050000,-0.050000,0.000000,0.000000,0.000000,0.000000,0.000000,0.000000,0.000000,0.100000,0.100000,-0.205644,-0.424343,-0.050000,-0.050000,0.328708,-0.807270,0.000000,0.000000,-0.494200,-0.126512,1.143838,0.179321,0.131650,0.393015,-0.053864,-0.288472,0.021231,-0.700702
-0.050000,-0.050000,0.000000,0.000000,0.000000,0.000000,0.000000,0.000000,0.000000,0.100000,0.100000,-0.217865,-0.420405,-0.050000,-0.050000,0.337585,-0.816692,0.000000,0.000000,-0.492920,-0.125595,1.132166,0.196083,0.122867,0.399213,-0.057044,-0.285498,0.029781,-0.694980
-0.050000,-0.050000,0.000000,0.000000,0.000000,0.000000,0.000000,0.000000,0.000000,0.100000,0.100000,-0.231129,-0.415783,-0.050000,-0.050000,0.347080,-0.825473,0.000000,0.000000,-0.491166,-0.123949,1.119275,0.212906,0.113199,0.403647,-0.060596,-0.282034,0.038322,-0.688550
-0.050000,-0.050000,0.000000,0.000000,0.000000,0.000000,0.000000,0.000000,0.000000,0.100000,0.100000,-0.245553,-0.410614,-0.050000,-0.050000,0.357135,-0.833133,0.000000,0.000000,-0.488807,-0.121460,1.104913,0.229045,0.102629,0.405927,-0.064586,-0.278418,0.046645,-0.681512
-0.050000,-0.050000,0.000000,0.000000,0.000000,0.000000,0.000000,0.000000,0.000000,0.100000,0.100000,-0.260291,-0.405204,-0.050000,-0.050000,0.367574,-0.839870,0.000000,0.000000,-0.486193,-0.118692,1.089782,0.244497,0.091641,0.406880,-0.068693,-0.274742,0.054683,-0.674391
-0.050000,-0.050000,0.000000,0.000000,0.000000,0.000000,0.000000,0.000000,0.000000,0.100000,0.100000,-0.275698,-0.399645,-0.050000,-0.050000,0.378215,-0.845030,0.000000,0.000000,-0.483072,-0.115393,1.073514,0.258380,0.080119,0.406083,-0.073043,-0.271523,0.062239,-0.667142
-0.050000,-0.050000,0.000000,0.000000,0.000000,0.000000,0.000000,0.000000,0.000000,0.100000,0.100000,-0.290985,-0.394080,-0.050000,-0.050000,0.388885,-0.848806,0.000000,0.000000,-0.479741,-0.112073,1.056825,0.270873,0.068441,0.404260,-0.077320,-0.268765,0.069294,-0.660205
-0.050000,-0.050000,0.000000,0.000000,0.000000,0.000000,0.000000,0.000000,0.000000,0.100000,0.100000,-0.306166,-0.388522,-0.050000,-0.050000,0.399442,-0.851169,0.000000,0.000000,-0.476201,-0.108729,1.039794,0.281865,0.056683,0.401554,-0.081544,-0.266594,0.075871,-0.653603
-0.050000,-0.050000,0.000000,0.000000,0.000000,0.000000,0.000000,0.000000,0.000000,0.100000,0.100000,-0.320584,-0.383394,-0.050000,-0.050000,0.409252,-0.851552,0.000000,0.000000,-0.472580,-0.105748,1.023135,0.291000,0.045060,0.398433,-0.085396,-0.265569,0.081671,-0.647671
-0.050000,-0.050000,0.000000,0.000000,0.000000,0.000000,0.000000,0.000000,0.000000,0.100000,0.100000,-0.334469,-0.378168,-0.050000,-0.050000,0.418670,-0.850750,0.000000,0.000000,-0.468930,-0.102956,1.006832,0.299035,0.033650,0.394962,-0.089049,-0.265055,0.087077,-0.642275
-0.050000,-0.050000,0.000000,0.000000,0.000000,0.000000,0.000000,0.000000,0.000000,0.100000,0.100000,-0.346780,-0.373613,-0.050000,-0.050000,0.426549,-0.847784,0.000000,0.000000,-0.465474,-0.100911,0.992104,0.305672,0.022760,0.391829,-0.091962,-0.265814,0.091524,-0.637803
-0.050000,-0.050000,0.000000,0.000000,0.000000,0.000000,0.000000,0.000000,0.000000,0.100000,0.100000,-0.357888,-0.369109,-0.050000,-0.050000,0.433258,-0.843470,0.000000,0.000000,-0.462236,-0.099274,0.978948,0.311775,0.012498,0.388959,-0.094363,-0.267123,0.095371,-0.634007
-0.050000,-0.050000,0.000000,0.000000,0.000000,0.000000,0.000000,0.000000,0.000000,0.100000,0.100000,-0.367601,-0.364893,-0.050000,-0.050000,0.438504,-0.837766,0.000000,0.000000,-0.459306,-0.098150,0.967711,0.317527,0.002942,0.386601,-0.096169,-0.269052,0.098529,-0.630868
-0.050000,-0.050000,0.000000,0.000000,0.000000,0.000000,0.000000,0.000000,0.000000,0.100000,0.100000,-0.374971,-0.361086,-0.050000,-0.050000,0.441390,-0.830320,0.000000,0.000000,-0.457009,-0.097725,0.959865,0.323849,-0.005331,0.385273,-0.096812,-0.271338,0.100479,-0.628404
-0.050000,-0.050000,0.000000,0.000000,0.000000,0.000000,0.000000,0.000000,0.000000,0.100000,0.100000,-0.381351,-0.357305,-0.050000,-0.050000,0.442924,-0.822166,0.000000,0.000000,-0.455043,-0.097419,0.954093,0.330610,-0.012713,0.384474,-0.097091,-0.273766,0.101912,-0.626186
-0.050000,-0.050000,0.000000,0.000000,0.000000,0.000000,0.000000,0.000000,0.000000,0.100000,0.100000,-0.384870,-0.353898,-0.050000,-0.050000,0.441562,-0.812422,0.000000,0.000000,-0.453994,-0.097674,0.952802,0.339207,-0.018246,0.385004,-0.095860,-0.275911,0.101698,-0.624205
-0.050000,-0.050000,0.000000,0.000000,0.000000,0.000000,0.000000,0.000000,0.000000,0.100000,0.100000,-0.387056,-0.350496,-0.050000,-0.050000,0.438376,-0.802162,0.000000,0.000000,-0.453479,-0.097826,0.954513,0.349325,-0.022323,0.386286,-0.094040,-0.277690,0.100559,-0.621953
-0.050000,-0.050000,0.000000,0.000000,0.000000,0.000000,0.000000,0.000000,0.000000,0.100000,0.100000,-0.387524,-0.347236,-0.050000,-0.050000,0.433139,-0.791275,0.000000,0.000000,-0.453600,-0.097972,0.959561,0.361316,-0.024819,0.388451,-0.091400,-0.278955,0.098241,-0.619315
-0.050000,-0.050000,0.000000,0.000000,0.000000,0.000000,0.000000,0.000000,0.000000,0.100000,0.100000,-0.385790,-0.343890,-0.050000,-0.050000,0.425541,-0.779813,0.000000,0.000000,-0.454554,-0.097845,0.968654,0.376105,-0.025196,0.391446,-0.087672,-0.279112,0.094240,-0.615671
-0.050000,-0.050000,0.000000,0.000000,0.000000,0.000000,0.000000,0.000000,0.000000,0.100000,0.100000,-0.383235,-0.340650,-0.050000,-0.050000,0.416563,-0.768372,0.000000,0.000000,-0.455820,-0.097342,0.980002,0.392543,-0.024300,0.394953,-0.083739,-0.278795,0.089478,-0.611182
-0.050000,-0.050000,0.000000,0.000000,0.000000,0.000000,0.000000,0.000000,0.000000,0.100000,0.100000,-0.378495,-0.337119,-0.050000,-0.050000,0.405536,-0.756662,0.000000,0.000000,-0.457852,-0.096189,0.995002,0.412229,-0.021301,0.398846,-0.078898,-0.276944,0.082958,-0.604953
-0.050000,-0.050000,0.000000,0.000000,0.000000,0.000000,0.000000,0.000000,0.000000,0.100000,0.100000,-0.373007,-0.333591,-0.050000,-0.050000,0.393444,-0.745232,0.000000,0.000000,-0.460071,-0.094330,1.011792,0.433934,-0.017142,0.402847,-0.074098,-0.274307,0.075732,-0.597253
-0.050000,-0.050000,0.000000,0.000000,0.000000,0.000000,0.000000,0.000000,0.000000,0.100000,0.100000,-0.366479,-0.329985,-0.050000,-0.050000,0.380342,-0.733970,0.000000,0.000000,-0.462549,-0.091708,1.030340,0.457879,-0.011856,0.406777,-0.069207,-0.270661,0.067681,-0.587933
-0.050000,-0.050000,0.000000,0.000000,0.000000,0.000000,0.000000,0.000000,0.000000,0.100000,0.100000,-0.359095,-0.326118,-0.050000,-0.050000,0.366690,-0.723084,0.000000,0.000000,-0.465168,-0.087895,1.050038,0.484518,-0.005801,0.410160,-0.064554,-0.265610,0.059121,-0.576503
-0.050000,-0.050000,0.000000,0.000000,0.000000,0.000000,0.000000,0.000000,0.000000,0.100000,0.100000,-0.351333,-0.322495,-0.050000,-0.050000,0.352713,-0.712477,0.000000,0.000000,-0.467763,-0.083334,1.070224,0.512751,0.000624,0.413248,-0.060230,-0.259948,0.050422,-0.563725
-0.050000,-0.050000,0.000000,0.000000,0.000000,0.000000,0.000000,0.000000,0.000000,0.100000,0.100000,-0.343261,-0.318612,-0.050000,-0.050000,0.339051,-0.702353,0.000000,0.000000,-0.470346,-0.077165,1.090299,0.543898,0.006966,0.415301,-0.056557,-0.252625,0.041995,-0.548725
-0.050000,-0.050000,0.000000,0.000000,0.000000,0.000000,0.000000,0.000000,0.000000,0.100000,0.100000,-0.335247,-0.315146,-0.050000,-0.050000,0.325793,-0.692542,0.000000,0.000000,-0.472851,-0.069938,1.109814,0.576906,0.012956,0.416777,-0.053461,-0.244503,0.034093,-0.532345
-0.050000,-0.050000,0.000000,0.000000,0.000000,0.000000,0.000000,0.000000,0.000000,0.100000,0.100000,-0.327431,-0.311952,-0.050000,-0.050000,0.313224,-0.683005,0.000000,0.000000,-0.475292,-0.061429,1.128462,0.612004,0.018370,0.417438,-0.050965,-0.235354,0.026918,-0.514526
-0.050000,-0.050000,0.000000,0.000000,0.000000,0.000000,0.000000,0.000000,0.000000,0.100000,0.100000,-0.320473,-0.309135,-0.050000,-0.050000,0.302010,-0.673825,0.000000,0.000000,-0.477756,-0.051290,1.145387,0.649662,0.022732,0.417317,-0.049289,-0.224851,0.021154,-0.495264
-0.050000,-0.050000,0.000000,0.000000,0.000000,0.000000,0.000000,0.000000,0.000000,0.100000,0.100000,-0.313837,-0.307024,-0.050000,-0.050000,0.291556,-0.664664,0.000000,0.000000,-0.480247,-0.040241,1.161222,0.688827,0.026418,0.416624,-0.047918,-0.213804,0.016160,-0.475103
-0.050000,-0.050000,0.000000,0.000000,0.000000,0.000000,0.000000,0.000000,0.000000,0.100000,0.100000,-0.308907,-0.305376,-0.050000,-0.050000,0.283100,-0.655814,0.000000,0.000000,-0.482970,-0.027398,1.174517,0.730637,0.028789,0.415351,-0.047375,-0.201287,0.013193,-0.453799
-0.050000,-0.050000,0.000000,0.000000,0.000000,0.000000,0.000000,0.000000,0.000000,0.100000,0.100000,-0.304835,-0.304564,-0.050000,-0.050000,0.275810,-0.646936,0.000000,0.000000,-0.485922,-0.013681,1.186160,0.773808,0.030384,0.413726,-0.047013,-0.188268,0.011333,-0.431874
-0.050000,-0.050000,0.000000,0.000000,0.000000,0.000000,0.000000,0.000000,0.000000,0.100000,0.100000,-0.302102,-0.304312,-0.050000,-0.050000,0.269976,-0.638054,0.000000,0.000000,-0.489151,0.001041,1.195830,0.818379,0.031168,0.411686,-0.046947,-0.174568,0.010866,-0.409408
-0.050000,-0.050000,0.000000,0.000000,0.000000,0.000000,0.000000,0.000000,0.000000,0.100000,0.100000,-0.301255,-0.304559,-0.050000,-0.050000,0.265893,-0.629330,0.000000,0.000000,-0.492865,0.016651,1.203065,0.863745,0.031246,0.409518,-0.047156,-0.160395,0.012044,-0.386731
-0.050000,-0.050000,0.000000,0.000000,0.000000,0.000000,0.000000,0.000000,0.000000,0.100000,0.100000,-0.301228,-0.305181,-0.050000,-0.050000,0.262719,-0.620412,0.000000,0.000000,-0.496817,0.032544,1.208888,0.909351,0.030907,0.406863,-0.047281,-0.146109,0.013991,-0.363941
-0.050000,-0.050000,0.000000,0.000000,0.000000,0.000000,0.000000,0.000000,0.000000,0.100000,0.100000,-0.303527,-0.305809,-0.050000,-0.050000,0.261370,-0.611922,0.000000,0.000000,-0.501367,0.048880,1.212019,0.954135,0.030203,0.404212,-0.047668,-0.131971,0.017573,-0.341614
-0.050000,-0.050000,0.000000,0.000000,0.000000,0.000000,0.000000,0.000000,0.000000,0.100000,0.100000,-0.306712,-0.306272,-0.050000,-0.050000,0.260838,-0.603451,0.000000,0.000000,-0.506182,0.064992,1.213664,0.997570,0.029355,0.401130,-0.047906,-0.118282,0.021739,-0.319802
-0.050000,-0.050000,0.000000,0.000000,0.000000,0.000000,0.000000,0.000000,0.000000,0.100000,0.100000,-0.311179,-0.306247,-0.050000,-0.050000,0.261292,-0.595241,0.000000,0.000000,-0.511335,0.080832,1.213593,1.039015,0.028472,0.397715,-0.048172,-0.105232,0.026648,-0.298807
-0.050000,-0.050000,0.000000,0.000000,0.000000,0.000000,0.000000,0.000000,0.000000,0.100000,0.100000,-0.316817,-0.305371,-0.050000,-0.050000,0.262642,-0.587648,0.000000,0.000000,-0.516740,0.096008,1.211725,1.076762,0.027740,0.394082,-0.048539,-0.093618,0.032066,-0.279242
-0.050000,-0.050000,0.000000,0.000000,0.000000,0.000000,0.000000,0.000000,0.000000,0.100000,0.100000,-0.322890,-0.303551,-0.050000,-0.050000,0.264405,-0.580146,0.000000,0.000000,-0.522295,0.110545,1.208859,1.112076,0.027098,0.389976,-0.048833,-0.082667,0.037634,-0.260658
-0.050000,-0.050000,0.000000,0.000000,0.000000,0.000000,0.000000,0.000000,0.000000,0.100000,0.100000,-0.329709,-0.300419,-0.050000,-0.050000,0.266817,-0.573671,0.000000,0.000000,-0.527899,0.123961,1.204338,1.141687,0.026848,0.385910,-0.049444,-0.074117,0.043263,-0.244239
-0.050000,-0.050000,0.000000,0.000000,0.000000,0.000000,0.000000,0.000000,0.000000,0.100000,0.100000,-0.336434,-0.295907,-0.050000,-0.050000,0.269371,-0.567423,0.000000,0.000000,-0.533466,0.136426,1.199057,1.167680,0.026839,0.381642,-0.050116,-0.066671,0.048623,-0.229267
-0.050000,-0.050000,0.000000,0.000000,0.000000,0.000000,0.000000,0.000000,0.000000,0.100000,0.100000,-0.343049,-0.290092,-0.050000,-0.050000,0.272082,-0.561705,0.000000,0.000000,-0.538945,0.147841,1.192945,1.189249,0.027164,0.377443,-0.051034,-0.060876,0.053639,-0.216007
-0.050000,-0.050000,0.000000,0.000000,0.000000,0.000000,0.000000,0.000000,0.000000,0.100000,0.100000,-0.348961,-0.282999,-0.050000,-0.050000,0.274666,-0.556391,0.000000,0.000000,-0.544093,0.157940,1.186215,1.205902,0.027873,0.373699,-0.052282,-0.056999,0.057927,-0.204659
-0.050000,-0.050000,0.000000,0.000000,0.000000,0.000000,0.000000,0.000000,0.000000,0.100000,0.100000,-0.354392,-0.274742,-0.050000,-0.050000,0.277182,-0.551166,0.000000,0.000000,-0.549120,0.167268,1.179160,1.219721,0.028813,0.370144,-0.053703,-0.053890,0.061784,-0.194476
-0.050000,-0.050000,0.000000,0.000000,0.000000,0.000000,0.000000,0.000000,0.000000,0.100000,0.100000,-0.358333,-0.265777,-0.050000,-0.050000,0.279115,-0.545986,0.000000,0.000000,-0.553489,0.175018,1.171876,1.228856,0.030082,0.367818,-0.055515,-0.052729,0.064493,-0.186129
