RRGGZZ/g1_deploy_sonic/data/example_scalelab/qwen_50fps_waist/case_test01_waist/joint_pos.csv
joint_0,joint_1,joint_2,joint_3,joint_4,joint_5,joint_6,joint_7,joint_8,joint_9,joint_10,joint_11,joint_12,joint_13,joint_14,joint_15,joint_16,joint_17,joint_18,joint_19,joint_20,joint_21,joint_22,joint_23,joint_24,joint_25,joint_26,joint_27,joint_28
-0.050000,-0.050000,-0.069959,0.000000,0.000000,-0.052816,0.000000,0.000000,0.229260,0.100000,0.100000,-0.119445,-0.469036,-0.050000,-0.050000,0.417503,-0.764107,0.000000,0.000000,-0.452983,0.349854,1.086574,-0.338653,0.205887,-0.480038,-0.060308,-0.020151,0.014954,-0.424813
-0.050000,-0.050000,-0.068493,0.000000,0.000000,-0.046986,0.000000,0.000000,0.238821,0.100000,0.100000,-0.133202,-0.480149,-0.050000,-0.050000,0.403886,-0.772428,0.000000,0.000000,-0.452551,0.352278,1.115504,-0.332087,0.207119,-0.482838,-0.075522,-0.020970,0.021361,-0.431488
-0.050000,-0.050000,-0.068250,0.000000,0.000000,-0.043421,0.000000,0.000000,0.244174,0.100000,0.100000,-0.138985,-0.486572,-0.050000,-0.050000,0.396727,-0.778169,0.000000,0.000000,-0.451017,0.351248,1.131799,-0.327730,0.208397,-0.485046,-0.082582,-0.022836,0.023970,-0.434746
-0.050000,-0.050000,-0.068206,0.000000,0.000000,-0.041050,0.000000,0.000000,0.247429,0.100000,0.100000,-0.140612,-0.490468,-0.050000,-0.050000,0.392494,-0.782671,0.000000,0.000000,-0.449258,0.348541,1.142327,-0.324104,0.209676,-0.487247,-0.085712,-0.024452,0.024757,-0.436418
-0.050000,-0.050000,-0.068119,0.000000,0.000000,-0.039269,0.000000,0.000000,0.249609,0.100000,0.100000,-0.140212,-0.493038,-0.050000,-0.050000,0.389622,-0.786579,0.000000,0.000000,-0.447535,0.344997,1.150165,-0.320821,0.210947,-0.489506,-0.086990,-0.025781,0.024711,-0.437351
-0.050000,-0.050000,-0.067853,0.000000,0.000000,-0.037780,0.000000,0.000000,0.251464,0.100000,0.100000,-0.138411,-0.495053,-0.050000,-0.050000,0.387225,-0.790500,0.000000,0.000000,-0.445877,0.340570,1.156764,-0.316670,0.212326,-0.491433,-0.087204,-0.026425,0.024168,-0.437804
-0.050000,-0.050000,-0.067448,0.000000,0.000000,-0.036411,0.000000,0.000000,0.253135,0.100000,0.100000,-0.136041,-0.496831,-0.050000,-0.050000,0.385066,-0.794418,0.000000,0.000000,-0.444334,0.335789,1.162620,-0.312172,0.213707,-0.493052,-0.086939,-0.026829,0.023451,-0.438235
-0.050000,-0.050000,-0.066906,0.000000,0.000000,-0.035105,0.000000,0.000000,0.254876,0.100000,0.100000,-0.133173,-0.498555,-0.050000,-0.050000,0.382945,-0.798495,0.000000,0.000000,-0.442853,0.330564,1.167984,-0.306922,0.215060,-0.494150,-0.086363,-0.026857,0.022631,-0.438856
-0.050000,-0.050000,-0.066255,0.000000,0.000000,-0.033822,0.000000,0.000000,0.256773,0.100000,0.100000,-0.129999,-0.500272,-0.050000,-0.050000,0.380837,-0.802702,0.000000,0.000000,-0.441411,0.324946,1.172797,-0.301052,0.216250,-0.494529,-0.085651,-0.026625,0.021847,-0.440145
-0.050000,-0.050000,-0.065519,0.000000,0.000000,-0.032552,0.000000,0.000000,0.258778,0.100000,0.100000,-0.126651,-0.502016,-0.050000,-0.050000,0.378764,-0.807033,0.000000,0.000000,-0.440027,0.319129,1.177241,-0.294768,0.217320,-0.494410,-0.084841,-0.026287,0.021089,-0.441932
-0.050000,-0.050000,-0.064762,0.000000,0.000000,-0.031279,0.000000,0.000000,0.261084,0.100000,0.100000,-0.123154,-0.503608,-0.050000,-0.050000,0.376724,-0.811359,0.000000,0.000000,-0.438575,0.312770,1.180865,-0.288027,0.217932,-0.493133,-0.084121,-0.025726,0.020610,-0.445334
-0.050000,-0.050000,-0.063969,0.000000,0.000000,-0.030023,0.000000,0.000000,0.263523,0.100000,0.100000,-0.119644,-0.505064,-0.050000,-0.050000,0.374821,-0.815704,0.000000,0.000000,-0.437168,0.306211,1.183993,-0.281135,0.218262,-0.491187,-0.083418,-0.025167,0.020315,-0.449747
-0.050000,-0.050000,-0.063209,0.000000,0.000000,-0.028764,0.000000,0.000000,0.266164,0.100000,0.100000,-0.116196,-0.506216,-0.050000,-0.050000,0.373047,-0.819908,0.000000,0.000000,-0.435720,0.299279,1.186418,-0.274167,0.218137,-0.488283,-0.082851,-0.024552,0.020363,-0.455702
-0.050000,-0.050000,-0.062530,0.000000,0.000000,-0.027499,0.000000,0.000000,0.268969,0.100000,0.100000,-0.113004,-0.506867,-0.050000,-0.050000,0.371483,-0.823828,0.000000,0.000000,-0.434266,0.292044,1.188125,-0.267271,0.217537,-0.484363,-0.082452,-0.023887,0.020874,-0.463293
-0.050000,-0.050000,-0.061866,0.000000,0.000000,-0.026268,0.000000,0.000000,0.271878,0.100000,0.100000,-0.109944,-0.507151,-0.050000,-0.050000,0.370108,-0.827605,0.000000,0.000000,-0.432862,0.284579,1.189378,-0.260445,0.216620,-0.479785,-0.082131,-0.023233,0.021671,-0.471957
-0.050000,-0.050000,-0.061437,0.000000,0.000000,-0.024965,0.000000,0.000000,0.274921,0.100000,0.100000,-0.107656,-0.506448,-0.050000,-0.050000,0.369022,-0.830651,0.000000,0.000000,-0.431511,0.276906,1.189752,-0.253778,0.215172,-0.473821,-0.082078,-0.022401,0.023258,-0.482549
-0.050000,-0.050000,-0.061050,0.000000,0.000000,-0.023713,0.000000,0.000000,0.278012,0.100000,0.100000,-0.105759,-0.505135,-0.050000,-0.050000,0.368194,-0.833387,0.000000,0.000000,-0.430342,0.269128,1.189770,-0.247165,0.213498,-0.467156,-0.082069,-0.021515,0.025218,-0.493986
-0.050000,-0.050000,-0.060839,0.000000,0.000000,-0.022416,0.000000,0.000000,0.281135,0.100000,0.100000,-0.104688,-0.502886,-0.050000,-0.050000,0.367631,-0.835447,0.000000,0.000000,-0.429397,0.261366,1.189261,-0.240520,0.211579,-0.459443,-0.082184,-0.020463,0.027782,-0.506433
-0.050000,-0.050000,-0.060800,0.000000,0.000000,-0.021085,0.000000,0.000000,0.284241,0.100000,0.100000,-0.104622,-0.499609,-0.050000,-0.050000,0.367352,-0.836781,0.000000,0.000000,-0.428841,0.253841,1.188361,-0.233565,0.209578,-0.450669,-0.082336,-0.019196,0.030896,-0.519405
-0.050000,-0.050000,-0.060817,0.000000,0.000000,-0.019770,0.000000,0.000000,0.287324,0.100000,0.100000,-0.105179,-0.495692,-0.050000,-0.050000,0.367274,-0.837668,0.000000,0.000000,-0.428584,0.246391,1.187270,-0.226408,0.207520,-0.441197,-0.082484,-0.017861,0.034352,-0.532693
-0.050000,-0.050000,-0.061122,0.000000,0.000000,-0.018321,0.000000,0.000000,0.290298,0.100000,0.100000,-0.107467,-0.490283,-0.050000,-0.050000,0.367489,-0.837413,0.000000,0.000000,-0.429064,0.239804,1.185783,-0.218081,0.205639,-0.430217,-0.082600,-0.016155,0.038388,-0.545697
-0.050000,-0.050000,-0.061437,0.000000,0.000000,-0.016894,0.000000,0.000000,0.293180,0.100000,0.100000,-0.110518,-0.484291,-0.050000,-0.050000,0.367861,-0.836689,0.000000,0.000000,-0.430022,0.233570,1.184264,-0.208965,0.203842,-0.418446,-0.082617,-0.014420,0.042611,-0.558382
-0.050000,-0.050000,-0.061894,0.000000,0.000000,-0.015376,0.000000,0.000000,0.295917,0.100000,0.100000,-0.114930,-0.477258,-0.050000,-0.050000,0.368397,-0.835125,0.000000,0.000000,-0.431692,0.228247,1.182574,-0.198328,0.202271,-0.405462,-0.082546,-0.012527,0.047068,-0.570222
-0.050000,-0.050000,-0.062400,0.000000,0.000000,-0.013790,0.000000,0.000000,0.298465,0.100000,0.100000,-0.120574,-0.469333,-0.050000,-0.050000,0.369025,-0.832810,0.000000,0.000000,-0.434121,0.223999,1.180783,-0.185677,0.200916,-0.391276,-0.082367,-0.010583,0.051569,-0.580790
-0.050000,-0.050000,-0.062907,0.000000,0.000000,-0.012165,0.000000,0.000000,0.300859,0.100000,0.100000,-0.126984,-0.461039,-0.050000,-0.050000,0.369696,-0.830019,0.000000,0.000000,-0.437074,0.220469,1.178977,-0.171535,0.199673,-0.376245,-0.082100,-0.008780,0.056067,-0.590510
-0.050000,-0.050000,-0.063431,0.000000,0.000000,-0.010386,0.000000,0.000000,0.302956,0.100000,0.100000,-0.134904,-0.451509,-0.050000,-0.050000,0.370318,-0.826217,0.000000,0.000000,-0.441028,0.218929,1.176900,-0.153758,0.198658,-0.359702,-0.081815,-0.006959,0.060357,-0.597713
-0.050000,-0.050000,-0.063866,0.000000,0.000000,-0.008548,0.000000,0.000000,0.304807,0.100000,0.100000,-0.143307,-0.441938,-0.050000,-0.050000,0.370858,-0.821985,0.000000,0.000000,-0.445500,0.218432,1.174770,-0.133728,0.197635,-0.342408,-0.081516,-0.005535,0.064447,-0.603597
-0.050000,-0.050000,-0.064232,0.000000,0.000000,-0.006567,0.000000,0.000000,0.306361,0.100000,0.100000,-0.152520,-0.431782,-0.050000,-0.050000,0.371214,-0.816997,0.000000,0.000000,-0.450668,0.219793,1.172349,-0.110222,0.196626,-0.324154,-0.081322,-0.004401,0.068214,-0.607137
-0.050000,-0.050000,-0.064466,0.000000,0.000000,-0.004431,0.000000,0.000000,0.307562,0.100000,0.100000,-0.162158,-0.421357,-0.050000,-0.050000,0.371292,-0.811294,0.000000,0.000000,-0.456450,0.223109,1.169577,-0.082998,0.195511,-0.305289,-0.081332,-0.003742,0.071576,-0.608151
-0.050000,-0.050000,-0.064658,0.000000,0.000000,-0.002166,0.000000,0.000000,0.308463,0.100000,0.100000,-0.171948,-0.411099,-0.050000,-0.050000,0.371151,-0.805009,0.000000,0.000000,-0.462598,0.227898,1.166556,-0.052986,0.194281,-0.286045,-0.081487,-0.003617,0.074649,-0.607402
-0.050000,-0.050000,-0.064651,0.000000,0.000000,0.000366,0.000000,0.000000,0.308898,0.100000,0.100000,-0.181933,-0.400314,-0.050000,-0.050000,0.370459,-0.797582,0.000000,0.000000,-0.469425,0.235632,1.162807,-0.017722,0.192846,-0.266782,-0.082140,-0.003947,0.077086,-0.602660
-0.050000,-0.050000,-0.064648,0.000000,0.000000,0.003074,0.000000,0.000000,0.308930,0.100000,0.100000,-0.191619,-0.390065,-0.050000,-0.050000,0.369448,-0.789339,0.000000,0.000000,-0.476508,0.245045,1.158700,0.020716,0.191242,-0.247759,-0.083035,-0.004923,0.079157,-0.595803
-0.050000,-0.050000,-0.064588,0.000000,0.000000,0.006034,0.000000,0.000000,0.308525,0.100000,0.100000,-0.201048,-0.379820,-0.050000,-0.050000,0.367902,-0.779827,0.000000,0.000000,-0.483965,0.256941,1.153947,0.063567,0.189473,-0.229400,-0.084372,-0.006306,0.080663,-0.585531
-0.050000,-0.050000,-0.064552,0.000000,0.000000,0.009243,0.000000,0.000000,0.307644,0.100000,0.100000,-0.209960,-0.369886,-0.050000,-0.050000,0.365817,-0.768868,0.000000,0.000000,-0.491727,0.271078,1.148651,0.110730,0.187605,-0.212116,-0.086069,-0.008007,0.081557,-0.571972
-0.050000,-0.050000,-0.064632,0.000000,0.000000,0.012629,0.000000,0.000000,0.306382,0.100000,0.100000,-0.218391,-0.360411,-0.050000,-0.050000,0.363365,-0.756527,0.000000,0.000000,-0.499565,0.286842,1.142955,0.161043,0.185667,-0.195797,-0.088001,-0.010027,0.082023,-0.555996
-0.050000,-0.050000,-0.064766,0.000000,0.000000,0.016302,0.000000,0.000000,0.304610,0.100000,0.100000,-0.226120,-0.350993,-0.050000,-0.050000,0.360156,-0.741960,0.000000,0.000000,-0.507806,0.305031,1.136782,0.216794,0.183813,-0.181483,-0.090202,-0.011691,0.081505,-0.535713
-0.050000,-0.050000,-0.065102,0.000000,0.000000,0.020095,0.000000,0.000000,0.302458,0.100000,0.100000,-0.233245,-0.342154,-0.050000,-0.050000,0.356636,-0.725610,0.000000,0.000000,-0.516018,0.324304,1.130468,0.275579,0.182013,-0.168575,-0.092408,-0.013350,0.080454,-0.513187
-0.050000,-0.050000,-0.065601,0.000000,0.000000,0.024040,0.000000,0.000000,0.299953,0.100000,0.100000,-0.239742,-0.333459,-0.050000,-0.050000,0.352597,-0.706988,0.000000,0.000000,-0.524358,0.344814,1.124109,0.338436,0.180396,-0.157658,-0.094520,-0.014359,0.078520,-0.487509
-0.050000,-0.050000,-0.066285,0.000000,0.000000,0.028047,0.000000,0.000000,0.297155,0.100000,0.100000,-0.245619,-0.325028,-0.050000,-0.050000,0.348196,-0.686210,0.000000,0.000000,-0.532658,0.365809,1.118043,0.404680,0.178979,-0.148692,-0.096268,-0.014541,0.075739,-0.459310
-0.050000,-0.050000,-0.067132,0.000000,0.000000,0.032081,0.000000,0.000000,0.294178,0.100000,0.100000,-0.251099,-0.316654,-0.050000,-0.050000,0.343567,-0.663480,0.000000,0.000000,-0.540840,0.386842,1.112197,0.473194,0.177713,-0.141479,-0.097730,-0.014153,0.072360,-0.429237
-0.050000,-0.050000,-0.068115,0.000000,0.000000,0.036071,0.000000,0.000000,0.291078,0.100000,0.100000,-0.255894,-0.308320,-0.050000,-0.050000,0.338654,-0.638842,0.000000,0.000000,-0.548764,0.407274,1.107347,0.544683,0.176663,-0.136600,-0.098272,-0.012093,0.067920,-0.396890
-0.050000,-0.050000,-0.069194,0.000000,0.000000,0.040004,0.000000,0.000000,0.287968,0.100000,0.100000,-0.260419,-0.299907,-0.050000,-0.050000,0.333695,-0.612832,0.000000,0.000000,-0.556334,0.426736,1.103047,0.617044,0.175673,-0.133511,-0.098294,-0.009319,0.063035,-0.363470
-0.050000,-0.050000,-0.070336,0.000000,0.000000,0.043824,0.000000,0.000000,0.284960,0.100000,0.100000,-0.264465,-0.291368,-0.050000,-0.050000,0.328749,-0.585954,0.000000,0.000000,-0.563331,0.444623,1.099814,0.690011,0.174683,-0.132458,-0.097398,-0.005265,0.057552,-0.329103
-0.050000,-0.050000,-0.071506,0.000000,0.000000,0.047511,0.000000,0.000000,0.282174,0.100000,0.100000,-0.268102,-0.282745,-0.050000,-0.050000,0.324000,-0.559036,0.000000,0.000000,-0.569512,0.460499,1.097580,0.761907,0.173489,-0.133223,-0.095688,-0.000339,0.051816,-0.294655
-0.050000,-0.050000,-0.072675,0.000000,0.000000,0.051152,0.000000,0.000000,0.279619,0.100000,0.100000,-0.271534,-0.273756,-0.050000,-0.050000,0.319352,-0.532111,0.000000,0.000000,-0.575101,0.474596,1.096040,0.832561,0.172145,-0.135619,-0.093408,0.005261,0.045939,-0.260176
-0.050000,-0.050000,-0.073841,0.000000,0.000000,0.054580,0.000000,0.000000,0.277555,0.100000,0.100000,-0.274221,-0.265114,-0.050000,-0.050000,0.315378,-0.507310,0.000000,0.000000,-0.579149,0.485700,1.095730,0.898899,0.170063,-0.139388,-0.090257,0.011192,0.040315,-0.227456
-0.050000,-0.050000,-0.075010,0.000000,0.000000,0.058055,0.000000,0.000000,0.275902,0.100000,0.100000,-0.276739,-0.256113,-0.050000,-0.050000,0.311637,-0.483846,0.000000,0.000000,-0.582400,0.494890,1.095827,0.961761,0.167558,-0.144164,-0.086830,0.017315,0.034951,-0.195845
-0.050000,-0.050000,-0.076181,0.000000,0.000000,0.061458,0.000000,0.000000,0.274801,0.100000,0.100000,-0.278630,-0.247448,-0.050000,-0.050000,0.308602,-0.463329,0.000000,0.000000,-0.584234,0.501462,1.096546,1.018858,0.164168,-0.149422,-0.083079,0.023052,0.030211,-0.166898
-0.050000,-0.050000,-0.077395,0.000000,0.000000,0.064922,0.000000,0.000000,0.274306,0.100000,0.100000,-0.280038,-0.239043,-0.050000,-0.050000,0.306208,-0.446035,0.000000,0.000000,-0.584834,0.505786,1.097438,1.069567,0.159878,-0.154563,-0.079374,0.028115,0.026217,-0.141045
-0.050000,-0.050000,-0.078641,0.000000,0.000000,0.068526,0.000000,0.000000,0.274306,0.100000,0.100000,-0.281129,-0.230607,-0.050000,-0.050000,0.304204,-0.431337,0.000000,0.000000,-0.584558,0.508488,1.098388,1.115189,0.154912,-0.159497,-0.075750,0.032836,0.022788,-0.117510
-0.050000,-0.050000,-0.079967,0.000000,0.000000,0.072197,0.000000,0.000000,0.275041,0.100000,0.100000,-0.281429,-0.223416,-0.050000,-0.050000,0.303260,-0.421472,0.000000,0.000000,-0.582869,0.508767,1.099083,1.151841,0.148681,-0.162834,-0.072663,0.035834,0.020519,-0.099338
-0.050000,-0.050000,-0.081360,0.000000,0.000000,0.076152,0.000000,0.000000,0.276313,0.100000,0.100000,-0.281554,-0.216233,-0.050000,-0.050000,0.302582,-0.414305,0.000000,0.000000,-0.580624,0.508040,1.099441,1.183389,0.141885,-0.165153,-0.069954,0.038485,0.018770,-0.083792
-0.050000,-0.050000,-0.082807,0.000000,0.000000,0.080288,0.000000,0.000000,0.278153,0.100000,0.100000,-0.281172,-0.210224,-0.050000,-0.050000,0.302586,-0.410964,0.000000,0.000000,-0.577685,0.505880,1.099273,1.207956,0.134293,-0.165584,-0.067911,0.039856,0.017832,-0.072770
-0.050000,-0.050000,-0.084274,0.000000,0.000000,0.084688,0.000000,0.000000,0.280497,0.100000,0.100000,-0.280580,-0.205177,-0.050000,-0.050000,0.302953,-0.410612,0.000000,0.000000,-0.574523,0.502964,1.098498,1.227112,0.126301,-0.164299,-0.066489,0.040494,0.017396,-0.065378
-0.050000,-0.050000,-0.085759,0.000000,0.000000,0.089319,0.000000,0.000000,0.283233,0.100000,0.100000,-0.279870,-0.200817,-0.050000,-0.050000,0.303524,-0.412459,0.000000,0.000000,-0.571225,0.499570,1.097270,1.242336,0.118056,-0.161670,-0.065522,0.040707,0.017296,-0.060619
-0.050000,-0.050000,-0.087119,0.000000,0.000000,0.094130,0.000000,0.000000,0.286294,0.100000,0.100000,-0.279066,-0.198603,-0.050000,-0.050000,0.304382,-0.417015,0.000000,0.000000,-0.568376,0.495934,1.095295,1.252751,0.109949,-0.157309,-0.065245,0.040123,0.017469,-0.059825
-0.050000,-0.050000,-0.088423,0.000000,0.000000,0.099131,0.000000,0.000000,0.289619,0.100000,0.100000,-0.278428,-0.197232,-0.050000,-0.050000,0.305181,-0.422778,0.000000,0.000000,-0.565780,0.492422,1.092965,1.260991,0.102060,-0.152149,-0.065243,0.039564,0.017674,-0.060645
-0.050000,-0.050000,-0.089530,0.000000,0.000000,0.104212,0.000000,0.000000,0.293023,0.100000,0.100000,-0.277985,-0.197832,-0.050000,-0.050000,0.305921,-0.429801,0.000000,0.000000,-0.563972,0.489325,1.090184,1.266837,0.094806,-0.146309,-0.065584,0.038843,0.017798,-0.063585
-0.050000,-0.050000,-0.090438,0.000000,0.000000,0.109317,0.000000,0.000000,0.296411,0.100000,0.100000,-0.277912,-0.200068,-0.050000,-0.050000,0.306421,-0.437308,0.000000,0.000000,-0.562937,0.486905,1.087159,1.271354,0.088360,-0.140379,-0.066062,0.038295,0.017721,-0.067553
-0.050000,-0.050000,-0.091204,0.000000,0.000000,0.114406,0.000000,0.000000,0.299776,0.100000,0.100000,-0.278159,-0.203619,-0.050000,-0.050000,0.306729,-0.445051,0.000000,0.000000,-0.562470,0.485034,1.084009,1.275045,0.082586,-0.134489,-0.066613,0.037919,0.017475,-0.072153
-0.050000,-0.050000,-0.091647,0.000000,0.000000,0.119295,0.000000,0.000000,0.302729,0.100000,0.100000,-0.279001,-0.209336,-0.050000,-0.050000,0.306546,-0.452438,0.000000,0.000000,-0.563235,0.484420,1.080785,1.277721,0.078214,-0.129332,-0.067148,0.037808,0.016831,-0.076947
-0.050000,-0.050000,-0.091985,0.000000,0.000000,0.124025,0.000000,0.000000,0.305507,0.100000,0.100000,-0.280244,-0.216088,-0.050000,-0.050000,0.306102,-0.459446,0.000000,0.000000,-0.564419,0.484396,1.077651,1.279937,0.074597,-0.124593,-0.067641,0.037920,0.016013,-0.081620
-0.050000,-0.050000,-0.092114,0.000000,0.000000,0.128438,0.000000,0.000000,0.307766,0.100000,0.100000,-0.282050,-0.224292,-0.050000,-0.050000,0.305170,-0.465615,0.000000,0.000000,-0.566448,0.485398,1.074642,1.281235,0.072186,-0.120658,-0.068056,0.038169,0.014888,-0.085863
-0.050000,-0.050000,-0.092153,0.000000,0.000000,0.132490,0.000000,0.000000,0.309529,0.100000,0.100000,-0.284349,-0.233376,-0.050000,-0.050000,0.303831,-0.470854,0.000000,0.000000,-0.568918,0.487054,1.071846,1.281492,0.070712,-0.117236,-0.068414,0.038410,0.013579,-0.089593
-0.050000,-0.050000,-0.092127,0.000000,0.000000,0.136230,0.000000,0.000000,0.310886,0.100000,0.100000,-0.287018,-0.243043,-0.050000,-0.050000,0.302195,-0.475335,0.000000,0.000000,-0.571696,0.489189,1.069251,1.280856,0.069956,-0.114181,-0.068744,0.038644,0.012140,-0.092906
-0.050000,-0.050000,-0.092088,0.000000,0.000000,0.139408,0.000000,0.000000,0.311427,0.100000,0.100000,-0.290259,-0.253179,-0.050000,-0.050000,0.299990,-0.478373,0.000000,0.000000,-0.574748,0.491769,1.066932,1.278129,0.070143,-0.111205,-0.069065,0.038388,0.010565,-0.095609
-0.050000,-0.050000,-0.092067,0.000000,0.000000,0.142223,0.000000,0.000000,0.311554,0.100000,0.100000,-0.293776,-0.263304,-0.050000,-0.050000,0.297577,-0.480667,0.000000,0.000000,-0.577798,0.494434,1.064855,1.274156,0.070777,-0.108086,-0.069421,0.037934,0.008971,-0.098051
-0.050000,-0.050000,-0.092120,0.000000,0.000000,0.144518,0.000000,0.000000,0.310977,0.100000,0.100000,-0.297705,-0.273301,-0.050000,-0.050000,0.294732,-0.481726,0.000000,0.000000,-0.580762,0.497065,1.063026,1.268035,0.071923,-0.104430,-0.069839,0.036834,0.007366,-0.100200
-0.050000,-0.050000,-0.092265,0.000000,0.000000,0.146350,0.000000,0.000000,0.309857,0.100000,0.100000,-0.301921,-0.282913,-0.050000,-0.050000,0.291606,-0.481831,0.000000,0.000000,-0.583490,0.499470,1.061447,1.260078,0.073338,-0.100031,-0.070334,0.035186,0.005815,-0.102251
-0.050000,-0.050000,-0.092479,0.000000,0.000000,0.147813,0.000000,0.000000,0.308303,0.100000,0.100000,-0.306342,-0.292131,-0.050000,-0.050000,0.288271,-0.481198,0.000000,0.000000,-0.586025,0.501659,1.060071,1.250633,0.074930,-0.094988,-0.070904,0.033106,0.004316,-0.104266
-0.050000,-0.050000,-0.092869,0.000000,0.000000,0.148736,0.000000,0.000000,0.306151,0.100000,0.100000,-0.311050,-0.300775,-0.050000,-0.050000,0.284573,-0.479436,0.000000,0.000000,-0.588067,0.503372,1.058968,1.239144,0.076574,-0.088770,-0.071542,0.030227,0.002961,-0.106308
-0.050000,-0.050000,-0.093329,0.000000,0.000000,0.149340,0.000000,0.000000,0.303712,0.100000,0.100000,-0.315857,-0.308974,-0.050000,-0.050000,0.280768,-0.477169,0.000000,0.000000,-0.589879,0.504862,1.058089,1.226645,0.078228,-0.081984,-0.072231,0.027057,0.001706,-0.108406
-0.050000,-0.050000,-0.093941,0.000000,0.000000,0.149521,0.000000,0.000000,0.300905,0.100000,0.100000,-0.320791,-0.316725,-0.050000,-0.050000,0.276725,-0.474147,0.000000,0.000000,-0.591256,0.506006,1.057493,1.212983,0.079786,-0.074462,-0.072935,0.023396,0.000629,-0.110542
-0.050000,-0.050000,-0.094665,0.000000,0.000000,0.149361,0.000000,0.000000,0.297901,0.100000,0.100000,-0.325737,-0.324160,-0.050000,-0.050000,0.272580,-0.470697,0.000000,0.000000,-0.592342,0.507016,1.057206,1.198802,0.081245,-0.066706,-0.073627,0.019538,-0.000267,-0.112682
-0.050000,-0.050000,-0.095493,0.000000,0.000000,0.148939,0.000000,0.000000,0.294759,0.100000,0.100000,-0.330671,-0.331393,-0.050000,-0.050000,0.268351,-0.466912,0.000000,0.000000,-0.593190,0.507935,1.057178,1.184331,0.082614,-0.058872,-0.074309,0.015540,-0.001004,-0.114807
-0.050000,-0.050000,-0.096452,0.000000,0.000000,0.148135,0.000000,0.000000,0.291569,0.100000,0.100000,-0.335445,-0.338511,-0.050000,-0.050000,0.264097,-0.462956,0.000000,0.000000,-0.593779,0.508971,1.057607,1.170122,0.083838,-0.051618,-0.074904,0.011621,-0.001458,-0.116811
-0.050000,-0.050000,-0.097502,0.000000,0.000000,0.147128,0.000000,0.000000,0.288385,0.100000,0.100000,-0.340080,-0.345619,-0.050000,-0.050000,0.259869,-0.458938,0.000000,0.000000,-0.594249,0.510116,1.058325,1.156259,0.085006,-0.044928,-0.075490,0.007799,-0.001728,-0.118727
-0.050000,-0.050000,-0.098635,0.000000,0.000000,0.145814,0.000000,0.000000,0.285307,0.100000,0.100000,-0.344413,-0.352753,-0.050000,-0.050000,0.255779,-0.455103,0.000000,0.000000,-0.594621,0.511566,1.059485,1.143280,0.086104,-0.039480,-0.076014,0.004318,-0.001721,-0.120477
-0.050000,-0.050000,-0.099814,0.000000,0.000000,0.144263,0.000000,0.000000,0.282372,0.100000,0.100000,-0.348403,-0.359914,-0.050000,-0.050000,0.251915,-0.451555,0.000000,0.000000,-0.594956,0.513295,1.061006,1.131339,0.087185,-0.035397,-0.076544,0.001226,-0.001472,-0.122074
-0.050000,-0.050000,-0.101025,0.000000,0.000000,0.142521,0.000000,0.000000,0.279567,0.100000,0.100000,-0.352085,-0.367110,-0.050000,-0.050000,0.248257,-0.448253,0.000000,0.000000,-0.595273,0.515244,1.062809,1.120335,0.088264,-0.032525,-0.077096,-0.001540,-0.001022,-0.123541
-0.050000,-0.050000,-0.102151,0.000000,0.000000,0.140467,0.000000,0.000000,0.277050,0.100000,0.100000,-0.355178,-0.374088,-0.050000,-0.050000,0.245193,-0.445683,0.000000,0.000000,-0.595607,0.517514,1.064993,1.111108,0.089385,-0.031712,-0.077708,-0.003585,-0.000305,-0.124827
-0.050000,-0.050000,-0.103224,0.000000,0.000000,0.138255,0.000000,0.000000,0.274662,0.100000,0.100000,-0.357891,-0.380920,-0.050000,-0.050000,0.242478,-0.443395,0.000000,0.000000,-0.595932,0.519831,1.067323,1.102955,0.090536,-0.032082,-0.078418,-0.005300,0.000556,-0.125995
-0.050000,-0.050000,-0.104098,0.000000,0.000000,0.135768,0.000000,0.000000,0.272544,0.100000,0.100000,-0.359995,-0.387206,-0.050000,-0.050000,0.240518,-0.441820,0.000000,0.000000,-0.596224,0.522178,1.069848,1.096601,0.091749,-0.034145,-0.079251,-0.006350,0.001585,-0.127003
-0.050000,-0.050000,-0.104748,0.000000,0.000000,0.133075,0.000000,0.000000,0.270603,0.100000,0.100000,-0.361548,-0.392801,-0.050000,-0.050000,0.239259,-0.440697,0.000000,0.000000,-0.596428,0.524287,1.072413,1.091793,0.093008,-0.037363,-0.080224,-0.006935,0.002691,-0.127846
-0.050000,-0.050000,-0.105170,0.000000,0.000000,0.130195,0.000000,0.000000,0.268787,0.100000,0.100000,-0.362610,-0.397727,-0.050000,-0.050000,0.238634,-0.439933,0.000000,0.000000,-0.596580,0.526132,1.074959,1.088286,0.094304,-0.041470,-0.081306,-0.007164,0.003832,-0.128550
-0.050000,-0.050000,-0.105197,0.000000,0.000000,0.127074,0.000000,0.000000,0.267207,0.100000,0.100000,-0.362936,-0.401091,-0.050000,-0.050000,0.239095,-0.439716,0.000000,0.000000,-0.596410,0.527237,1.077460,1.086907,0.095632,-0.046333,-0.082513,-0.006803,0.004934,-0.128960
-0.050000,-0.050000,-0.104947,0.000000,0.000000,0.123801,0.000000,0.000000,0.265648,0.100000,0.100000,-0.362742,-0.403462,-0.050000,-0.050000,0.240186,-0.439623,0.000000,0.000000,-0.596158,0.527763,1.079811,1.086692,0.096974,-0.051506,-0.083775,-0.006276,0.005943,-0.129179
-0.050000,-0.050000,-0.104327,0.000000,0.000000,0.120350,0.000000,0.000000,0.264233,0.100000,0.100000,-0.361817,-0.403931,-0.050000,-0.050000,0.242266,-0.439788,0.000000,0.000000,-0.595501,0.527223,1.082060,1.088386,0.098316,-0.056693,-0.085052,-0.005371,0.006778,-0.129038
-0.050000,-0.050000,-0.103422,0.000000,0.000000,0.116775,0.000000,0.000000,0.262829,0.100000,0.100000,-0.360193,-0.402650,-0.050000,-0.050000,0.245090,-0.439953,0.000000,0.000000,-0.594567,0.525614,1.084187,1.091530,0.099657,-0.061577,-0.086271,-0.004335,0.007362,-0.128557
-0.050000,-0.050000,-0.102272,0.000000,0.000000,0.113090,0.000000,0.000000,0.261400,0.100000,0.100000,-0.357940,-0.399791,-0.050000,-0.050000,0.248539,-0.440080,0.000000,0.000000,-0.593410,0.523051,1.086204,1.095878,0.100996,-0.066104,-0.087408,-0.003228,0.007709,-0.127777
-0.050000,-0.050000,-0.100999,0.000000,0.000000,0.109360,0.000000,0.000000,0.260010,0.100000,0.100000,-0.354727,-0.394320,-0.050000,-0.050000,0.252728,-0.440024,0.000000,0.000000,-0.591702,0.518858,1.088311,1.101952,0.102342,-0.069620,-0.088306,-0.002003,0.007599,-0.126463
-0.050000,-0.050000,-0.099610,0.000000,0.000000,0.105565,0.000000,0.000000,0.258477,0.100000,0.100000,-0.350817,-0.387283,-0.050000,-0.050000,0.257315,-0.439755,0.000000,0.000000,-0.589870,0.513718,1.090406,1.108859,0.103719,-0.072527,-0.089032,-0.000876,0.007160,-0.124847
-0.050000,-0.050000,-0.098324,0.000000,0.000000,0.101790,0.000000,0.000000,0.256899,0.100000,0.100000,-0.345890,-0.377774,-0.050000,-0.050000,0.262340,-0.439127,0.000000,0.000000,-0.587560,0.507031,1.092773,1.117023,0.105144,-0.074231,-0.089418,0.000243,0.006182,-0.122694
-0.050000,-0.050000,-0.097181,0.000000,0.000000,0.098028,0.000000,0.000000,0.255155,0.100000,0.100000,-0.340027,-0.366322,-0.050000,-0.050000,0.267595,-0.438123,0.000000,0.000000,-0.585003,0.499186,1.095421,1.125912,0.106656,-0.074947,-0.089490,0.001240,0.004698,-0.120090
-0.050000,-0.050000,-0.096199,0.000000,0.000000,0.094290,0.000000,0.000000,0.253246,0.100000,0.100000,-0.333328,-0.353197,-0.050000,-0.050000,0.272989,-0.436755,0.000000,0.000000,-0.582219,0.490374,1.098350,1.135339,0.108250,-0.074797,-0.089286,0.002141,0.002771,-0.117083
-0.050000,-0.050000,-0.095692,0.000000,0.000000,0.090655,0.000000,0.000000,0.251189,0.100000,0.100000,-0.325426,-0.337901,-0.050000,-0.050000,0.278415,-0.434847,0.000000,0.000000,-0.579010,0.480284,1.101930,1.145295,0.109977,-0.073369,-0.088617,0.002947,0.000136,-0.113388
-0.050000,-0.050000,-0.095406,0.000000,0.000000,0.087056,0.000000,0.000000,0.248903,0.100000,0.100000,-0.316747,-0.321375,-0.050000,-0.050000,0.283797,-0.432585,0.000000,0.000000,-0.575644,0.469622,1.105855,1.155352,0.111814,-0.071277,-0.087714,0.003653,-0.002913,-0.109275
-0.050000,-0.050000,-0.095628,0.000000,0.000000,0.083575,0.000000,0.000000,0.246453,0.100000,0.100000,-0.306985,-0.303310,-0.050000,-0.050000,0.289032,-0.429816,0.000000,0.000000,-0.571895,0.458167,1.110466,1.165475,0.113767,-0.068217,-0.086404,0.004291,-0.006609,-0.104443
-0.050000,-0.050000,-0.096192,0.000000,0.000000,0.080174,0.000000,0.000000,0.243809,0.100000,0.100000,-0.296405,-0.284326,-0.050000,-0.050000,0.294070,-0.426682,0.000000,0.000000,-0.567888,0.446409,1.115581,1.175388,0.115806,-0.064580,-0.084833,0.004873,-0.010784,-0.099014
-0.050000,-0.050000,-0.097071,0.000000,0.000000,0.076861,0.000000,0.000000,0.241017,0.100000,0.100000,-0.285140,-0.264679,-0.050000,-0.050000,0.298890,-0.423217,0.000000,0.000000,-0.563618,0.434486,1.121136,1.185054,0.117911,-0.060496,-0.083053,0.005444,-0.015362,-0.093049
-0.050000,-0.050000,-0.098296,0.000000,0.000000,0.073669,0.000000,0.000000,0.238139,0.100000,0.100000,-0.273124,-0.244736,-0.050000,-0.050000,0.303371,-0.419464,0.000000,0.000000,-0.559025,0.422660,1.127248,1.194156,0.120020,-0.056052,-0.081017,0.005989,-0.020455,-0.086370
-0.050000,-0.050000,-0.099714,0.000000,0.000000,0.070563,0.000000,0.000000,0.235200,0.100000,0.100000,-0.260722,-0.224794,-0.050000,-0.050000,0.307578,-0.415555,0.000000,0.000000,-0.554208,0.411091,1.133630,1.202803,0.122144,-0.051473,-0.078894,0.006575,-0.025818,-0.079289
-0.050000,-0.050000,-0.101288,0.000000,0.000000,0.067571,0.000000,0.000000,0.232305,0.100000,0.100000,-0.247942,-0.205386,-0.050000,-0.050000,0.311392,-0.411587,0.000000,0.000000,-0.549188,0.400056,1.140316,1.210624,0.124225,-0.046881,-0.076660,0.007161,-0.031545,-0.071759
-0.050000,-0.050000,-0.102924,0.000000,0.000000,0.064682,0.000000,0.000000,0.229523,0.100000,0.100000,-0.235072,-0.186823,-0.050000,-0.050000,0.314841,-0.407709,0.000000,0.000000,-0.544069,0.389658,1.147090,1.217590,0.126298,-0.042391,-0.074425,0.007783,-0.037492,-0.064069
-0.050000,-0.050000,-0.104595,0.000000,0.000000,0.061892,0.000000,0.000000,0.226907,0.100000,0.100000,-0.222219,-0.169181,-0.050000,-0.050000,0.317941,-0.403958,0.000000,0.000000,-0.538874,0.379871,1.153897,1.223745,0.128370,-0.038026,-0.072208,0.008455,-0.043612,-0.056318
-0.050000,-0.050000,-0.106142,0.000000,0.000000,0.059205,0.000000,0.000000,0.224601,0.100000,0.100000,-0.209669,-0.153454,-0.050000,-0.050000,0.320592,-0.400675,0.000000,0.000000,-0.533951,0.371074,1.160460,1.228309,0.130555,-0.033974,-0.070123,0.009043,-0.049888,-0.048972
-0.050000,-0.050000,-0.107667,0.000000,0.000000,0.056625,0.000000,0.000000,0.222615,0.100000,0.100000,-0.197469,-0.139022,-0.050000,-0.050000,0.322913,-0.397735,0.000000,0.000000,-0.529124,0.362884,1.166838,1.231812,0.132854,-0.030082,-0.068133,0.009687,-0.056227,-0.041982
-0.050000,-0.050000,-0.109000,0.000000,0.000000,0.054138,0.000000,0.000000,0.221061,0.100000,0.100000,-0.185915,-0.126975,-0.050000,-0.050000,0.324822,-0.395546,0.000000,0.000000,-0.524903,0.355676,1.172669,1.233200,0.135497,-0.026547,-0.066387,0.010140,-0.062583,-0.035991
-0.050000,-0.050000,-0.110219,0.000000,0.000000,0.051759,0.000000,0.000000,0.219977,0.100000,0.100000,-0.175092,-0.116989,-0.050000,-0.050000,0.326404,-0.394102,0.000000,0.000000,-0.521223,0.349194,1.177944,1.232561,0.138543,-0.023298,-0.064868,0.010460,-0.068859,-0.031096
-0.050000,-0.050000,-0.111323,0.000000,0.000000,0.049479,0.000000,0.000000,0.219347,0.100000,0.100000,-0.164989,-0.108904,-0.050000,-0.050000,0.327700,-0.393392,0.000000,0.000000,-0.518097,0.343337,1.182665,1.229934,0.142011,-0.020323,-0.063570,0.010643,-0.075030,-0.027312
-0.050000,-0.050000,-0.112235,0.000000,0.000000,0.047283,0.000000,0.000000,0.219231,0.100000,0.100000,-0.155971,-0.103754,-0.050000,-0.050000,0.328746,-0.393958,0.000000,0.000000,-0.516119,0.338383,1.186338,1.223800,0.146278,-0.017916,-0.062702,0.010276,-0.080839,-0.025609
-0.050000,-0.050000,-0.113073,0.000000,0.000000,0.045200,0.000000,0.000000,0.219599,0.100000,0.100000,-0.147760,-0.100288,-0.050000,-0.050000,0.329605,-0.395369,0.000000,0.000000,-0.514691,0.333853,1.189375,1.215362,0.151034,-0.015861,-0.062064,0.009749,-0.086364,-0.025268
-0.050000,-0.050000,-0.113751,0.000000,0.000000,0.043185,0.000000,0.000000,0.220415,0.100000,0.100000,-0.140689,-0.099676,-0.050000,-0.050000,0.330376,-0.398264,0.000000,0.000000,-0.514487,0.330108,1.191216,1.202828,0.156646,-0.014594,-0.061919,0.008467,-0.091239,-0.027396
-0.050000,-0.050000,-0.114342,0.000000,0.000000,0.041263,0.000000,0.000000,0.221678,0.100000,0.100000,-0.134596,-0.101125,-0.050000,-0.050000,0.331115,-0.402423,0.000000,0.000000,-0.515062,0.326825,1.192095,1.186824,0.162844,-0.014038,-0.062145,0.006681,-0.095434,-0.031621
-0.050000,-0.050000,-0.114854,0.000000,0.000000,0.039420,0.000000,0.000000,0.223308,0.100000,0.100000,-0.129372,-0.104409,-0.050000,-0.050000,0.331859,-0.407766,0.000000,0.000000,-0.516356,0.323921,1.192080,1.167538,0.169545,-0.014224,-0.062721,0.004399,-0.098942,-0.037808
-0.050000,-0.050000,-0.115249,0.000000,0.000000,0.037600,0.000000,0.000000,0.225226,0.100000,0.100000,-0.125243,-0.110267,-0.050000,-0.050000,0.332824,-0.414874,0.000000,0.000000,-0.518597,0.321522,1.190767,1.143522,0.176725,-0.015520,-0.063848,0.001097,-0.101240,-0.046904
-0.050000,-0.050000,-0.115609,0.000000,0.000000,0.035860,0.000000,0.000000,0.227474,0.100000,0.100000,-0.121840,-0.117448,-0.050000,-0.050000,0.333880,-0.423039,0.000000,0.000000,-0.521216,0.319219,1.188689,1.116537,0.184079,-0.017556,-0.065251,-0.002564,-0.102749,-0.057777
-0.050000,-0.050000,-0.115875,0.000000,0.000000,0.034098,0.000000,0.000000,0.229884,0.100000,0.100000,-0.119383,-0.126876,-0.050000,-0.050000,0.335313,-0.432894,0.000000,0.000000,-0.524457,0.317116,1.185430,1.085053,0.191490,-0.020609,-0.067158,-0.007247,-0.102896,-0.071422
-0.050000,-0.050000,-0.116112,0.000000,0.000000,0.032351,0.000000,0.000000,0.232522,0.100000,0.100000,-0.117650,-0.137731,-0.050000,-0.050000,0.337047,-0.443926,0.000000,0.000000,-0.527915,0.314883,1.181340,1.050255,0.198704,-0.024302,-0.069374,-0.012485,-0.101981,-0.087064
-0.050000,-0.050000,-0.116320,0.000000,0.000000,0.030600,0.000000,0.000000,0.235316,0.100000,0.100000,-0.116536,-0.149857,-0.050000,-0.050000,0.339100,-0.455953,0.000000,0.000000,-0.531536,0.312433,1.176529,1.012521,0.205646,-0.028574,-0.071856,-0.018231,-0.100101,-0.104430
-0.050000,-0.050000,-0.116506,0.000000,0.000000,0.028755,0.000000,0.000000,0.238188,0.100000,0.100000,-0.116124,-0.163588,-0.050000,-0.050000,0.341730,-0.469113,0.000000,0.000000,-0.535188,0.309517,1.170905,0.971388,0.211962,-0.032915,-0.074650,-0.024788,-0.097013,-0.123764
-0.050000,-0.050000,-0.116704,0.000000,0.000000,0.026889,0.000000,0.000000,0.241235,0.100000,0.100000,-0.116180,-0.178107,-0.050000,-0.050000,0.344703,-0.482742,0.000000,0.000000,-0.538778,0.306116,1.164819,0.928270,0.217799,-0.037336,-0.077567,-0.031619,-0.093255,-0.144108
-0.050000,-0.050000,-0.116926,0.000000,0.000000,0.024891,0.000000,0.000000,0.244327,0.100000,0.100000,-0.116786,-0.193839,-0.050000,-0.050000,0.348339,-0.496884,0.000000,0.000000,-0.542181,0.301937,1.158221,0.882777,0.222793,-0.041002,-0.080648,-0.039120,-0.088633,-0.165586
-0.050000,-0.050000,-0.117189,0.000000,0.000000,0.022795,0.000000,0.000000,0.247560,0.100000,0.100000,-0.117808,-0.210244,-0.050000,-0.050000,0.352518,-0.510998,0.000000,0.000000,-0.545367,0.297023,1.151360,0.835963,0.227052,-0.043744,-0.083762,-0.046960,-0.083558,-0.187456
-0.050000,-0.050000,-0.117488,0.000000,0.000000,0.020588,0.000000,0.000000,0.250894,0.100000,0.100000,-0.119179,-0.227222,-0.050000,-0.050000,0.357229,-0.524845,0.000000,0.000000,-0.548339,0.291389,1.144333,0.788210,0.230617,-0.045484,-0.086878,-0.055160,-0.078169,-0.209441
-0.050000,-0.050000,-0.117861,0.000000,0.000000,0.018233,0.000000,0.000000,0.254332,0.100000,0.100000,-0.120900,-0.244714,-0.050000,-0.050000,0.362680,-0.537919,0.000000,0.000000,-0.550944,0.284855,1.137357,0.740141,0.233223,-0.044918,-0.089913,-0.063774,-0.072630,-0.231016
-0.050000,-0.050000,-0.118254,0.000000,0.000000,0.015741,0.000000,0.000000,0.257894,0.100000,0.100000,-0.122881,-0.262490,-0.050000,-0.050000,0.368660,-0.550145,0.000000,0.000000,-0.553346,0.277772,1.130450,0.692155,0.235187,-0.042924,-0.092871,-0.072702,-0.067106,-0.252060
-0.050000,-0.050000,-0.118708,0.000000,0.000000,0.013120,0.000000,0.000000,0.261585,0.100000,0.100000,-0.125124,-0.280441,-0.050000,-0.050000,0.375353,-0.560831,0.000000,0.000000,-0.555329,0.269975,1.123924,0.645108,0.236167,-0.037870,-0.095643,-0.081966,-0.061754,-0.272032
-0.050000,-0.050000,-0.119165,0.000000,0.000000,0.010354,0.000000,0.000000,0.265407,0.100000,0.100000,-0.127588,-0.298459,-0.050000,-0.050000,0.382619,-0.569917,0.000000,0.000000,-0.557002,0.261796,1.117811,0.599392,0.236324,-0.030262,-0.098243,-0.091533,-0.056643,-0.290927
-0.050000,-0.050000,-0.119616,0.000000,0.000000,0.007465,0.000000,0.000000,0.269345,0.100000,0.100000,-0.130244,-0.316495,-0.050000,-0.050000,0.390382,-0.577287,0.000000,0.000000,-0.558365,0.253367,1.112163,0.555238,0.235698,-0.020183,-0.100670,-0.101446,-0.051790,-0.308756
-0.050000,-0.050000,-0.120019,0.000000,0.000000,0.004525,0.000000,0.000000,0.273441,0.100000,0.100000,-0.133120,-0.334224,-0.050000,-0.050000,0.398554,-0.582203,0.000000,0.000000,-0.559191,0.244768,1.107312,0.513893,0.233929,-0.006424,-0.102795,-0.111496,-0.047259,-0.325275
-0.050000,-0.050000,-0.120360,0.000000,0.000000,0.001455,0.000000,0.000000,0.277611,0.100000,0.100000,-0.136178,-0.351925,-0.050000,-0.050000,0.407027,-0.585301,0.000000,0.000000,-0.559727,0.236285,1.103009,0.474671,0.231364,0.009613,-0.104756,-0.121955,-0.042933,-0.340902
-0.050000,-0.050000,-0.120562,0.000000,0.000000,-0.001581,0.000000,0.000000,0.281931,0.100000,0.100000,-0.139492,-0.369048,-0.050000,-0.050000,0.415529,-0.585651,0.000000,0.000000,-0.559586,0.227943,1.099602,0.439136,0.227459,0.029307,-0.106365,-0.132444,-0.038795,-0.355534
-0.050000,-0.050000,-0.120607,0.000000,0.000000,-0.004660,0.000000,0.000000,0.286312,0.100000,0.100000,-0.143054,-0.385825,-0.050000,-0.050000,0.423923,-0.583807,0.000000,0.000000,-0.558955,0.219955,1.096867,0.406810,0.222407,0.051598,-0.107725,-0.143191,-0.034706,-0.369516
-0.050000,-0.050000,-0.120484,0.000000,0.000000,-0.007723,0.000000,0.000000,0.290749,0.100000,0.100000,-0.146860,-0.402185,-0.050000,-0.050000,0.432053,-0.579883,0.000000,0.000000,-0.557815,0.212369,1.094738,0.377649,0.216232,0.076162,-0.108844,-0.154206,-0.030593,-0.383019
-0.050000,-0.050000,-0.120046,0.000000,0.000000,-0.010675,0.000000,0.000000,0.295253,0.100000,0.100000,-0.151039,-0.417604,-0.050000,-0.050000,0.439381,-0.573510,0.000000,0.000000,-0.555887,0.205251,1.093138,0.352699,0.208489,0.103203,-0.109632,-0.165142,-0.026288,-0.396212
-0.050000,-0.050000,-0.119399,0.000000,0.000000,-0.013594,0.000000,0.000000,0.299730,0.100000,0.100000,-0.155455,-0.432608,-0.050000,-0.050000,0.446139,-0.565591,0.000000,0.000000,-0.553581,0.198643,1.091856,0.330609,0.199711,0.131577,-0.110239,-0.176451,-0.021808,-0.409157
-0.050000,-0.050000,-0.118316,0.000000,0.000000,-0.016353,0.000000,0.000000,0.304220,0.100000,0.100000,-0.160299,-0.446351,-0.050000,-0.050000,0.451546,-0.555679,0.000000,0.000000,-0.550503,0.192558,1.090609,0.312687,0.189364,0.161378,-0.110597,-0.187544,-0.016994,-0.421948
-0.050000,-0.050000,-0.116870,0.000000,0.000000,-0.019007,0.000000,0.000000,0.308627,0.100000,0.100000,-0.165430,-0.459215,-0.050000,-0.050000,0.455775,-0.544549,0.000000,0.000000,-0.547055,0.187010,1.089176,0.297857,0.177924,0.191688,-0.110828,-0.198733,-0.011924,-0.434456
-0.050000,-0.050000,-0.115044,0.000000,0.000000,-0.021525,0.000000,0.000000,0.312949,0.100000,0.100000,-0.170824,-0.471096,-0.050000,-0.050000,0.458752,-0.532442,0.000000,0.000000,-0.543275,0.181928,1.087379,0.285823,0.165533,0.222142,-0.110986,-0.209946,-0.006628,-0.446635
-0.050000,-0.050000,-0.112667,0.000000,0.000000,-0.023926,0.000000,0.000000,0.317145,0.100000,0.100000,-0.176543,-0.481450,-0.050000,-0.050000,0.459934,-0.519573,0.000000,0.000000,-0.539230,0.177401,1.084661,0.276931,0.152285,0.252044,-0.111197,-0.220752,-0.001236,-0.458136
-0.050000,-0.050000,-0.109913,0.000000,0.000000,-0.026166,0.000000,0.000000,0.321165,0.100000,0.100000,-0.182351,-0.490842,-0.050000,-0.050000,0.459912,-0.506403,0.000000,0.000000,-0.535199,0.173250,1.081281,0.269963,0.138625,0.281340,-0.111441,-0.231540,0.004173,-0.468963
-0.050000,-0.050000,-0.106567,0.000000,0.000000,-0.028330,0.000000,0.000000,0.324982,0.100000,0.100000,-0.188354,-0.498476,-0.050000,-0.050000,0.458007,-0.493142,0.000000,0.000000,-0.531285,0.169670,1.076536,0.265471,0.124819,0.309236,-0.111926,-0.241653,0.009289,-0.478516
-0.050000,-0.050000,-0.102771,0.000000,0.000000,-0.030341,0.000000,0.000000,0.328527,0.100000,0.100000,-0.194312,-0.504761,-0.050000,-0.050000,0.454723,-0.480119,0.000000,0.000000,-0.527722,0.166506,1.070733,0.262527,0.111294,0.335834,-0.112583,-0.251363,0.013993,-0.486735
-0.050000,-0.050000,-0.098553,0.000000,0.000000,-0.032227,0.000000,0.000000,0.331795,0.100000,0.100000,-0.200195,-0.509674,-0.050000,-0.050000,0.450163,-0.467465,0.000000,0.000000,-0.524559,0.163730,1.063891,0.260844,0.098276,0.361118,-0.113442,-0.260588,0.018173,-0.493521
-0.050000,-0.050000,-0.093909,0.000000,0.000000,-0.034020,0.000000,0.000000,0.334720,0.100000,0.100000,-0.205917,-0.512856,-0.050000,-0.050000,0.444233,-0.455507,0.000000,0.000000,-0.522102,0.161544,1.055926,0.260363,0.086411,0.384700,-0.114551,-0.269031,0.021404,-0.498257
-0.050000,-0.050000,-0.088968,0.000000,0.000000,-0.035622,0.000000,0.000000,0.337299,0.100000,0.100000,-0.211392,-0.514804,-0.050000,-0.050000,0.437410,-0.444137,0.000000,0.000000,-0.520143,0.159633,1.047319,0.260509,0.075490,0.407212,-0.115763,-0.277027,0.023953,-0.501464
-0.050000,-0.050000,-0.083785,0.000000,0.000000,-0.037090,0.000000,0.000000,0.339482,0.100000,0.100000,-0.216568,-0.515018,-0.050000,-0.050000,0.429619,-0.433742,0.000000,0.000000,-0.519064,0.158388,1.038159,0.261402,0.066305,0.428197,-0.117075,-0.284186,0.025306,-0.502386
-0.050000,-0.050000,-0.078476,0.000000,0.000000,-0.038299,0.000000,0.000000,0.341254,0.100000,0.100000,-0.221391,-0.513868,-0.050000,-0.050000,0.421211,-0.424210,0.000000,0.000000,-0.518609,0.157545,1.028956,0.262720,0.058590,0.448190,-0.118327,-0.290767,0.025757,-0.501515
-0.050000,-0.050000,-0.073128,0.000000,0.000000,-0.039260,0.000000,0.000000,0.342645,0.100000,0.100000,-0.225900,-0.511460,-0.050000,-0.050000,0.412352,-0.415536,0.000000,0.000000,-0.518741,0.157141,1.019970,0.264390,0.052319,0.467342,-0.119467,-0.296774,0.025373,-0.498990
-0.050000,-0.050000,-0.067928,0.000000,0.000000,-0.039856,0.000000,0.000000,0.343655,0.100000,0.100000,-0.230055,-0.507664,-0.050000,-0.050000,0.403336,-0.408016,0.000000,0.000000,-0.519522,0.157377,1.011898,0.266595,0.047758,0.485504,-0.120258,-0.302025,0.024108,-0.494707
-0.050000,-0.050000,-0.062847,0.000000,0.000000,-0.040115,0.000000,0.000000,0.344326,0.100000,0.100000,-0.233971,-0.502926,-0.050000,-0.050000,0.394139,-0.401304,0.000000,0.000000,-0.520640,0.157996,1.004653,0.269172,0.044332,0.503092,-0.120812,-0.306753,0.022328,-0.489265
-0.050000,-0.050000,-0.058154,0.000000,0.000000,-0.039852,0.000000,0.000000,0.344723,0.100000,0.100000,-0.237621,-0.497037,-0.050000,-0.050000,0.385261,-0.395933,0.000000,0.000000,-0.522206,0.159363,0.999248,0.272635,0.042350,0.519599,-0.120744,-0.310540,0.020024,-0.482560
-0.050000,-0.050000,-0.053803,0.000000,0.000000,-0.039087,0.000000,0.000000,0.344896,0.100000,0.100000,-0.241139,-0.490396,-0.050000,-0.050000,0.376596,-0.391642,0.000000,0.000000,-0.523961,0.161313,0.995571,0.277000,0.041324,0.535170,-0.120201,-0.313488,0.017502,-0.475087
-0.050000,-0.050000,-0.049841,0.000000,0.000000,-0.037806,0.000000,0.000000,0.344938,0.100000,0.100000,-0.244593,-0.483180,-0.050000,-0.050000,0.368274,-0.388438,0.000000,0.000000,-0.525842,0.163885,0.993765,0.282425,0.041079,0.549683,-0.119158,-0.315519,0.014907,-0.467084
-0.050000,-0.050000,-0.046398,0.000000,0.000000,-0.035852,0.000000,0.000000,0.344999,0.100000,0.100000,-0.248028,-0.475456,-0.050000,-0.050000,0.360723,-0.386731,0.000000,0.000000,-0.527776,0.167340,0.994500,0.289641,0.041550,0.562339,-0.117389,-0.316090,0.012431,-0.458752
-0.050000,-0.050000,-0.043329,0.000000,0.000000,-0.033393,0.000000,0.000000,0.345083,0.100000,0.100000,-0.251545,-0.467619,-0.050000,-0.050000,0.353495,-0.385974,0.000000,0.000000,-0.529672,0.171447,0.997053,0.298224,0.042443,0.573559,-0.115249,-0.315586,0.010108,-0.450315
-0.050000,-0.050000,-0.040778,0.000000,0.000000,-0.030197,0.000000,0.000000,0.345447,0.100000,0.100000,-0.255110,-0.459635,-0.050000,-0.050000,0.347351,-0.386912,0.000000,0.000000,-0.531479,0.176691,1.002330,0.309363,0.043785,0.581854,-0.112389,-0.313022,0.008159,-0.441875
-0.050000,-0.050000,-0.038608,0.000000,0.000000,-0.026413,0.000000,0.000000,0.346086,0.100000,0.100000,-0.258768,-0.451898,-0.050000,-0.050000,0.341824,-0.389009,0.000000,0.000000,-0.533117,0.182923,1.009592,0.322693,0.045379,0.587437,-0.109173,-0.308691,0.006555,-0.433520
-0.050000,-0.050000,-0.036781,0.000000,0.000000,-0.022073,0.000000,0.000000,0.347088,0.100000,0.100000,-0.262482,-0.444497,-0.050000,-0.050000,0.336999,-0.392222,0.000000,0.000000,-0.534544,0.190204,1.018661,0.338287,0.047159,0.590022,-0.105650,-0.302505,0.005324,-0.425261
-0.050000,-0.050000,-0.035226,0.000000,0.000000,-0.017117,0.000000,0.000000,0.348631,0.100000,0.100000,-0.266077,-0.437568,-0.050000,-0.050000,0.333188,-0.396789,0.000000,0.000000,-0.535652,0.198961,1.029494,0.356834,0.049049,0.588325,-0.101877,-0.293754,0.004588,-0.416929
-0.050000,-0.050000,-0.033915,0.000000,0.000000,-0.011724,0.000000,0.000000,0.350573,0.100000,0.100000,-0.269573,-0.431282,-0.050000,-0.050000,0.329883,-0.401991,0.000000,0.000000,-0.536416,0.208806,1.041371,0.377426,0.050969,0.583363,-0.098076,-0.283271,0.004193,-0.408557
-0.050000,-0.050000,-0.032689,0.000000,0.000000,-0.005789,0.000000,0.000000,0.353153,0.100000,0.100000,-0.272588,-0.425670,-0.050000,-0.050000,0.327661,-0.408291,0.000000,0.000000,-0.536656,0.220530,1.054208,0.401122,0.052796,0.573113,-0.094331,-0.269944,0.004365,-0.399670
-0.050000,-0.050000,-0.031576,0.000000,0.000000,0.000539,0.000000,0.000000,0.356183,0.100000,0.100000,-0.275045,-0.420891,-0.050000,-0.050000,0.326068,-0.414960,0.000000,0.000000,-0.536302,0.233789,1.067321,0.427089,0.054444,0.558527,-0.090829,-0.254615,0.004968,-0.390224
-0.050000,-0.050000,-0.030514,0.000000,0.000000,0.007194,0.000000,0.000000,0.359628,0.100000,0.100000,-0.276791,-0.416865,-0.050000,-0.050000,0.325136,-0.421818,0.000000,0.000000,-0.535300,0.248657,1.080364,0.455138,0.055848,0.539613,-0.087636,-0.237506,0.005999,-0.379976
-0.050000,-0.050000,-0.029340,0.000000,0.000000,0.014156,0.000000,0.000000,0.363431,0.100000,0.100000,-0.277391,-0.413634,-0.050000,-0.050000,0.324952,-0.428700,0.000000,0.000000,-0.533458,0.265518,1.092764,0.485452,0.056814,0.515722,-0.084975,-0.218519,0.007556,-0.368424
-0.050000,-0.050000,-0.028236,0.000000,0.000000,0.021300,0.000000,0.000000,0.367407,0.100000,0.100000,-0.276996,-0.411071,-0.050000,-0.050000,0.325255,-0.435142,0.000000,0.000000,-0.530896,0.283795,1.104440,0.517212,0.057453,0.488222,-0.082702,-0.198697,0.009449,-0.355764
-0.050000,-0.050000,-0.026887,0.000000,0.000000,0.028613,0.000000,0.000000,0.371447,0.100000,0.100000,-0.274988,-0.409173,-0.050000,-0.050000,0.326190,-0.441048,0.000000,0.000000,-0.527372,0.304079,1.114712,0.550803,0.057517,0.456219,-0.081140,-0.177874,0.011826,-0.341316
-0.050000,-0.050000,-0.025514,0.000000,0.000000,0.035976,0.000000,0.000000,0.375349,0.100000,0.100000,-0.271497,-0.407788,-0.050000,-0.050000,0.327554,-0.446059,0.000000,0.000000,-0.523047,0.325738,1.123648,0.585556,0.057193,0.421092,-0.080082,-0.157059,0.014485,-0.325389
-0.050000,-0.050000,-0.024059,0.000000,0.000000,0.043321,0.000000,0.000000,0.378993,0.100000,0.100000,-0.266518,-0.406730,-0.050000,-0.050000,0.329277,-0.450063,0.000000,0.000000,-0.518001,0.348581,1.131212,0.621211,0.056539,0.383358,-0.079495,-0.136752,0.017353,-0.308003
-0.050000,-0.050000,-0.022456,0.000000,0.000000,0.050537,0.000000,0.000000,0.382125,0.100000,0.100000,-0.259821,-0.405889,-0.050000,-0.050000,0.331247,-0.452902,0.000000,0.000000,-0.512293,0.372300,1.137260,0.657498,0.055683,0.343796,-0.079404,-0.117497,0.020294,-0.289272
-0.050000,-0.050000,-0.020831,0.000000,0.000000,0.057601,0.000000,0.000000,0.384785,0.100000,0.100000,-0.251811,-0.405010,-0.050000,-0.050000,0.333410,-0.454646,0.000000,0.000000,-0.506151,0.396465,1.142198,0.694085,0.054783,0.303031,-0.079566,-0.099674,0.023220,-0.269576
-0.050000,-0.050000,-0.019091,0.000000,0.000000,0.064327,0.000000,0.000000,0.386609,0.100000,0.100000,-0.242198,-0.404051,-0.050000,-0.050000,0.335564,-0.455212,0.000000,0.000000,-0.499675,0.420451,1.145948,0.730451,0.054129,0.262397,-0.080015,-0.083839,0.025868,-0.249353
-0.050000,-0.050000,-0.017334,0.000000,0.000000,0.070701,0.000000,0.000000,0.387683,0.100000,0.100000,-0.231412,-0.402772,-0.050000,-0.050000,0.337702,-0.454828,0.000000,0.000000,-0.493087,0.443852,1.148945,0.766239,0.053876,0.222420,-0.080530,-0.070078,0.028168,-0.229075
-0.050000,-0.050000,-0.015562,0.000000,0.000000,0.076673,0.000000,0.000000,0.387982,0.100000,0.100000,-0.219671,-0.401090,-0.050000,-0.050000,0.339716,-0.453661,0.000000,0.000000,-0.486533,0.466230,1.151453,0.801055,0.054173,0.183750,-0.081021,-0.058425,0.030011,-0.209183
-0.050000,-0.050000,-0.013877,0.000000,0.000000,0.082073,0.000000,0.000000,0.387362,0.100000,0.100000,-0.207142,-0.399028,-0.050000,-0.050000,0.341457,-0.451964,0.000000,0.000000,-0.480189,0.486655,1.153797,0.833899,0.055362,0.147828,-0.081338,-0.049114,0.031129,-0.190549
-0.050000,-0.050000,-0.012168,0.000000,0.000000,0.087055,0.000000,0.000000,0.386092,0.100000,0.100000,-0.194197,-0.396407,-0.050000,-0.050000,0.343001,-0.449980,0.000000,0.000000,-0.474102,0.505536,1.156125,0.865035,0.057237,0.113945,-0.081490,-0.041546,0.031712,-0.172989
-0.050000,-0.050000,-0.010728,0.000000,0.000000,0.091294,0.000000,0.000000,0.383911,0.100000,0.100000,-0.180980,-0.393557,-0.050000,-0.050000,0.344101,-0.448067,0.000000,0.000000,-0.468419,0.521298,1.158823,0.892564,0.060294,0.084400,-0.081259,-0.036183,0.031328,-0.157926
-0.050000,-0.050000,-0.009388,0.000000,0.000000,0.094962,0.000000,0.000000,0.381119,0.100000,0.100000,-0.167860,-0.390294,-0.050000,-0.050000,0.344863,-0.446485,0.000000,0.000000,-0.463143,0.534535,1.161917,0.916650,0.064258,0.058337,-0.080715,-0.032344,0.030213,-0.145051
-0.050000,-0.050000,-0.008227,0.000000,0.000000,0.098054,0.000000,0.000000,0.377785,0.100000,0.100000,-0.155001,-0.386795,-0.050000,-0.050000,0.345237,-0.445431,0.000000,0.000000,-0.458265,0.545080,1.165493,0.936853,0.069082,0.035903,-0.079845,-0.029819,0.028378,-0.134582
-0.050000,-0.050000,-0.007419,0.000000,0.000000,0.100417,0.000000,0.000000,0.373920,0.100000,0.100000,-0.142691,-0.383360,-0.050000,-0.050000,0.345126,-0.445226,0.000000,0.000000,-0.453778,0.552290,1.169625,0.951696,0.074811,0.017913,-0.078604,-0.028750,0.025762,-0.127308
-0.050000,-0.050000,-0.006724,0.000000,0.000000,0.102318,0.000000,0.000000,0.369786,0.100000,0.100000,-0.130986,-0.379732,-0.050000,-0.050000,0.344667,-0.445842,0.000000,0.000000,-0.449637,0.557246,1.174175,0.962385,0.081130,0.002995,-0.077134,-0.028385,0.022638,-0.122289
-0.050000,-0.050000,-0.006541,0.000000,0.000000,0.103405,0.000000,0.000000,0.365256,0.100000,0.100000,-0.120222,-0.376585,-0.050000,-0.050000,0.343657,-0.447623,0.000000,0.000000,-0.445809,0.558691,1.179090,0.966285,0.088122,-0.007424,-0.075390,-0.029441,0.018925,-0.121033
-0.050000,-0.050000,-0.006584,0.000000,0.000000,0.103934,0.000000,0.000000,0.360592,0.100000,0.100000,-0.110465,-0.373524,-0.050000,-0.050000,0.342259,-0.450504,0.000000,0.000000,-0.442270,0.557735,1.184178,0.964652,0.095501,-0.014722,-0.073526,-0.031210,0.014907,-0.122582
-0.050000,-0.050000,-0.006902,0.000000,0.000000,0.103917,0.000000,0.000000,0.355811,0.100000,0.100000,-0.101716,-0.370703,-0.050000,-0.050000,0.340476,-0.454407,0.000000,0.000000,-0.438982,0.554530,1.189260,0.957544,0.103120,-0.019298,-0.071623,-0.033712,0.010735,-0.126876
-0.050000,-0.050000,-0.007573,0.000000,0.000000,0.103227,0.000000,0.000000,0.350911,0.100000,0.100000,-0.094221,-0.368351,-0.050000,-0.050000,0.338309,-0.459312,0.000000,0.000000,-0.435944,0.549024,1.193960,0.944274,0.110812,-0.021288,-0.069831,-0.037195,0.006680,-0.134333
-0.050000,-0.050000,-0.008393,0.000000,0.000000,0.102122,0.000000,0.000000,0.346038,0.100000,0.100000,-0.087723,-0.366067,-0.050000,-0.050000,0.335911,-0.464980,0.000000,0.000000,-0.433125,0.542007,1.198342,0.926644,0.118484,-0.021746,-0.068146,-0.041090,0.002790,-0.143906
-0.050000,-0.050000,-0.009528,0.000000,0.000000,0.100295,0.000000,0.000000,0.341046,0.100000,0.100000,-0.082699,-0.364377,-0.050000,-0.050000,0.333269,-0.471275,0.000000,0.000000,-0.430604,0.533215,1.201669,0.903415,0.125861,-0.020654,-0.066867,-0.046008,-0.000397,-0.156517
-0.050000,-0.050000,-0.010768,0.000000,0.000000,0.097975,0.000000,0.000000,0.336093,0.100000,0.100000,-0.078909,-0.362836,-0.050000,-0.050000,0.330572,-0.477922,0.000000,0.000000,-0.428371,0.523339,1.204063,0.876452,0.132869,-0.018891,-0.065932,-0.051342,-0.002860,-0.171162
-0.050000,-0.050000,-0.012082,0.000000,0.000000,0.095174,0.000000,0.000000,0.331134,0.100000,0.100000,-0.076325,-0.361494,-0.050000,-0.050000,0.327902,-0.484624,0.000000,0.000000,-0.426463,0.512665,1.205340,0.846579,0.139383,-0.016922,-0.065423,-0.057053,-0.004412,-0.187537
-0.050000,-0.050000,-0.013404,0.000000,0.000000,0.091814,0.000000,0.000000,0.326144,0.100000,0.100000,-0.075223,-0.360427,-0.050000,-0.050000,0.325422,-0.490991,0.000000,0.000000,-0.425005,0.501643,1.205079,0.814714,0.145125,-0.015159,-0.065512,-0.063008,-0.004610,-0.205420
-0.050000,-0.050000,-0.014688,0.000000,0.000000,0.088062,0.000000,0.000000,0.321197,0.100000,0.100000,-0.075141,-0.359495,-0.050000,-0.050000,0.323177,-0.496900,0.000000,0.000000,-0.423896,0.490418,1.203726,0.781933,0.150231,-0.013828,-0.065980,-0.069004,-0.003795,-0.224188
-0.050000,-0.050000,-0.015805,0.000000,0.000000,0.083741,0.000000,0.000000,0.316227,0.100000,0.100000,-0.076822,-0.358843,-0.050000,-0.050000,0.321413,-0.501756,0.000000,0.000000,-0.423455,0.479883,1.200522,0.749744,0.154190,-0.013315,-0.067165,-0.074679,-0.001168,-0.243424
-0.050000,-0.050000,-0.016741,0.000000,0.000000,0.078974,0.000000,0.000000,0.311332,0.100000,0.100000,-0.079794,-0.358506,-0.050000,-0.050000,0.320152,-0.505466,0.000000,0.000000,-0.423582,0.470135,1.196020,0.719129,0.157149,-0.013614,-0.068795,-0.079904,0.002834,-0.262564
-0.050000,-0.050000,-0.017453,0.000000,0.000000,0.073784,0.000000,0.000000,0.306521,0.100000,0.100000,-0.084096,-0.358517,-0.050000,-0.050000,0.319437,-0.507867,0.000000,0.000000,-0.424326,0.461593,1.190309,0.691106,0.159079,-0.014747,-0.070847,-0.084469,0.008172,-0.281086
-0.050000,-0.050000,-0.017819,0.000000,0.000000,0.068154,0.000000,0.000000,0.301856,0.100000,0.100000,-0.090020,-0.358938,-0.050000,-0.050000,0.319368,-0.508609,0.000000,0.000000,-0.425907,0.455096,1.183422,0.667514,0.159799,-0.016802,-0.073314,-0.087868,0.014910,-0.298034
-0.050000,-0.050000,-0.017980,0.000000,0.000000,0.062166,0.000000,0.000000,0.297338,0.100000,0.100000,-0.097019,-0.360027,-0.050000,-0.050000,0.319800,-0.507968,0.000000,0.000000,-0.428065,0.450181,1.175844,0.647763,0.159613,-0.019484,-0.076008,-0.090543,0.022556,-0.313651
-0.050000,-0.050000,-0.017653,0.000000,0.000000,0.055803,0.000000,0.000000,0.293115,0.100000,0.100000,-0.105833,-0.361601,-0.050000,-0.050000,0.320850,-0.505395,0.000000,0.000000,-0.431319,0.448499,1.167594,0.635090,0.158216,-0.023073,-0.078936,-0.091338,0.031198,-0.325996
-0.050000,-0.050000,-0.017031,0.000000,0.000000,0.049140,0.000000,0.000000,0.289168,0.100000,0.100000,-0.115883,-0.364125,-0.050000,-0.050000,0.322316,-0.501180,0.000000,0.000000,-0.435384,0.449425,1.159174,0.628673,0.155914,-0.027281,-0.081923,-0.090900,0.040324,-0.335454
-0.050000,-0.050000,-0.016114,0.000000,0.000000,0.042249,0.000000,0.000000,0.285559,0.100000,0.100000,-0.127131,-0.367508,-0.050000,-0.050000,0.324074,-0.495424,0.000000,0.000000,-0.440257,0.453132,1.150853,0.628806,0.152867,-0.032096,-0.084882,-0.089129,0.049634,-0.341609
-0.050000,-0.050000,-0.014838,0.000000,0.000000,0.035239,0.000000,0.000000,0.282386,0.100000,0.100000,-0.139622,-0.371695,-0.050000,-0.050000,0.325970,-0.488054,0.000000,0.000000,-0.446118,0.460119,1.143029,0.636593,0.149178,-0.037721,-0.087659,-0.085659,0.058728,-0.343440
-0.050000,-0.050000,-0.013414,0.000000,0.000000,0.028152,0.000000,0.000000,0.279549,0.100000,0.100000,-0.152936,-0.376871,-0.050000,-0.050000,0.327856,-0.479423,0.000000,0.000000,-0.452576,0.469372,1.135747,0.650137,0.145066,-0.043903,-0.090291,-0.081315,0.067528,-0.342114
-0.050000,-0.050000,-0.011655,0.000000,0.000000,0.021199,0.000000,0.000000,0.277277,0.100000,0.100000,-0.167200,-0.382604,-0.050000,-0.050000,0.329517,-0.469331,0.000000,0.000000,-0.460064,0.481906,1.129629,0.671455,0.140681,-0.051265,-0.092471,-0.075199,0.075378,-0.335676
-0.050000,-0.050000,-0.009790,0.000000,0.000000,0.014424,0.000000,0.000000,0.275420,0.100000,0.100000,-0.182010,-0.389120,-0.050000,-0.050000,0.330829,-0.458076,0.000000,0.000000,-0.468146,0.496530,1.124608,0.698437,0.136174,-0.059589,-0.094295,-0.068261,0.082345,-0.325538
-0.050000,-0.050000,-0.007859,0.000000,0.000000,0.007926,0.000000,0.000000,0.274003,0.100000,0.100000,-0.197146,-0.396095,-0.050000,-0.050000,0.331694,-0.445843,0.000000,0.000000,-0.476719,0.512835,1.120762,0.730140,0.131716,-0.069003,-0.095716,-0.060682,0.088301,-0.312056
-0.050000,-0.050000,-0.005901,0.000000,0.000000,0.001872,0.000000,0.000000,0.273057,0.100000,0.100000,-0.212300,-0.403250,-0.050000,-0.050000,0.331989,-0.432823,0.000000,0.000000,-0.485708,0.530443,1.118297,0.765812,0.127482,-0.079680,-0.096625,-0.052580,0.093010,-0.295407
-0.050000,-0.050000,-0.003984,0.000000,0.000000,-0.003812,0.000000,0.000000,0.272427,0.100000,0.100000,-0.227396,-0.410461,-0.050000,-0.050000,0.331764,-0.419211,0.000000,0.000000,-0.494861,0.548618,1.116836,0.803886,0.123456,-0.091391,-0.097210,-0.044438,0.096832,-0.276780
-0.050000,-0.050000,-0.002171,0.000000,0.000000,-0.008841,0.000000,0.000000,0.272237,0.100000,0.100000,-0.241829,-0.417401,-0.050000,-0.050000,0.330930,-0.405380,0.000000,0.000000,-0.504058,0.566880,1.116768,0.843362,0.119900,-0.104223,-0.097245,-0.036375,0.099346,-0.256432
-0.050000,-0.050000,-0.000492,0.000000,0.000000,-0.013318,0.000000,0.000000,0.272310,0.100000,0.100000,-0.255621,-0.423947,-0.050000,-0.050000,0.329583,-0.391564,0.000000,0.000000,-0.513082,0.584689,1.117642,0.882921,0.116750,-0.117819,-0.096955,-0.028709,0.100971,-0.235431
-0.050000,-0.050000,0.001026,0.000000,0.000000,-0.017245,0.000000,0.000000,0.272601,0.100000,0.100000,-0.268562,-0.429973,-0.050000,-0.050000,0.327829,-0.378043,0.000000,0.000000,-0.521777,0.601609,1.119281,0.921462,0.114022,-0.131864,-0.096394,-0.021628,0.101858,-0.214558
-0.050000,-0.050000,0.002328,0.000000,0.000000,-0.020566,0.000000,0.000000,0.273079,0.100000,0.100000,-0.280302,-0.435392,-0.050000,-0.050000,0.325789,-0.365225,0.000000,0.000000,-0.529892,0.617088,1.121571,0.957685,0.111769,-0.145879,-0.095600,-0.015358,0.102087,-0.194685
-0.050000,-0.050000,0.003498,0.000000,0.000000,-0.023438,0.000000,0.000000,0.273644,0.100000,0.100000,-0.291142,-0.440106,-0.050000,-0.050000,0.323534,-0.353082,0.000000,0.000000,-0.537549,0.631405,1.124187,0.991719,0.109879,-0.159784,-0.094692,-0.009673,0.101922,-0.175792
