RRGGZZ/g1_deploy_sonic/data/example_scalelab/qwen_audio/g1_ref_en/case_test9/joint_pos.csv
joint_0,joint_1,joint_2,joint_3,joint_4,joint_5,joint_6,joint_7,joint_8,joint_9,joint_10,joint_11,joint_12,joint_13,joint_14,joint_15,joint_16,joint_17,joint_18,joint_19,joint_20,joint_21,joint_22,joint_23,joint_24,joint_25,joint_26,joint_27,joint_28
-0.050000,-0.050000,0.000000,0.000000,0.000000,0.000000,0.000000,0.000000,0.000000,0.100000,0.100000,-0.186418,-0.508009,-0.050000,-0.050000,0.415455,-0.737866,0.000000,0.000000,-0.494983,0.220939,1.086874,-0.034773,0.127371,-0.323209,-0.072616,-0.033627,0.023231,-0.571763
-0.050000,-0.050000,0.000000,0.000000,0.000000,0.000000,0.000000,0.000000,0.000000,0.100000,0.100000,-0.191668,-0.515513,-0.050000,-0.050000,0.405448,-0.741394,0.000000,0.000000,-0.494377,0.216799,1.108264,-0.026125,0.131034,-0.319357,-0.081715,-0.034852,0.022773,-0.576874
-0.050000,-0.050000,0.000000,0.000000,0.000000,0.000000,0.000000,0.000000,0.000000,0.100000,0.100000,-0.194733,-0.521316,-0.050000,-0.050000,0.396671,-0.744338,0.000000,0.000000,-0.493228,0.211724,1.127281,-0.018605,0.134923,-0.315597,-0.089055,-0.035509,0.021611,-0.581031
-0.050000,-0.050000,0.000000,0.000000,0.000000,0.000000,0.000000,0.000000,0.000000,0.100000,0.100000,-0.193423,-0.523716,-0.050000,-0.050000,0.390354,-0.746114,0.000000,0.000000,-0.490993,0.204776,1.141548,-0.013338,0.139264,-0.312022,-0.092878,-0.035028,0.019039,-0.583277
-0.050000,-0.050000,0.000000,0.000000,0.000000,0.000000,0.000000,0.000000,0.000000,0.100000,0.100000,-0.189749,-0.524078,-0.050000,-0.050000,0.385202,-0.747433,0.000000,0.000000,-0.488181,0.196902,1.153722,-0.008889,0.143537,-0.308821,-0.094867,-0.033562,0.015860,-0.584801
-0.050000,-0.050000,0.000000,0.000000,0.000000,0.000000,0.000000,0.000000,0.000000,0.100000,0.100000,-0.184892,-0.523420,-0.050000,-0.050000,0.380631,-0.748524,0.000000,0.000000,-0.485079,0.188566,1.164849,-0.004849,0.147777,-0.305807,-0.095939,-0.031606,0.012377,-0.585965
-0.050000,-0.050000,0.000000,0.000000,0.000000,0.000000,0.000000,0.000000,0.000000,0.100000,0.100000,-0.178207,-0.520795,-0.050000,-0.050000,0.376978,-0.749593,0.000000,0.000000,-0.481348,0.179596,1.174400,-0.000974,0.151490,-0.303435,-0.095580,-0.028635,0.008654,-0.586998
-0.050000,-0.050000,0.000000,0.000000,0.000000,0.000000,0.000000,0.000000,0.000000,0.100000,0.100000,-0.171270,-0.517704,-0.050000,-0.050000,0.373528,-0.750766,0.000000,0.000000,-0.477456,0.170556,1.183559,0.003009,0.154935,-0.301267,-0.094993,-0.025469,0.004993,-0.588223
-0.050000,-0.050000,0.000000,0.000000,0.000000,0.000000,0.000000,0.000000,0.000000,0.100000,0.100000,-0.163829,-0.513682,-0.050000,-0.050000,0.370486,-0.752151,0.000000,0.000000,-0.473242,0.161377,1.191935,0.007209,0.157844,-0.299507,-0.093951,-0.021911,0.001455,-0.589834
-0.050000,-0.050000,0.000000,0.000000,0.000000,0.000000,0.000000,0.000000,0.000000,0.100000,0.100000,-0.156381,-0.508924,-0.050000,-0.050000,0.367800,-0.753801,0.000000,0.000000,-0.468840,0.152197,1.199435,0.011768,0.160119,-0.298032,-0.092769,-0.018183,-0.001765,-0.592199
-0.050000,-0.050000,0.000000,0.000000,0.000000,0.000000,0.000000,0.000000,0.000000,0.100000,0.100000,-0.148929,-0.503797,-0.050000,-0.050000,0.365293,-0.755584,0.000000,0.000000,-0.464344,0.143017,1.206498,0.016506,0.162077,-0.296698,-0.091517,-0.014370,-0.004825,-0.594942
-0.050000,-0.050000,0.000000,0.000000,0.000000,0.000000,0.000000,0.000000,0.000000,0.100000,0.100000,-0.142014,-0.497721,-0.050000,-0.050000,0.363329,-0.757660,0.000000,0.000000,-0.459844,0.133916,1.211922,0.021889,0.163056,-0.295411,-0.090355,-0.010521,-0.007208,-0.599136
-0.050000,-0.050000,0.000000,0.000000,0.000000,0.000000,0.000000,0.000000,0.000000,0.100000,0.100000,-0.135412,-0.491362,-0.050000,-0.050000,0.361555,-0.759761,0.000000,0.000000,-0.455453,0.124862,1.216698,0.027517,0.163735,-0.293962,-0.089277,-0.006706,-0.009327,-0.603805
-0.050000,-0.050000,0.000000,0.000000,0.000000,0.000000,0.000000,0.000000,0.000000,0.100000,0.100000,-0.129438,-0.484439,-0.050000,-0.050000,0.360158,-0.761910,0.000000,0.000000,-0.451280,0.115904,1.220177,0.033636,0.163811,-0.292189,-0.088368,-0.002956,-0.010916,-0.609423
-0.050000,-0.050000,0.000000,0.000000,0.000000,0.000000,0.000000,0.000000,0.000000,0.100000,0.100000,-0.124283,-0.477020,-0.050000,-0.050000,0.359143,-0.763941,0.000000,0.000000,-0.447554,0.107143,1.222245,0.040324,0.163383,-0.289688,-0.087651,0.000656,-0.011957,-0.615696
-0.050000,-0.050000,0.000000,0.000000,0.000000,0.000000,0.000000,0.000000,0.000000,0.100000,0.100000,-0.119538,-0.469353,-0.050000,-0.050000,0.358317,-0.765911,0.000000,0.000000,-0.444051,0.098480,1.223608,0.047298,0.162702,-0.286823,-0.087031,0.004200,-0.012723,-0.622296
-0.050000,-0.050000,0.000000,0.000000,0.000000,0.000000,0.000000,0.000000,0.000000,0.100000,0.100000,-0.116215,-0.461073,-0.050000,-0.050000,0.358042,-0.767491,0.000000,0.000000,-0.441531,0.090429,1.222869,0.055270,0.161440,-0.282301,-0.086639,0.007398,-0.012733,-0.629021
-0.050000,-0.050000,0.000000,0.000000,0.000000,0.000000,0.000000,0.000000,0.000000,0.100000,0.100000,-0.113409,-0.452645,-0.050000,-0.050000,0.357935,-0.768900,0.000000,0.000000,-0.439424,0.082753,1.221492,0.063626,0.160044,-0.277087,-0.086283,0.010411,-0.012544,-0.635385
-0.050000,-0.050000,0.000000,0.000000,0.000000,0.000000,0.000000,0.000000,0.000000,0.100000,0.100000,-0.111633,-0.443920,-0.050000,-0.050000,0.358164,-0.769968,0.000000,0.000000,-0.438141,0.075826,1.218839,0.072751,0.158380,-0.270488,-0.085996,0.013057,-0.011959,-0.641030
-0.050000,-0.050000,0.000000,0.000000,0.000000,0.000000,0.000000,0.000000,0.000000,0.100000,0.100000,-0.110940,-0.435027,-0.050000,-0.050000,0.358681,-0.770687,0.000000,0.000000,-0.437805,0.070111,1.215111,0.082740,0.156550,-0.262379,-0.085691,0.015168,-0.011137,-0.645007
-0.050000,-0.050000,0.000000,0.000000,0.000000,0.000000,0.000000,0.000000,0.000000,0.100000,0.100000,-0.110787,-0.426049,-0.050000,-0.050000,0.359341,-0.771231,0.000000,0.000000,-0.437941,0.065002,1.210845,0.093162,0.154637,-0.253514,-0.085376,0.017013,-0.010196,-0.648149
-0.050000,-0.050000,0.000000,0.000000,0.000000,0.000000,0.000000,0.000000,0.000000,0.100000,0.100000,-0.112302,-0.417020,-0.050000,-0.050000,0.360329,-0.771323,0.000000,0.000000,-0.439595,0.062524,1.205304,0.105001,0.152586,-0.242476,-0.084941,0.017820,-0.009166,-0.647316
-0.050000,-0.050000,0.000000,0.000000,0.000000,0.000000,0.000000,0.000000,0.000000,0.100000,0.100000,-0.114374,-0.408037,-0.050000,-0.050000,0.361378,-0.771298,0.000000,0.000000,-0.441755,0.061205,1.199437,0.117343,0.150505,-0.230845,-0.084463,0.018228,-0.008183,-0.644716
-0.050000,-0.050000,0.000000,0.000000,0.000000,0.000000,0.000000,0.000000,0.000000,0.100000,0.100000,-0.117560,-0.399144,-0.050000,-0.050000,0.362550,-0.771040,0.000000,0.000000,-0.444928,0.062204,1.192918,0.130694,0.148364,-0.218029,-0.083898,0.017840,-0.007292,-0.638583
-0.050000,-0.050000,0.000000,0.000000,0.000000,0.000000,0.000000,0.000000,0.000000,0.100000,0.100000,-0.121827,-0.390444,-0.050000,-0.050000,0.363715,-0.770586,0.000000,0.000000,-0.449041,0.066033,1.185889,0.145104,0.146144,-0.204486,-0.083309,0.016634,-0.006574,-0.628284
-0.050000,-0.050000,0.000000,0.000000,0.000000,0.000000,0.000000,0.000000,0.000000,0.100000,0.100000,-0.126634,-0.381841,-0.050000,-0.050000,0.364876,-0.770033,0.000000,0.000000,-0.453625,0.071278,1.178605,0.160045,0.143885,-0.190579,-0.082707,0.015019,-0.005942,-0.615902
-0.050000,-0.050000,0.000000,0.000000,0.000000,0.000000,0.000000,0.000000,0.000000,0.100000,0.100000,-0.132916,-0.373637,-0.050000,-0.050000,0.365783,-0.769107,0.000000,0.000000,-0.459392,0.081348,1.170680,0.176672,0.141413,-0.176491,-0.082255,0.012288,-0.005539,-0.596894
-0.050000,-0.050000,0.000000,0.000000,0.000000,0.000000,0.000000,0.000000,0.000000,0.100000,0.100000,-0.139600,-0.365588,-0.050000,-0.050000,0.366514,-0.767964,0.000000,0.000000,-0.465441,0.093119,1.162567,0.193917,0.138831,-0.162677,-0.081931,0.009261,-0.005157,-0.575790
-0.050000,-0.050000,0.000000,0.000000,0.000000,0.000000,0.000000,0.000000,0.000000,0.100000,0.100000,-0.147085,-0.357850,-0.050000,-0.050000,0.366892,-0.766387,0.000000,0.000000,-0.472054,0.108293,1.154078,0.212397,0.136028,-0.149415,-0.081861,0.005643,-0.004817,-0.550496
-0.050000,-0.050000,0.000000,0.000000,0.000000,0.000000,0.000000,0.000000,0.000000,0.100000,0.100000,-0.155095,-0.350443,-0.050000,-0.050000,0.366743,-0.764042,0.000000,0.000000,-0.478956,0.126793,1.145284,0.232321,0.132945,-0.137336,-0.082188,0.001645,-0.004366,-0.521726
-0.050000,-0.050000,0.000000,0.000000,0.000000,0.000000,0.000000,0.000000,0.000000,0.100000,0.100000,-0.163369,-0.343201,-0.050000,-0.050000,0.366329,-0.761313,0.000000,0.000000,-0.486002,0.146958,1.136336,0.252968,0.129723,-0.125849,-0.082713,-0.002543,-0.003861,-0.491219
-0.050000,-0.050000,0.000000,0.000000,0.000000,0.000000,0.000000,0.000000,0.000000,0.100000,0.100000,-0.171898,-0.336466,-0.050000,-0.050000,0.364923,-0.756750,0.000000,0.000000,-0.493058,0.171556,1.127140,0.276317,0.126104,-0.116861,-0.083945,-0.006918,-0.003026,-0.457171
-0.050000,-0.050000,0.000000,0.000000,0.000000,0.000000,0.000000,0.000000,0.000000,0.100000,0.100000,-0.180315,-0.329899,-0.050000,-0.050000,0.363157,-0.751322,0.000000,0.000000,-0.499994,0.197302,1.117982,0.300828,0.122412,-0.108834,-0.085393,-0.011209,-0.002088,-0.422606
-0.050000,-0.050000,0.000000,0.000000,0.000000,0.000000,0.000000,0.000000,0.000000,0.100000,0.100000,-0.188511,-0.323669,-0.050000,-0.050000,0.360672,-0.744165,0.000000,0.000000,-0.506691,0.225339,1.108904,0.327663,0.118573,-0.102727,-0.087276,-0.015332,-0.000943,-0.387005
-0.050000,-0.050000,0.000000,0.000000,0.000000,0.000000,0.000000,0.000000,0.000000,0.100000,0.100000,-0.196117,-0.317768,-0.050000,-0.050000,0.357504,-0.734822,0.000000,0.000000,-0.512976,0.254761,1.100261,0.357459,0.114803,-0.098538,-0.089426,-0.018957,0.000233,-0.351666
-0.050000,-0.050000,0.000000,0.000000,0.000000,0.000000,0.000000,0.000000,0.000000,0.100000,0.100000,-0.203428,-0.312032,-0.050000,-0.050000,0.353993,-0.724384,0.000000,0.000000,-0.519055,0.284875,1.091836,0.388737,0.111068,-0.095309,-0.091710,-0.022334,0.001424,-0.316456
-0.050000,-0.050000,0.000000,0.000000,0.000000,0.000000,0.000000,0.000000,0.000000,0.100000,0.100000,-0.209431,-0.306774,-0.050000,-0.050000,0.349640,-0.710219,0.000000,0.000000,-0.524373,0.315465,1.084717,0.425363,0.107840,-0.094602,-0.093972,-0.024460,0.002188,-0.283202
-0.050000,-0.050000,0.000000,0.000000,0.000000,0.000000,0.000000,0.000000,0.000000,0.100000,0.100000,-0.214915,-0.301668,-0.050000,-0.050000,0.345101,-0.694788,0.000000,0.000000,-0.529420,0.345660,1.078256,0.463936,0.104910,-0.094526,-0.096057,-0.026027,0.002628,-0.250925
-0.050000,-0.050000,0.000000,0.000000,0.000000,0.000000,0.000000,0.000000,0.000000,0.100000,0.100000,-0.219361,-0.296865,-0.050000,-0.050000,0.340189,-0.676828,0.000000,0.000000,-0.533923,0.375065,1.073108,0.506405,0.102572,-0.095710,-0.097788,-0.026477,0.002419,-0.220604
-0.050000,-0.050000,0.000000,0.000000,0.000000,0.000000,0.000000,0.000000,0.000000,0.100000,0.100000,-0.224149,-0.297339,-0.050000,-0.050000,0.335305,-0.655120,0.000000,0.000000,-0.537204,0.404221,1.069966,0.558501,0.100653,-0.097649,-0.098574,-0.027765,0.000970,-0.191467
-0.050000,-0.050000,0.000000,0.000000,0.000000,0.000000,0.000000,0.000000,0.000000,0.100000,0.100000,-0.229106,-0.300451,-0.050000,-0.050000,0.330436,-0.631539,0.000000,0.000000,-0.539873,0.433253,1.067826,0.615410,0.098942,-0.099964,-0.098888,-0.029472,-0.001099,-0.162922
-0.050000,-0.050000,0.000000,0.000000,0.000000,0.000000,0.000000,0.000000,0.000000,0.100000,0.100000,-0.231075,-0.298575,-0.050000,-0.050000,0.325687,-0.606445,0.000000,0.000000,-0.541862,0.456562,1.068336,0.670091,0.099119,-0.102370,-0.098294,-0.027409,-0.004477,-0.139714
-0.050000,-0.050000,0.000000,0.000000,0.000000,0.000000,0.000000,0.000000,0.000000,0.100000,0.100000,-0.231797,-0.294356,-0.050000,-0.050000,0.320952,-0.582063,0.000000,0.000000,-0.543887,0.477603,1.069470,0.722080,0.099666,-0.104433,-0.097371,-0.023878,-0.008059,-0.117779
-0.050000,-0.050000,0.000000,0.000000,0.000000,0.000000,0.000000,0.000000,0.000000,0.100000,0.100000,-0.230029,-0.285455,-0.050000,-0.050000,0.316245,-0.559108,0.000000,0.000000,-0.545984,0.494107,1.071850,0.768685,0.100956,-0.105808,-0.095788,-0.017412,-0.012047,-0.098391
-0.050000,-0.050000,0.000000,0.000000,0.000000,0.000000,0.000000,0.000000,0.000000,0.100000,0.100000,-0.228146,-0.279096,-0.050000,-0.050000,0.311964,-0.535699,0.000000,0.000000,-0.547397,0.507663,1.075951,0.816942,0.102536,-0.106167,-0.093227,-0.011148,-0.016732,-0.080212
-0.050000,-0.050000,0.000000,0.000000,0.000000,0.000000,0.000000,0.000000,0.000000,0.100000,0.100000,-0.226207,-0.274008,-0.050000,-0.050000,0.307896,-0.512064,0.000000,0.000000,-0.548468,0.519745,1.080912,0.866025,0.104261,-0.106016,-0.090176,-0.004987,-0.021765,-0.062639
-0.050000,-0.050000,0.000000,0.000000,0.000000,0.000000,0.000000,0.000000,0.000000,0.100000,0.100000,-0.223702,-0.270992,-0.050000,-0.050000,0.304762,-0.490110,0.000000,0.000000,-0.547896,0.527370,1.087625,0.911049,0.105976,-0.103228,-0.086332,0.000061,-0.026799,-0.048178
-0.050000,-0.050000,0.000000,0.000000,0.000000,0.000000,0.000000,0.000000,0.000000,0.100000,0.100000,-0.220991,-0.268433,-0.050000,-0.050000,0.301958,-0.469255,0.000000,0.000000,-0.546757,0.533669,1.094632,0.953327,0.107505,-0.099329,-0.082412,0.004589,-0.031561,-0.034897
-0.050000,-0.050000,0.000000,0.000000,0.000000,0.000000,0.000000,0.000000,0.000000,0.100000,0.100000,-0.217865,-0.266791,-0.050000,-0.050000,0.299814,-0.450598,0.000000,0.000000,-0.544486,0.537317,1.102227,0.990113,0.108665,-0.093208,-0.078342,0.008077,-0.035776,-0.023979
-0.050000,-0.050000,0.000000,0.000000,0.000000,0.000000,0.000000,0.000000,0.000000,0.100000,0.100000,-0.214396,-0.265874,-0.050000,-0.050000,0.298296,-0.434804,0.000000,0.000000,-0.541160,0.538852,1.109898,1.019750,0.109111,-0.084652,-0.074439,0.010321,-0.039052,-0.015594
-0.050000,-0.050000,0.000000,0.000000,0.000000,0.000000,0.000000,0.000000,0.000000,0.100000,0.100000,-0.210756,-0.265320,-0.050000,-0.050000,0.297090,-0.420441,0.000000,0.000000,-0.537307,0.539331,1.117607,1.045813,0.109200,-0.074880,-0.070620,0.011943,-0.041858,-0.008475
-0.050000,-0.050000,0.000000,0.000000,0.000000,0.000000,0.000000,0.000000,0.000000,0.100000,0.100000,-0.206796,-0.265742,-0.050000,-0.050000,0.296687,-0.410717,0.000000,0.000000,-0.532144,0.537564,1.124887,1.060370,0.107904,-0.061594,-0.067375,0.011669,-0.043012,-0.005134
-0.050000,-0.050000,0.000000,0.000000,0.000000,0.000000,0.000000,0.000000,0.000000,0.100000,0.100000,-0.202820,-0.266491,-0.050000,-0.050000,0.296491,-0.402463,0.000000,0.000000,-0.526689,0.535330,1.131932,1.071343,0.106143,-0.047336,-0.064367,0.010849,-0.043665,-0.002910
-0.050000,-0.050000,0.000000,0.000000,0.000000,0.000000,0.000000,0.000000,0.000000,0.100000,0.100000,-0.198810,-0.267893,-0.050000,-0.050000,0.296708,-0.397149,0.000000,0.000000,-0.520649,0.532161,1.138508,1.075147,0.103450,-0.031134,-0.061831,0.008937,-0.043316,-0.002920
-0.050000,-0.050000,0.000000,0.000000,0.000000,0.000000,0.000000,0.000000,0.000000,0.100000,0.100000,-0.194985,-0.270016,-0.050000,-0.050000,0.297205,-0.394364,0.000000,0.000000,-0.514384,0.528484,1.144582,1.072979,0.100022,-0.013601,-0.059744,0.006238,-0.042279,-0.004607
-0.050000,-0.050000,0.000000,0.000000,0.000000,0.000000,0.000000,0.000000,0.000000,0.100000,0.100000,-0.191253,-0.272498,-0.050000,-0.050000,0.297842,-0.392843,0.000000,0.000000,-0.508007,0.524554,1.150406,1.067827,0.096226,0.004598,-0.057883,0.003145,-0.040897,-0.007134
-0.050000,-0.050000,0.000000,0.000000,0.000000,0.000000,0.000000,0.000000,0.000000,0.100000,0.100000,-0.188145,-0.276202,-0.050000,-0.050000,0.298715,-0.394325,0.000000,0.000000,-0.501844,0.520259,1.155536,1.055904,0.091840,0.023827,-0.056559,-0.000633,-0.039143,-0.011071
-0.050000,-0.050000,0.000000,0.000000,0.000000,0.000000,0.000000,0.000000,0.000000,0.100000,0.100000,-0.185347,-0.280344,-0.050000,-0.050000,0.299619,-0.396544,0.000000,0.000000,-0.495904,0.515892,1.160445,1.042378,0.087448,0.043161,-0.055363,-0.004513,-0.037490,-0.015091
-0.050000,-0.050000,0.000000,0.000000,0.000000,0.000000,0.000000,0.000000,0.000000,0.100000,0.100000,-0.183172,-0.285361,-0.050000,-0.050000,0.300584,-0.400237,0.000000,0.000000,-0.490408,0.511382,1.164912,1.025644,0.083046,0.062703,-0.054424,-0.008597,-0.036040,-0.019279
-0.050000,-0.050000,0.000000,0.000000,0.000000,0.000000,0.000000,0.000000,0.000000,0.100000,0.100000,-0.181757,-0.291224,-0.050000,-0.050000,0.301545,-0.404940,0.000000,0.000000,-0.485534,0.506682,1.168860,1.006591,0.078946,0.082290,-0.053685,-0.012783,-0.035150,-0.022989
-0.050000,-0.050000,0.000000,0.000000,0.000000,0.000000,0.000000,0.000000,0.000000,0.100000,0.100000,-0.180722,-0.297510,-0.050000,-0.050000,0.302504,-0.410149,0.000000,0.000000,-0.480972,0.501888,1.172547,0.986377,0.074998,0.101899,-0.053046,-0.017019,-0.034541,-0.026459
-0.050000,-0.050000,0.000000,0.000000,0.000000,0.000000,0.000000,0.000000,0.000000,0.100000,0.100000,-0.180895,-0.304829,-0.050000,-0.050000,0.303403,-0.416299,0.000000,0.000000,-0.477382,0.496563,1.175149,0.963295,0.071737,0.121867,-0.052734,-0.021502,-0.035068,-0.028609
-0.050000,-0.050000,0.000000,0.000000,0.000000,0.000000,0.000000,0.000000,0.000000,0.100000,0.100000,-0.181443,-0.312354,-0.050000,-0.050000,0.304276,-0.422598,0.000000,0.000000,-0.474062,0.490944,1.177238,0.939282,0.068684,0.142196,-0.052576,-0.026157,-0.035979,-0.030264
-0.050000,-0.050000,0.000000,0.000000,0.000000,0.000000,0.000000,0.000000,0.000000,0.100000,0.100000,-0.182739,-0.320292,-0.050000,-0.050000,0.305098,-0.429198,0.000000,0.000000,-0.471278,0.484737,1.178299,0.913407,0.066049,0.163245,-0.052727,-0.031156,-0.037654,-0.030926
-0.050000,-0.050000,0.000000,0.000000,0.000000,0.000000,0.000000,0.000000,0.000000,0.100000,0.100000,-0.184648,-0.328296,-0.050000,-0.050000,0.305875,-0.435798,0.000000,0.000000,-0.468832,0.477690,1.178005,0.885595,0.063619,0.185631,-0.053311,-0.036710,-0.039934,-0.030744
-0.050000,-0.050000,0.000000,0.000000,0.000000,0.000000,0.000000,0.000000,0.000000,0.100000,0.100000,-0.186864,-0.336333,-0.050000,-0.050000,0.306629,-0.442399,0.000000,0.000000,-0.466555,0.470224,1.177032,0.856813,0.061293,0.208684,-0.054113,-0.042539,-0.042515,-0.030140
-0.050000,-0.050000,0.000000,0.000000,0.000000,0.000000,0.000000,0.000000,0.000000,0.100000,0.100000,-0.189725,-0.343946,-0.050000,-0.050000,0.307339,-0.448553,0.000000,0.000000,-0.464450,0.461198,1.173649,0.825178,0.058814,0.234596,-0.055730,-0.049419,-0.045579,-0.028754
-0.050000,-0.050000,0.000000,0.000000,0.000000,0.000000,0.000000,0.000000,0.000000,0.100000,0.100000,-0.192708,-0.351280,-0.050000,-0.050000,0.308040,-0.454412,0.000000,0.000000,-0.462316,0.451601,1.169422,0.792743,0.056132,0.261654,-0.057639,-0.056662,-0.048640,-0.027306
-0.050000,-0.050000,0.000000,0.000000,0.000000,0.000000,0.000000,0.000000,0.000000,0.100000,0.100000,-0.195932,-0.358055,-0.050000,-0.050000,0.308727,-0.459681,0.000000,0.000000,-0.460123,0.440863,1.163508,0.758710,0.053048,0.291001,-0.060129,-0.064631,-0.051692,-0.025735
-0.050000,-0.050000,0.000000,0.000000,0.000000,0.000000,0.000000,0.000000,0.000000,0.100000,0.100000,-0.199240,-0.364116,-0.050000,-0.050000,0.309401,-0.464107,0.000000,0.000000,-0.457796,0.429011,1.156063,0.723685,0.049369,0.322763,-0.063138,-0.073230,-0.054428,-0.024437
-0.050000,-0.050000,0.000000,0.000000,0.000000,0.000000,0.000000,0.000000,0.000000,0.100000,0.100000,-0.202589,-0.369819,-0.050000,-0.050000,0.310070,-0.468111,0.000000,0.000000,-0.455402,0.416601,1.147853,0.688163,0.045393,0.355732,-0.066405,-0.082143,-0.057006,-0.023276
-0.050000,-0.050000,0.000000,0.000000,0.000000,0.000000,0.000000,0.000000,0.000000,0.100000,0.100000,-0.205899,-0.374422,-0.050000,-0.050000,0.310705,-0.470602,0.000000,0.000000,-0.452876,0.402731,1.137946,0.652399,0.040515,0.392105,-0.070194,-0.091737,-0.058760,-0.023049
-0.050000,-0.050000,0.000000,0.000000,0.000000,0.000000,0.000000,0.000000,0.000000,0.100000,0.100000,-0.209170,-0.378709,-0.050000,-0.050000,0.311315,-0.472574,0.000000,0.000000,-0.450385,0.388481,1.127773,0.617008,0.035436,0.429421,-0.074029,-0.101464,-0.060181,-0.023277
-0.050000,-0.050000,0.000000,0.000000,0.000000,0.000000,0.000000,0.000000,0.000000,0.100000,0.100000,-0.212363,-0.382362,-0.050000,-0.050000,0.311878,-0.473507,0.000000,0.000000,-0.447962,0.373472,1.117067,0.582362,0.029951,0.468620,-0.077959,-0.111457,-0.060934,-0.024412
-0.050000,-0.050000,0.000000,0.000000,0.000000,0.000000,0.000000,0.000000,0.000000,0.100000,0.100000,-0.215471,-0.385557,-0.050000,-0.050000,0.312365,-0.473532,0.000000,0.000000,-0.445835,0.357937,1.106535,0.549291,0.024425,0.509103,-0.081691,-0.121579,-0.061022,-0.026663
-0.050000,-0.050000,0.000000,0.000000,0.000000,0.000000,0.000000,0.000000,0.000000,0.100000,0.100000,-0.218537,-0.388522,-0.050000,-0.050000,0.312814,-0.473104,0.000000,0.000000,-0.443855,0.342140,1.096090,0.517008,0.018877,0.550228,-0.085324,-0.131765,-0.060778,-0.029471
-0.050000,-0.050000,0.000000,0.000000,0.000000,0.000000,0.000000,0.000000,0.000000,0.100000,0.100000,-0.221500,-0.391097,-0.050000,-0.050000,0.313130,-0.471735,0.000000,0.000000,-0.442670,0.325867,1.086954,0.488057,0.013926,0.592082,-0.088241,-0.142048,-0.059706,-0.034125
-0.050000,-0.050000,0.000000,0.000000,0.000000,0.000000,0.000000,0.000000,0.000000,0.100000,0.100000,-0.224429,-0.393632,-0.050000,-0.050000,0.313406,-0.470248,0.000000,0.000000,-0.441841,0.309522,1.078543,0.460423,0.009380,0.633692,-0.090812,-0.152355,-0.058457,-0.039398
-0.050000,-0.050000,0.000000,0.000000,0.000000,0.000000,0.000000,0.000000,0.000000,0.100000,0.100000,-0.227291,-0.396086,-0.050000,-0.050000,0.313603,-0.468524,0.000000,0.000000,-0.441722,0.293031,1.071581,0.435425,0.005645,0.674812,-0.092688,-0.162712,-0.056853,-0.045908
-0.050000,-0.050000,0.000000,0.000000,0.000000,0.000000,0.000000,0.000000,0.000000,0.100000,0.100000,-0.230042,-0.398580,-0.050000,-0.050000,0.313757,-0.466999,0.000000,0.000000,-0.442387,0.276540,1.066433,0.413255,0.003010,0.714340,-0.093751,-0.173090,-0.055129,-0.053551
-0.050000,-0.050000,0.000000,0.000000,0.000000,0.000000,0.000000,0.000000,0.000000,0.100000,0.100000,-0.232737,-0.401094,-0.050000,-0.050000,0.313890,-0.465573,0.000000,0.000000,-0.443443,0.260049,1.062193,0.392501,0.000926,0.753073,-0.094408,-0.183480,-0.053346,-0.061761
-0.050000,-0.050000,0.000000,0.000000,0.000000,0.000000,0.000000,0.000000,0.000000,0.100000,0.100000,-0.235100,-0.403728,-0.050000,-0.050000,0.314039,-0.465055,0.000000,0.000000,-0.445576,0.243771,1.060845,0.376006,0.000659,0.787733,-0.093842,-0.193751,-0.051733,-0.071382
-0.050000,-0.050000,0.000000,0.000000,0.000000,0.000000,0.000000,0.000000,0.000000,0.100000,0.100000,-0.237265,-0.406369,-0.050000,-0.050000,0.314218,-0.464996,0.000000,0.000000,-0.447966,0.227646,1.060396,0.360860,0.000961,0.820537,-0.092925,-0.203882,-0.050271,-0.081354
-0.050000,-0.050000,0.000000,0.000000,0.000000,0.000000,0.000000,0.000000,0.000000,0.100000,0.100000,-0.239035,-0.409026,-0.050000,-0.050000,0.314458,-0.465852,0.000000,0.000000,-0.450870,0.211823,1.061746,0.348413,0.002401,0.849627,-0.091302,-0.213733,-0.049111,-0.092024
-0.050000,-0.050000,0.000000,0.000000,0.000000,0.000000,0.000000,0.000000,0.000000,0.100000,0.100000,-0.240199,-0.411522,-0.050000,-0.050000,0.314786,-0.467784,0.000000,0.000000,-0.453980,0.196478,1.064578,0.338386,0.004762,0.874283,-0.089169,-0.223025,-0.048372,-0.103137
-0.050000,-0.050000,0.000000,0.000000,0.000000,0.000000,0.000000,0.000000,0.000000,0.100000,0.100000,-0.241059,-0.413937,-0.050000,-0.050000,0.315159,-0.470255,0.000000,0.000000,-0.457192,0.181372,1.068151,0.329569,0.007582,0.896721,-0.086781,-0.232038,-0.047842,-0.114472
-0.050000,-0.050000,0.000000,0.000000,0.000000,0.000000,0.000000,0.000000,0.000000,0.100000,0.100000,-0.240694,-0.415693,-0.050000,-0.050000,0.315657,-0.474313,0.000000,0.000000,-0.460179,0.167232,1.073308,0.323754,0.011339,0.912020,-0.083974,-0.239782,-0.048005,-0.126100
-0.050000,-0.050000,0.000000,0.000000,0.000000,0.000000,0.000000,0.000000,0.000000,0.100000,0.100000,-0.239840,-0.417060,-0.050000,-0.050000,0.316176,-0.478805,0.000000,0.000000,-0.462922,0.153475,1.078768,0.318663,0.015258,0.925001,-0.081136,-0.246997,-0.048386,-0.137710
-0.050000,-0.050000,0.000000,0.000000,0.000000,0.000000,0.000000,0.000000,0.000000,0.100000,0.100000,-0.238009,-0.417647,-0.050000,-0.050000,0.316740,-0.484163,0.000000,0.000000,-0.465180,0.140485,1.084836,0.315021,0.019501,0.933348,-0.078238,-0.253153,-0.049205,-0.149279
-0.050000,-0.050000,0.000000,0.000000,0.000000,0.000000,0.000000,0.000000,0.000000,0.100000,0.100000,-0.235128,-0.417119,-0.050000,-0.050000,0.317287,-0.490056,0.000000,0.000000,-0.466705,0.128303,1.091115,0.312184,0.023823,0.937619,-0.075445,-0.258178,-0.050394,-0.160582
-0.050000,-0.050000,0.000000,0.000000,0.000000,0.000000,0.000000,0.000000,0.000000,0.100000,0.100000,-0.231720,-0.416032,-0.050000,-0.050000,0.317825,-0.496217,0.000000,0.000000,-0.467864,0.116527,1.097499,0.309749,0.028185,0.939852,-0.072704,-0.262637,-0.051766,-0.171752
-0.050000,-0.050000,0.000000,0.000000,0.000000,0.000000,0.000000,0.000000,0.000000,0.100000,0.100000,-0.226787,-0.412887,-0.050000,-0.050000,0.318242,-0.502559,0.000000,0.000000,-0.467753,0.105886,1.103757,0.307528,0.032429,0.937335,-0.070252,-0.265547,-0.053559,-0.182200
-0.050000,-0.050000,0.000000,0.000000,0.000000,0.000000,0.000000,0.000000,0.000000,0.100000,0.100000,-0.221412,-0.409004,-0.050000,-0.050000,0.318598,-0.508750,0.000000,0.000000,-0.467238,0.095554,1.109890,0.305093,0.036604,0.933800,-0.067905,-0.268066,-0.055446,-0.192318
-0.050000,-0.050000,0.000000,0.000000,0.000000,0.000000,0.000000,0.000000,0.000000,0.100000,0.100000,-0.215157,-0.403646,-0.050000,-0.050000,0.318830,-0.514637,0.000000,0.000000,-0.465913,0.085838,1.115772,0.302228,0.040638,0.928230,-0.065766,-0.269801,-0.057524,-0.201774
-0.050000,-0.050000,0.000000,0.000000,0.000000,0.000000,0.000000,0.000000,0.000000,0.100000,0.100000,-0.208233,-0.396904,-0.050000,-0.050000,0.318931,-0.519855,0.000000,0.000000,-0.463951,0.076544,1.121363,0.298559,0.044553,0.921813,-0.063796,-0.271099,-0.059716,-0.210452
-0.050000,-0.050000,0.000000,0.000000,0.000000,0.000000,0.000000,0.000000,0.000000,0.100000,0.100000,-0.200975,-0.389471,-0.050000,-0.050000,0.318968,-0.524738,0.000000,0.000000,-0.461670,0.067462,1.126809,0.294488,0.048407,0.914974,-0.061910,-0.272178,-0.061967,-0.218741
-0.050000,-0.050000,0.000000,0.000000,0.000000,0.000000,0.000000,0.000000,0.000000,0.100000,0.100000,-0.193085,-0.380403,-0.050000,-0.050000,0.318861,-0.528241,0.000000,0.000000,-0.458831,0.058720,1.131923,0.289045,0.052209,0.908482,-0.060179,-0.273142,-0.064325,-0.225827
-0.050000,-0.050000,0.000000,0.000000,0.000000,0.000000,0.000000,0.000000,0.000000,0.100000,0.100000,-0.185104,-0.371017,-0.050000,-0.050000,0.318736,-0.531229,0.000000,0.000000,-0.455959,0.050020,1.136999,0.283231,0.056059,0.902512,-0.058467,-0.274220,-0.066717,-0.232551
-0.050000,-0.050000,0.000000,0.000000,0.000000,0.000000,0.000000,0.000000,0.000000,0.100000,0.100000,-0.176941,-0.360996,-0.050000,-0.050000,0.318575,-0.533187,0.000000,0.000000,-0.453020,0.041406,1.141997,0.276672,0.060005,0.897586,-0.056793,-0.275524,-0.069180,-0.238550
-0.050000,-0.050000,0.000000,0.000000,0.000000,0.000000,0.000000,0.000000,0.000000,0.100000,0.100000,-0.168797,-0.350890,-0.050000,-0.050000,0.318447,-0.534152,0.000000,0.000000,-0.450308,0.032835,1.147090,0.269770,0.064214,0.894142,-0.055113,-0.277241,-0.071752,-0.243988
-0.050000,-0.050000,0.000000,0.000000,0.000000,0.000000,0.000000,0.000000,0.000000,0.100000,0.100000,-0.160662,-0.340742,-0.050000,-0.050000,0.318335,-0.534621,0.000000,0.000000,-0.447711,0.024285,1.152230,0.262697,0.068555,0.891439,-0.053430,-0.279165,-0.074378,-0.249146
-0.050000,-0.050000,0.000000,0.000000,0.000000,0.000000,0.000000,0.000000,0.000000,0.100000,0.100000,-0.152782,-0.331314,-0.050000,-0.050000,0.318350,-0.533845,0.000000,0.000000,-0.445823,0.015920,1.157737,0.255910,0.073582,0.890994,-0.051710,-0.281772,-0.077266,-0.253793
-0.050000,-0.050000,0.000000,0.000000,0.000000,0.000000,0.000000,0.000000,0.000000,0.100000,0.100000,-0.145043,-0.322382,-0.050000,-0.050000,0.318423,-0.532784,0.000000,0.000000,-0.444258,0.007717,1.163405,0.249494,0.078934,0.891114,-0.049982,-0.284556,-0.080269,-0.258386
-0.050000,-0.050000,0.000000,0.000000,0.000000,0.000000,0.000000,0.000000,0.000000,0.100000,0.100000,-0.137584,-0.314442,-0.050000,-0.050000,0.318609,-0.531150,0.000000,0.000000,-0.443342,-0.000163,1.169395,0.243821,0.084938,0.892366,-0.048238,-0.287692,-0.083502,-0.262872
-0.050000,-0.050000,0.000000,0.000000,0.000000,0.000000,0.000000,0.000000,0.000000,0.100000,0.100000,-0.130498,-0.307899,-0.050000,-0.050000,0.318916,-0.529259,0.000000,0.000000,-0.443168,-0.007418,1.175669,0.239346,0.091749,0.894037,-0.046507,-0.290949,-0.086962,-0.267471
-0.050000,-0.050000,0.000000,0.000000,0.000000,0.000000,0.000000,0.000000,0.000000,0.100000,0.100000,-0.123598,-0.302055,-0.050000,-0.050000,0.319285,-0.527239,0.000000,0.000000,-0.443367,-0.014362,1.182084,0.235471,0.098965,0.895918,-0.044783,-0.294267,-0.090537,-0.272125
-0.050000,-0.050000,0.000000,0.000000,0.000000,0.000000,0.000000,0.000000,0.000000,0.100000,0.100000,-0.117400,-0.298717,-0.050000,-0.050000,0.319836,-0.525335,0.000000,0.000000,-0.444701,-0.019825,1.188665,0.233805,0.107483,0.896975,-0.043144,-0.297266,-0.094315,-0.277229
-0.050000,-0.050000,0.000000,0.000000,0.000000,0.000000,0.000000,0.000000,0.000000,0.100000,0.100000,-0.111492,-0.296284,-0.050000,-0.050000,0.320452,-0.523629,0.000000,0.000000,-0.446383,-0.024603,1.195149,0.232900,0.116389,0.897190,-0.041559,-0.299956,-0.098063,-0.282561
-0.050000,-0.050000,0.000000,0.000000,0.000000,0.000000,0.000000,0.000000,0.000000,0.100000,0.100000,-0.106165,-0.295661,-0.050000,-0.050000,0.321200,-0.522321,0.000000,0.000000,-0.448759,-0.028010,1.201441,0.233517,0.126071,0.895718,-0.040083,-0.302030,-0.101751,-0.288345
-0.050000,-0.050000,0.000000,0.000000,0.000000,0.000000,0.000000,0.000000,0.000000,0.100000,0.100000,-0.101545,-0.296864,-0.050000,-0.050000,0.322108,-0.521682,0.000000,0.000000,-0.451698,-0.029683,1.207150,0.235478,0.136246,0.891354,-0.038768,-0.303045,-0.105114,-0.294693
-0.050000,-0.050000,0.000000,0.000000,0.000000,0.000000,0.000000,0.000000,0.000000,0.100000,0.100000,-0.097278,-0.298981,-0.050000,-0.050000,0.323097,-0.521378,0.000000,0.000000,-0.454917,-0.030488,1.212569,0.238113,0.146668,0.885544,-0.037534,-0.303529,-0.108315,-0.301323
-0.050000,-0.050000,0.000000,0.000000,0.000000,0.000000,0.000000,0.000000,0.000000,0.100000,0.100000,-0.094257,-0.303724,-0.050000,-0.050000,0.324408,-0.522374,0.000000,0.000000,-0.458709,-0.028228,1.216499,0.242236,0.157131,0.873668,-0.036606,-0.301750,-0.110618,-0.308872
-0.050000,-0.050000,0.000000,0.000000,0.000000,0.000000,0.000000,0.000000,0.000000,0.100000,0.100000,-0.091700,-0.309278,-0.050000,-0.050000,0.325860,-0.523852,0.000000,0.000000,-0.462592,-0.024829,1.219762,0.246630,0.167321,0.859295,-0.035794,-0.299005,-0.112519,-0.316700
-0.050000,-0.050000,0.000000,0.000000,0.000000,0.000000,0.000000,0.000000,0.000000,0.100000,0.100000,-0.090074,-0.316453,-0.050000,-0.050000,0.327596,-0.526294,0.000000,0.000000,-0.466659,-0.019152,1.221686,0.251567,0.176961,0.839930,-0.035215,-0.294331,-0.113618,-0.325085
-0.050000,-0.050000,0.000000,0.000000,0.000000,0.000000,0.000000,0.000000,0.000000,0.100000,0.100000,-0.089432,-0.325099,-0.050000,-0.050000,0.329690,-0.529689,0.000000,0.000000,-0.470729,-0.011049,1.222071,0.256608,0.185480,0.814987,-0.034875,-0.287384,-0.113842,-0.333813
-0.050000,-0.050000,0.000000,0.000000,0.000000,0.000000,0.000000,0.000000,0.000000,0.100000,0.100000,-0.089283,-0.334482,-0.050000,-0.050000,0.331962,-0.533561,0.000000,0.000000,-0.474801,-0.001734,1.221686,0.261701,0.193440,0.787256,-0.034655,-0.279302,-0.113629,-0.342713
-0.050000,-0.050000,0.000000,0.000000,0.000000,0.000000,0.000000,0.000000,0.000000,0.100000,0.100000,-0.090622,-0.345866,-0.050000,-0.050000,0.334865,-0.538688,0.000000,0.000000,-0.478689,0.011320,1.218987,0.266465,0.199082,0.751041,-0.034763,-0.267515,-0.112223,-0.351480
-0.050000,-0.050000,0.000000,0.000000,0.000000,0.000000,0.000000,0.000000,0.000000,0.100000,0.100000,-0.092441,-0.357861,-0.050000,-0.050000,0.337998,-0.544131,0.000000,0.000000,-0.482486,0.025616,1.215626,0.271063,0.203869,0.712251,-0.034957,-0.254513,-0.110524,-0.359872
-0.050000,-0.050000,0.000000,0.000000,0.000000,0.000000,0.000000,0.000000,0.000000,0.100000,0.100000,-0.095221,-0.371079,-0.050000,-0.050000,0.341594,-0.550207,0.000000,0.000000,-0.486103,0.042395,1.210940,0.275326,0.206947,0.668310,-0.035321,-0.239077,-0.108237,-0.367514
-0.050000,-0.050000,0.000000,0.000000,0.000000,0.000000,0.000000,0.000000,0.000000,0.100000,0.100000,-0.098912,-0.385429,-0.050000,-0.050000,0.345664,-0.556649,0.000000,0.000000,-0.489545,0.061567,1.205340,0.279390,0.208455,0.620283,-0.035778,-0.221566,-0.105631,-0.373578
-0.050000,-0.050000,0.000000,0.000000,0.000000,0.000000,0.000000,0.000000,0.000000,0.100000,0.100000,-0.103059,-0.400345,-0.050000,-0.050000,0.349971,-0.563274,0.000000,0.000000,-0.492899,0.081936,1.199283,0.283354,0.209178,0.570213,-0.036281,-0.203018,-0.102866,-0.378852
-0.050000,-0.050000,0.000000,0.000000,0.000000,0.000000,0.000000,0.000000,0.000000,0.100000,0.100000,-0.108509,-0.416816,-0.050000,-0.050000,0.354959,-0.569995,0.000000,0.000000,-0.496052,0.105605,1.192657,0.287556,0.208145,0.516258,-0.036778,-0.182432,-0.100003,-0.380536
-0.050000,-0.050000,0.000000,0.000000,0.000000,0.000000,0.000000,0.000000,0.000000,0.100000,0.100000,-0.114382,-0.433733,-0.050000,-0.050000,0.360145,-0.576586,0.000000,0.000000,-0.499156,0.130204,1.186118,0.292078,0.206794,0.461876,-0.037227,-0.161673,-0.097197,-0.380745
-0.050000,-0.050000,0.000000,0.000000,0.000000,0.000000,0.000000,0.000000,0.000000,0.100000,0.100000,-0.121098,-0.451539,-0.050000,-0.050000,0.365730,-0.582914,0.000000,0.000000,-0.502162,0.156663,1.179751,0.297240,0.204804,0.406638,-0.037579,-0.140568,-0.094505,-0.378006
-0.050000,-0.050000,0.000000,0.000000,0.000000,0.000000,0.000000,0.000000,0.000000,0.100000,0.100000,-0.128655,-0.469974,-0.050000,-0.050000,0.371622,-0.588645,0.000000,0.000000,-0.505070,0.184451,1.174006,0.303488,0.202688,0.352309,-0.037774,-0.120232,-0.092009,-0.372260
-0.050000,-0.050000,0.000000,0.000000,0.000000,0.000000,0.000000,0.000000,0.000000,0.100000,0.100000,-0.136631,-0.488723,-0.050000,-0.050000,0.377669,-0.594076,0.000000,0.000000,-0.507930,0.212902,1.168573,0.310279,0.200508,0.298434,-0.037890,-0.100280,-0.089611,-0.365010
-0.050000,-0.050000,0.000000,0.000000,0.000000,0.000000,0.000000,0.000000,0.000000,0.100000,0.100000,-0.145872,-0.507758,-0.050000,-0.050000,0.384001,-0.598135,0.000000,0.000000,-0.510563,0.242219,1.164423,0.319089,0.198654,0.248368,-0.037767,-0.082927,-0.087492,-0.354043
-0.050000,-0.050000,0.000000,0.000000,0.000000,0.000000,0.000000,0.000000,0.000000,0.100000,0.100000,-0.155528,-0.526569,-0.050000,-0.050000,0.390361,-0.601619,0.000000,0.000000,-0.513073,0.271353,1.160673,0.328560,0.196958,0.200260,-0.037596,-0.066740,-0.085431,-0.342345
-0.050000,-0.050000,0.000000,0.000000,0.000000,0.000000,0.000000,0.000000,0.000000,0.100000,0.100000,-0.166013,-0.544933,-0.050000,-0.050000,0.396777,-0.603951,0.000000,0.000000,-0.515339,0.300123,1.157724,0.339355,0.195576,0.156065,-0.037328,-0.052885,-0.083485,-0.329181
-0.050000,-0.050000,0.000000,0.000000,0.000000,0.000000,0.000000,0.000000,0.000000,0.100000,0.100000,-0.177278,-0.562062,-0.050000,-0.050000,0.403111,-0.605053,0.000000,0.000000,-0.517266,0.327499,1.155214,0.351163,0.194355,0.116798,-0.037086,-0.041531,-0.081544,-0.315783
-0.050000,-0.050000,0.000000,0.000000,0.000000,0.000000,0.000000,0.000000,0.000000,0.100000,0.100000,-0.188932,-0.578574,-0.050000,-0.050000,0.409404,-0.605539,0.000000,0.000000,-0.519022,0.354180,1.152923,0.363477,0.193213,0.079997,-0.036858,-0.031427,-0.079606,-0.302267
-0.050000,-0.050000,0.000000,0.000000,0.000000,0.000000,0.000000,0.000000,0.000000,0.100000,0.100000,-0.201598,-0.592015,-0.050000,-0.050000,0.415366,-0.604365,0.000000,0.000000,-0.520202,0.377351,1.150363,0.376522,0.191800,0.051438,-0.036914,-0.024808,-0.077471,-0.290100
-0.050000,-0.050000,0.000000,0.000000,0.000000,0.000000,0.000000,0.000000,0.000000,0.100000,0.100000,-0.214521,-0.604098,-0.050000,-0.050000,0.421147,-0.602790,0.000000,0.000000,-0.521213,0.399017,1.147328,0.389505,0.190091,0.025660,-0.037153,-0.019174,-0.075196,-0.278771
-0.050000,-0.050000,0.000000,0.000000,0.000000,0.000000,0.000000,0.000000,0.000000,0.100000,0.100000,-0.227957,-0.613465,-0.050000,-0.050000,0.426566,-0.600412,0.000000,0.000000,-0.521887,0.417672,1.143342,0.402365,0.187786,0.005441,-0.037759,-0.015511,-0.072641,-0.269122
-0.050000,-0.050000,0.000000,0.000000,0.000000,0.000000,0.000000,0.000000,0.000000,0.100000,0.100000,-0.241696,-0.619744,-0.050000,-0.050000,0.431466,-0.597621,0.000000,0.000000,-0.522378,0.433060,1.137620,0.414544,0.184535,-0.009633,-0.038902,-0.013443,-0.069661,-0.261451
-0.050000,-0.050000,0.000000,0.000000,0.000000,0.000000,0.000000,0.000000,0.000000,0.100000,0.100000,-0.255587,-0.624479,-0.050000,-0.050000,0.436108,-0.594624,0.000000,0.000000,-0.522779,0.446815,1.131029,0.426384,0.180811,-0.022135,-0.040313,-0.012173,-0.066470,-0.254770
-0.050000,-0.050000,0.000000,0.000000,0.000000,0.000000,0.000000,0.000000,0.000000,0.100000,0.100000,-0.269565,-0.624581,-0.050000,-0.050000,0.439712,-0.591542,0.000000,0.000000,-0.523264,0.455960,1.120836,0.436636,0.175410,-0.028106,-0.042740,-0.012816,-0.062496,-0.250813
-0.050000,-0.050000,0.000000,0.000000,0.000000,0.000000,0.000000,0.000000,0.000000,0.100000,0.100000,-0.283437,-0.623316,-0.050000,-0.050000,0.442880,-0.588543,0.000000,0.000000,-0.523913,0.463848,1.109221,0.446290,0.169496,-0.032395,-0.045553,-0.013961,-0.058255,-0.247511
-0.050000,-0.050000,0.000000,0.000000,0.000000,0.000000,0.000000,0.000000,0.000000,0.100000,0.100000,-0.297098,-0.619318,-0.050000,-0.050000,0.445177,-0.585708,0.000000,0.000000,-0.524889,0.469220,1.094763,0.454750,0.162557,-0.033316,-0.049139,-0.016111,-0.053484,-0.245520
-0.050000,-0.050000,0.000000,0.000000,0.000000,0.000000,0.000000,0.000000,0.000000,0.100000,0.100000,-0.310263,-0.613195,-0.050000,-0.050000,0.446451,-0.583080,0.000000,0.000000,-0.526423,0.472833,1.077303,0.462120,0.154962,-0.031861,-0.053531,-0.019001,-0.048295,-0.244168
-0.050000,-0.050000,0.000000,0.000000,0.000000,0.000000,0.000000,0.000000,0.000000,0.100000,0.100000,-0.323181,-0.606010,-0.050000,-0.050000,0.447212,-0.580556,0.000000,0.000000,-0.528235,0.475566,1.058341,0.468946,0.147039,-0.029217,-0.058325,-0.022262,-0.042899,-0.243135
-0.050000,-0.050000,0.000000,0.000000,0.000000,0.000000,0.000000,0.000000,0.000000,0.100000,0.100000,-0.334921,-0.596727,-0.050000,-0.050000,0.446317,-0.578161,0.000000,0.000000,-0.531062,0.476809,1.035070,0.474580,0.138994,-0.024255,-0.064259,-0.026203,-0.037233,-0.242058
-0.050000,-0.050000,0.000000,0.000000,0.000000,0.000000,0.000000,0.000000,0.000000,0.100000,0.100000,-0.346126,-0.587093,-0.050000,-0.050000,0.444883,-0.575696,0.000000,0.000000,-0.534202,0.477873,1.010565,0.480011,0.131231,-0.018817,-0.070506,-0.030221,-0.031637,-0.240697
-0.050000,-0.050000,0.000000,0.000000,0.000000,0.000000,0.000000,0.000000,0.000000,0.100000,0.100000,-0.356260,-0.576758,-0.050000,-0.050000,0.442372,-0.573092,0.000000,0.000000,-0.537969,0.478575,0.983589,0.485040,0.124032,-0.012425,-0.077378,-0.034393,-0.026180,-0.238764
-0.050000,-0.050000,0.000000,0.000000,0.000000,0.000000,0.000000,0.000000,0.000000,0.100000,0.100000,-0.365065,-0.566284,-0.050000,-0.050000,0.438935,-0.570108,0.000000,0.000000,-0.542134,0.479343,0.954783,0.490054,0.117950,-0.005444,-0.084653,-0.038442,-0.021193,-0.235902
-0.050000,-0.050000,0.000000,0.000000,0.000000,0.000000,0.000000,0.000000,0.000000,0.100000,0.100000,-0.373205,-0.555739,-0.050000,-0.050000,0.435036,-0.566934,0.000000,0.000000,-0.546497,0.480142,0.925064,0.495060,0.112425,0.001832,-0.092129,-0.042431,-0.016441,-0.232575
-0.050000,-0.050000,0.000000,0.000000,0.000000,0.000000,0.000000,0.000000,0.000000,0.100000,0.100000,-0.379032,-0.545536,-0.050000,-0.050000,0.430135,-0.562945,0.000000,0.000000,-0.550892,0.481357,0.893874,0.500501,0.109050,0.009687,-0.099775,-0.045927,-0.012783,-0.227588
-0.050000,-0.050000,0.000000,0.000000,0.000000,0.000000,0.000000,0.000000,0.000000,0.100000,0.100000,-0.384014,-0.535536,-0.050000,-0.050000,0.425063,-0.558678,0.000000,0.000000,-0.555077,0.482733,0.862707,0.506170,0.106400,0.017667,-0.107312,-0.049203,-0.009560,-0.222035
-0.050000,-0.050000,0.000000,0.000000,0.000000,0.000000,0.000000,0.000000,0.000000,0.100000,0.100000,-0.387308,-0.525940,-0.050000,-0.050000,0.419646,-0.553858,0.000000,0.000000,-0.558842,0.484432,0.831587,0.512296,0.105199,0.025896,-0.114631,-0.052038,-0.007206,-0.215351
-0.050000,-0.050000,0.000000,0.000000,0.000000,0.000000,0.000000,0.000000,0.000000,0.100000,0.100000,-0.388851,-0.516790,-0.050000,-0.050000,0.414225,-0.548669,0.000000,0.000000,-0.561787,0.486391,0.801671,0.518898,0.105187,0.034242,-0.121389,-0.054408,-0.005723,-0.207623
-0.050000,-0.050000,0.000000,0.000000,0.000000,0.000000,0.000000,0.000000,0.000000,0.100000,0.100000,-0.389517,-0.507863,-0.050000,-0.050000,0.408802,-0.543297,0.000000,0.000000,-0.564322,0.488482,0.772356,0.525737,0.105770,0.042646,-0.127867,-0.056546,-0.004674,-0.199374
-0.050000,-0.050000,0.000000,0.000000,0.000000,0.000000,0.000000,0.000000,0.000000,0.100000,0.100000,-0.387590,-0.499583,-0.050000,-0.050000,0.403833,-0.537935,0.000000,0.000000,-0.565226,0.490793,0.746674,0.533117,0.107471,0.050985,-0.133025,-0.058047,-0.004761,-0.189829
-0.050000,-0.050000,0.000000,0.000000,0.000000,0.000000,0.000000,0.000000,0.000000,0.100000,0.100000,-0.384852,-0.491521,-0.050000,-0.050000,0.399138,-0.532833,0.000000,0.000000,-0.565546,0.493112,0.722789,0.540567,0.109299,0.059213,-0.137612,-0.059371,-0.005137,-0.179981
-0.050000,-0.050000,0.000000,0.000000,0.000000,0.000000,0.000000,0.000000,0.000000,0.100000,0.100000,-0.380493,-0.483895,-0.050000,-0.050000,0.394990,-0.528249,0.000000,0.000000,-0.564696,0.495449,0.702494,0.548158,0.111379,0.067218,-0.141056,-0.060345,-0.006088,-0.169527
-0.050000,-0.050000,0.000000,0.000000,0.000000,0.000000,0.000000,0.000000,0.000000,0.100000,0.100000,-0.374694,-0.476782,-0.050000,-0.050000,0.391553,-0.524749,0.000000,0.000000,-0.562774,0.497678,0.686780,0.555593,0.113291,0.074812,-0.143189,-0.061055,-0.007423,-0.158794
-0.050000,-0.050000,0.000000,0.000000,0.000000,0.000000,0.000000,0.000000,0.000000,0.100000,0.100000,-0.368174,-0.469926,-0.050000,-0.050000,0.388471,-0.521790,0.000000,0.000000,-0.560317,0.499854,0.673357,0.562952,0.115118,0.082199,-0.144666,-0.061633,-0.008950,-0.147920
-0.050000,-0.050000,0.000000,0.000000,0.000000,0.000000,0.000000,0.000000,0.000000,0.100000,0.100000,-0.359830,-0.464096,-0.050000,-0.050000,0.386567,-0.521241,0.000000,0.000000,-0.556583,0.501714,0.667812,0.569565,0.116297,0.088671,-0.144118,-0.061958,-0.010816,-0.137190
-0.050000,-0.050000,0.000000,0.000000,0.000000,0.000000,0.000000,0.000000,0.000000,0.100000,0.100000,-0.350996,-0.458736,-0.050000,-0.050000,0.385049,-0.521692,0.000000,0.000000,-0.552557,0.503431,0.665023,0.575751,0.117224,0.094731,-0.142947,-0.062250,-0.012753,-0.126705
-0.050000,-0.050000,0.000000,0.000000,0.000000,0.000000,0.000000,0.000000,0.000000,0.100000,0.100000,-0.341178,-0.454315,-0.050000,-0.050000,0.384304,-0.524144,0.000000,0.000000,-0.547947,0.504865,0.667744,0.581081,0.117647,0.099966,-0.140530,-0.062478,-0.014828,-0.116711
-0.050000,-0.050000,0.000000,0.000000,0.000000,0.000000,0.000000,0.000000,0.000000,0.100000,0.100000,-0.330574,-0.451141,-0.050000,-0.050000,0.384243,-0.528806,0.000000,0.000000,-0.542997,0.505976,0.675776,0.585215,0.117672,0.104141,-0.137106,-0.062755,-0.017040,-0.107584
-0.050000,-0.050000,0.000000,0.000000,0.000000,0.000000,0.000000,0.000000,0.000000,0.100000,0.100000,-0.319578,-0.448591,-0.050000,-0.050000,0.384523,-0.534572,0.000000,0.000000,-0.537877,0.506926,0.686464,0.588750,0.117497,0.107786,-0.133177,-0.063057,-0.019320,-0.098892
-0.050000,-0.050000,0.000000,0.000000,0.000000,0.000000,0.000000,0.000000,0.000000,0.100000,0.100000,-0.307608,-0.448382,-0.050000,-0.050000,0.385593,-0.543635,0.000000,0.000000,-0.532513,0.507369,0.704188,0.590072,0.117072,0.109489,-0.128222,-0.063607,-0.021920,-0.092002
-0.050000,-0.050000,0.000000,0.000000,0.000000,0.000000,0.000000,0.000000,0.000000,0.100000,0.100000,-0.295350,-0.449085,-0.050000,-0.050000,0.386824,-0.553687,0.000000,0.000000,-0.527119,0.507632,0.723779,0.590571,0.116709,0.110454,-0.123099,-0.064287,-0.024693,-0.085851
-0.050000,-0.050000,0.000000,0.000000,0.000000,0.000000,0.000000,0.000000,0.000000,0.100000,0.100000,-0.282515,-0.451613,-0.050000,-0.050000,0.388379,-0.565715,0.000000,0.000000,-0.521668,0.507537,0.747108,0.589424,0.116468,0.109940,-0.117641,-0.065229,-0.027813,-0.081178
-0.050000,-0.050000,0.000000,0.000000,0.000000,0.000000,0.000000,0.000000,0.000000,0.100000,0.100000,-0.269134,-0.456126,-0.050000,-0.050000,0.390029,-0.579320,0.000000,0.000000,-0.516212,0.507025,0.773014,0.586605,0.116628,0.107873,-0.112161,-0.066478,-0.031432,-0.078197
-0.050000,-0.050000,0.000000,0.000000,0.000000,0.000000,0.000000,0.000000,0.000000,0.100000,0.100000,-0.255479,-0.461632,-0.050000,-0.050000,0.391726,-0.593713,0.000000,0.000000,-0.510753,0.506306,0.800208,0.582949,0.116988,0.105029,-0.106670,-0.067881,-0.035301,-0.076062
-0.050000,-0.050000,0.000000,0.000000,0.000000,0.000000,0.000000,0.000000,0.000000,0.100000,0.100000,-0.241060,-0.470132,-0.050000,-0.050000,0.393228,-0.609700,0.000000,0.000000,-0.505340,0.504791,0.829421,0.576975,0.118267,0.099974,-0.101502,-0.069706,-0.040113,-0.076689
-0.050000,-0.050000,0.000000,0.000000,0.000000,0.000000,0.000000,0.000000,0.000000,0.100000,0.100000,-0.226430,-0.479545,-0.050000,-0.050000,0.394566,-0.625937,0.000000,0.000000,-0.499967,0.502931,0.858715,0.570360,0.119914,0.094299,-0.096518,-0.071619,-0.045269,-0.078269
-0.050000,-0.050000,0.000000,0.000000,0.000000,0.000000,0.000000,0.000000,0.000000,0.100000,0.100000,-0.211380,-0.490785,-0.050000,-0.050000,0.395576,-0.642677,0.000000,0.000000,-0.494674,0.500379,0.888170,0.562463,0.122295,0.087385,-0.091899,-0.073708,-0.051117,-0.081756
-0.050000,-0.050000,0.000000,0.000000,0.000000,0.000000,0.000000,0.000000,0.000000,0.100000,0.100000,-0.196093,-0.503491,-0.050000,-0.050000,0.396116,-0.659386,0.000000,0.000000,-0.489543,0.496962,0.916740,0.553636,0.125433,0.079598,-0.087721,-0.075808,-0.057617,-0.087102
-0.050000,-0.050000,0.000000,0.000000,0.000000,0.000000,0.000000,0.000000,0.000000,0.100000,0.100000,-0.180688,-0.516931,-0.050000,-0.050000,0.396421,-0.676080,0.000000,0.000000,-0.484493,0.493113,0.944866,0.544345,0.128951,0.071374,-0.083763,-0.077912,-0.064443,-0.093378
-0.050000,-0.050000,0.000000,0.000000,0.000000,0.000000,0.000000,0.000000,0.000000,0.100000,0.100000,-0.165373,-0.531770,-0.050000,-0.050000,0.395918,-0.692053,0.000000,0.000000,-0.479852,0.487758,0.970375,0.534226,0.133508,0.062521,-0.080509,-0.079757,-0.072010,-0.102163
-0.050000,-0.050000,0.000000,0.000000,0.000000,0.000000,0.000000,0.000000,0.000000,0.100000,0.100000,-0.150285,-0.546746,-0.050000,-0.050000,0.395155,-0.707618,0.000000,0.000000,-0.475407,0.481865,0.994683,0.524004,0.138340,0.053718,-0.077493,-0.081442,-0.079684,-0.111622
-0.050000,-0.050000,0.000000,0.000000,0.000000,0.000000,0.000000,0.000000,0.000000,0.100000,0.100000,-0.135652,-0.561997,-0.050000,-0.050000,0.393872,-0.722367,0.000000,0.000000,-0.471353,0.474897,1.016589,0.513574,0.143718,0.045012,-0.074954,-0.082810,-0.087572,-0.122430
-0.050000,-0.050000,0.000000,0.000000,0.000000,0.000000,0.000000,0.000000,0.000000,0.100000,0.100000,-0.121932,-0.576803,-0.050000,-0.050000,0.392171,-0.736081,0.000000,0.000000,-0.467779,0.466856,1.035625,0.503194,0.149421,0.036975,-0.072897,-0.083804,-0.095293,-0.134161
-0.050000,-0.050000,0.000000,0.000000,0.000000,0.000000,0.000000,0.000000,0.000000,0.100000,0.100000,-0.108668,-0.591386,-0.050000,-0.050000,0.390262,-0.749278,0.000000,0.000000,-0.464444,0.458278,1.053226,0.492840,0.155286,0.029272,-0.071080,-0.084612,-0.102932,-0.146354
-0.050000,-0.050000,0.000000,0.000000,0.000000,0.000000,0.000000,0.000000,0.000000,0.100000,0.100000,-0.097464,-0.604250,-0.050000,-0.050000,0.387990,-0.760740,0.000000,0.000000,-0.461863,0.448164,1.066058,0.482790,0.161201,0.023494,-0.069999,-0.084961,-0.109670,-0.159246
-0.050000,-0.050000,0.000000,0.000000,0.000000,0.000000,0.000000,0.000000,0.000000,0.100000,0.100000,-0.087142,-0.616228,-0.050000,-0.050000,0.385705,-0.771595,0.000000,0.000000,-0.459500,0.437567,1.077217,0.472864,0.166964,0.018670,-0.069163,-0.085252,-0.115895,-0.172163
-0.050000,-0.050000,0.000000,0.000000,0.000000,0.000000,0.000000,0.000000,0.000000,0.100000,0.100000,-0.078585,-0.626435,-0.050000,-0.050000,0.383392,-0.781236,0.000000,0.000000,-0.457576,0.426002,1.085028,0.463190,0.172423,0.015755,-0.068818,-0.085429,-0.121094,-0.185129
-0.050000,-0.050000,0.000000,0.000000,0.000000,0.000000,0.000000,0.000000,0.000000,0.100000,0.100000,-0.072053,-0.634359,-0.050000,-0.050000,0.381267,-0.789633,0.000000,0.000000,-0.455944,0.413495,1.089454,0.453742,0.177244,0.015326,-0.068945,-0.085779,-0.124923,-0.197822
-0.050000,-0.050000,0.000000,0.000000,0.000000,0.000000,0.000000,0.000000,0.000000,0.100000,0.100000,-0.066532,-0.641141,-0.050000,-0.050000,0.379234,-0.797409,0.000000,0.000000,-0.454457,0.400516,1.092189,0.444407,0.181747,0.016139,-0.069309,-0.086215,-0.128067,-0.210379
-0.050000,-0.050000,0.000000,0.000000,0.000000,0.000000,0.000000,0.000000,0.000000,0.100000,0.100000,-0.064167,-0.643919,-0.050000,-0.050000,0.377740,-0.803270,0.000000,0.000000,-0.453116,0.386081,1.090013,0.435351,0.184889,0.021358,-0.070314,-0.087413,-0.128848,-0.222212
-0.050000,-0.050000,0.000000,0.000000,0.000000,0.000000,0.000000,0.000000,0.000000,0.100000,0.100000,-0.062799,-0.645225,-0.050000,-0.050000,0.376475,-0.808467,0.000000,0.000000,-0.451728,0.371128,1.086338,0.426392,0.187505,0.028179,-0.071496,-0.089025,-0.128829,-0.233747
-0.050000,-0.050000,0.000000,0.000000,0.000000,0.000000,0.000000,0.000000,0.000000,0.100000,0.100000,-0.063422,-0.643590,-0.050000,-0.050000,0.375673,-0.812335,0.000000,0.000000,-0.450246,0.355138,1.079665,0.417626,0.189069,0.038205,-0.073032,-0.091466,-0.127208,-0.244688
-0.050000,-0.050000,0.000000,0.000000,0.000000,0.000000,0.000000,0.000000,0.000000,0.100000,0.100000,-0.065758,-0.638855,-0.050000,-0.050000,0.375365,-0.814795,0.000000,0.000000,-0.448549,0.338045,1.070437,0.409177,0.189590,0.051494,-0.074829,-0.094983,-0.124136,-0.254992
-0.050000,-0.050000,0.000000,0.000000,0.000000,0.000000,0.000000,0.000000,0.000000,0.100000,0.100000,-0.068950,-0.632570,-0.050000,-0.050000,0.375306,-0.816551,0.000000,0.000000,-0.446744,0.320401,1.059931,0.400886,0.189591,0.066413,-0.076757,-0.099040,-0.120338,-0.264977
-0.050000,-0.050000,0.000000,0.000000,0.000000,0.000000,0.000000,0.000000,0.000000,0.100000,0.100000,-0.074126,-0.621596,-0.050000,-0.050000,0.375976,-0.816057,0.000000,0.000000,-0.444613,0.301098,1.046470,0.393488,0.188262,0.086002,-0.078933,-0.104893,-0.114807,-0.273995
-0.050000,-0.050000,0.000000,0.000000,0.000000,0.000000,0.000000,0.000000,0.000000,0.100000,0.100000,-0.079751,-0.609131,-0.050000,-0.050000,0.376884,-0.814779,0.000000,0.000000,-0.442442,0.281306,1.032356,0.386604,0.186617,0.106979,-0.081147,-0.111324,-0.108891,-0.282690
-0.050000,-0.050000,0.000000,0.000000,0.000000,0.000000,0.000000,0.000000,0.000000,0.100000,0.100000,-0.086277,-0.593686,-0.050000,-0.050000,0.378266,-0.811934,0.000000,0.000000,-0.440192,0.260534,1.016936,0.380744,0.184338,0.130732,-0.083440,-0.118907,-0.102206,-0.290739
-0.050000,-0.050000,0.000000,0.000000,0.000000,0.000000,0.000000,0.000000,0.000000,0.100000,0.100000,-0.093319,-0.575618,-0.050000,-0.050000,0.380145,-0.807528,0.000000,0.000000,-0.438121,0.239082,1.000872,0.376415,0.181695,0.156743,-0.085748,-0.127412,-0.095165,-0.298123
-0.050000,-0.050000,0.000000,0.000000,0.000000,0.000000,0.000000,0.000000,0.000000,0.100000,0.100000,-0.100621,-0.556238,-0.050000,-0.050000,0.382271,-0.802341,0.000000,0.000000,-0.436139,0.217292,0.984487,0.372851,0.178869,0.183884,-0.088062,-0.136376,-0.087946,-0.305174
-0.050000,-0.050000,0.000000,0.000000,0.000000,0.000000,0.000000,0.000000,0.000000,0.100000,0.100000,-0.108261,-0.533806,-0.050000,-0.050000,0.385234,-0.795026,0.000000,0.000000,-0.434888,0.195214,0.968000,0.372261,0.175805,0.213352,-0.090337,-0.146110,-0.080782,-0.311140
-0.050000,-0.050000,0.000000,0.000000,0.000000,0.000000,0.000000,0.000000,0.000000,0.100000,0.100000,-0.115922,-0.510749,-0.050000,-0.050000,0.388516,-0.787158,0.000000,0.000000,-0.434012,0.173358,0.951699,0.372782,0.172699,0.243141,-0.092589,-0.155834,-0.073801,-0.316696
-0.050000,-0.050000,0.000000,0.000000,0.000000,0.000000,0.000000,0.000000,0.000000,0.100000,0.100000,-0.123621,-0.486440,-0.050000,-0.050000,0.392434,-0.778183,0.000000,0.000000,-0.433888,0.151946,0.935769,0.375523,0.169509,0.273574,-0.094793,-0.165536,-0.067185,-0.321431
-0.050000,-0.050000,0.000000,0.000000,0.000000,0.000000,0.000000,0.000000,0.000000,0.100000,0.100000,-0.131258,-0.461773,-0.050000,-0.050000,0.397034,-0.768571,0.000000,0.000000,-0.434643,0.131686,0.920503,0.380372,0.166154,0.303559,-0.096930,-0.174643,-0.061177,-0.325228
-0.050000,-0.050000,0.000000,0.000000,0.000000,0.000000,0.000000,0.000000,0.000000,0.100000,0.100000,-0.138863,-0.436928,-0.050000,-0.050000,0.401974,-0.758641,0.000000,0.000000,-0.435838,0.112001,0.905568,0.386275,0.162718,0.333321,-0.099034,-0.183452,-0.055474,-0.328557
-0.050000,-0.050000,0.000000,0.000000,0.000000,0.000000,0.000000,0.000000,0.000000,0.100000,0.100000,-0.146282,-0.412872,-0.050000,-0.050000,0.407869,-0.748600,0.000000,0.000000,-0.438253,0.095066,0.891905,0.394561,0.158709,0.360604,-0.100988,-0.190619,-0.050898,-0.330346
-0.050000,-0.050000,0.000000,0.000000,0.000000,0.000000,0.000000,0.000000,0.000000,0.100000,0.100000,-0.153606,-0.389460,-0.050000,-0.050000,0.413993,-0.738791,0.000000,0.000000,-0.440946,0.079332,0.878739,0.403204,0.154368,0.386469,-0.102863,-0.197078,-0.046717,-0.331621
-0.050000,-0.050000,0.000000,0.000000,0.000000,0.000000,0.000000,0.000000,0.000000,0.100000,0.100000,-0.160740,-0.367334,-0.050000,-0.050000,0.420578,-0.729448,0.000000,0.000000,-0.444194,0.066000,0.866567,0.412564,0.149362,0.409494,-0.104579,-0.202124,-0.043325,-0.331867
-0.050000,-0.050000,0.000000,0.000000,0.000000,0.000000,0.000000,0.000000,0.000000,0.100000,0.100000,-0.167579,-0.347047,-0.050000,-0.050000,0.427320,-0.720976,0.000000,0.000000,-0.447604,0.055462,0.855565,0.421582,0.143439,0.428690,-0.106053,-0.205682,-0.040653,-0.331205
-0.050000,-0.050000,0.000000,0.000000,0.000000,0.000000,0.000000,0.000000,0.000000,0.100000,0.100000,-0.174269,-0.327681,-0.050000,-0.050000,0.434140,-0.712939,0.000000,0.000000,-0.451094,0.046320,0.845148,0.430428,0.137059,0.445971,-0.107407,-0.208497,-0.038340,-0.330087
-0.050000,-0.050000,0.000000,0.000000,0.000000,0.000000,0.000000,0.000000,0.000000,0.100000,0.100000,-0.180286,-0.311544,-0.050000,-0.050000,0.440622,-0.706495,0.000000,0.000000,-0.454162,0.041634,0.836860,0.437257,0.129134,0.456578,-0.108261,-0.209320,-0.036862,-0.327960
-0.050000,-0.050000,0.000000,0.000000,0.000000,0.000000,0.000000,0.000000,0.000000,0.100000,0.100000,-0.185994,-0.296525,-0.050000,-0.050000,0.446803,-0.700563,0.000000,0.000000,-0.456892,0.038413,0.829436,0.443062,0.120740,0.464901,-0.108914,-0.209632,-0.035548,-0.325644
-0.050000,-0.050000,0.000000,0.000000,0.000000,0.000000,0.000000,0.000000,0.000000,0.100000,0.100000,-0.191080,-0.283739,-0.050000,-0.050000,0.452383,-0.695656,0.000000,0.000000,-0.458947,0.038122,0.823741,0.446818,0.111407,0.468653,-0.109164,-0.208923,-0.034562,-0.322948
-0.050000,-0.050000,0.000000,0.000000,0.000000,0.000000,0.000000,0.000000,0.000000,0.100000,0.100000,-0.195405,-0.273079,-0.050000,-0.050000,0.457095,-0.691554,0.000000,0.000000,-0.460067,0.040534,0.820082,0.448307,0.101433,0.468235,-0.108984,-0.207514,-0.033662,-0.320134
-0.050000,-0.050000,0.000000,0.000000,0.000000,0.000000,0.000000,0.000000,0.000000,0.100000,0.100000,-0.199350,-0.263482,-0.050000,-0.050000,0.461373,-0.687854,0.000000,0.000000,-0.460718,0.044298,0.817440,0.448662,0.091138,0.465731,-0.108588,-0.205755,-0.032805,-0.317261
-0.050000,-0.050000,0.000000,0.000000,0.000000,0.000000,0.000000,0.000000,0.000000,0.100000,0.100000,-0.202086,-0.256720,-0.050000,-0.050000,0.464233,-0.684881,0.000000,0.000000,-0.459835,0.051585,0.818144,0.446120,0.080525,0.458220,-0.107589,-0.203274,-0.031767,-0.314428
-0.050000,-0.050000,0.000000,0.000000,0.000000,0.000000,0.000000,0.000000,0.000000,0.100000,0.100000,-0.204468,-0.250761,-0.050000,-0.050000,0.466698,-0.681981,0.000000,0.000000,-0.458485,0.059846,0.819950,0.443025,0.070029,0.449590,-0.106425,-0.200578,-0.030606,-0.311596
-0.050000,-0.050000,0.000000,0.000000,0.000000,0.000000,0.000000,0.000000,0.000000,0.100000,0.100000,-0.206141,-0.246407,-0.050000,-0.050000,0.468374,-0.679231,0.000000,0.000000,-0.456198,0.070057,0.823960,0.438823,0.059763,0.438718,-0.104931,-0.197455,-0.029197,-0.308768
-0.050000,-0.050000,0.000000,0.000000,0.000000,0.000000,0.000000,0.000000,0.000000,0.100000,0.100000,-0.207360,-0.243396,-0.050000,-0.050000,0.469638,-0.676353,0.000000,0.000000,-0.453195,0.081850,0.829839,0.434654,0.050054,0.426761,-0.103204,-0.193801,-0.027501,-0.305753
-0.050000,-0.050000,0.000000,0.000000,0.000000,0.000000,0.000000,0.000000,0.000000,0.100000,0.100000,-0.208351,-0.241058,-0.050000,-0.050000,0.470695,-0.673412,0.000000,0.000000,-0.449834,0.094436,0.836653,0.430501,0.040624,0.414262,-0.101361,-0.189882,-0.025662,-0.302645
-0.050000,-0.050000,0.000000,0.000000,0.000000,0.000000,0.000000,0.000000,0.000000,0.100000,0.100000,-0.209234,-0.240471,-0.050000,-0.050000,0.471944,-0.670022,0.000000,0.000000,-0.445829,0.108972,0.845277,0.428202,0.032207,0.401657,-0.099320,-0.184873,-0.023429,-0.298806
-0.050000,-0.050000,0.000000,0.000000,0.000000,0.000000,0.000000,0.000000,0.000000,0.100000,0.100000,-0.210312,-0.240439,-0.050000,-0.050000,0.473563,-0.666462,0.000000,0.000000,-0.441752,0.124064,0.854040,0.427019,0.024071,0.389377,-0.097261,-0.179402,-0.021085,-0.294563
-0.050000,-0.050000,0.000000,0.000000,0.000000,0.000000,0.000000,0.000000,0.000000,0.100000,0.100000,-0.211780,-0.241519,-0.050000,-0.050000,0.475922,-0.662559,0.000000,0.000000,-0.437532,0.140265,0.863077,0.428072,0.016500,0.377743,-0.095167,-0.173007,-0.018520,-0.289511
-0.050000,-0.050000,0.000000,0.000000,0.000000,0.000000,0.000000,0.000000,0.000000,0.100000,0.100000,-0.214115,-0.243770,-0.050000,-0.050000,0.479595,-0.658397,0.000000,0.000000,-0.433405,0.157441,0.871312,0.431925,0.009190,0.367077,-0.093132,-0.165583,-0.015744,-0.283413
-0.050000,-0.050000,0.000000,0.000000,0.000000,0.000000,0.000000,0.000000,0.000000,0.100000,0.100000,-0.216883,-0.246606,-0.050000,-0.050000,0.483924,-0.654107,0.000000,0.000000,-0.429325,0.175104,0.879146,0.437179,0.002011,0.356895,-0.091126,-0.157646,-0.012863,-0.276792
-0.050000,-0.050000,0.000000,0.000000,0.000000,0.000000,0.000000,0.000000,0.000000,0.100000,0.100000,-0.221611,-0.251412,-0.050000,-0.050000,0.490876,-0.649715,0.000000,0.000000,-0.425619,0.194012,0.884189,0.446607,-0.005383,0.348029,-0.089366,-0.148279,-0.009585,-0.268522
-0.050000,-0.050000,0.000000,0.000000,0.000000,0.000000,0.000000,0.000000,0.000000,0.100000,0.100000,-0.227176,-0.256956,-0.050000,-0.050000,0.498814,-0.645426,0.000000,0.000000,-0.422075,0.213224,0.887858,0.457112,-0.013051,0.339399,-0.087753,-0.138587,-0.006114,-0.259799
-0.050000,-0.050000,0.000000,0.000000,0.000000,0.000000,0.000000,0.000000,0.000000,0.100000,0.100000,-0.234413,-0.263980,-0.050000,-0.050000,0.508724,-0.641339,0.000000,0.000000,-0.418852,0.233042,0.888779,0.469769,-0.021268,0.331242,-0.086433,-0.128245,-0.002255,-0.250170
-0.050000,-0.050000,0.000000,0.000000,0.000000,0.000000,0.000000,0.000000,0.000000,0.100000,0.100000,-0.243594,-0.272619,-0.050000,-0.050000,0.520582,-0.637764,0.000000,0.000000,-0.415948,0.253118,0.886335,0.483424,-0.030341,0.323022,-0.085566,-0.117777,0.002170,-0.240094
-0.050000,-0.050000,0.000000,0.000000,0.000000,0.000000,0.000000,0.000000,0.000000,0.100000,0.100000,-0.253746,-0.282067,-0.050000,-0.050000,0.533416,-0.634446,0.000000,0.000000,-0.413202,0.273322,0.882209,0.497578,-0.039841,0.314770,-0.084927,-0.107247,0.006878,-0.229796
-0.050000,-0.050000,0.000000,0.000000,0.000000,0.000000,0.000000,0.000000,0.000000,0.100000,0.100000,-0.267067,-0.294047,-0.050000,-0.050000,0.548783,-0.632349,0.000000,0.000000,-0.410849,0.293187,0.872563,0.511017,-0.050828,0.305766,-0.085248,-0.097533,0.012732,-0.219867
-0.050000,-0.050000,0.000000,0.000000,0.000000,0.000000,0.000000,0.000000,0.000000,0.100000,0.100000,-0.281474,-0.306867,-0.050000,-0.050000,0.564766,-0.630782,0.000000,0.000000,-0.408586,0.312649,0.861049,0.523447,-0.062263,0.296427,-0.085985,-0.088428,0.019059,-0.210480
-0.050000,-0.050000,0.000000,0.000000,0.000000,0.000000,0.000000,0.000000,0.000000,0.100000,0.100000,-0.298054,-0.321370,-0.050000,-0.050000,0.581984,-0.630275,0.000000,0.000000,-0.406504,0.331309,0.845801,0.533861,-0.074593,0.286417,-0.087554,-0.080543,0.026332,-0.202176
-0.050000,-0.050000,0.000000,0.000000,0.000000,0.000000,0.000000,0.000000,0.000000,0.100000,0.100000,-0.316758,-0.337469,-0.050000,-0.050000,0.599843,-0.630964,0.000000,0.000000,-0.404529,0.348570,0.826962,0.540916,-0.087467,0.275880,-0.090116,-0.074400,0.034686,-0.195810
-0.050000,-0.050000,0.000000,0.000000,0.000000,0.000000,0.000000,0.000000,0.000000,0.100000,0.100000,-0.336524,-0.354366,-0.050000,-0.050000,0.618024,-0.632250,0.000000,0.000000,-0.402608,0.365132,0.806327,0.546292,-0.100613,0.265079,-0.093175,-0.069127,0.043580,-0.190414
-0.050000,-0.050000,0.000000,0.000000,0.000000,0.000000,0.000000,0.000000,0.000000,0.100000,0.100000,-0.359229,-0.373419,-0.050000,-0.050000,0.636176,-0.635305,0.000000,0.000000,-0.400773,0.378827,0.780733,0.545231,-0.113660,0.254002,-0.097842,-0.066844,0.054200,-0.189023
-0.050000,-0.050000,0.000000,0.000000,0.000000,0.000000,0.000000,0.000000,0.000000,0.100000,0.100000,-0.382771,-0.393072,-0.050000,-0.050000,0.653982,-0.638853,0.000000,0.000000,-0.398956,0.391397,0.753690,0.541823,-0.126270,0.242999,-0.103020,-0.065528,0.065398,-0.189204
-0.050000,-0.050000,0.000000,0.000000,0.000000,0.000000,0.000000,0.000000,0.000000,0.100000,0.100000,-0.407987,-0.413927,-0.050000,-0.050000,0.671098,-0.643388,0.000000,0.000000,-0.397173,0.401716,0.723750,0.533722,-0.138004,0.232145,-0.109218,-0.066149,0.077752,-0.192528
-0.050000,-0.050000,0.000000,0.000000,0.000000,0.000000,0.000000,0.000000,0.000000,0.100000,0.100000,-0.434471,-0.435670,-0.050000,-0.050000,0.686900,-0.648565,0.000000,0.000000,-0.395414,0.409685,0.691465,0.521085,-0.147962,0.221567,-0.116220,-0.068390,0.091211,-0.199126
-0.050000,-0.050000,0.000000,0.000000,0.000000,0.000000,0.000000,0.000000,0.000000,0.100000,0.100000,-0.461589,-0.457857,-0.050000,-0.050000,0.702045,-0.654064,0.000000,0.000000,-0.393666,0.416479,0.658006,0.506181,-0.157031,0.211128,-0.123622,-0.071440,0.105221,-0.207361
-0.050000,-0.050000,0.000000,0.000000,0.000000,0.000000,0.000000,0.000000,0.000000,0.100000,0.100000,-0.489843,-0.480809,-0.050000,-0.050000,0.714430,-0.659872,0.000000,0.000000,-0.391934,0.419991,0.622101,0.485457,-0.162200,0.200848,-0.131650,-0.076183,0.120740,-0.220162
-0.050000,-0.050000,0.000000,0.000000,0.000000,0.000000,0.000000,0.000000,0.000000,0.100000,0.100000,-0.518183,-0.503807,-0.050000,-0.050000,0.725707,-0.665565,0.000000,0.000000,-0.390198,0.422611,0.585819,0.463309,-0.165782,0.190411,-0.139633,-0.081203,0.136687,-0.234217
-0.050000,-0.050000,0.000000,0.000000,0.000000,0.000000,0.000000,0.000000,0.000000,0.100000,0.100000,-0.546699,-0.526896,-0.050000,-0.050000,0.734767,-0.671026,0.000000,0.000000,-0.388457,0.423447,0.548782,0.438312,-0.166194,0.179661,-0.147527,-0.086778,0.153491,-0.250779
-0.050000,-0.050000,0.000000,0.000000,0.000000,0.000000,0.000000,0.000000,0.000000,0.100000,0.100000,-0.574798,-0.549661,-0.050000,-0.050000,0.741419,-0.675909,0.000000,0.000000,-0.386718,0.423082,0.511969,0.411715,-0.163260,0.168085,-0.154793,-0.092332,0.170941,-0.269110
-0.050000,-0.050000,0.000000,0.000000,0.000000,0.000000,0.000000,0.000000,0.000000,0.100000,0.100000,-0.602688,-0.572264,-0.050000,-0.050000,0.746867,-0.680501,0.000000,0.000000,-0.384980,0.422116,0.475268,0.384318,-0.158653,0.156097,-0.161745,-0.097875,0.188714,-0.288324
-0.050000,-0.050000,0.000000,0.000000,0.000000,0.000000,0.000000,0.000000,0.000000,0.100000,0.100000,-0.629158,-0.593830,-0.050000,-0.050000,0.748730,-0.683928,0.000000,0.000000,-0.383349,0.420369,0.440378,0.356475,-0.149441,0.142252,-0.167066,-0.102626,0.207019,-0.308957
-0.050000,-0.050000,0.000000,0.000000,0.000000,0.000000,0.000000,0.000000,0.000000,0.100000,0.100000,-0.654956,-0.614910,-0.050000,-0.050000,0.749506,-0.686952,0.000000,0.000000,-0.381835,0.418703,0.406525,0.329088,-0.139032,0.127710,-0.171705,-0.106925,0.225313,-0.329665
-0.050000,-0.050000,0.000000,0.000000,0.000000,0.000000,0.000000,0.000000,0.000000,0.100000,0.100000,-0.679409,-0.635017,-0.050000,-0.050000,0.748112,-0.689171,0.000000,0.000000,-0.380556,0.417199,0.374747,0.302612,-0.126232,0.111774,-0.174982,-0.110322,0.243586,-0.350521
-0.050000,-0.050000,0.000000,0.000000,0.000000,0.000000,0.000000,0.000000,0.000000,0.100000,0.100000,-0.702295,-0.653977,-0.050000,-0.050000,0.744930,-0.690704,0.000000,0.000000,-0.379766,0.416458,0.345698,0.278043,-0.111987,0.094623,-0.176859,-0.112628,0.261396,-0.370824
-0.050000,-0.050000,0.000000,0.000000,0.000000,0.000000,0.000000,0.000000,0.000000,0.100000,0.100000,-0.724398,-0.672364,-0.050000,-0.050000,0.740854,-0.691892,0.000000,0.000000,-0.379222,0.416099,0.318013,0.254427,-0.097020,0.076864,-0.178038,-0.114389,0.278975,-0.390852
-0.050000,-0.050000,0.000000,0.000000,0.000000,0.000000,0.000000,0.000000,0.000000,0.100000,0.100000,-0.744094,-0.688927,-0.050000,-0.050000,0.734830,-0.692362,0.000000,0.000000,-0.379878,0.417554,0.294988,0.234730,-0.081448,0.058022,-0.177421,-0.114525,0.295181,-0.409196
-0.050000,-0.050000,0.000000,0.000000,0.000000,0.000000,0.000000,0.000000,0.000000,0.100000,0.100000,-0.763048,-0.704893,-0.050000,-0.050000,0.728416,-0.692707,0.000000,0.000000,-0.381082,0.419738,0.273563,0.216533,-0.066151,0.039174,-0.176390,-0.114209,0.310724,-0.426757
-0.050000,-0.050000,0.000000,0.000000,0.000000,0.000000,0.000000,0.000000,0.000000,0.100000,0.100000,-0.780515,-0.719663,-0.050000,-0.050000,0.721219,-0.692804,0.000000,0.000000,-0.383384,0.423380,0.255337,0.201338,-0.051406,0.020317,-0.174532,-0.112991,0.324944,-0.442752
-0.050000,-0.050000,0.000000,0.000000,0.000000,0.000000,0.000000,0.000000,0.000000,0.100000,0.100000,-0.796711,-0.733320,-0.050000,-0.050000,0.713714,-0.692853,0.000000,0.000000,-0.386999,0.428519,0.240152,0.189222,-0.037941,0.002238,-0.172283,-0.111161,0.337524,-0.456842
-0.050000,-0.050000,0.000000,0.000000,0.000000,0.000000,0.000000,0.000000,0.000000,0.100000,0.100000,-0.812272,-0.746420,-0.050000,-0.050000,0.706055,-0.692877,0.000000,0.000000,-0.391272,0.434407,0.226489,0.178647,-0.025116,-0.015453,-0.169838,-0.109025,0.349285,-0.469979
-0.050000,-0.050000,0.000000,0.000000,0.000000,0.000000,0.000000,0.000000,0.000000,0.100000,0.100000,-0.826294,-0.758030,-0.050000,-0.050000,0.698497,-0.693026,0.000000,0.000000,-0.397644,0.442308,0.216876,0.172404,-0.014837,-0.030921,-0.167398,-0.106470,0.358291,-0.479871
-0.050000,-0.050000,0.000000,0.000000,0.000000,0.000000,0.000000,0.000000,0.000000,0.100000,0.100000,-0.839912,-0.769209,-0.050000,-0.050000,0.691097,-0.693245,0.000000,0.000000,-0.404682,0.450729,0.208390,0.167402,-0.005447,-0.045403,-0.165101,-0.103930,0.366339,-0.488591
-0.050000,-0.050000,0.000000,0.000000,0.000000,0.000000,0.000000,0.000000,0.000000,0.100000,0.100000,-0.852721,-0.779526,-0.050000,-0.050000,0.684015,-0.693604,0.000000,0.000000,-0.413050,0.460190,0.202159,0.164877,0.002163,-0.057915,-0.163086,-0.101423,0.372474,-0.494967
-0.050000,-0.050000,0.000000,0.000000,0.000000,0.000000,0.000000,0.000000,0.000000,0.100000,0.100000,-0.864869,-0.789107,-0.050000,-0.050000,0.677377,-0.694093,0.000000,0.000000,-0.422526,0.470290,0.197707,0.164263,0.008207,-0.068265,-0.161494,-0.099200,0.376735,-0.498933
-0.050000,-0.050000,0.000000,0.000000,0.000000,0.000000,0.000000,0.000000,0.000000,0.100000,0.100000,-0.876687,-0.798320,-0.050000,-0.050000,0.670960,-0.694646,0.000000,0.000000,-0.432555,0.480710,0.194144,0.164603,0.013468,-0.077535,-0.160113,-0.097119,0.380060,-0.501693
-0.050000,-0.050000,0.000000,0.000000,0.000000,0.000000,0.000000,0.000000,0.000000,0.100000,0.100000,-0.887611,-0.806591,-0.050000,-0.050000,0.665247,-0.695317,0.000000,0.000000,-0.443712,0.491422,0.192575,0.166813,0.017008,-0.083730,-0.159392,-0.095729,0.380821,-0.500982
-0.050000,-0.050000,0.000000,0.000000,0.000000,0.000000,0.000000,0.000000,0.000000,0.100000,0.100000,-0.898232,-0.814588,-0.050000,-0.050000,0.659749,-0.695992,0.000000,0.000000,-0.455020,0.502012,0.191477,0.169305,0.020228,-0.089077,-0.158863,-0.094618,0.380874,-0.499267
-0.050000,-0.050000,0.000000,0.000000,0.000000,0.000000,0.000000,0.000000,0.000000,0.100000,0.100000,-0.908244,-0.822036,-0.050000,-0.050000,0.654680,-0.696673,0.000000,0.000000,-0.466631,0.512359,0.191319,0.172360,0.022805,-0.092724,-0.158717,-0.094064,0.379510,-0.495543
-0.050000,-0.050000,0.000000,0.000000,0.000000,0.000000,0.000000,0.000000,0.000000,0.100000,0.100000,-0.917580,-0.828983,-0.050000,-0.050000,0.649970,-0.697290,0.000000,0.000000,-0.478053,0.522068,0.191785,0.175354,0.025204,-0.095144,-0.158875,-0.094097,0.377139,-0.490323
-0.050000,-0.050000,0.000000,0.000000,0.000000,0.000000,0.000000,0.000000,0.000000,0.100000,0.100000,-0.926578,-0.835678,-0.050000,-0.050000,0.645439,-0.697875,0.000000,0.000000,-0.489380,0.531459,0.192562,0.178316,0.027513,-0.096950,-0.159185,-0.094422,0.374264,-0.484354
-0.050000,-0.050000,0.000000,0.000000,0.000000,0.000000,0.000000,0.000000,0.000000,0.100000,0.100000,-0.934424,-0.841644,-0.050000,-0.050000,0.641339,-0.698272,0.000000,0.000000,-0.499721,0.539425,0.193909,0.180442,0.030038,-0.097609,-0.159835,-0.095576,0.370612,-0.477125
-0.050000,-0.050000,0.000000,0.000000,0.000000,0.000000,0.000000,0.000000,0.000000,0.100000,0.100000,-0.941849,-0.847363,-0.050000,-0.050000,0.637354,-0.698585,0.000000,0.000000,-0.509543,0.546812,0.195356,0.182132,0.032704,-0.098065,-0.160564,-0.096963,0.366950,-0.469820
-0.050000,-0.050000,0.000000,0.000000,0.000000,0.000000,0.000000,0.000000,0.000000,0.100000,0.100000,-0.948430,-0.852586,-0.050000,-0.050000,0.633596,-0.698728,0.000000,0.000000,-0.518325,0.553044,0.197004,0.182951,0.035650,-0.098115,-0.161451,-0.098815,0.363267,-0.462365
-0.050000,-0.050000,0.000000,0.000000,0.000000,0.000000,0.000000,0.000000,0.000000,0.100000,0.100000,-0.954141,-0.857292,-0.050000,-0.050000,0.630027,-0.698674,0.000000,0.000000,-0.525823,0.558031,0.198734,0.182788,0.038845,-0.097973,-0.162421,-0.100999,0.359992,-0.455365
-0.050000,-0.050000,0.000000,0.000000,0.000000,0.000000,0.000000,0.000000,0.000000,0.100000,0.100000,-0.959416,-0.861740,-0.050000,-0.050000,0.626552,-0.698521,0.000000,0.000000,-0.532679,0.562397,0.200505,0.182134,0.042165,-0.097735,-0.163433,-0.103349,0.356920,-0.448592
-0.050000,-0.050000,0.000000,0.000000,0.000000,0.000000,0.000000,0.000000,0.000000,0.100000,0.100000,-0.963444,-0.865387,-0.050000,-0.050000,0.623328,-0.698056,0.000000,0.000000,-0.537481,0.564940,0.202285,0.180117,0.045660,-0.097348,-0.164438,-0.105951,0.354900,-0.443161
-0.050000,-0.050000,0.000000,0.000000,0.000000,0.000000,0.000000,0.000000,0.000000,0.100000,0.100000,-0.967113,-0.868769,-0.050000,-0.050000,0.620184,-0.697491,0.000000,0.000000,-0.541633,0.566938,0.204046,0.177752,0.049136,-0.096925,-0.165392,-0.108550,0.353300,-0.438302
-0.050000,-0.050000,0.000000,0.000000,0.000000,0.000000,0.000000,0.000000,0.000000,0.100000,0.100000,-0.970060,-0.871619,-0.050000,-0.050000,0.617201,-0.696723,0.000000,0.000000,-0.544485,0.567847,0.205770,0.174690,0.052578,-0.096431,-0.166244,-0.111143,0.352540,-0.434586
-0.050000,-0.050000,0.000000,0.000000,0.000000,0.000000,0.000000,0.000000,0.000000,0.100000,0.100000,-0.972449,-0.873971,-0.050000,-0.050000,0.614380,-0.695773,0.000000,0.000000,-0.546219,0.567860,0.207428,0.171220,0.055886,-0.095901,-0.166904,-0.113568,0.352621,-0.432098
-0.050000,-0.050000,0.000000,0.000000,0.000000,0.000000,0.000000,0.000000,0.000000,0.100000,0.100000,-0.974559,-0.876074,-0.050000,-0.050000,0.611642,-0.694734,0.000000,0.000000,-0.547395,0.567426,0.209054,0.167544,0.059127,-0.095354,-0.167468,-0.115909,0.353123,-0.430225
-0.050000,-0.050000,0.000000,0.000000,0.000000,0.000000,0.000000,0.000000,0.000000,0.100000,0.100000,-0.976104,-0.877526,-0.050000,-0.050000,0.609164,-0.693465,0.000000,0.000000,-0.547264,0.565994,0.210547,0.163709,0.062151,-0.094894,-0.167654,-0.117804,0.354760,-0.430164
-0.050000,-0.050000,0.000000,0.000000,0.000000,0.000000,0.000000,0.000000,0.000000,0.100000,0.100000,-0.977542,-0.878805,-0.050000,-0.050000,0.606778,-0.692135,0.000000,0.000000,-0.546823,0.564347,0.211982,0.159955,0.065138,-0.094546,-0.167705,-0.119507,0.356716,-0.430667
-0.050000,-0.050000,0.000000,0.000000,0.000000,0.000000,0.000000,0.000000,0.000000,0.100000,0.100000,-0.978767,-0.879739,-0.050000,-0.050000,0.604578,-0.690681,0.000000,0.000000,-0.545760,0.562271,0.213304,0.156364,0.068053,-0.094424,-0.167488,-0.120822,0.359309,-0.432300
-0.050000,-0.050000,0.000000,0.000000,0.000000,0.000000,0.000000,0.000000,0.000000,0.100000,0.100000,-0.979887,-0.880424,-0.050000,-0.050000,0.602570,-0.689123,0.000000,0.000000,-0.544288,0.559988,0.214486,0.153141,0.071014,-0.094748,-0.167036,-0.121704,0.362426,-0.434963
-0.050000,-0.050000,0.000000,0.000000,0.000000,0.000000,0.000000,0.000000,0.000000,0.100000,0.100000,-0.980956,-0.880983,-0.050000,-0.050000,0.600659,-0.687511,0.000000,0.000000,-0.542612,0.557603,0.215596,0.150102,0.073998,-0.095296,-0.166466,-0.122369,0.365805,-0.438140
-0.050000,-0.050000,0.000000,0.000000,0.000000,0.000000,0.000000,0.000000,0.000000,0.100000,0.100000,-0.981919,-0.881296,-0.050000,-0.050000,0.599038,-0.685747,0.000000,0.000000,-0.540544,0.555199,0.216456,0.147803,0.077224,-0.096851,-0.165655,-0.122372,0.369830,-0.442689
-0.050000,-0.050000,0.000000,0.000000,0.000000,0.000000,0.000000,0.000000,0.000000,0.100000,0.100000,-0.982824,-0.881552,-0.050000,-0.050000,0.597510,-0.683925,0.000000,0.000000,-0.538388,0.552869,0.217220,0.145772,0.080562,-0.098830,-0.164816,-0.122172,0.374033,-0.447629
-0.050000,-0.050000,0.000000,0.000000,0.000000,0.000000,0.000000,0.000000,0.000000,0.100000,0.100000,-0.983612,-0.881698,-0.050000,-0.050000,0.596166,-0.681987,0.000000,0.000000,-0.536055,0.550685,0.217796,0.144277,0.084127,-0.101656,-0.163921,-0.121565,0.378591,-0.453353
-0.050000,-0.050000,0.000000,0.000000,0.000000,0.000000,0.000000,0.000000,0.000000,0.100000,0.100000,-0.984167,-0.881746,-0.050000,-0.050000,0.594986,-0.679908,0.000000,0.000000,-0.533578,0.548768,0.218171,0.143288,0.087903,-0.105406,-0.163089,-0.120623,0.383436,-0.459702
-0.050000,-0.050000,0.000000,0.000000,0.000000,0.000000,0.000000,0.000000,0.000000,0.100000,0.100000,-0.984606,-0.881745,-0.050000,-0.050000,0.593889,-0.677759,0.000000,0.000000,-0.531030,0.546985,0.218445,0.142551,0.091785,-0.109618,-0.162288,-0.119515,0.388425,-0.466364
-0.050000,-0.050000,0.000000,0.000000,0.000000,0.000000,0.000000,0.000000,0.000000,0.100000,0.100000,-0.984456,-0.881558,-0.050000,-0.050000,0.592998,-0.675351,0.000000,0.000000,-0.528287,0.545730,0.218418,0.142450,0.095843,-0.115146,-0.161754,-0.118069,0.393730,-0.473692
-0.050000,-0.050000,0.000000,0.000000,0.000000,0.000000,0.000000,0.000000,0.000000,0.100000,0.100000,-0.984025,-0.881281,-0.050000,-0.050000,0.592159,-0.672843,0.000000,0.000000,-0.525490,0.544678,0.218298,0.142508,0.099885,-0.121029,-0.161359,-0.116579,0.399097,-0.481140
-0.050000,-0.050000,0.000000,0.000000,0.000000,0.000000,0.000000,0.000000,0.000000,0.100000,0.100000,-0.983034,-0.880826,-0.050000,-0.050000,0.591426,-0.670137,0.000000,0.000000,-0.522582,0.544033,0.217989,0.142882,0.103898,-0.127623,-0.161239,-0.114998,0.404590,-0.488829
-0.050000,-0.050000,0.000000,0.000000,0.000000,0.000000,0.000000,0.000000,0.000000,0.100000,0.100000,-0.981337,-0.880130,-0.050000,-0.050000,0.590769,-0.667217,0.000000,0.000000,-0.519613,0.543826,0.217513,0.143469,0.107726,-0.134666,-0.161464,-0.113468,0.410110,-0.496542
-0.050000,-0.050000,0.000000,0.000000,0.000000,0.000000,0.000000,0.000000,0.000000,0.100000,0.100000,-0.979288,-0.879313,-0.050000,-0.050000,0.590149,-0.664190,0.000000,0.000000,-0.516613,0.543839,0.216952,0.144163,0.111461,-0.141935,-0.161860,-0.111963,0.415645,-0.504267
-0.050000,-0.050000,0.000000,0.000000,0.000000,0.000000,0.000000,0.000000,0.000000,0.100000,0.100000,-0.976047,-0.878065,-0.050000,-0.050000,0.589611,-0.660849,0.000000,0.000000,-0.513641,0.544535,0.216167,0.145054,0.114744,-0.149415,-0.162813,-0.110725,0.421065,-0.511707
-0.050000,-0.050000,0.000000,0.000000,0.000000,0.000000,0.000000,0.000000,0.000000,0.100000,0.100000,-0.972400,-0.876666,-0.050000,-0.050000,0.589097,-0.657421,0.000000,0.000000,-0.510731,0.545461,0.215311,0.145983,0.117855,-0.156814,-0.163944,-0.109625,0.426396,-0.518954
-0.050000,-0.050000,0.000000,0.000000,0.000000,0.000000,0.000000,0.000000,0.000000,0.100000,0.100000,-0.967943,-0.874964,-0.050000,-0.050000,0.588631,-0.653816,0.000000,0.000000,-0.507944,0.546845,0.214313,0.146988,0.120619,-0.164049,-0.165432,-0.108800,0.431549,-0.525813
-0.050000,-0.050000,0.000000,0.000000,0.000000,0.000000,0.000000,0.000000,0.000000,0.100000,0.100000,-0.962736,-0.872984,-0.050000,-0.050000,0.588227,-0.650098,0.000000,0.000000,-0.505385,0.548671,0.213162,0.148032,0.123070,-0.170867,-0.167224,-0.108309,0.436436,-0.532125
-0.050000,-0.050000,0.000000,0.000000,0.000000,0.000000,0.000000,0.000000,0.000000,0.100000,0.100000,-0.957153,-0.870866,-0.050000,-0.050000,0.587853,-0.646324,0.000000,0.000000,-0.502941,0.550718,0.211934,0.149094,0.125363,-0.177477,-0.169167,-0.107985,0.441188,-0.538164
-0.050000,-0.050000,0.000000,0.000000,0.000000,0.000000,0.000000,0.000000,0.000000,0.100000,0.100000,-0.950641,-0.868421,-0.050000,-0.050000,0.587618,-0.642525,0.000000,0.000000,-0.500956,0.553360,0.210431,0.150157,0.127320,-0.183213,-0.171444,-0.108189,0.445448,-0.543234
-0.050000,-0.050000,0.000000,0.000000,0.000000,0.000000,0.000000,0.000000,0.000000,0.100000,0.100000,-0.943909,-0.865907,-0.050000,-0.050000,0.587448,-0.638777,0.000000,0.000000,-0.499140,0.556161,0.208816,0.151197,0.129217,-0.188627,-0.173783,-0.108558,0.449534,-0.547968
-0.050000,-0.050000,0.000000,0.000000,0.000000,0.000000,0.000000,0.000000,0.000000,0.100000,0.100000,-0.936736,-0.863255,-0.050000,-0.050000,0.587410,-0.635131,0.000000,0.000000,-0.497660,0.559278,0.206978,0.152190,0.130998,-0.193396,-0.176246,-0.109259,0.453274,-0.552031
-0.050000,-0.050000,0.000000,0.000000,0.000000,0.000000,0.000000,0.000000,0.000000,0.100000,0.100000,-0.929331,-0.860546,-0.050000,-0.050000,0.587539,-0.631711,0.000000,0.000000,-0.496493,0.562602,0.204886,0.153082,0.132751,-0.197555,-0.178729,-0.110239,0.456703,-0.555485
-0.050000,-0.050000,0.000000,0.000000,0.000000,0.000000,0.000000,0.000000,0.000000,0.100000,0.100000,-0.921810,-0.857809,-0.050000,-0.050000,0.587751,-0.628405,0.000000,0.000000,-0.495481,0.566029,0.202668,0.153923,0.134490,-0.201409,-0.181222,-0.111359,0.459978,-0.558634
-0.050000,-0.050000,0.000000,0.000000,0.000000,0.000000,0.000000,0.000000,0.000000,0.100000,0.100000,-0.914258,-0.855090,-0.050000,-0.050000,0.588238,-0.625599,0.000000,0.000000,-0.494835,0.569576,0.200074,0.154550,0.136252,-0.204507,-0.183591,-0.112777,0.462929,-0.561067
-0.050000,-0.050000,0.000000,0.000000,0.000000,0.000000,0.000000,0.000000,0.000000,0.100000,0.100000,-0.906796,-0.852403,-0.050000,-0.050000,0.588810,-0.622993,0.000000,0.000000,-0.494269,0.573104,0.197383,0.155103,0.138019,-0.207424,-0.185873,-0.114243,0.465839,-0.563347
-0.050000,-0.050000,0.000000,0.000000,0.000000,0.000000,0.000000,0.000000,0.000000,0.100000,0.100000,-0.899513,-0.849779,-0.050000,-0.050000,0.589555,-0.620786,0.000000,0.000000,-0.493860,0.576596,0.194499,0.155510,0.139797,-0.209979,-0.187977,-0.115807,0.468667,-0.565323
-0.050000,-0.050000,0.000000,0.000000,0.000000,0.000000,0.000000,0.000000,0.000000,0.100000,0.100000,-0.892585,-0.847252,-0.050000,-0.050000,0.590437,-0.618987,0.000000,0.000000,-0.493533,0.579965,0.191539,0.155823,0.141540,-0.212307,-0.189822,-0.117356,0.471554,-0.567163
-0.050000,-0.050000,0.000000,0.000000,0.000000,0.000000,0.000000,0.000000,0.000000,0.100000,0.100000,-0.885833,-0.844774,-0.050000,-0.050000,0.591386,-0.617392,0.000000,0.000000,-0.493247,0.583272,0.188540,0.156089,0.143267,-0.214522,-0.191536,-0.118898,0.474471,-0.568936
-0.050000,-0.050000,0.000000,0.000000,0.000000,0.000000,0.000000,0.000000,0.000000,0.100000,0.100000,-0.879823,-0.842481,-0.050000,-0.050000,0.592463,-0.616336,0.000000,0.000000,-0.493018,0.586330,0.185676,0.156380,0.144847,-0.216547,-0.192764,-0.120255,0.477637,-0.570689
-0.050000,-0.050000,0.000000,0.000000,0.000000,0.000000,0.000000,0.000000,0.000000,0.100000,0.100000,-0.874108,-0.840262,-0.050000,-0.050000,0.593555,-0.615412,0.000000,0.000000,-0.492801,0.589301,0.182952,0.156752,0.146346,-0.218530,-0.193809,-0.121508,0.480906,-0.572458
-0.050000,-0.050000,0.000000,0.000000,0.000000,0.000000,0.000000,0.000000,0.000000,0.100000,0.100000,-0.868983,-0.838192,-0.050000,-0.050000,0.594680,-0.614753,0.000000,0.000000,-0.492610,0.592098,0.180507,0.157286,0.147679,-0.220430,-0.194490,-0.122550,0.484382,-0.574260
-0.050000,-0.050000,0.000000,0.000000,0.000000,0.000000,0.000000,0.000000,0.000000,0.100000,0.100000,-0.864491,-0.836296,-0.050000,-0.050000,0.595800,-0.614245,0.000000,0.000000,-0.492455,0.594729,0.178519,0.158122,0.148787,-0.222232,-0.194802,-0.123327,0.488023,-0.576062
-0.050000,-0.050000,0.000000,0.000000,0.000000,0.000000,0.000000,0.000000,0.000000,0.100000,0.100000,-0.860316,-0.834489,-0.050000,-0.050000,0.596919,-0.613812,0.000000,0.000000,-0.492317,0.597278,0.176760,0.159110,0.149781,-0.223984,-0.194930,-0.123972,0.491746,-0.577864
-0.050000,-0.050000,0.000000,0.000000,0.000000,0.000000,0.000000,0.000000,0.000000,0.100000,0.100000,-0.857062,-0.832981,-0.050000,-0.050000,0.598011,-0.613448,0.000000,0.000000,-0.492245,0.599576,0.175879,0.160701,0.150354,-0.225492,-0.194557,-0.124196,0.495544,-0.579530
-0.050000,-0.050000,0.000000,0.000000,0.000000,0.000000,0.000000,0.000000,0.000000,0.100000,0.100000,-0.854074,-0.831581,-0.050000,-0.050000,0.599102,-0.613071,0.000000,0.000000,-0.492190,0.601779,0.175321,0.162510,0.150765,-0.226871,-0.194054,-0.124288,0.499290,-0.581094
-0.050000,-0.050000,0.000000,0.000000,0.000000,0.000000,0.000000,0.000000,0.000000,0.100000,0.100000,-0.851618,-0.830395,-0.050000,-0.050000,0.600189,-0.612669,0.000000,0.000000,-0.492165,0.603790,0.175408,0.164756,0.150852,-0.227990,-0.193290,-0.124117,0.502931,-0.582455
-0.050000,-0.050000,0.000000,0.000000,0.000000,0.000000,0.000000,0.000000,0.000000,0.100000,0.100000,-0.849560,-0.829426,-0.050000,-0.050000,0.601305,-0.612218,0.000000,0.000000,-0.492130,0.605557,0.176120,0.167404,0.150595,-0.228738,-0.192369,-0.123722,0.506310,-0.583509
-0.050000,-0.050000,0.000000,0.000000,0.000000,0.000000,0.000000,0.000000,0.000000,0.100000,0.100000,-0.847702,-0.828566,-0.050000,-0.050000,0.602436,-0.611744,0.000000,0.000000,-0.492089,0.607201,0.177145,0.170253,0.150166,-0.229301,-0.191369,-0.123216,0.509559,-0.584412
-0.050000,-0.050000,0.000000,0.000000,0.000000,0.000000,0.000000,0.000000,0.000000,0.100000,0.100000,-0.846198,-0.828009,-0.050000,-0.050000,0.603674,-0.611246,0.000000,0.000000,-0.491928,0.608377,0.178976,0.173584,0.149250,-0.229144,-0.190307,-0.122446,0.512239,-0.584753
-0.050000,-0.050000,0.000000,0.000000,0.000000,0.000000,0.000000,0.000000,0.000000,0.100000,0.100000,-0.844732,-0.827542,-0.050000,-0.050000,0.604972,-0.610782,0.000000,0.000000,-0.491684,0.609363,0.181010,0.177027,0.148207,-0.228698,-0.189279,-0.121610,0.514702,-0.584890
-0.050000,-0.050000,0.000000,0.000000,0.000000,0.000000,0.000000,0.000000,0.000000,0.100000,0.100000,-0.843342,-0.827256,-0.050000,-0.050000,0.606388,-0.610384,0.000000,0.000000,-0.491277,0.609969,0.183447,0.180693,0.146910,-0.227672,-0.188320,-0.120642,0.516731,-0.584620
-0.050000,-0.050000,0.000000,0.000000,0.000000,0.000000,0.000000,0.000000,0.000000,0.100000,0.100000,-0.841897,-0.827125,-0.050000,-0.050000,0.607968,-0.610174,0.000000,0.000000,-0.490627,0.610143,0.186135,0.184500,0.145485,-0.225982,-0.187513,-0.119573,0.518334,-0.583938
-0.050000,-0.050000,0.000000,0.000000,0.000000,0.000000,0.000000,0.000000,0.000000,0.100000,0.100000,-0.840426,-0.827073,-0.050000,-0.050000,0.609631,-0.610059,0.000000,0.000000,-0.489854,0.610101,0.188949,0.188376,0.143996,-0.223961,-0.186783,-0.118455,0.519725,-0.583049
-0.050000,-0.050000,0.000000,0.000000,0.000000,0.000000,0.000000,0.000000,0.000000,0.100000,0.100000,-0.838746,-0.827221,-0.050000,-0.050000,0.611616,-0.610450,0.000000,0.000000,-0.488617,0.609349,0.191917,0.192379,0.142548,-0.220843,-0.186349,-0.117210,0.520564,-0.581557
-0.050000,-0.050000,0.000000,0.000000,0.000000,0.000000,0.000000,0.000000,0.000000,0.100000,0.100000,-0.836976,-0.827425,-0.050000,-0.050000,0.613737,-0.611092,0.000000,0.000000,-0.487203,0.608344,0.194870,0.196407,0.141185,-0.217340,-0.186011,-0.115922,0.521254,-0.579870
-0.050000,-0.050000,0.000000,0.000000,0.000000,0.000000,0.000000,0.000000,0.000000,0.100000,0.100000,-0.835024,-0.827741,-0.050000,-0.050000,0.616132,-0.612237,0.000000,0.000000,-0.485434,0.606828,0.197795,0.200488,0.139993,-0.213066,-0.185867,-0.114545,0.521647,-0.577795
-0.050000,-0.050000,0.000000,0.000000,0.000000,0.000000,0.000000,0.000000,0.000000,0.100000,0.100000,-0.832868,-0.828139,-0.050000,-0.050000,0.618875,-0.614055,0.000000,0.000000,-0.483285,0.604756,0.200579,0.204593,0.139059,-0.208016,-0.185865,-0.113058,0.521787,-0.575346
-0.050000,-0.050000,0.000000,0.000000,0.000000,0.000000,0.000000,0.000000,0.000000,0.100000,0.100000,-0.830609,-0.828578,-0.050000,-0.050000,0.621790,-0.616210,0.000000,0.000000,-0.480947,0.602405,0.203293,0.208711,0.138254,-0.202579,-0.185934,-0.111514,0.521801,-0.572711
-0.050000,-0.050000,0.000000,0.000000,0.000000,0.000000,0.000000,0.000000,0.000000,0.100000,0.100000,-0.827989,-0.829076,-0.050000,-0.050000,0.625360,-0.619621,0.000000,0.000000,-0.478024,0.599119,0.205652,0.212791,0.137834,-0.196056,-0.186085,-0.109739,0.521413,-0.569542
-0.050000,-0.050000,0.000000,0.000000,0.000000,0.000000,0.000000,0.000000,0.000000,0.100000,0.100000,-0.825211,-0.829562,-0.050000,-0.050000,0.629196,-0.623523,0.000000,0.000000,-0.474905,0.595482,0.207851,0.216813,0.137498,-0.189228,-0.186207,-0.107862,0.520846,-0.566207
-0.050000,-0.050000,0.000000,0.000000,0.000000,0.000000,0.000000,0.000000,0.000000,0.100000,0.100000,-0.822114,-0.830026,-0.050000,-0.050000,0.633565,-0.628409,0.000000,0.000000,-0.471396,0.591142,0.209730,0.220719,0.137329,-0.181792,-0.186275,-0.105777,0.519920,-0.562540
-0.050000,-0.050000,0.000000,0.000000,0.000000,0.000000,0.000000,0.000000,0.000000,0.100000,0.100000,-0.818558,-0.830396,-0.050000,-0.050000,0.638560,-0.634386,0.000000,0.000000,-0.467504,0.586019,0.211224,0.224374,0.137183,-0.173931,-0.186179,-0.103435,0.518474,-0.558581
-0.050000,-0.050000,0.000000,0.000000,0.000000,0.000000,0.000000,0.000000,0.000000,0.100000,0.100000,-0.814772,-0.830719,-0.050000,-0.050000,0.643867,-0.640909,0.000000,0.000000,-0.463420,0.580505,0.212524,0.227904,0.137048,-0.165857,-0.186001,-0.100965,0.516769,-0.554476
-0.050000,-0.050000,0.000000,0.000000,0.000000,0.000000,0.000000,0.000000,0.000000,0.100000,0.100000,-0.809969,-0.830794,-0.050000,-0.050000,0.650219,-0.649144,0.000000,0.000000,-0.458775,0.573720,0.213200,0.230814,0.136726,-0.157492,-0.185449,-0.098068,0.513984,-0.550044
-0.050000,-0.050000,0.000000,0.000000,0.000000,0.000000,0.000000,0.000000,0.000000,0.100000,0.100000,-0.804678,-0.830759,-0.050000,-0.050000,0.656933,-0.657934,0.000000,0.000000,-0.453950,0.566487,0.213685,0.233441,0.136290,-0.149152,-0.184748,-0.095035,0.510741,-0.545570
-0.050000,-0.050000,0.000000,0.000000,0.000000,0.000000,0.000000,0.000000,0.000000,0.100000,0.100000,-0.798411,-0.830505,-0.050000,-0.050000,0.664371,-0.667833,0.000000,0.000000,-0.448764,0.558361,0.213787,0.235501,0.135624,-0.140860,-0.183750,-0.091732,0.506581,-0.541012
-0.050000,-0.050000,0.000000,0.000000,0.000000,0.000000,0.000000,0.000000,0.000000,0.100000,0.100000,-0.790794,-0.830000,-0.050000,-0.050000,0.672492,-0.678705,0.000000,0.000000,-0.443226,0.549309,0.213645,0.236890,0.134685,-0.132821,-0.182449,-0.088226,0.501352,-0.536582
-0.050000,-0.050000,0.000000,0.000000,0.000000,0.000000,0.000000,0.000000,0.000000,0.100000,0.100000,-0.782501,-0.829371,-0.050000,-0.050000,0.680955,-0.690064,0.000000,0.000000,-0.437510,0.539793,0.213380,0.237944,0.133610,-0.124908,-0.180996,-0.084618,0.495590,-0.532216
-0.050000,-0.050000,0.000000,0.000000,0.000000,0.000000,0.000000,0.000000,0.000000,0.100000,0.100000,-0.771516,-0.828355,-0.050000,-0.050000,0.690253,-0.702517,0.000000,0.000000,-0.431260,0.528841,0.213150,0.237988,0.132132,-0.117536,-0.179135,-0.080885,0.488116,-0.528488
-0.050000,-0.050000,0.000000,0.000000,0.000000,0.000000,0.000000,0.000000,0.000000,0.100000,0.100000,-0.759389,-0.827211,-0.050000,-0.050000,0.699710,-0.715166,0.000000,0.000000,-0.424817,0.517391,0.213136,0.237761,0.130518,-0.110331,-0.177165,-0.077188,0.480081,-0.525146
-0.050000,-0.050000,0.000000,0.000000,0.000000,0.000000,0.000000,0.000000,0.000000,0.100000,0.100000,-0.744978,-0.825808,-0.050000,-0.050000,0.709488,-0.728208,0.000000,0.000000,-0.417987,0.504945,0.213555,0.236993,0.128635,-0.103460,-0.174976,-0.073562,0.470922,-0.522577
-0.050000,-0.050000,0.000000,0.000000,0.000000,0.000000,0.000000,0.000000,0.000000,0.100000,0.100000,-0.727798,-0.824130,-0.050000,-0.050000,0.719231,-0.741252,0.000000,0.000000,-0.410704,0.491466,0.214925,0.235964,0.126417,-0.096743,-0.172634,-0.070168,0.460745,-0.521120
-0.050000,-0.050000,0.000000,0.000000,0.000000,0.000000,0.000000,0.000000,0.000000,0.100000,0.100000,-0.709233,-0.822314,-0.050000,-0.050000,0.728956,-0.754297,0.000000,0.000000,-0.403195,0.477471,0.216770,0.234806,0.124032,-0.090102,-0.170216,-0.066891,0.450059,-0.520218
-0.050000,-0.050000,0.000000,0.000000,0.000000,0.000000,0.000000,0.000000,0.000000,0.100000,0.100000,-0.685901,-0.819996,-0.050000,-0.050000,0.737922,-0.766772,0.000000,0.000000,-0.394838,0.461904,0.220879,0.233870,0.120884,-0.083219,-0.167673,-0.064174,0.438116,-0.521349
-0.050000,-0.050000,0.000000,0.000000,0.000000,0.000000,0.000000,0.000000,0.000000,0.100000,0.100000,-0.660865,-0.817451,-0.050000,-0.050000,0.746355,-0.778901,0.000000,0.000000,-0.386124,0.445834,0.225991,0.233248,0.117332,-0.076056,-0.165123,-0.061700,0.425877,-0.523196
-0.050000,-0.050000,0.000000,0.000000,0.000000,0.000000,0.000000,0.000000,0.000000,0.100000,0.100000,-0.632420,-0.814454,-0.050000,-0.050000,0.753720,-0.790339,0.000000,0.000000,-0.376694,0.428757,0.233110,0.233254,0.112972,-0.068331,-0.162563,-0.059709,0.413044,-0.526475
-0.050000,-0.050000,0.000000,0.000000,0.000000,0.000000,0.000000,0.000000,0.000000,0.100000,0.100000,-0.600334,-0.811142,-0.050000,-0.050000,0.760275,-0.801450,0.000000,0.000000,-0.364363,0.409919,0.241753,0.233544,0.106978,-0.058877,-0.160829,-0.058482,0.398309,-0.531023
-0.050000,-0.050000,0.000000,0.000000,0.000000,0.000000,0.000000,0.000000,0.000000,0.100000,0.100000,-0.566429,-0.807671,-0.050000,-0.050000,0.766426,-0.812398,0.000000,0.000000,-0.350582,0.390200,0.251158,0.233978,0.100168,-0.048558,-0.159507,-0.057636,0.382625,-0.536206
-0.050000,-0.050000,0.000000,0.000000,0.000000,0.000000,0.000000,0.000000,0.000000,0.100000,0.100000,-0.527841,-0.802573,-0.050000,-0.050000,0.768107,-0.821031,0.000000,0.000000,-0.337411,0.371096,0.265373,0.237859,0.091350,-0.037018,-0.157600,-0.057715,0.368789,-0.542926
-0.050000,-0.050000,0.000000,0.000000,0.000000,0.000000,0.000000,0.000000,0.000000,0.100000,0.100000,-0.488233,-0.796910,-0.050000,-0.050000,0.768435,-0.829193,0.000000,0.000000,-0.323907,0.351863,0.280916,0.242735,0.081596,-0.024684,-0.155771,-0.058199,0.355281,-0.549898
-0.050000,-0.050000,0.000000,0.000000,0.000000,0.000000,0.000000,0.000000,0.000000,0.100000,0.100000,-0.446588,-0.790119,-0.050000,-0.050000,0.766054,-0.836414,0.000000,0.000000,-0.309740,0.332373,0.299116,0.249602,0.069968,-0.010760,-0.154101,-0.059494,0.342426,-0.557372
-0.050000,-0.050000,0.000000,0.000000,0.000000,0.000000,0.000000,0.000000,0.000000,0.100000,0.100000,-0.404167,-0.782032,-0.050000,-0.050000,0.761026,-0.842897,0.000000,0.000000,-0.294854,0.312773,0.319604,0.258434,0.056311,0.004912,-0.152551,-0.061562,0.330283,-0.564675
-0.050000,-0.050000,0.000000,0.000000,0.000000,0.000000,0.000000,0.000000,0.000000,0.100000,0.100000,-0.361360,-0.773298,-0.050000,-0.050000,0.754675,-0.849011,0.000000,0.000000,-0.279608,0.293118,0.341237,0.268248,0.041640,0.021458,-0.151061,-0.064017,0.318495,-0.571892
-0.050000,-0.050000,0.000000,0.000000,0.000000,0.000000,0.000000,0.000000,0.000000,0.100000,0.100000,-0.319511,-0.762353,-0.050000,-0.050000,0.744886,-0.854185,0.000000,0.000000,-0.263625,0.273612,0.365791,0.280976,0.024217,0.040574,-0.149540,-0.067501,0.307984,-0.577950
-0.050000,-0.050000,0.000000,0.000000,0.000000,0.000000,0.000000,0.000000,0.000000,0.100000,0.100000,-0.278680,-0.750610,-0.050000,-0.050000,0.734298,-0.859069,0.000000,0.000000,-0.247562,0.254233,0.391162,0.294639,0.006132,0.060468,-0.147917,-0.071251,0.297935,-0.583371
-0.050000,-0.050000,0.000000,0.000000,0.000000,0.000000,0.000000,0.000000,0.000000,0.100000,0.100000,-0.239881,-0.737273,-0.050000,-0.050000,0.722111,-0.863374,0.000000,0.000000,-0.231340,0.235106,0.418164,0.310174,-0.013276,0.081921,-0.146091,-0.075534,0.288812,-0.587520
-0.050000,-0.050000,0.000000,0.000000,0.000000,0.000000,0.000000,0.000000,0.000000,0.100000,0.100000,-0.204277,-0.722312,-0.050000,-0.050000,0.709264,-0.867094,0.000000,0.000000,-0.215282,0.216308,0.446493,0.327448,-0.033275,0.104705,-0.143876,-0.080126,0.280613,-0.590034
-0.050000,-0.050000,0.000000,0.000000,0.000000,0.000000,0.000000,0.000000,0.000000,0.100000,0.100000,-0.170269,-0.706540,-0.050000,-0.050000,0.696086,-0.870521,0.000000,0.000000,-0.199305,0.197674,0.475486,0.345591,-0.053570,0.128155,-0.141466,-0.084871,0.272874,-0.591730
-0.050000,-0.050000,0.000000,0.000000,0.000000,0.000000,0.000000,0.000000,0.000000,0.100000,0.100000,-0.142212,-0.688461,-0.050000,-0.050000,0.683441,-0.873011,0.000000,0.000000,-0.183915,0.179548,0.505929,0.366011,-0.073572,0.153223,-0.138269,-0.089672,0.266449,-0.590667
-0.050000,-0.050000,0.000000,0.000000,0.000000,0.000000,0.000000,0.000000,0.000000,0.100000,0.100000,-0.116307,-0.669717,-0.050000,-0.050000,0.671438,-0.875170,0.000000,0.000000,-0.168773,0.161582,0.536610,0.387023,-0.093152,0.178705,-0.134790,-0.094357,0.260439,-0.588657
-0.050000,-0.050000,0.000000,0.000000,0.000000,0.000000,0.000000,0.000000,0.000000,0.100000,0.100000,-0.094703,-0.649640,-0.050000,-0.050000,0.660717,-0.876669,0.000000,0.000000,-0.154124,0.143936,0.567768,0.409218,-0.111890,0.205014,-0.130748,-0.098809,0.255259,-0.584751
-0.050000,-0.050000,0.000000,0.000000,0.000000,0.000000,0.000000,0.000000,0.000000,0.100000,0.100000,-0.077334,-0.628540,-0.050000,-0.050000,0.651989,-0.877519,0.000000,0.000000,-0.139973,0.126603,0.598742,0.432140,-0.129440,0.231914,-0.126228,-0.102807,0.250906,-0.579023
-0.050000,-0.050000,0.000000,0.000000,0.000000,0.000000,0.000000,0.000000,0.000000,0.100000,0.100000,-0.062084,-0.606928,-0.050000,-0.050000,0.644258,-0.878045,0.000000,0.000000,-0.126071,0.109426,0.629623,0.455424,-0.146396,0.259109,-0.121469,-0.106580,0.246967,-0.572384
-0.050000,-0.050000,0.000000,0.000000,0.000000,0.000000,0.000000,0.000000,0.000000,0.100000,0.100000,-0.052634,-0.584354,-0.050000,-0.050000,0.640164,-0.877748,0.000000,0.000000,-0.112867,0.092774,0.659025,0.478962,-0.161601,0.286831,-0.116300,-0.109469,0.244349,-0.563269
-0.050000,-0.050000,0.000000,0.000000,0.000000,0.000000,0.000000,0.000000,0.000000,0.100000,0.100000,-0.044839,-0.561669,-0.050000,-0.050000,0.637358,-0.877277,0.000000,0.000000,-0.099891,0.076349,0.687511,0.502282,-0.176388,0.314586,-0.111140,-0.112045,0.242220,-0.553459
-0.050000,-0.050000,0.000000,0.000000,0.000000,0.000000,0.000000,0.000000,0.000000,0.100000,0.100000,-0.040351,-0.538764,-0.050000,-0.050000,0.637130,-0.876460,0.000000,0.000000,-0.087371,0.060379,0.714167,0.525167,-0.190340,0.342409,-0.105997,-0.113997,0.241068,-0.542258
-0.050000,-0.050000,0.000000,0.000000,0.000000,0.000000,0.000000,0.000000,0.000000,0.100000,0.100000,-0.035688,-0.516072,-0.050000,-0.050000,0.638354,-0.875167,0.000000,0.000000,-0.074794,0.046625,0.736560,0.546319,-0.203032,0.367794,-0.100965,-0.114348,0.241524,-0.531848
-0.050000,-0.050000,0.000000,0.000000,0.000000,0.000000,0.000000,0.000000,0.000000,0.100000,0.100000,-0.030937,-0.493488,-0.050000,-0.050000,0.640305,-0.873635,0.000000,0.000000,-0.062190,0.033979,0.756823,0.566605,-0.215093,0.391962,-0.095988,-0.113898,0.242783,-0.521834
-0.050000,-0.050000,0.000000,0.000000,0.000000,0.000000,0.000000,0.000000,0.000000,0.100000,0.100000,-0.031458,-0.471740,-0.050000,-0.050000,0.646556,-0.872797,0.000000,0.000000,-0.050362,0.021439,0.774114,0.585200,-0.228146,0.417459,-0.092242,-0.114100,0.245017,-0.509126
-0.050000,-0.050000,0.000000,0.000000,0.000000,0.000000,0.000000,0.000000,0.000000,0.100000,0.100000,-0.033056,-0.450517,-0.050000,-0.050000,0.653867,-0.872322,0.000000,0.000000,-0.039030,0.009266,0.790048,0.602994,-0.241454,0.442469,-0.089019,-0.114323,0.247678,-0.496088
-0.050000,-0.050000,0.000000,0.000000,0.000000,0.000000,0.000000,0.000000,0.000000,0.100000,0.100000,-0.036808,-0.430343,-0.050000,-0.050000,0.663301,-0.872577,0.000000,0.000000,-0.028689,-0.002175,0.803270,0.619183,-0.255272,0.466501,-0.086843,-0.114589,0.251195,-0.482390
-0.050000,-0.050000,0.000000,0.000000,0.000000,0.000000,0.000000,0.000000,0.000000,0.100000,0.100000,-0.041887,-0.411574,-0.050000,-0.050000,0.674293,-0.873683,0.000000,0.000000,-0.019454,-0.012464,0.813678,0.633431,-0.269515,0.488657,-0.085825,-0.114932,0.255507,-0.468741
-0.050000,-0.050000,0.000000,0.000000,0.000000,0.000000,0.000000,0.000000,0.000000,0.100000,0.100000,-0.047630,-0.393507,-0.050000,-0.050000,0.686066,-0.875215,0.000000,0.000000,-0.010771,-0.022178,0.822678,0.646709,-0.283971,0.509874,-0.085386,-0.115314,0.260218,-0.455115
-0.050000,-0.050000,0.000000,0.000000,0.000000,0.000000,0.000000,0.000000,0.000000,0.100000,0.100000,-0.054603,-0.378143,-0.050000,-0.050000,0.699440,-0.878068,0.000000,0.000000,-0.003855,-0.029711,0.827868,0.656829,-0.298692,0.527370,-0.086720,-0.116028,0.265764,-0.442348
-0.050000,-0.050000,0.000000,0.000000,0.000000,0.000000,0.000000,0.000000,0.000000,0.100000,0.100000,-0.061853,-0.363895,-0.050000,-0.050000,0.713119,-0.881320,0.000000,0.000000,0.002450,-0.036413,0.832020,0.665877,-0.313316,0.543452,-0.088606,-0.116918,0.271428,-0.430066
-0.050000,-0.050000,0.000000,0.000000,0.000000,0.000000,0.000000,0.000000,0.000000,0.100000,0.100000,-0.069655,-0.351881,-0.050000,-0.050000,0.727410,-0.885367,0.000000,0.000000,0.007533,-0.041452,0.834097,0.672782,-0.327746,0.556708,-0.091597,-0.118158,0.277328,-0.418755
-0.050000,-0.050000,0.000000,0.000000,0.000000,0.000000,0.000000,0.000000,0.000000,0.100000,0.100000,-0.077935,-0.342534,-0.050000,-0.050000,0.741888,-0.890027,0.000000,0.000000,0.011392,-0.044724,0.834582,0.677573,-0.341588,0.567088,-0.095526,-0.119814,0.283148,-0.408703
