RRGGZZ/g1_deploy_sonic/data/example_scalelab/qwen_audio/g1_ref_en/case_test7/joint_pos.csv
joint_0,joint_1,joint_2,joint_3,joint_4,joint_5,joint_6,joint_7,joint_8,joint_9,joint_10,joint_11,joint_12,joint_13,joint_14,joint_15,joint_16,joint_17,joint_18,joint_19,joint_20,joint_21,joint_22,joint_23,joint_24,joint_25,joint_26,joint_27,joint_28
-0.050000,-0.050000,0.000000,0.000000,0.000000,0.000000,0.000000,0.000000,0.000000,0.100000,0.100000,-0.129526,-0.559383,-0.050000,-0.050000,0.433053,-0.773432,0.000000,0.000000,-0.424142,0.110453,1.134473,-0.024778,0.078335,-0.294754,-0.047042,-0.041786,0.049220,-0.629247
-0.050000,-0.050000,0.000000,0.000000,0.000000,0.000000,0.000000,0.000000,0.000000,0.100000,0.100000,-0.137298,-0.564073,-0.050000,-0.050000,0.420037,-0.777293,0.000000,0.000000,-0.422995,0.113355,1.152915,-0.014676,0.076262,-0.287855,-0.055680,-0.046367,0.051559,-0.631335
-0.050000,-0.050000,0.000000,0.000000,0.000000,0.000000,0.000000,0.000000,0.000000,0.100000,0.100000,-0.143483,-0.567087,-0.050000,-0.050000,0.408217,-0.780343,0.000000,0.000000,-0.421185,0.115660,1.168842,-0.005754,0.074409,-0.280762,-0.062845,-0.050828,0.053433,-0.632083
-0.050000,-0.050000,0.000000,0.000000,0.000000,0.000000,0.000000,0.000000,0.000000,0.100000,0.100000,-0.146495,-0.566747,-0.050000,-0.050000,0.398789,-0.781771,0.000000,0.000000,-0.418053,0.116770,1.179743,0.000807,0.072995,-0.273279,-0.067064,-0.055050,0.054379,-0.630152
-0.050000,-0.050000,0.000000,0.000000,0.000000,0.000000,0.000000,0.000000,0.000000,0.100000,0.100000,-0.147760,-0.564293,-0.050000,-0.050000,0.390841,-0.782498,0.000000,0.000000,-0.414319,0.117527,1.187302,0.006134,0.071690,-0.265825,-0.069806,-0.058982,0.054912,-0.626314
-0.050000,-0.050000,0.000000,0.000000,0.000000,0.000000,0.000000,0.000000,0.000000,0.100000,0.100000,-0.148150,-0.560783,-0.050000,-0.050000,0.383633,-0.782876,0.000000,0.000000,-0.410285,0.118108,1.193191,0.010843,0.070439,-0.258386,-0.071809,-0.062767,0.055238,-0.621523
-0.050000,-0.050000,0.000000,0.000000,0.000000,0.000000,0.000000,0.000000,0.000000,0.100000,0.100000,-0.147184,-0.555132,-0.050000,-0.050000,0.378251,-0.782859,0.000000,0.000000,-0.405722,0.118815,1.194639,0.014673,0.069067,-0.251186,-0.072973,-0.066251,0.055739,-0.614709
-0.050000,-0.050000,0.000000,0.000000,0.000000,0.000000,0.000000,0.000000,0.000000,0.100000,0.100000,-0.146030,-0.548998,-0.050000,-0.050000,0.373503,-0.782782,0.000000,0.000000,-0.401015,0.119642,1.194464,0.018410,0.067567,-0.244069,-0.074166,-0.069681,0.056582,-0.607548
-0.050000,-0.050000,0.000000,0.000000,0.000000,0.000000,0.000000,0.000000,0.000000,0.100000,0.100000,-0.144503,-0.541896,-0.050000,-0.050000,0.370023,-0.782587,0.000000,0.000000,-0.396022,0.120706,1.191044,0.021959,0.065811,-0.237120,-0.075420,-0.073006,0.058111,-0.599691
-0.050000,-0.050000,0.000000,0.000000,0.000000,0.000000,0.000000,0.000000,0.000000,0.100000,0.100000,-0.142952,-0.534143,-0.050000,-0.050000,0.367978,-0.782193,0.000000,0.000000,-0.390741,0.121987,1.183824,0.025595,0.063624,-0.230213,-0.077154,-0.076299,0.060926,-0.591925
-0.050000,-0.050000,0.000000,0.000000,0.000000,0.000000,0.000000,0.000000,0.000000,0.100000,0.100000,-0.141388,-0.526063,-0.050000,-0.050000,0.366650,-0.781701,0.000000,0.000000,-0.385317,0.123378,1.174706,0.029274,0.061220,-0.223327,-0.079128,-0.079578,0.064385,-0.584205
-0.050000,-0.050000,0.000000,0.000000,0.000000,0.000000,0.000000,0.000000,0.000000,0.100000,0.100000,-0.140166,-0.517362,-0.050000,-0.050000,0.367721,-0.780577,0.000000,0.000000,-0.379445,0.124926,1.159102,0.033392,0.057951,-0.216119,-0.082170,-0.082884,0.070607,-0.577860
-0.050000,-0.050000,0.000000,0.000000,0.000000,0.000000,0.000000,0.000000,0.000000,0.100000,0.100000,-0.139162,-0.508559,-0.050000,-0.050000,0.369634,-0.779108,0.000000,0.000000,-0.373420,0.126464,1.141201,0.037737,0.054355,-0.208635,-0.085580,-0.086204,0.077944,-0.572322
-0.050000,-0.050000,0.000000,0.000000,0.000000,0.000000,0.000000,0.000000,0.000000,0.100000,0.100000,-0.138594,-0.499553,-0.050000,-0.050000,0.373230,-0.776949,0.000000,0.000000,-0.367090,0.127981,1.118702,0.042538,0.050107,-0.200600,-0.089725,-0.089552,0.087508,-0.568398
-0.050000,-0.050000,0.000000,0.000000,0.000000,0.000000,0.000000,0.000000,0.000000,0.100000,0.100000,-0.138653,-0.490579,-0.050000,-0.050000,0.378472,-0.773886,0.000000,0.000000,-0.360458,0.129409,1.091728,0.047908,0.045224,-0.191697,-0.094414,-0.092884,0.099409,-0.566493
-0.050000,-0.050000,0.000000,0.000000,0.000000,0.000000,0.000000,0.000000,0.000000,0.100000,0.100000,-0.139027,-0.481620,-0.050000,-0.050000,0.384537,-0.770370,0.000000,0.000000,-0.353675,0.130792,1.062515,0.053563,0.040025,-0.182360,-0.099375,-0.096207,0.112476,-0.565598
-0.050000,-0.050000,0.000000,0.000000,0.000000,0.000000,0.000000,0.000000,0.000000,0.100000,0.100000,-0.140628,-0.473147,-0.050000,-0.050000,0.392807,-0.765379,0.000000,0.000000,-0.346461,0.132087,1.027419,0.060147,0.034058,-0.171437,-0.104622,-0.099359,0.128717,-0.567757
-0.050000,-0.050000,0.000000,0.000000,0.000000,0.000000,0.000000,0.000000,0.000000,0.100000,0.100000,-0.142733,-0.465014,-0.050000,-0.050000,0.401664,-0.759949,0.000000,0.000000,-0.339121,0.133424,0.990822,0.067027,0.027950,-0.159997,-0.109755,-0.102382,0.145765,-0.570752
-0.050000,-0.050000,0.000000,0.000000,0.000000,0.000000,0.000000,0.000000,0.000000,0.100000,0.100000,-0.145846,-0.457563,-0.050000,-0.050000,0.411695,-0.753638,0.000000,0.000000,-0.331533,0.134844,0.951226,0.074498,0.021557,-0.147519,-0.114660,-0.105150,0.164427,-0.575419
-0.050000,-0.050000,0.000000,0.000000,0.000000,0.000000,0.000000,0.000000,0.000000,0.100000,0.100000,-0.150142,-0.451193,-0.050000,-0.050000,0.422534,-0.746724,0.000000,0.000000,-0.323780,0.136569,0.909777,0.082445,0.015224,-0.134253,-0.118980,-0.107506,0.184047,-0.581120
-0.050000,-0.050000,0.000000,0.000000,0.000000,0.000000,0.000000,0.000000,0.000000,0.100000,0.100000,-0.155031,-0.445364,-0.050000,-0.050000,0.433775,-0.739509,0.000000,0.000000,-0.315945,0.138448,0.867400,0.090630,0.008920,-0.120593,-0.123006,-0.109657,0.204144,-0.587339
-0.050000,-0.050000,0.000000,0.000000,0.000000,0.000000,0.000000,0.000000,0.000000,0.100000,0.100000,-0.161905,-0.441738,-0.050000,-0.050000,0.445649,-0.731979,0.000000,0.000000,-0.308079,0.141165,0.824018,0.099241,0.003409,-0.106398,-0.125865,-0.110995,0.224699,-0.593987
-0.050000,-0.050000,0.000000,0.000000,0.000000,0.000000,0.000000,0.000000,0.000000,0.100000,0.100000,-0.169478,-0.438999,-0.050000,-0.050000,0.457561,-0.724557,0.000000,0.000000,-0.300302,0.144276,0.780825,0.107872,-0.001546,-0.092290,-0.128345,-0.112034,0.245146,-0.600433
-0.050000,-0.050000,0.000000,0.000000,0.000000,0.000000,0.000000,0.000000,0.000000,0.100000,0.100000,-0.178450,-0.438031,-0.050000,-0.050000,0.469548,-0.717351,0.000000,0.000000,-0.292704,0.148172,0.738012,0.116542,-0.005391,-0.078358,-0.130068,-0.112476,0.265381,-0.606474
-0.050000,-0.050000,0.000000,0.000000,0.000000,0.000000,0.000000,0.000000,0.000000,0.100000,0.100000,-0.188806,-0.438987,-0.050000,-0.050000,0.481337,-0.710724,0.000000,0.000000,-0.285517,0.153011,0.696377,0.124993,-0.007496,-0.065126,-0.131241,-0.112378,0.285079,-0.611594
-0.050000,-0.050000,0.000000,0.000000,0.000000,0.000000,0.000000,0.000000,0.000000,0.100000,0.100000,-0.199853,-0.440903,-0.050000,-0.050000,0.493025,-0.704386,0.000000,0.000000,-0.278535,0.158321,0.655332,0.133334,-0.008732,-0.052245,-0.132141,-0.112012,0.304508,-0.616253
-0.050000,-0.050000,0.000000,0.000000,0.000000,0.000000,0.000000,0.000000,0.000000,0.100000,0.100000,-0.212788,-0.445638,-0.050000,-0.050000,0.504124,-0.699253,0.000000,0.000000,-0.272518,0.165155,0.616817,0.141011,-0.006541,-0.041064,-0.132681,-0.111112,0.322882,-0.619070
-0.050000,-0.050000,0.000000,0.000000,0.000000,0.000000,0.000000,0.000000,0.000000,0.100000,0.100000,-0.226236,-0.451190,-0.050000,-0.050000,0.514964,-0.694548,0.000000,0.000000,-0.266930,0.172493,0.579271,0.148401,-0.003057,-0.030585,-0.133253,-0.110170,0.340850,-0.621206
-0.050000,-0.050000,0.000000,0.000000,0.000000,0.000000,0.000000,0.000000,0.000000,0.100000,0.100000,-0.240709,-0.458377,-0.050000,-0.050000,0.525288,-0.690699,0.000000,0.000000,-0.262200,0.180840,0.543665,0.155217,0.003013,-0.021508,-0.133889,-0.109144,0.358007,-0.621979
-0.050000,-0.050000,0.000000,0.000000,0.000000,0.000000,0.000000,0.000000,0.000000,0.100000,0.100000,-0.255889,-0.466786,-0.050000,-0.050000,0.535037,-0.687594,0.000000,0.000000,-0.258514,0.190137,0.510078,0.161465,0.011589,-0.013898,-0.134795,-0.108314,0.374171,-0.621336
-0.050000,-0.050000,0.000000,0.000000,0.000000,0.000000,0.000000,0.000000,0.000000,0.100000,0.100000,-0.271423,-0.475805,-0.050000,-0.050000,0.544497,-0.684862,0.000000,0.000000,-0.255350,0.199908,0.477502,0.167428,0.021418,-0.007021,-0.135835,-0.107582,0.389840,-0.619983
-0.050000,-0.050000,0.000000,0.000000,0.000000,0.000000,0.000000,0.000000,0.000000,0.100000,0.100000,-0.287469,-0.485883,-0.050000,-0.050000,0.553083,-0.682903,0.000000,0.000000,-0.254009,0.210963,0.447973,0.172783,0.034219,-0.002111,-0.137389,-0.107444,0.403488,-0.616383
-0.050000,-0.050000,0.000000,0.000000,0.000000,0.000000,0.000000,0.000000,0.000000,0.100000,0.100000,-0.303503,-0.496043,-0.050000,-0.050000,0.561399,-0.681063,0.000000,0.000000,-0.253353,0.222388,0.419473,0.178086,0.047534,0.002331,-0.139088,-0.107528,0.416174,-0.611936
-0.050000,-0.050000,0.000000,0.000000,0.000000,0.000000,0.000000,0.000000,0.000000,0.100000,0.100000,-0.319512,-0.506370,-0.050000,-0.050000,0.569177,-0.679459,0.000000,0.000000,-0.254069,0.234557,0.393028,0.183284,0.061879,0.005834,-0.141077,-0.108059,0.426937,-0.605795
-0.050000,-0.050000,0.000000,0.000000,0.000000,0.000000,0.000000,0.000000,0.000000,0.100000,0.100000,-0.335173,-0.516387,-0.050000,-0.050000,0.576499,-0.677833,0.000000,0.000000,-0.256282,0.247331,0.368721,0.188759,0.075971,0.008952,-0.143220,-0.108919,0.435024,-0.597626
-0.050000,-0.050000,0.000000,0.000000,0.000000,0.000000,0.000000,0.000000,0.000000,0.100000,0.100000,-0.350661,-0.526248,-0.050000,-0.050000,0.583593,-0.676196,0.000000,0.000000,-0.259245,0.260409,0.345484,0.194373,0.089936,0.011878,-0.145442,-0.109943,0.441772,-0.588442
-0.050000,-0.050000,0.000000,0.000000,0.000000,0.000000,0.000000,0.000000,0.000000,0.100000,0.100000,-0.365256,-0.535126,-0.050000,-0.050000,0.590146,-0.674242,0.000000,0.000000,-0.264524,0.274126,0.325663,0.200951,0.101324,0.015242,-0.147635,-0.111096,0.443306,-0.575576
-0.050000,-0.050000,0.000000,0.000000,0.000000,0.000000,0.000000,0.000000,0.000000,0.100000,0.100000,-0.379475,-0.543586,-0.050000,-0.050000,0.596553,-0.672135,0.000000,0.000000,-0.270526,0.287926,0.307058,0.207971,0.111116,0.019109,-0.149725,-0.112147,0.442782,-0.561296
-0.050000,-0.050000,0.000000,0.000000,0.000000,0.000000,0.000000,0.000000,0.000000,0.100000,0.100000,-0.392942,-0.551210,-0.050000,-0.050000,0.602666,-0.669723,0.000000,0.000000,-0.277969,0.301895,0.290883,0.215877,0.117715,0.023981,-0.151607,-0.112994,0.438142,-0.544187
-0.050000,-0.050000,0.000000,0.000000,0.000000,0.000000,0.000000,0.000000,0.000000,0.100000,0.100000,-0.405590,-0.557976,-0.050000,-0.050000,0.608488,-0.667003,0.000000,0.000000,-0.286539,0.315669,0.277237,0.224699,0.119839,0.030499,-0.153086,-0.113397,0.429133,-0.524124
-0.050000,-0.050000,0.000000,0.000000,0.000000,0.000000,0.000000,0.000000,0.000000,0.100000,0.100000,-0.417828,-0.564313,-0.050000,-0.050000,0.614164,-0.664129,0.000000,0.000000,-0.295671,0.329345,0.264856,0.233979,0.119724,0.037839,-0.154362,-0.113577,0.417941,-0.502584
-0.050000,-0.050000,0.000000,0.000000,0.000000,0.000000,0.000000,0.000000,0.000000,0.100000,0.100000,-0.428850,-0.569503,-0.050000,-0.050000,0.619290,-0.660891,0.000000,0.000000,-0.305669,0.342021,0.256227,0.244291,0.111552,0.048341,-0.154751,-0.112932,0.400677,-0.477095
-0.050000,-0.050000,0.000000,0.000000,0.000000,0.000000,0.000000,0.000000,0.000000,0.100000,0.100000,-0.439500,-0.574381,-0.050000,-0.050000,0.624166,-0.657580,0.000000,0.000000,-0.315589,0.354098,0.248753,0.254715,0.100524,0.059997,-0.154779,-0.112051,0.381868,-0.450725
-0.050000,-0.050000,0.000000,0.000000,0.000000,0.000000,0.000000,0.000000,0.000000,0.100000,0.100000,-0.449406,-0.578637,-0.050000,-0.050000,0.628546,-0.654124,0.000000,0.000000,-0.325355,0.364976,0.243588,0.265364,0.083786,0.073963,-0.154083,-0.110697,0.359969,-0.422596
-0.050000,-0.050000,0.000000,0.000000,0.000000,0.000000,0.000000,0.000000,0.000000,0.100000,0.100000,-0.462102,-0.585668,-0.050000,-0.050000,0.633938,-0.650988,0.000000,0.000000,-0.333948,0.373391,0.241195,0.277630,0.058328,0.092268,-0.152134,-0.109416,0.333799,-0.391261
-0.050000,-0.050000,0.000000,0.000000,0.000000,0.000000,0.000000,0.000000,0.000000,0.100000,0.100000,-0.476192,-0.594087,-0.050000,-0.050000,0.639837,-0.648012,0.000000,0.000000,-0.341953,0.380575,0.240190,0.290704,0.028511,0.112743,-0.149558,-0.108172,0.305494,-0.358321
-0.050000,-0.050000,0.000000,0.000000,0.000000,0.000000,0.000000,0.000000,0.000000,0.100000,0.100000,-0.481618,-0.594489,-0.050000,-0.050000,0.640704,-0.644177,0.000000,0.000000,-0.348132,0.386659,0.239626,0.297827,0.000463,0.130722,-0.147615,-0.106783,0.284329,-0.334455
-0.050000,-0.050000,0.000000,0.000000,0.000000,0.000000,0.000000,0.000000,0.000000,0.100000,0.100000,-0.487445,-0.595152,-0.050000,-0.050000,0.641601,-0.640455,0.000000,0.000000,-0.353287,0.391531,0.239636,0.304497,-0.029779,0.149853,-0.145534,-0.105656,0.263425,-0.311250
-0.050000,-0.050000,0.000000,0.000000,0.000000,0.000000,0.000000,0.000000,0.000000,0.100000,0.100000,-0.494074,-0.596339,-0.050000,-0.050000,0.642555,-0.636959,0.000000,0.000000,-0.356391,0.393980,0.240794,0.310257,-0.064411,0.171288,-0.143179,-0.105055,0.243044,-0.289368
-0.050000,-0.050000,0.000000,0.000000,0.000000,0.000000,0.000000,0.000000,0.000000,0.100000,0.100000,-0.501187,-0.597726,-0.050000,-0.050000,0.643356,-0.633664,0.000000,0.000000,-0.357475,0.394415,0.242567,0.314673,-0.100540,0.193690,-0.141210,-0.105415,0.225348,-0.270882
-0.050000,-0.050000,0.000000,0.000000,0.000000,0.000000,0.000000,0.000000,0.000000,0.100000,0.100000,-0.508541,-0.599213,-0.050000,-0.050000,0.644080,-0.630469,0.000000,0.000000,-0.357547,0.393844,0.244647,0.318415,-0.137417,0.216576,-0.139434,-0.106254,0.208994,-0.254094
-0.050000,-0.050000,0.000000,0.000000,0.000000,0.000000,0.000000,0.000000,0.000000,0.100000,0.100000,-0.516584,-0.600794,-0.050000,-0.050000,0.644780,-0.627532,0.000000,0.000000,-0.355213,0.391157,0.247055,0.320145,-0.173209,0.239605,-0.138965,-0.108696,0.197865,-0.243307
-0.050000,-0.050000,0.000000,0.000000,0.000000,0.000000,0.000000,0.000000,0.000000,0.100000,0.100000,-0.524905,-0.602432,-0.050000,-0.050000,0.645604,-0.624697,0.000000,0.000000,-0.352403,0.388101,0.249443,0.321346,-0.207771,0.262354,-0.139013,-0.111587,0.188424,-0.234355
-0.050000,-0.050000,0.000000,0.000000,0.000000,0.000000,0.000000,0.000000,0.000000,0.100000,0.100000,-0.533779,-0.604184,-0.050000,-0.050000,0.646676,-0.622069,0.000000,0.000000,-0.348642,0.384308,0.251789,0.321490,-0.239876,0.284542,-0.140092,-0.115375,0.182359,-0.229074
-0.050000,-0.050000,0.000000,0.000000,0.000000,0.000000,0.000000,0.000000,0.000000,0.100000,0.100000,-0.543276,-0.606196,-0.050000,-0.050000,0.648219,-0.619707,0.000000,0.000000,-0.344664,0.380426,0.253956,0.320983,-0.268365,0.305714,-0.142007,-0.119674,0.178965,-0.226531
-0.050000,-0.050000,0.000000,0.000000,0.000000,0.000000,0.000000,0.000000,0.000000,0.100000,0.100000,-0.553084,-0.608338,-0.050000,-0.050000,0.649996,-0.617480,0.000000,0.000000,-0.340578,0.376499,0.256034,0.320151,-0.295047,0.326376,-0.144340,-0.124229,0.176906,-0.225357
-0.050000,-0.050000,0.000000,0.000000,0.000000,0.000000,0.000000,0.000000,0.000000,0.100000,0.100000,-0.563789,-0.611114,-0.050000,-0.050000,0.652576,-0.615719,0.000000,0.000000,-0.337132,0.373190,0.257789,0.318896,-0.315581,0.345153,-0.147251,-0.128842,0.177349,-0.226504
-0.050000,-0.050000,0.000000,0.000000,0.000000,0.000000,0.000000,0.000000,0.000000,0.100000,0.100000,-0.574724,-0.614156,-0.050000,-0.050000,0.655352,-0.614104,0.000000,0.000000,-0.334102,0.370215,0.259450,0.317608,-0.334162,0.363287,-0.150098,-0.133272,0.178109,-0.227864
-0.050000,-0.050000,0.000000,0.000000,0.000000,0.000000,0.000000,0.000000,0.000000,0.100000,0.100000,-0.586119,-0.617727,-0.050000,-0.050000,0.658520,-0.612780,0.000000,0.000000,-0.331904,0.367908,0.260923,0.316252,-0.348838,0.380134,-0.152816,-0.137334,0.179500,-0.229648
-0.050000,-0.050000,0.000000,0.000000,0.000000,0.000000,0.000000,0.000000,0.000000,0.100000,0.100000,-0.597742,-0.621833,-0.050000,-0.050000,0.661744,-0.611629,0.000000,0.000000,-0.330629,0.366244,0.262270,0.314837,-0.360359,0.395842,-0.155013,-0.140810,0.180657,-0.231041
-0.050000,-0.050000,0.000000,0.000000,0.000000,0.000000,0.000000,0.000000,0.000000,0.100000,0.100000,-0.609477,-0.626206,-0.050000,-0.050000,0.664996,-0.610565,0.000000,0.000000,-0.329815,0.364902,0.263553,0.313392,-0.370304,0.410981,-0.156949,-0.143993,0.181695,-0.232240
-0.050000,-0.050000,0.000000,0.000000,0.000000,0.000000,0.000000,0.000000,0.000000,0.100000,0.100000,-0.621110,-0.631198,-0.050000,-0.050000,0.667642,-0.609430,0.000000,0.000000,-0.330044,0.364114,0.264739,0.311595,-0.377162,0.424809,-0.157864,-0.146315,0.181531,-0.232275
-0.050000,-0.050000,0.000000,0.000000,0.000000,0.000000,0.000000,0.000000,0.000000,0.100000,0.100000,-0.632549,-0.636283,-0.050000,-0.050000,0.669843,-0.608125,0.000000,0.000000,-0.330384,0.363295,0.265914,0.309541,-0.383584,0.438357,-0.158480,-0.148459,0.180865,-0.231945
-0.050000,-0.050000,0.000000,0.000000,0.000000,0.000000,0.000000,0.000000,0.000000,0.100000,0.100000,-0.643604,-0.641555,-0.050000,-0.050000,0.671153,-0.606480,0.000000,0.000000,-0.330948,0.362410,0.267065,0.306972,-0.389136,0.451344,-0.158501,-0.150243,0.179193,-0.230882
-0.050000,-0.050000,0.000000,0.000000,0.000000,0.000000,0.000000,0.000000,0.000000,0.100000,0.100000,-0.653978,-0.646735,-0.050000,-0.050000,0.671158,-0.604188,0.000000,0.000000,-0.331141,0.360988,0.268196,0.303609,-0.394863,0.464054,-0.158185,-0.151995,0.176663,-0.229457
-0.050000,-0.050000,0.000000,0.000000,0.000000,0.000000,0.000000,0.000000,0.000000,0.100000,0.100000,-0.664012,-0.651869,-0.050000,-0.050000,0.670509,-0.601572,0.000000,0.000000,-0.331150,0.359297,0.269316,0.299850,-0.400678,0.476625,-0.157702,-0.153731,0.173703,-0.227852
-0.050000,-0.050000,0.000000,0.000000,0.000000,0.000000,0.000000,0.000000,0.000000,0.100000,0.100000,-0.672673,-0.656482,-0.050000,-0.050000,0.667490,-0.597586,0.000000,0.000000,-0.329754,0.356234,0.270342,0.294634,-0.407883,0.489056,-0.157213,-0.155903,0.170069,-0.226507
-0.050000,-0.050000,0.000000,0.000000,0.000000,0.000000,0.000000,0.000000,0.000000,0.100000,0.100000,-0.680803,-0.660841,-0.050000,-0.050000,0.663635,-0.593062,0.000000,0.000000,-0.327681,0.352620,0.271293,0.288924,-0.415749,0.501455,-0.156875,-0.158332,0.166476,-0.225514
-0.050000,-0.050000,0.000000,0.000000,0.000000,0.000000,0.000000,0.000000,0.000000,0.100000,0.100000,-0.687873,-0.664692,-0.050000,-0.050000,0.658108,-0.587460,0.000000,0.000000,-0.324256,0.347906,0.272094,0.282227,-0.424935,0.513790,-0.156837,-0.161277,0.162964,-0.225223
-0.050000,-0.050000,0.000000,0.000000,0.000000,0.000000,0.000000,0.000000,0.000000,0.100000,0.100000,-0.693837,-0.668009,-0.050000,-0.050000,0.651012,-0.580756,0.000000,0.000000,-0.319292,0.342148,0.272624,0.274692,-0.435494,0.525926,-0.157305,-0.164803,0.160036,-0.226014
-0.050000,-0.050000,0.000000,0.000000,0.000000,0.000000,0.000000,0.000000,0.000000,0.100000,0.100000,-0.699249,-0.671059,-0.050000,-0.050000,0.643130,-0.573500,0.000000,0.000000,-0.313559,0.335869,0.273017,0.266739,-0.446739,0.537962,-0.158026,-0.168618,0.157399,-0.227348
-0.050000,-0.050000,0.000000,0.000000,0.000000,0.000000,0.000000,0.000000,0.000000,0.100000,0.100000,-0.703075,-0.673470,-0.050000,-0.050000,0.633327,-0.564795,0.000000,0.000000,-0.305606,0.328440,0.272772,0.257928,-0.459712,0.549310,-0.159619,-0.173154,0.156163,-0.230537
-0.050000,-0.050000,0.000000,0.000000,0.000000,0.000000,0.000000,0.000000,0.000000,0.100000,0.100000,-0.706431,-0.675764,-0.050000,-0.050000,0.623109,-0.555752,0.000000,0.000000,-0.297043,0.320837,0.272224,0.248978,-0.473058,0.560275,-0.161480,-0.177818,0.155464,-0.234304
-0.050000,-0.050000,0.000000,0.000000,0.000000,0.000000,0.000000,0.000000,0.000000,0.100000,0.100000,-0.708847,-0.677825,-0.050000,-0.050000,0.612060,-0.546035,0.000000,0.000000,-0.287259,0.312886,0.271069,0.239751,-0.487148,0.570477,-0.163876,-0.182739,0.155840,-0.239226
-0.050000,-0.050000,0.000000,0.000000,0.000000,0.000000,0.000000,0.000000,0.000000,0.100000,0.100000,-0.710480,-0.679866,-0.050000,-0.050000,0.600755,-0.536064,0.000000,0.000000,-0.276636,0.305039,0.269104,0.230477,-0.501472,0.579654,-0.166678,-0.187647,0.157233,-0.245026
-0.050000,-0.050000,0.000000,0.000000,0.000000,0.000000,0.000000,0.000000,0.000000,0.100000,0.100000,-0.711720,-0.681898,-0.050000,-0.050000,0.589321,-0.525966,0.000000,0.000000,-0.265593,0.297243,0.266733,0.221180,-0.515912,0.588320,-0.169683,-0.192548,0.159135,-0.251264
-0.050000,-0.050000,0.000000,0.000000,0.000000,0.000000,0.000000,0.000000,0.000000,0.100000,0.100000,-0.712031,-0.684146,-0.050000,-0.050000,0.578462,-0.516229,0.000000,0.000000,-0.253908,0.290159,0.262829,0.211966,-0.529885,0.595226,-0.173053,-0.197080,0.162271,-0.258228
-0.050000,-0.050000,0.000000,0.000000,0.000000,0.000000,0.000000,0.000000,0.000000,0.100000,0.100000,-0.712108,-0.686501,-0.050000,-0.050000,0.568113,-0.506863,0.000000,0.000000,-0.242192,0.283419,0.258322,0.202762,-0.543443,0.601537,-0.176470,-0.201421,0.165698,-0.265222
-0.050000,-0.050000,0.000000,0.000000,0.000000,0.000000,0.000000,0.000000,0.000000,0.100000,0.100000,-0.711714,-0.689069,-0.050000,-0.050000,0.558783,-0.498239,0.000000,0.000000,-0.230415,0.277367,0.252610,0.193578,-0.556171,0.606658,-0.179982,-0.205383,0.169703,-0.272276
-0.050000,-0.050000,0.000000,0.000000,0.000000,0.000000,0.000000,0.000000,0.000000,0.100000,0.100000,-0.710969,-0.691799,-0.050000,-0.050000,0.551021,-0.490795,0.000000,0.000000,-0.218853,0.272033,0.245595,0.184293,-0.567628,0.610687,-0.183490,-0.208957,0.174076,-0.279027
-0.050000,-0.050000,0.000000,0.000000,0.000000,0.000000,0.000000,0.000000,0.000000,0.100000,0.100000,-0.710047,-0.694612,-0.050000,-0.050000,0.544043,-0.483942,0.000000,0.000000,-0.207398,0.267057,0.237928,0.174958,-0.578449,0.614170,-0.186995,-0.212337,0.178631,-0.285626
-0.050000,-0.050000,0.000000,0.000000,0.000000,0.000000,0.000000,0.000000,0.000000,0.100000,0.100000,-0.708710,-0.697437,-0.050000,-0.050000,0.539995,-0.479330,0.000000,0.000000,-0.196517,0.262952,0.228365,0.165295,-0.586882,0.616268,-0.190430,-0.215274,0.183542,-0.291412
-0.050000,-0.050000,0.000000,0.000000,0.000000,0.000000,0.000000,0.000000,0.000000,0.100000,0.100000,-0.707248,-0.700151,-0.050000,-0.050000,0.537006,-0.475541,0.000000,0.000000,-0.185864,0.259019,0.218278,0.155517,-0.594433,0.618001,-0.193842,-0.218134,0.188552,-0.296885
-0.050000,-0.050000,0.000000,0.000000,0.000000,0.000000,0.000000,0.000000,0.000000,0.100000,0.100000,-0.705534,-0.702644,-0.050000,-0.050000,0.536136,-0.473396,0.000000,0.000000,-0.175670,0.255428,0.207141,0.145505,-0.600220,0.619005,-0.197211,-0.220843,0.193763,-0.301734
-0.050000,-0.050000,0.000000,0.000000,0.000000,0.000000,0.000000,0.000000,0.000000,0.100000,0.100000,-0.703548,-0.704658,-0.050000,-0.050000,0.537304,-0.472859,0.000000,0.000000,-0.165945,0.251912,0.195336,0.135409,-0.604224,0.619466,-0.200562,-0.223538,0.199202,-0.306030
-0.050000,-0.050000,0.000000,0.000000,0.000000,0.000000,0.000000,0.000000,0.000000,0.100000,0.100000,-0.701425,-0.706433,-0.050000,-0.050000,0.539491,-0.473126,0.000000,0.000000,-0.156455,0.248434,0.183198,0.125271,-0.607338,0.619655,-0.203904,-0.226225,0.204755,-0.310048
-0.050000,-0.050000,0.000000,0.000000,0.000000,0.000000,0.000000,0.000000,0.000000,0.100000,0.100000,-0.698804,-0.707136,-0.050000,-0.050000,0.544267,-0.475486,0.000000,0.000000,-0.147647,0.244728,0.170809,0.115478,-0.607962,0.619269,-0.207261,-0.229035,0.210703,-0.313506
-0.050000,-0.050000,0.000000,0.000000,0.000000,0.000000,0.000000,0.000000,0.000000,0.100000,0.100000,-0.696485,-0.708099,-0.050000,-0.050000,0.550091,-0.478343,0.000000,0.000000,-0.138623,0.240628,0.157776,0.105401,-0.607728,0.618559,-0.210522,-0.231918,0.217164,-0.317180
-0.050000,-0.050000,0.000000,0.000000,0.000000,0.000000,0.000000,0.000000,0.000000,0.100000,0.100000,-0.694772,-0.709580,-0.050000,-0.050000,0.558008,-0.482194,0.000000,0.000000,-0.129167,0.235740,0.143458,0.094758,-0.605776,0.617200,-0.213590,-0.234950,0.224650,-0.321287
-0.050000,-0.050000,0.000000,0.000000,0.000000,0.000000,0.000000,0.000000,0.000000,0.100000,0.100000,-0.691837,-0.709099,-0.050000,-0.050000,0.565776,-0.486592,0.000000,0.000000,-0.120875,0.230961,0.131398,0.086307,-0.602747,0.615952,-0.216674,-0.237991,0.231761,-0.325027
-0.050000,-0.050000,0.000000,0.000000,0.000000,0.000000,0.000000,0.000000,0.000000,0.100000,0.100000,-0.688292,-0.707637,-0.050000,-0.050000,0.573470,-0.491264,0.000000,0.000000,-0.113165,0.226235,0.120467,0.078951,-0.599179,0.614760,-0.219764,-0.241036,0.238683,-0.328582
-0.050000,-0.050000,0.000000,0.000000,0.000000,0.000000,0.000000,0.000000,0.000000,0.100000,0.100000,-0.683641,-0.704226,-0.050000,-0.050000,0.580762,-0.496071,0.000000,0.000000,-0.106537,0.221147,0.111763,0.073992,-0.594552,0.613556,-0.223208,-0.244488,0.245150,-0.332204
-0.050000,-0.050000,0.000000,0.000000,0.000000,0.000000,0.000000,0.000000,0.000000,0.100000,0.100000,-0.678688,-0.700333,-0.050000,-0.050000,0.587653,-0.500691,0.000000,0.000000,-0.100235,0.215975,0.103761,0.069802,-0.589756,0.612322,-0.226685,-0.248003,0.251344,-0.335909
-0.050000,-0.050000,0.000000,0.000000,0.000000,0.000000,0.000000,0.000000,0.000000,0.100000,0.100000,-0.673135,-0.695475,-0.050000,-0.050000,0.593741,-0.504935,0.000000,0.000000,-0.094587,0.210635,0.097163,0.067151,-0.584623,0.611028,-0.230231,-0.251644,0.256990,-0.339777
-0.050000,-0.050000,0.000000,0.000000,0.000000,0.000000,0.000000,0.000000,0.000000,0.100000,0.100000,-0.667027,-0.689886,-0.050000,-0.050000,0.598520,-0.508433,0.000000,0.000000,-0.089619,0.205273,0.091834,0.065859,-0.579531,0.609636,-0.233702,-0.255275,0.261724,-0.343731
-0.050000,-0.050000,0.000000,0.000000,0.000000,0.000000,0.000000,0.000000,0.000000,0.100000,0.100000,-0.660641,-0.683931,-0.050000,-0.050000,0.602644,-0.511557,0.000000,0.000000,-0.084991,0.199901,0.087139,0.065247,-0.574458,0.608195,-0.237136,-0.258902,0.266002,-0.347728
-0.050000,-0.050000,0.000000,0.000000,0.000000,0.000000,0.000000,0.000000,0.000000,0.100000,0.100000,-0.653486,-0.677176,-0.050000,-0.050000,0.604290,-0.513230,0.000000,0.000000,-0.081467,0.194734,0.083984,0.066151,-0.569991,0.606542,-0.240218,-0.262279,0.268348,-0.351525
-0.050000,-0.050000,0.000000,0.000000,0.000000,0.000000,0.000000,0.000000,0.000000,0.100000,0.100000,-0.646101,-0.670237,-0.050000,-0.050000,0.605053,-0.514398,0.000000,0.000000,-0.078342,0.189715,0.081199,0.067338,-0.565880,0.604795,-0.243078,-0.265468,0.269885,-0.355097
-0.050000,-0.050000,0.000000,0.000000,0.000000,0.000000,0.000000,0.000000,0.000000,0.100000,0.100000,-0.638258,-0.662932,-0.050000,-0.050000,0.604051,-0.514553,0.000000,0.000000,-0.076018,0.184993,0.079153,0.069091,-0.562482,0.602860,-0.245490,-0.268284,0.269805,-0.358220
-0.050000,-0.050000,0.000000,0.000000,0.000000,0.000000,0.000000,0.000000,0.000000,0.100000,0.100000,-0.630034,-0.655394,-0.050000,-0.050000,0.601439,-0.513825,0.000000,0.000000,-0.074556,0.180723,0.077577,0.070975,-0.559998,0.600699,-0.247190,-0.270472,0.267875,-0.360527
-0.050000,-0.050000,0.000000,0.000000,0.000000,0.000000,0.000000,0.000000,0.000000,0.100000,0.100000,-0.621619,-0.647739,-0.050000,-0.050000,0.598021,-0.512655,0.000000,0.000000,-0.073525,0.176679,0.076236,0.072924,-0.557971,0.598424,-0.248533,-0.272345,0.265020,-0.362427
-0.050000,-0.050000,0.000000,0.000000,0.000000,0.000000,0.000000,0.000000,0.000000,0.100000,0.100000,-0.612803,-0.639900,-0.050000,-0.050000,0.592816,-0.510571,0.000000,0.000000,-0.073867,0.173535,0.075283,0.074552,-0.557354,0.595759,-0.248379,-0.272881,0.259237,-0.362552
-0.050000,-0.050000,0.000000,0.000000,0.000000,0.000000,0.000000,0.000000,0.000000,0.100000,0.100000,-0.603942,-0.632056,-0.050000,-0.050000,0.587337,-0.508371,0.000000,0.000000,-0.074683,0.170754,0.074386,0.075964,-0.557104,0.592943,-0.247612,-0.272865,0.252506,-0.361931
-0.050000,-0.050000,0.000000,0.000000,0.000000,0.000000,0.000000,0.000000,0.000000,0.100000,0.100000,-0.594988,-0.624201,-0.050000,-0.050000,0.581307,-0.505937,0.000000,0.000000,-0.076444,0.168698,0.073603,0.076948,-0.557586,0.589826,-0.245617,-0.271746,0.243882,-0.359816
-0.050000,-0.050000,0.000000,0.000000,0.000000,0.000000,0.000000,0.000000,0.000000,0.100000,0.100000,-0.586191,-0.616471,-0.050000,-0.050000,0.575517,-0.503689,0.000000,0.000000,-0.079143,0.167446,0.072835,0.077409,-0.558341,0.586344,-0.242312,-0.269441,0.233604,-0.356017
-0.050000,-0.050000,0.000000,0.000000,0.000000,0.000000,0.000000,0.000000,0.000000,0.100000,0.100000,-0.577473,-0.608803,-0.050000,-0.050000,0.569845,-0.501533,0.000000,0.000000,-0.082312,0.166596,0.072075,0.077609,-0.559232,0.582678,-0.238352,-0.266541,0.222500,-0.351377
-0.050000,-0.050000,0.000000,0.000000,0.000000,0.000000,0.000000,0.000000,0.000000,0.100000,0.100000,-0.569482,-0.601599,-0.050000,-0.050000,0.565780,-0.500261,0.000000,0.000000,-0.086797,0.166974,0.071227,0.077010,-0.559516,0.578327,-0.232641,-0.262009,0.209566,-0.344200
-0.050000,-0.050000,0.000000,0.000000,0.000000,0.000000,0.000000,0.000000,0.000000,0.100000,0.100000,-0.561930,-0.594669,-0.050000,-0.050000,0.562631,-0.499454,0.000000,0.000000,-0.091662,0.167731,0.070317,0.076161,-0.559206,0.573702,-0.226545,-0.257082,0.196324,-0.336286
-0.050000,-0.050000,0.000000,0.000000,0.000000,0.000000,0.000000,0.000000,0.000000,0.100000,0.100000,-0.555253,-0.588285,-0.050000,-0.050000,0.561314,-0.499575,0.000000,0.000000,-0.097285,0.169246,0.069284,0.074812,-0.557709,0.568525,-0.219678,-0.251364,0.182467,-0.326898
-0.050000,-0.050000,0.000000,0.000000,0.000000,0.000000,0.000000,0.000000,0.000000,0.100000,0.100000,-0.549865,-0.582727,-0.050000,-0.050000,0.562416,-0.500862,0.000000,0.000000,-0.103503,0.171398,0.068083,0.073021,-0.554293,0.562748,-0.212641,-0.245307,0.168727,-0.316478
-0.050000,-0.050000,0.000000,0.000000,0.000000,0.000000,0.000000,0.000000,0.000000,0.100000,0.100000,-0.545123,-0.577580,-0.050000,-0.050000,0.564725,-0.502731,0.000000,0.000000,-0.110018,0.173868,0.066798,0.071009,-0.549918,0.556671,-0.205519,-0.239080,0.155045,-0.305544
-0.050000,-0.050000,0.000000,0.000000,0.000000,0.000000,0.000000,0.000000,0.000000,0.100000,0.100000,-0.542892,-0.574097,-0.050000,-0.050000,0.571140,-0.506524,0.000000,0.000000,-0.117154,0.177060,0.065257,0.068488,-0.541890,0.549757,-0.199158,-0.233109,0.142709,-0.293991
-0.050000,-0.050000,0.000000,0.000000,0.000000,0.000000,0.000000,0.000000,0.000000,0.100000,0.100000,-0.541647,-0.571293,-0.050000,-0.050000,0.578927,-0.510954,0.000000,0.000000,-0.124417,0.180420,0.063662,0.065886,-0.532557,0.542646,-0.193349,-0.227447,0.131188,-0.282577
-0.050000,-0.050000,0.000000,0.000000,0.000000,0.000000,0.000000,0.000000,0.000000,0.100000,0.100000,-0.542372,-0.569844,-0.050000,-0.050000,0.589458,-0.516658,0.000000,0.000000,-0.131936,0.184115,0.061960,0.063122,-0.520611,0.535142,-0.188644,-0.222404,0.121299,-0.271441
-0.050000,-0.050000,0.000000,0.000000,0.000000,0.000000,0.000000,0.000000,0.000000,0.100000,0.100000,-0.543044,-0.568362,-0.050000,-0.050000,0.601832,-0.523971,0.000000,0.000000,-0.139625,0.188843,0.059747,0.060423,-0.507256,0.528007,-0.185513,-0.218485,0.113868,-0.261782
-0.050000,-0.050000,0.000000,0.000000,0.000000,0.000000,0.000000,0.000000,0.000000,0.100000,0.100000,-0.543690,-0.566864,-0.050000,-0.050000,0.615127,-0.532088,0.000000,0.000000,-0.147400,0.194088,0.057278,0.057755,-0.493196,0.521058,-0.183169,-0.215128,0.107664,-0.252862
-0.050000,-0.050000,0.000000,0.000000,0.000000,0.000000,0.000000,0.000000,0.000000,0.100000,0.100000,-0.548704,-0.568438,-0.050000,-0.050000,0.631714,-0.541094,0.000000,0.000000,-0.154921,0.198776,0.055081,0.055377,-0.475472,0.513758,-0.182673,-0.212881,0.104322,-0.245097
-0.050000,-0.050000,0.000000,0.000000,0.000000,0.000000,0.000000,0.000000,0.000000,0.100000,0.100000,-0.554864,-0.570884,-0.050000,-0.050000,0.648913,-0.550345,0.000000,0.000000,-0.162449,0.203398,0.053138,0.053403,-0.457157,0.506642,-0.182774,-0.210997,0.102172,-0.238043
-0.050000,-0.050000,0.000000,0.000000,0.000000,0.000000,0.000000,0.000000,0.000000,0.100000,0.100000,-0.563317,-0.575074,-0.050000,-0.050000,0.667333,-0.560086,0.000000,0.000000,-0.169992,0.207890,0.051702,0.052235,-0.437662,0.499893,-0.184070,-0.209838,0.102409,-0.232412
-0.050000,-0.050000,0.000000,0.000000,0.000000,0.000000,0.000000,0.000000,0.000000,0.100000,0.100000,-0.573451,-0.580643,-0.050000,-0.050000,0.686069,-0.570021,0.000000,0.000000,-0.177704,0.212392,0.051006,0.052331,-0.418050,0.493856,-0.186222,-0.209237,0.104823,-0.228301
-0.050000,-0.050000,0.000000,0.000000,0.000000,0.000000,0.000000,0.000000,0.000000,0.100000,0.100000,-0.584426,-0.586901,-0.050000,-0.050000,0.704963,-0.580053,0.000000,0.000000,-0.185501,0.216899,0.050680,0.053057,-0.398381,0.488175,-0.188802,-0.208915,0.108325,-0.224951
-0.050000,-0.050000,0.000000,0.000000,0.000000,0.000000,0.000000,0.000000,0.000000,0.100000,0.100000,-0.597003,-0.594661,-0.050000,-0.050000,0.723041,-0.589846,0.000000,0.000000,-0.193654,0.221422,0.051776,0.056172,-0.380112,0.483850,-0.191964,-0.209044,0.114232,-0.223642
-0.050000,-0.050000,0.000000,0.000000,0.000000,0.000000,0.000000,0.000000,0.000000,0.100000,0.100000,-0.609796,-0.602719,-0.050000,-0.050000,0.740477,-0.599387,0.000000,0.000000,-0.201910,0.225900,0.053435,0.060164,-0.362805,0.480013,-0.195093,-0.209192,0.120559,-0.222881
-0.050000,-0.050000,0.000000,0.000000,0.000000,0.000000,0.000000,0.000000,0.000000,0.100000,0.100000,-0.623022,-0.611372,-0.050000,-0.050000,0.756627,-0.608424,0.000000,0.000000,-0.210371,0.230286,0.056223,0.065911,-0.347422,0.477153,-0.198161,-0.209379,0.127726,-0.223215
-0.050000,-0.050000,0.000000,0.000000,0.000000,0.000000,0.000000,0.000000,0.000000,0.100000,0.100000,-0.636069,-0.620208,-0.050000,-0.050000,0.770910,-0.616651,0.000000,0.000000,-0.218887,0.234391,0.060277,0.073369,-0.334799,0.475235,-0.200833,-0.209410,0.134962,-0.224401
-0.050000,-0.050000,0.000000,0.000000,0.000000,0.000000,0.000000,0.000000,0.000000,0.100000,0.100000,-0.649027,-0.629136,-0.050000,-0.050000,0.784261,-0.624473,0.000000,0.000000,-0.227430,0.238355,0.064963,0.081683,-0.323558,0.473788,-0.203309,-0.209363,0.142234,-0.226014
-0.050000,-0.050000,0.000000,0.000000,0.000000,0.000000,0.000000,0.000000,0.000000,0.100000,0.100000,-0.660941,-0.637764,-0.050000,-0.050000,0.794207,-0.630712,0.000000,0.000000,-0.235660,0.241529,0.071663,0.092165,-0.317363,0.473570,-0.204927,-0.208957,0.148707,-0.228718
-0.050000,-0.050000,0.000000,0.000000,0.000000,0.000000,0.000000,0.000000,0.000000,0.100000,0.100000,-0.672328,-0.646136,-0.050000,-0.050000,0.802895,-0.636333,0.000000,0.000000,-0.243619,0.244319,0.079028,0.103135,-0.313002,0.473666,-0.206243,-0.208450,0.154757,-0.231806
-0.050000,-0.050000,0.000000,0.000000,0.000000,0.000000,0.000000,0.000000,0.000000,0.100000,0.100000,-0.682660,-0.653995,-0.050000,-0.050000,0.809066,-0.640717,0.000000,0.000000,-0.251035,0.246339,0.087722,0.115081,-0.312309,0.474389,-0.206956,-0.207741,0.159960,-0.235660
-0.050000,-0.050000,0.000000,0.000000,0.000000,0.000000,0.000000,0.000000,0.000000,0.100000,0.100000,-0.691780,-0.661122,-0.050000,-0.050000,0.812602,-0.643744,0.000000,0.000000,-0.257570,0.247407,0.097621,0.127379,-0.315253,0.475507,-0.207149,-0.206970,0.164319,-0.240461
-0.050000,-0.050000,0.000000,0.000000,0.000000,0.000000,0.000000,0.000000,0.000000,0.100000,0.100000,-0.700292,-0.667883,-0.050000,-0.050000,0.814819,-0.646093,0.000000,0.000000,-0.263664,0.248001,0.108121,0.139852,-0.320015,0.476822,-0.207082,-0.206168,0.168255,-0.245736
-0.050000,-0.050000,0.000000,0.000000,0.000000,0.000000,0.000000,0.000000,0.000000,0.100000,0.100000,-0.707044,-0.673371,-0.050000,-0.050000,0.813053,-0.646298,0.000000,0.000000,-0.268016,0.247055,0.120035,0.151791,-0.329691,0.478344,-0.206476,-0.205578,0.171323,-0.252812
-0.050000,-0.050000,0.000000,0.000000,0.000000,0.000000,0.000000,0.000000,0.000000,0.100000,0.100000,-0.713312,-0.678424,-0.050000,-0.050000,0.809995,-0.645775,0.000000,0.000000,-0.271702,0.245622,0.132218,0.163199,-0.340672,0.479804,-0.205799,-0.205166,0.174313,-0.260602
-0.050000,-0.050000,0.000000,0.000000,0.000000,0.000000,0.000000,0.000000,0.000000,0.100000,0.100000,-0.718608,-0.682605,-0.050000,-0.050000,0.804350,-0.643796,0.000000,0.000000,-0.274055,0.243213,0.144940,0.173545,-0.354263,0.481137,-0.204976,-0.205110,0.177145,-0.269821
-0.050000,-0.050000,0.000000,0.000000,0.000000,0.000000,0.000000,0.000000,0.000000,0.100000,0.100000,-0.723225,-0.685960,-0.050000,-0.050000,0.796281,-0.640374,0.000000,0.000000,-0.275031,0.239989,0.157670,0.182203,-0.369554,0.482068,-0.204249,-0.205588,0.180271,-0.280591
-0.050000,-0.050000,0.000000,0.000000,0.000000,0.000000,0.000000,0.000000,0.000000,0.100000,0.100000,-0.727503,-0.688900,-0.050000,-0.050000,0.787000,-0.636230,0.000000,0.000000,-0.275318,0.236359,0.170404,0.190017,-0.385694,0.482797,-0.203568,-0.206333,0.183546,-0.292134
-0.050000,-0.050000,0.000000,0.000000,0.000000,0.000000,0.000000,0.000000,0.000000,0.100000,0.100000,-0.731203,-0.690722,-0.050000,-0.050000,0.774480,-0.630011,0.000000,0.000000,-0.273641,0.231861,0.182236,0.194580,-0.402756,0.482485,-0.203391,-0.208036,0.187848,-0.305947
-0.050000,-0.050000,0.000000,0.000000,0.000000,0.000000,0.000000,0.000000,0.000000,0.100000,0.100000,-0.734816,-0.692215,-0.050000,-0.050000,0.761060,-0.623154,0.000000,0.000000,-0.271387,0.227204,0.193453,0.197916,-0.419543,0.481673,-0.203486,-0.210067,0.192629,-0.320418
-0.050000,-0.050000,0.000000,0.000000,0.000000,0.000000,0.000000,0.000000,0.000000,0.100000,0.100000,-0.738253,-0.693048,-0.050000,-0.050000,0.745843,-0.615022,0.000000,0.000000,-0.267978,0.222230,0.203441,0.198796,-0.435782,0.479861,-0.204128,-0.212752,0.198368,-0.336207
-0.050000,-0.050000,0.000000,0.000000,0.000000,0.000000,0.000000,0.000000,0.000000,0.100000,0.100000,-0.741582,-0.693293,-0.050000,-0.050000,0.729266,-0.605771,0.000000,0.000000,-0.263619,0.217186,0.211630,0.197133,-0.450344,0.476747,-0.205468,-0.216025,0.205201,-0.353000
-0.050000,-0.050000,0.000000,0.000000,0.000000,0.000000,0.000000,0.000000,0.000000,0.100000,0.100000,-0.744856,-0.693244,-0.050000,-0.050000,0.712009,-0.595960,0.000000,0.000000,-0.258785,0.212106,0.218919,0.194198,-0.464066,0.472981,-0.207157,-0.219592,0.212582,-0.370295
-0.050000,-0.050000,0.000000,0.000000,0.000000,0.000000,0.000000,0.000000,0.000000,0.100000,0.100000,-0.751638,-0.693962,-0.050000,-0.050000,0.692819,-0.584649,0.000000,0.000000,-0.252873,0.206967,0.223684,0.185382,-0.474048,0.463812,-0.210541,-0.223749,0.222696,-0.392434
-0.050000,-0.050000,0.000000,0.000000,0.000000,0.000000,0.000000,0.000000,0.000000,0.100000,0.100000,-0.757220,-0.693939,-0.050000,-0.050000,0.673529,-0.572970,0.000000,0.000000,-0.246721,0.201994,0.226865,0.175750,-0.481942,0.454310,-0.214092,-0.227849,0.233153,-0.413824
-0.050000,-0.050000,0.000000,0.000000,0.000000,0.000000,0.000000,0.000000,0.000000,0.100000,0.100000,-0.760401,-0.692436,-0.050000,-0.050000,0.654038,-0.560556,0.000000,0.000000,-0.240088,0.197352,0.226880,0.164487,-0.485662,0.444145,-0.217979,-0.231836,0.244296,-0.433716
-0.050000,-0.050000,0.000000,0.000000,0.000000,0.000000,0.000000,0.000000,0.000000,0.100000,0.100000,-0.762041,-0.690078,-0.050000,-0.050000,0.634544,-0.547548,0.000000,0.000000,-0.233207,0.193135,0.223851,0.151610,-0.485470,0.432555,-0.222233,-0.235988,0.256157,-0.453004
-0.050000,-0.050000,0.000000,0.000000,0.000000,0.000000,0.000000,0.000000,0.000000,0.100000,0.100000,-0.762910,-0.687292,-0.050000,-0.050000,0.615047,-0.534242,0.000000,0.000000,-0.226202,0.189129,0.219300,0.137925,-0.483323,0.420253,-0.226671,-0.240221,0.268377,-0.471990
-0.050000,-0.050000,0.000000,0.000000,0.000000,0.000000,0.000000,0.000000,0.000000,0.100000,0.100000,-0.761626,-0.683489,-0.050000,-0.050000,0.596014,-0.520455,0.000000,0.000000,-0.219448,0.185903,0.210809,0.122463,-0.475700,0.405936,-0.231279,-0.244408,0.281052,-0.489919
-0.050000,-0.050000,0.000000,0.000000,0.000000,0.000000,0.000000,0.000000,0.000000,0.100000,0.100000,-0.759587,-0.679354,-0.050000,-0.050000,0.577247,-0.506626,0.000000,0.000000,-0.212991,0.182968,0.201284,0.106693,-0.466576,0.391197,-0.235789,-0.248492,0.293608,-0.507340
-0.050000,-0.050000,0.000000,0.000000,0.000000,0.000000,0.000000,0.000000,0.000000,0.100000,0.100000,-0.756039,-0.674557,-0.050000,-0.050000,0.559015,-0.492712,0.000000,0.000000,-0.207129,0.180616,0.189696,0.090309,-0.454449,0.375611,-0.240101,-0.252369,0.305925,-0.523745
-0.050000,-0.050000,0.000000,0.000000,0.000000,0.000000,0.000000,0.000000,0.000000,0.100000,0.100000,-0.750974,-0.669079,-0.050000,-0.050000,0.541473,-0.478940,0.000000,0.000000,-0.202253,0.178907,0.176768,0.073960,-0.440319,0.359933,-0.243908,-0.255898,0.317430,-0.538768
-0.050000,-0.050000,0.000000,0.000000,0.000000,0.000000,0.000000,0.000000,0.000000,0.100000,0.100000,-0.745149,-0.663261,-0.050000,-0.050000,0.524276,-0.465237,0.000000,0.000000,-0.197869,0.177520,0.163170,0.057627,-0.425188,0.344209,-0.247463,-0.259252,0.328527,-0.553101
-0.050000,-0.050000,0.000000,0.000000,0.000000,0.000000,0.000000,0.000000,0.000000,0.100000,0.100000,-0.737251,-0.656430,-0.050000,-0.050000,0.508289,-0.452082,0.000000,0.000000,-0.195407,0.177191,0.148849,0.042370,-0.408882,0.329662,-0.249891,-0.261900,0.337624,-0.564814
-0.050000,-0.050000,0.000000,0.000000,0.000000,0.000000,0.000000,0.000000,0.000000,0.100000,0.100000,-0.728808,-0.649287,-0.050000,-0.050000,0.492758,-0.439226,0.000000,0.000000,-0.193655,0.177238,0.134741,0.027797,-0.392813,0.315923,-0.251872,-0.264260,0.345871,-0.575499
-0.050000,-0.050000,0.000000,0.000000,0.000000,0.000000,0.000000,0.000000,0.000000,0.100000,0.100000,-0.719275,-0.641522,-0.050000,-0.050000,0.478141,-0.426965,0.000000,0.000000,-0.193324,0.178034,0.121062,0.014591,-0.377219,0.303800,-0.252958,-0.266044,0.352414,-0.584126
-0.050000,-0.050000,0.000000,0.000000,0.000000,0.000000,0.000000,0.000000,0.000000,0.100000,0.100000,-0.709059,-0.633247,-0.050000,-0.050000,0.464544,-0.415533,0.000000,0.000000,-0.194358,0.179576,0.108656,0.003273,-0.363199,0.293892,-0.253127,-0.267169,0.357111,-0.590493
-0.050000,-0.050000,0.000000,0.000000,0.000000,0.000000,0.000000,0.000000,0.000000,0.100000,0.100000,-0.698502,-0.624718,-0.050000,-0.050000,0.451459,-0.404516,0.000000,0.000000,-0.196074,0.181491,0.096888,-0.007101,-0.349966,0.285091,-0.252837,-0.267965,0.360883,-0.595730
-0.050000,-0.050000,0.000000,0.000000,0.000000,0.000000,0.000000,0.000000,0.000000,0.100000,0.100000,-0.687606,-0.615663,-0.050000,-0.050000,0.440052,-0.395062,0.000000,0.000000,-0.199461,0.184421,0.088013,-0.014201,-0.340273,0.279944,-0.251320,-0.267713,0.362038,-0.597517
-0.050000,-0.050000,0.000000,0.000000,0.000000,0.000000,0.000000,0.000000,0.000000,0.100000,0.100000,-0.676809,-0.606523,-0.050000,-0.050000,0.429240,-0.386211,0.000000,0.000000,-0.203205,0.187619,0.080287,-0.020205,-0.331959,0.275915,-0.249500,-0.267126,0.362475,-0.598224
-0.050000,-0.050000,0.000000,0.000000,0.000000,0.000000,0.000000,0.000000,0.000000,0.100000,0.100000,-0.666213,-0.597212,-0.050000,-0.050000,0.419617,-0.378568,0.000000,0.000000,-0.207666,0.191355,0.074857,-0.024015,-0.326402,0.274120,-0.247074,-0.265869,0.361474,-0.596771
-0.050000,-0.050000,0.000000,0.000000,0.000000,0.000000,0.000000,0.000000,0.000000,0.100000,0.100000,-0.656151,-0.587900,-0.050000,-0.050000,0.411207,-0.372220,0.000000,0.000000,-0.212386,0.195444,0.071766,-0.025882,-0.323628,0.274010,-0.244347,-0.264051,0.359457,-0.593464
-0.050000,-0.050000,0.000000,0.000000,0.000000,0.000000,0.000000,0.000000,0.000000,0.100000,0.100000,-0.646356,-0.578587,-0.050000,-0.050000,0.403404,-0.366519,0.000000,0.000000,-0.217237,0.199710,0.069843,-0.026778,-0.322246,0.274743,-0.241468,-0.261953,0.356931,-0.589230
-0.050000,-0.050000,0.000000,0.000000,0.000000,0.000000,0.000000,0.000000,0.000000,0.100000,0.100000,-0.637662,-0.569472,-0.050000,-0.050000,0.397384,-0.362751,0.000000,0.000000,-0.221849,0.204214,0.071069,-0.025372,-0.324659,0.276922,-0.238645,-0.259283,0.353510,-0.582838
-0.050000,-0.050000,0.000000,0.000000,0.000000,0.000000,0.000000,0.000000,0.000000,0.100000,0.100000,-0.629368,-0.560469,-0.050000,-0.050000,0.391927,-0.359581,0.000000,0.000000,-0.226234,0.208715,0.073136,-0.023402,-0.328132,0.279239,-0.235991,-0.256522,0.349953,-0.575950
-0.050000,-0.050000,0.000000,0.000000,0.000000,0.000000,0.000000,0.000000,0.000000,0.100000,0.100000,-0.621872,-0.551691,-0.050000,-0.050000,0.387596,-0.357606,0.000000,0.000000,-0.230163,0.213208,0.076883,-0.020306,-0.333724,0.281833,-0.233671,-0.253578,0.346123,-0.568070
-0.050000,-0.050000,0.000000,0.000000,0.000000,0.000000,0.000000,0.000000,0.000000,0.100000,0.100000,-0.615127,-0.543200,-0.050000,-0.050000,0.384307,-0.356671,0.000000,0.000000,-0.233505,0.217590,0.081847,-0.016336,-0.340972,0.284205,-0.231862,-0.250602,0.342199,-0.559593
-0.050000,-0.050000,0.000000,0.000000,0.000000,0.000000,0.000000,0.000000,0.000000,0.100000,0.100000,-0.608758,-0.534851,-0.050000,-0.050000,0.381539,-0.356256,0.000000,0.000000,-0.236554,0.221916,0.087419,-0.011928,-0.349048,0.286467,-0.230306,-0.247609,0.338228,-0.550819
-0.050000,-0.050000,0.000000,0.000000,0.000000,0.000000,0.000000,0.000000,0.000000,0.100000,0.100000,-0.603356,-0.527008,-0.050000,-0.050000,0.380196,-0.357140,0.000000,0.000000,-0.238774,0.226041,0.094219,-0.006202,-0.358932,0.288017,-0.229513,-0.244632,0.334172,-0.541588
-0.050000,-0.050000,0.000000,0.000000,0.000000,0.000000,0.000000,0.000000,0.000000,0.100000,0.100000,-0.598220,-0.519361,-0.050000,-0.050000,0.379285,-0.358377,0.000000,0.000000,-0.240800,0.230134,0.101298,0.000096,-0.369216,0.289303,-0.228888,-0.241618,0.330057,-0.532285
-0.050000,-0.050000,0.000000,0.000000,0.000000,0.000000,0.000000,0.000000,0.000000,0.100000,0.100000,-0.593618,-0.512105,-0.050000,-0.050000,0.379236,-0.360320,0.000000,0.000000,-0.242439,0.234161,0.108937,0.007539,-0.380299,0.290061,-0.228599,-0.238532,0.325826,-0.522837
-0.050000,-0.050000,0.000000,0.000000,0.000000,0.000000,0.000000,0.000000,0.000000,0.100000,0.100000,-0.589487,-0.505300,-0.050000,-0.050000,0.379962,-0.362839,0.000000,0.000000,-0.243932,0.238276,0.117027,0.016581,-0.391832,0.290331,-0.228367,-0.235194,0.321371,-0.513279
-0.050000,-0.050000,0.000000,0.000000,0.000000,0.000000,0.000000,0.000000,0.000000,0.100000,0.100000,-0.585591,-0.498722,-0.050000,-0.050000,0.381075,-0.365648,0.000000,0.000000,-0.245353,0.242435,0.125341,0.026421,-0.403590,0.290357,-0.228163,-0.231730,0.316803,-0.503666
-0.050000,-0.050000,0.000000,0.000000,0.000000,0.000000,0.000000,0.000000,0.000000,0.100000,0.100000,-0.582428,-0.492898,-0.050000,-0.050000,0.383202,-0.369156,0.000000,0.000000,-0.246952,0.247058,0.134349,0.039418,-0.415611,0.289719,-0.227598,-0.227573,0.311722,-0.493779
-0.050000,-0.050000,0.000000,0.000000,0.000000,0.000000,0.000000,0.000000,0.000000,0.100000,0.100000,-0.579560,-0.487338,-0.050000,-0.050000,0.385599,-0.372837,0.000000,0.000000,-0.248732,0.251962,0.143622,0.053679,-0.427631,0.288860,-0.226796,-0.223096,0.306415,-0.483729
-0.050000,-0.050000,0.000000,0.000000,0.000000,0.000000,0.000000,0.000000,0.000000,0.100000,0.100000,-0.577285,-0.482303,-0.050000,-0.050000,0.388536,-0.376861,0.000000,0.000000,-0.250877,0.257431,0.153427,0.070471,-0.439651,0.287560,-0.225520,-0.217978,0.300654,-0.473350
-0.050000,-0.050000,0.000000,0.000000,0.000000,0.000000,0.000000,0.000000,0.000000,0.100000,0.100000,-0.575770,-0.477763,-0.050000,-0.050000,0.391823,-0.381054,0.000000,0.000000,-0.253589,0.263714,0.163825,0.090042,-0.451615,0.285797,-0.223656,-0.212117,0.294331,-0.462451
-0.050000,-0.050000,0.000000,0.000000,0.000000,0.000000,0.000000,0.000000,0.000000,0.100000,0.100000,-0.574635,-0.473472,-0.050000,-0.050000,0.395285,-0.385332,0.000000,0.000000,-0.256586,0.270404,0.174520,0.111002,-0.463551,0.283802,-0.221497,-0.205884,0.287727,-0.451294
-0.050000,-0.050000,0.000000,0.000000,0.000000,0.000000,0.000000,0.000000,0.000000,0.100000,0.100000,-0.574915,-0.469784,-0.050000,-0.050000,0.398892,-0.389501,0.000000,0.000000,-0.260657,0.278605,0.186092,0.136183,-0.475489,0.281111,-0.218465,-0.198519,0.280120,-0.439057
-0.050000,-0.050000,0.000000,0.000000,0.000000,0.000000,0.000000,0.000000,0.000000,0.100000,0.100000,-0.575733,-0.466220,-0.050000,-0.050000,0.402403,-0.393487,0.000000,0.000000,-0.265126,0.287354,0.197889,0.162687,-0.487482,0.278216,-0.215196,-0.190811,0.272133,-0.426373
-0.050000,-0.050000,0.000000,0.000000,0.000000,0.000000,0.000000,0.000000,0.000000,0.100000,0.100000,-0.577626,-0.462903,-0.050000,-0.050000,0.405723,-0.397105,0.000000,0.000000,-0.270394,0.297198,0.210138,0.191834,-0.499585,0.274913,-0.211452,-0.182416,0.263384,-0.412795
-0.050000,-0.050000,0.000000,0.000000,0.000000,0.000000,0.000000,0.000000,0.000000,0.100000,0.100000,-0.580605,-0.459625,-0.050000,-0.050000,0.408585,-0.400055,0.000000,0.000000,-0.276463,0.308079,0.222545,0.223282,-0.511842,0.271319,-0.207402,-0.173463,0.253818,-0.398219
-0.050000,-0.050000,0.000000,0.000000,0.000000,0.000000,0.000000,0.000000,0.000000,0.100000,0.100000,-0.584128,-0.456369,-0.050000,-0.050000,0.411218,-0.402670,0.000000,0.000000,-0.282933,0.319478,0.235030,0.255881,-0.524178,0.267580,-0.203199,-0.164230,0.243844,-0.383143
-0.050000,-0.050000,0.000000,0.000000,0.000000,0.000000,0.000000,0.000000,0.000000,0.100000,0.100000,-0.589039,-0.452824,-0.050000,-0.050000,0.412915,-0.403916,0.000000,0.000000,-0.290474,0.332096,0.247052,0.291210,-0.536540,0.263610,-0.198835,-0.154415,0.232662,-0.366570
-0.050000,-0.050000,0.000000,0.000000,0.000000,0.000000,0.000000,0.000000,0.000000,0.100000,0.100000,-0.594238,-0.449069,-0.050000,-0.050000,0.414305,-0.404643,0.000000,0.000000,-0.298287,0.344933,0.258615,0.327149,-0.548710,0.259621,-0.194519,-0.144509,0.221124,-0.349566
-0.050000,-0.050000,0.000000,0.000000,0.000000,0.000000,0.000000,0.000000,0.000000,0.100000,0.100000,-0.600011,-0.444895,-0.050000,-0.050000,0.415077,-0.404328,0.000000,0.000000,-0.306641,0.358206,0.269261,0.364307,-0.560498,0.255592,-0.190300,-0.134422,0.208876,-0.331701
-0.050000,-0.050000,0.000000,0.000000,0.000000,0.000000,0.000000,0.000000,0.000000,0.100000,0.100000,-0.605856,-0.440117,-0.050000,-0.050000,0.415448,-0.402997,0.000000,0.000000,-0.315305,0.371435,0.278325,0.401973,-0.571253,0.251595,-0.186364,-0.124388,0.196084,-0.313254
-0.050000,-0.050000,0.000000,0.000000,0.000000,0.000000,0.000000,0.000000,0.000000,0.100000,0.100000,-0.611737,-0.435037,-0.050000,-0.050000,0.415618,-0.401156,0.000000,0.000000,-0.324123,0.384642,0.286599,0.439894,-0.581492,0.247615,-0.182570,-0.114382,0.183019,-0.294516
-0.050000,-0.050000,0.000000,0.000000,0.000000,0.000000,0.000000,0.000000,0.000000,0.100000,0.100000,-0.614167,-0.424781,-0.050000,-0.050000,0.415450,-0.398418,0.000000,0.000000,-0.333363,0.397441,0.289573,0.472779,-0.587535,0.243761,-0.179225,-0.103808,0.171255,-0.277718
-0.050000,-0.050000,0.000000,0.000000,0.000000,0.000000,0.000000,0.000000,0.000000,0.100000,0.100000,-0.616662,-0.415006,-0.050000,-0.050000,0.415536,-0.395354,0.000000,0.000000,-0.342521,0.409661,0.291845,0.506113,-0.592802,0.239965,-0.176107,-0.093592,0.158960,-0.260526
-0.050000,-0.050000,0.000000,0.000000,0.000000,0.000000,0.000000,0.000000,0.000000,0.100000,0.100000,-0.619286,-0.406192,-0.050000,-0.050000,0.416129,-0.391637,0.000000,0.000000,-0.351512,0.420724,0.292712,0.540344,-0.596514,0.236285,-0.173443,-0.084095,0.145606,-0.242543
-0.050000,-0.050000,0.000000,0.000000,0.000000,0.000000,0.000000,0.000000,0.000000,0.100000,0.100000,-0.621074,-0.397658,-0.050000,-0.050000,0.417648,-0.387635,0.000000,0.000000,-0.360175,0.430340,0.291587,0.573434,-0.597521,0.233023,-0.171308,-0.075691,0.131887,-0.224959
-0.050000,-0.050000,0.000000,0.000000,0.000000,0.000000,0.000000,0.000000,0.000000,0.100000,0.100000,-0.622442,-0.389262,-0.050000,-0.050000,0.419630,-0.383491,0.000000,0.000000,-0.368674,0.439233,0.289467,0.605955,-0.597175,0.229970,-0.169438,-0.067834,0.117986,-0.207573
-0.050000,-0.050000,0.000000,0.000000,0.000000,0.000000,0.000000,0.000000,0.000000,0.100000,0.100000,-0.621670,-0.381037,-0.050000,-0.050000,0.423311,-0.379403,0.000000,0.000000,-0.376723,0.445696,0.284439,0.634917,-0.592219,0.227861,-0.168004,-0.061638,0.103947,-0.191665
-0.050000,-0.050000,0.000000,0.000000,0.000000,0.000000,0.000000,0.000000,0.000000,0.100000,0.100000,-0.620071,-0.372948,-0.050000,-0.050000,0.427543,-0.375470,0.000000,0.000000,-0.384645,0.451324,0.278691,0.662265,-0.585810,0.226185,-0.166564,-0.055971,0.089923,-0.176415
-0.050000,-0.050000,0.000000,0.000000,0.000000,0.000000,0.000000,0.000000,0.000000,0.100000,0.100000,-0.616819,-0.365131,-0.050000,-0.050000,0.432874,-0.371847,0.000000,0.000000,-0.392312,0.455285,0.271501,0.686382,-0.576492,0.225374,-0.165110,-0.051362,0.075928,-0.162480
-0.050000,-0.050000,0.000000,0.000000,0.000000,0.000000,0.000000,0.000000,0.000000,0.100000,0.100000,-0.611957,-0.357886,-0.050000,-0.050000,0.439009,-0.368731,0.000000,0.000000,-0.399712,0.457671,0.263638,0.706704,-0.564848,0.225626,-0.163381,-0.047719,0.062069,-0.150014
-0.050000,-0.050000,0.000000,0.000000,0.000000,0.000000,0.000000,0.000000,0.000000,0.100000,0.100000,-0.606289,-0.350927,-0.050000,-0.050000,0.445545,-0.365867,0.000000,0.000000,-0.406978,0.459269,0.255438,0.725128,-0.552042,0.226410,-0.161516,-0.044560,0.048276,-0.138281
-0.050000,-0.050000,0.000000,0.000000,0.000000,0.000000,0.000000,0.000000,0.000000,0.100000,0.100000,-0.598526,-0.345293,-0.050000,-0.050000,0.452518,-0.363917,0.000000,0.000000,-0.413622,0.458772,0.247494,0.737405,-0.537068,0.228935,-0.159044,-0.042684,0.034970,-0.128796
-0.050000,-0.050000,0.000000,0.000000,0.000000,0.000000,0.000000,0.000000,0.000000,0.100000,0.100000,-0.590211,-0.340211,-0.050000,-0.050000,0.459319,-0.362276,0.000000,0.000000,-0.419896,0.457671,0.240009,0.747602,-0.521897,0.232034,-0.156387,-0.041186,0.022001,-0.120044
-0.050000,-0.050000,0.000000,0.000000,0.000000,0.000000,0.000000,0.000000,0.000000,0.100000,0.100000,-0.580791,-0.336230,-0.050000,-0.050000,0.465777,-0.361257,0.000000,0.000000,-0.425428,0.455364,0.233440,0.753639,-0.506332,0.236283,-0.153358,-0.040445,0.009706,-0.112756
-0.050000,-0.050000,0.000000,0.000000,0.000000,0.000000,0.000000,0.000000,0.000000,0.100000,0.100000,-0.570560,-0.333406,-0.050000,-0.050000,0.471263,-0.360794,0.000000,0.000000,-0.429722,0.451995,0.228305,0.755669,-0.491463,0.241596,-0.150129,-0.040393,-0.001401,-0.106891
-0.050000,-0.050000,0.000000,0.000000,0.000000,0.000000,0.000000,0.000000,0.000000,0.100000,0.100000,-0.559923,-0.331161,-0.050000,-0.050000,0.476262,-0.360608,0.000000,0.000000,-0.433397,0.448094,0.223885,0.755694,-0.476941,0.247442,-0.146801,-0.040687,-0.011912,-0.101736
-0.050000,-0.050000,0.000000,0.000000,0.000000,0.000000,0.000000,0.000000,0.000000,0.100000,0.100000,-0.548444,-0.330442,-0.050000,-0.050000,0.479058,-0.361083,0.000000,0.000000,-0.434341,0.442719,0.221938,0.750216,-0.464972,0.254734,-0.143536,-0.041967,-0.019721,-0.098670
-0.050000,-0.050000,0.000000,0.000000,0.000000,0.000000,0.000000,0.000000,0.000000,0.100000,0.100000,-0.536788,-0.330076,-0.050000,-0.050000,0.480996,-0.361707,0.000000,0.000000,-0.434105,0.436871,0.220770,0.743155,-0.454257,0.262467,-0.140415,-0.043567,-0.026344,-0.096287
-0.050000,-0.050000,0.000000,0.000000,0.000000,0.000000,0.000000,0.000000,0.000000,0.100000,0.100000,-0.524778,-0.330415,-0.050000,-0.050000,0.481218,-0.362632,0.000000,0.000000,-0.431506,0.430075,0.221160,0.732930,-0.446052,0.271082,-0.137581,-0.045807,-0.030593,-0.095270
-0.050000,-0.050000,0.000000,0.000000,0.000000,0.000000,0.000000,0.000000,0.000000,0.100000,0.100000,-0.512604,-0.331028,-0.050000,-0.050000,0.479797,-0.363725,0.000000,0.000000,-0.426186,0.422381,0.222766,0.720184,-0.440857,0.280507,-0.135243,-0.048650,-0.032088,-0.095558
-0.050000,-0.050000,0.000000,0.000000,0.000000,0.000000,0.000000,0.000000,0.000000,0.100000,0.100000,-0.500348,-0.331777,-0.050000,-0.050000,0.477556,-0.364903,0.000000,0.000000,-0.419504,0.414237,0.224981,0.706177,-0.437168,0.290338,-0.133152,-0.051793,-0.032207,-0.096497
-0.050000,-0.050000,0.000000,0.000000,0.000000,0.000000,0.000000,0.000000,0.000000,0.100000,0.100000,-0.488146,-0.332243,-0.050000,-0.050000,0.473464,-0.366181,0.000000,0.000000,-0.408618,0.404911,0.228296,0.689520,-0.438179,0.301231,-0.132037,-0.055706,-0.028070,-0.099186
-0.050000,-0.050000,0.000000,0.000000,0.000000,0.000000,0.000000,0.000000,0.000000,0.100000,0.100000,-0.476067,-0.332406,-0.050000,-0.050000,0.469095,-0.367465,0.000000,0.000000,-0.396445,0.395295,0.231734,0.672390,-0.440621,0.312386,-0.131293,-0.059795,-0.022628,-0.102340
-0.050000,-0.050000,0.000000,0.000000,0.000000,0.000000,0.000000,0.000000,0.000000,0.100000,0.100000,-0.464234,-0.331967,-0.050000,-0.050000,0.464175,-0.368760,0.000000,0.000000,-0.381700,0.385095,0.235419,0.654311,-0.445925,0.324063,-0.131291,-0.064234,-0.014577,-0.106426
-0.050000,-0.050000,0.000000,0.000000,0.000000,0.000000,0.000000,0.000000,0.000000,0.100000,0.100000,-0.452837,-0.330625,-0.050000,-0.050000,0.459527,-0.370058,0.000000,0.000000,-0.364879,0.374603,0.238998,0.636111,-0.453499,0.335974,-0.132041,-0.068793,-0.004381,-0.111133
-0.050000,-0.050000,0.000000,0.000000,0.000000,0.000000,0.000000,0.000000,0.000000,0.100000,0.100000,-0.441658,-0.328832,-0.050000,-0.050000,0.455016,-0.371357,0.000000,0.000000,-0.347020,0.363965,0.242524,0.617850,-0.462209,0.348000,-0.133167,-0.073410,0.006888,-0.116150
-0.050000,-0.050000,0.000000,0.000000,0.000000,0.000000,0.000000,0.000000,0.000000,0.100000,0.100000,-0.431320,-0.325467,-0.050000,-0.050000,0.452111,-0.372692,0.000000,0.000000,-0.327052,0.353396,0.245722,0.600565,-0.473195,0.359811,-0.135285,-0.077784,0.020522,-0.121605
-0.050000,-0.050000,0.000000,0.000000,0.000000,0.000000,0.000000,0.000000,0.000000,0.100000,0.100000,-0.421279,-0.321586,-0.050000,-0.050000,0.450037,-0.374050,0.000000,0.000000,-0.306742,0.343021,0.248893,0.583935,-0.484586,0.371346,-0.137636,-0.081935,0.034675,-0.127068
-0.050000,-0.050000,0.000000,0.000000,0.000000,0.000000,0.000000,0.000000,0.000000,0.100000,0.100000,-0.411829,-0.316673,-0.050000,-0.050000,0.449626,-0.375455,0.000000,0.000000,-0.285748,0.333032,0.252010,0.568612,-0.496788,0.382330,-0.140455,-0.085641,0.049866,-0.132547
-0.050000,-0.050000,0.000000,0.000000,0.000000,0.000000,0.000000,0.000000,0.000000,0.100000,0.100000,-0.402908,-0.310886,-0.050000,-0.050000,0.451131,-0.376899,0.000000,0.000000,-0.264742,0.323728,0.255475,0.555089,-0.509334,0.392392,-0.143475,-0.088665,0.065674,-0.137875
-0.050000,-0.050000,0.000000,0.000000,0.000000,0.000000,0.000000,0.000000,0.000000,0.100000,0.100000,-0.394249,-0.304663,-0.050000,-0.050000,0.453594,-0.378364,0.000000,0.000000,-0.243732,0.314767,0.259115,0.542466,-0.522051,0.401994,-0.146595,-0.091347,0.081790,-0.143128
-0.050000,-0.050000,0.000000,0.000000,0.000000,0.000000,0.000000,0.000000,0.000000,0.100000,0.100000,-0.386177,-0.297534,-0.050000,-0.050000,0.458717,-0.379800,0.000000,0.000000,-0.223526,0.307183,0.264077,0.532971,-0.535101,0.409797,-0.149586,-0.092782,0.098399,-0.148091
-0.050000,-0.050000,0.000000,0.000000,0.000000,0.000000,0.000000,0.000000,0.000000,0.100000,0.100000,-0.378213,-0.290270,-0.050000,-0.050000,0.464474,-0.381173,0.000000,0.000000,-0.203783,0.300136,0.269734,0.524545,-0.548361,0.416921,-0.152406,-0.093781,0.115075,-0.152981
-0.050000,-0.050000,0.000000,0.000000,0.000000,0.000000,0.000000,0.000000,0.000000,0.100000,0.100000,-0.370463,-0.282734,-0.050000,-0.050000,0.471499,-0.382419,0.000000,0.000000,-0.184966,0.294160,0.276780,0.518256,-0.562042,0.422687,-0.154883,-0.093907,0.131882,-0.157725
-0.050000,-0.050000,0.000000,0.000000,0.000000,0.000000,0.000000,0.000000,0.000000,0.100000,0.100000,-0.362741,-0.275264,-0.050000,-0.050000,0.479043,-0.383402,0.000000,0.000000,-0.167301,0.289322,0.285536,0.513909,-0.576519,0.427051,-0.156830,-0.093221,0.148638,-0.162402
-0.050000,-0.050000,0.000000,0.000000,0.000000,0.000000,0.000000,0.000000,0.000000,0.100000,0.100000,-0.355032,-0.267826,-0.050000,-0.050000,0.486844,-0.384254,0.000000,0.000000,-0.150213,0.285054,0.295147,0.510533,-0.591393,0.430714,-0.158512,-0.092129,0.165368,-0.167044
-0.050000,-0.050000,0.000000,0.000000,0.000000,0.000000,0.000000,0.000000,0.000000,0.100000,0.100000,-0.347080,-0.260910,-0.050000,-0.050000,0.494170,-0.384533,0.000000,0.000000,-0.134981,0.282447,0.307324,0.509423,-0.607948,0.432352,-0.159244,-0.090037,0.181666,-0.171655
-0.050000,-0.050000,0.000000,0.000000,0.000000,0.000000,0.000000,0.000000,0.000000,0.100000,0.100000,-0.338954,-0.254260,-0.050000,-0.050000,0.500960,-0.384592,0.000000,0.000000,-0.120356,0.280326,0.320162,0.508756,-0.625092,0.433377,-0.159652,-0.087712,0.197665,-0.176249
-0.050000,-0.050000,0.000000,0.000000,0.000000,0.000000,0.000000,0.000000,0.000000,0.100000,0.100000,-0.330479,-0.248142,-0.050000,-0.050000,0.506679,-0.384209,0.000000,0.000000,-0.106944,0.279176,0.334323,0.508977,-0.643416,0.433177,-0.159412,-0.084923,0.213067,-0.180810
-0.050000,-0.050000,0.000000,0.000000,0.000000,0.000000,0.000000,0.000000,0.000000,0.100000,0.100000,-0.321474,-0.242618,-0.050000,-0.050000,0.510785,-0.383415,0.000000,0.000000,-0.094647,0.278756,0.349050,0.509354,-0.662584,0.431935,-0.158595,-0.081907,0.227524,-0.185281
-0.050000,-0.050000,0.000000,0.000000,0.000000,0.000000,0.000000,0.000000,0.000000,0.100000,0.100000,-0.312204,-0.237391,-0.050000,-0.050000,0.514084,-0.382415,0.000000,0.000000,-0.082907,0.278700,0.364059,0.509808,-0.682173,0.430173,-0.157489,-0.078777,0.241507,-0.189707
-0.050000,-0.050000,0.000000,0.000000,0.000000,0.000000,0.000000,0.000000,0.000000,0.100000,0.100000,-0.301914,-0.232979,-0.050000,-0.050000,0.514559,-0.380983,0.000000,0.000000,-0.072639,0.279237,0.378385,0.509408,-0.701948,0.427213,-0.155749,-0.075679,0.253609,-0.193924
-0.050000,-0.050000,0.000000,0.000000,0.000000,0.000000,0.000000,0.000000,0.000000,0.100000,0.100000,-0.291242,-0.228775,-0.050000,-0.050000,0.514092,-0.379505,0.000000,0.000000,-0.062793,0.279777,0.391929,0.508424,-0.721310,0.424002,-0.153909,-0.072707,0.264989,-0.198077
-0.050000,-0.050000,0.000000,0.000000,0.000000,0.000000,0.000000,0.000000,0.000000,0.100000,0.100000,-0.279807,-0.224984,-0.050000,-0.050000,0.511740,-0.377935,0.000000,0.000000,-0.053792,0.280325,0.403910,0.506274,-0.739849,0.420292,-0.151868,-0.069986,0.274926,-0.202100
-0.050000,-0.050000,0.000000,0.000000,0.000000,0.000000,0.000000,0.000000,0.000000,0.100000,0.100000,-0.267646,-0.221443,-0.050000,-0.050000,0.507711,-0.376500,0.000000,0.000000,-0.045519,0.280489,0.413338,0.502580,-0.756621,0.416429,-0.149886,-0.067701,0.283398,-0.206094
-0.050000,-0.050000,0.000000,0.000000,0.000000,0.000000,0.000000,0.000000,0.000000,0.100000,0.100000,-0.255122,-0.218028,-0.050000,-0.050000,0.502845,-0.375133,0.000000,0.000000,-0.037610,0.280463,0.421488,0.498114,-0.772510,0.412490,-0.147934,-0.065634,0.291137,-0.210072
-0.050000,-0.050000,0.000000,0.000000,0.000000,0.000000,0.000000,0.000000,0.000000,0.100000,0.100000,-0.241796,-0.214756,-0.050000,-0.050000,0.495994,-0.374290,0.000000,0.000000,-0.030677,0.279360,0.424782,0.491154,-0.784673,0.408879,-0.146433,-0.064396,0.296885,-0.214263
-0.050000,-0.050000,0.000000,0.000000,0.000000,0.000000,0.000000,0.000000,0.000000,0.100000,0.100000,-0.228378,-0.211472,-0.050000,-0.050000,0.488698,-0.373701,0.000000,0.000000,-0.024052,0.277788,0.426328,0.483421,-0.795407,0.405553,-0.145165,-0.063458,0.302093,-0.218618
-0.050000,-0.050000,0.000000,0.000000,0.000000,0.000000,0.000000,0.000000,0.000000,0.100000,0.100000,-0.214779,-0.208163,-0.050000,-0.050000,0.480515,-0.373621,0.000000,0.000000,-0.018043,0.275276,0.424377,0.474141,-0.803282,0.402798,-0.144361,-0.063117,0.306220,-0.223304
-0.050000,-0.050000,0.000000,0.000000,0.000000,0.000000,0.000000,0.000000,0.000000,0.100000,0.100000,-0.201476,-0.204761,-0.050000,-0.050000,0.471929,-0.374128,0.000000,0.000000,-0.012662,0.271750,0.419132,0.463598,-0.808257,0.400903,-0.144070,-0.063359,0.309545,-0.228452
-0.050000,-0.050000,0.000000,0.000000,0.000000,0.000000,0.000000,0.000000,0.000000,0.100000,0.100000,-0.188320,-0.201312,-0.050000,-0.050000,0.463142,-0.374930,0.000000,0.000000,-0.007596,0.267718,0.412240,0.452423,-0.811782,0.399438,-0.144036,-0.063891,0.312469,-0.233831
-0.050000,-0.050000,0.000000,0.000000,0.000000,0.000000,0.000000,0.000000,0.000000,0.100000,0.100000,-0.176403,-0.197702,-0.050000,-0.050000,0.454509,-0.376598,0.000000,0.000000,-0.003561,0.262308,0.401308,0.439918,-0.811234,0.399547,-0.144668,-0.065212,0.314549,-0.239924
-0.050000,-0.050000,0.000000,0.000000,0.000000,0.000000,0.000000,0.000000,0.000000,0.100000,0.100000,-0.165143,-0.194059,-0.050000,-0.050000,0.446176,-0.378508,0.000000,0.000000,0.000081,0.256564,0.389470,0.427174,-0.809477,0.400225,-0.145446,-0.066756,0.316421,-0.246190
-0.050000,-0.050000,0.000000,0.000000,0.000000,0.000000,0.000000,0.000000,0.000000,0.100000,0.100000,-0.155199,-0.190351,-0.050000,-0.050000,0.438440,-0.380900,0.000000,0.000000,0.002938,0.250152,0.375821,0.413955,-0.805302,0.402040,-0.146513,-0.068749,0.317879,-0.252802
-0.050000,-0.050000,0.000000,0.000000,0.000000,0.000000,0.000000,0.000000,0.000000,0.100000,0.100000,-0.146943,-0.186679,-0.050000,-0.050000,0.431733,-0.383608,0.000000,0.000000,0.004891,0.243439,0.361370,0.400679,-0.799053,0.404995,-0.147672,-0.071094,0.318967,-0.259501
-0.050000,-0.050000,0.000000,0.000000,0.000000,0.000000,0.000000,0.000000,0.000000,0.100000,0.100000,-0.139531,-0.183025,-0.050000,-0.050000,0.425541,-0.386475,0.000000,0.000000,0.006394,0.236574,0.346519,0.387376,-0.791766,0.408520,-0.148875,-0.073614,0.319869,-0.266243
-0.050000,-0.050000,0.000000,0.000000,0.000000,0.000000,0.000000,0.000000,0.000000,0.100000,0.100000,-0.134952,-0.179666,-0.050000,-0.050000,0.421363,-0.389498,0.000000,0.000000,0.006377,0.229884,0.331957,0.374615,-0.781964,0.413696,-0.149893,-0.076487,0.320147,-0.272608
-0.050000,-0.050000,0.000000,0.000000,0.000000,0.000000,0.000000,0.000000,0.000000,0.100000,0.100000,-0.131325,-0.176508,-0.050000,-0.050000,0.417931,-0.392460,0.000000,0.000000,0.005821,0.223452,0.317917,0.362235,-0.771569,0.419397,-0.150748,-0.079406,0.320164,-0.278672
-0.050000,-0.050000,0.000000,0.000000,0.000000,0.000000,0.000000,0.000000,0.000000,0.100000,0.100000,-0.129604,-0.173753,-0.050000,-0.050000,0.415990,-0.395300,0.000000,0.000000,0.004187,0.217532,0.304919,0.350615,-0.759990,0.426148,-0.151279,-0.082419,0.319660,-0.284135
-0.050000,-0.050000,0.000000,0.000000,0.000000,0.000000,0.000000,0.000000,0.000000,0.100000,0.100000,-0.129640,-0.171630,-0.050000,-0.050000,0.415502,-0.397814,0.000000,0.000000,0.001491,0.212425,0.293568,0.340091,-0.747836,0.433895,-0.151324,-0.085380,0.318514,-0.288702
-0.050000,-0.050000,0.000000,0.000000,0.000000,0.000000,0.000000,0.000000,0.000000,0.100000,0.100000,-0.130553,-0.169824,-0.050000,-0.050000,0.415741,-0.400165,0.000000,0.000000,-0.001738,0.207724,0.283041,0.330115,-0.735395,0.442140,-0.151127,-0.088314,0.317046,-0.292820
-0.050000,-0.050000,0.000000,0.000000,0.000000,0.000000,0.000000,0.000000,0.000000,0.100000,0.100000,-0.133693,-0.169279,-0.050000,-0.050000,0.417853,-0.401805,0.000000,0.000000,-0.006371,0.204458,0.275410,0.322094,-0.723130,0.451756,-0.150084,-0.090995,0.314462,-0.295313
-0.050000,-0.050000,0.000000,0.000000,0.000000,0.000000,0.000000,0.000000,0.000000,0.100000,0.100000,-0.137401,-0.169225,-0.050000,-0.050000,0.420429,-0.403174,0.000000,0.000000,-0.011351,0.201649,0.268714,0.314732,-0.711261,0.461757,-0.148778,-0.093573,0.311481,-0.297240
-0.050000,-0.050000,0.000000,0.000000,0.000000,0.000000,0.000000,0.000000,0.000000,0.100000,0.100000,-0.142247,-0.170151,-0.050000,-0.050000,0.423931,-0.403999,0.000000,0.000000,-0.017022,0.199756,0.263887,0.308690,-0.700186,0.472528,-0.146946,-0.095943,0.307707,-0.298036
-0.050000,-0.050000,0.000000,0.000000,0.000000,0.000000,0.000000,0.000000,0.000000,0.100000,0.100000,-0.147863,-0.172086,-0.050000,-0.050000,0.427983,-0.404293,0.000000,0.000000,-0.023038,0.198557,0.260552,0.303770,-0.690463,0.483842,-0.144760,-0.098176,0.303174,-0.297806
-0.050000,-0.050000,0.000000,0.000000,0.000000,0.000000,0.000000,0.000000,0.000000,0.100000,0.100000,-0.153864,-0.174526,-0.050000,-0.050000,0.432312,-0.404322,0.000000,0.000000,-0.029227,0.197704,0.257962,0.299411,-0.681415,0.495427,-0.142396,-0.100341,0.298261,-0.297063
-0.050000,-0.050000,0.000000,0.000000,0.000000,0.000000,0.000000,0.000000,0.000000,0.100000,0.100000,-0.160501,-0.178336,-0.050000,-0.050000,0.436920,-0.403678,0.000000,0.000000,-0.035332,0.197358,0.256722,0.296184,-0.674940,0.507389,-0.139922,-0.102564,0.292409,-0.295161
-0.050000,-0.050000,0.000000,0.000000,0.000000,0.000000,0.000000,0.000000,0.000000,0.100000,0.100000,-0.167203,-0.182502,-0.050000,-0.050000,0.441474,-0.402877,0.000000,0.000000,-0.041216,0.196968,0.255603,0.293116,-0.669405,0.519323,-0.137576,-0.104925,0.286365,-0.293063
-0.050000,-0.050000,0.000000,0.000000,0.000000,0.000000,0.000000,0.000000,0.000000,0.100000,0.100000,-0.174038,-0.187381,-0.050000,-0.050000,0.445916,-0.401759,0.000000,0.000000,-0.046654,0.196492,0.254727,0.290365,-0.665751,0.531201,-0.135483,-0.107558,0.279935,-0.290572
-0.050000,-0.050000,0.000000,0.000000,0.000000,0.000000,0.000000,0.000000,0.000000,0.100000,0.100000,-0.180789,-0.192719,-0.050000,-0.050000,0.450052,-0.400483,0.000000,0.000000,-0.051333,0.195523,0.253534,0.287552,-0.663986,0.542756,-0.133932,-0.110678,0.273448,-0.288155
-0.050000,-0.050000,0.000000,0.000000,0.000000,0.000000,0.000000,0.000000,0.000000,0.100000,0.100000,-0.187497,-0.198287,-0.050000,-0.050000,0.454035,-0.399129,0.000000,0.000000,-0.055631,0.194307,0.252183,0.284707,-0.663165,0.554150,-0.132650,-0.114041,0.266932,-0.285774
-0.050000,-0.050000,0.000000,0.000000,0.000000,0.000000,0.000000,0.000000,0.000000,0.100000,0.100000,-0.193870,-0.204177,-0.050000,-0.050000,0.457452,-0.397793,0.000000,0.000000,-0.058487,0.191875,0.249841,0.281422,-0.665036,0.564763,-0.132435,-0.118305,0.260903,-0.284243
-0.050000,-0.050000,0.000000,0.000000,0.000000,0.000000,0.000000,0.000000,0.000000,0.100000,0.100000,-0.200094,-0.210080,-0.050000,-0.050000,0.460708,-0.396549,0.000000,0.000000,-0.060822,0.188945,0.247130,0.277962,-0.667720,0.575044,-0.132586,-0.122853,0.255228,-0.283221
-0.050000,-0.050000,0.000000,0.000000,0.000000,0.000000,0.000000,0.000000,0.000000,0.100000,0.100000,-0.206023,-0.216012,-0.050000,-0.050000,0.463643,-0.395490,0.000000,0.000000,-0.062116,0.185019,0.243679,0.274152,-0.672030,0.584664,-0.133467,-0.127972,0.250261,-0.283216
-0.050000,-0.050000,0.000000,0.000000,0.000000,0.000000,0.000000,0.000000,0.000000,0.100000,0.100000,-0.211625,-0.221863,-0.050000,-0.050000,0.466426,-0.394786,0.000000,0.000000,-0.062394,0.180056,0.239635,0.270053,-0.677719,0.593500,-0.134960,-0.133498,0.246332,-0.284560
-0.050000,-0.050000,0.000000,0.000000,0.000000,0.000000,0.000000,0.000000,0.000000,0.100000,0.100000,-0.217063,-0.227675,-0.050000,-0.050000,0.469133,-0.394261,0.000000,0.000000,-0.062164,0.174575,0.235296,0.265809,-0.684097,0.601945,-0.136760,-0.139228,0.242922,-0.286579
-0.050000,-0.050000,0.000000,0.000000,0.000000,0.000000,0.000000,0.000000,0.000000,0.100000,0.100000,-0.221986,-0.233299,-0.050000,-0.050000,0.471964,-0.394510,0.000000,0.000000,-0.060539,0.167665,0.230494,0.261258,-0.692027,0.609015,-0.139179,-0.145203,0.241412,-0.290860
-0.050000,-0.050000,0.000000,0.000000,0.000000,0.000000,0.000000,0.000000,0.000000,0.100000,0.100000,-0.226727,-0.238849,-0.050000,-0.050000,0.474954,-0.395080,0.000000,0.000000,-0.058503,0.160365,0.225693,0.256607,-0.700256,0.615554,-0.141695,-0.151136,0.240584,-0.295872
-0.050000,-0.050000,0.000000,0.000000,0.000000,0.000000,0.000000,0.000000,0.000000,0.100000,0.100000,-0.231101,-0.244251,-0.050000,-0.050000,0.478264,-0.396292,0.000000,0.000000,-0.055643,0.152287,0.220895,0.251759,-0.709084,0.621029,-0.144407,-0.156984,0.241120,-0.302348
-0.050000,-0.050000,0.000000,0.000000,0.000000,0.000000,0.000000,0.000000,0.000000,0.100000,0.100000,-0.235070,-0.249465,-0.050000,-0.050000,0.482055,-0.398202,0.000000,0.000000,-0.052058,0.143650,0.216352,0.246609,-0.718026,0.625311,-0.147136,-0.162558,0.242980,-0.310056
-0.050000,-0.050000,0.000000,0.000000,0.000000,0.000000,0.000000,0.000000,0.000000,0.100000,0.100000,-0.238836,-0.254583,-0.050000,-0.050000,0.486089,-0.400460,0.000000,0.000000,-0.048110,0.134734,0.211937,0.241307,-0.727024,0.628997,-0.149874,-0.167996,0.245502,-0.318380
-0.050000,-0.050000,0.000000,0.000000,0.000000,0.000000,0.000000,0.000000,0.000000,0.100000,0.100000,-0.241917,-0.259286,-0.050000,-0.050000,0.490892,-0.403692,0.000000,0.000000,-0.043194,0.125329,0.208134,0.235266,-0.735497,0.630797,-0.152479,-0.172890,0.249769,-0.328000
-0.050000,-0.050000,0.000000,0.000000,0.000000,0.000000,0.000000,0.000000,0.000000,0.100000,0.100000,-0.244743,-0.263785,-0.050000,-0.050000,0.495888,-0.407164,0.000000,0.000000,-0.037993,0.115870,0.204558,0.228885,-0.743614,0.631989,-0.155024,-0.177608,0.254496,-0.337837
-0.050000,-0.050000,0.000000,0.000000,0.000000,0.000000,0.000000,0.000000,0.000000,0.100000,0.100000,-0.247061,-0.267876,-0.050000,-0.050000,0.501270,-0.411115,0.000000,0.000000,-0.032223,0.106303,0.201440,0.221826,-0.751017,0.631965,-0.157448,-0.181975,0.260142,-0.348108
-0.050000,-0.050000,0.000000,0.000000,0.000000,0.000000,0.000000,0.000000,0.000000,0.100000,0.100000,-0.248834,-0.271412,-0.050000,-0.050000,0.506770,-0.415262,0.000000,0.000000,-0.025977,0.096812,0.198751,0.214012,-0.757490,0.630889,-0.159782,-0.186076,0.266416,-0.358402
-0.050000,-0.050000,0.000000,0.000000,0.000000,0.000000,0.000000,0.000000,0.000000,0.100000,0.100000,-0.250333,-0.274672,-0.050000,-0.050000,0.512328,-0.419507,0.000000,0.000000,-0.019494,0.087359,0.196278,0.205821,-0.763499,0.629289,-0.162071,-0.190043,0.273005,-0.368706
-0.050000,-0.050000,0.000000,0.000000,0.000000,0.000000,0.000000,0.000000,0.000000,0.100000,0.100000,-0.250991,-0.276919,-0.050000,-0.050000,0.517525,-0.423512,0.000000,0.000000,-0.012502,0.078236,0.194356,0.196665,-0.768030,0.626528,-0.164309,-0.193783,0.280088,-0.378547
-0.050000,-0.050000,0.000000,0.000000,0.000000,0.000000,0.000000,0.000000,0.000000,0.100000,0.100000,-0.251371,-0.278797,-0.050000,-0.050000,0.522414,-0.427254,0.000000,0.000000,-0.005434,0.069274,0.192583,0.187346,-0.772107,0.623560,-0.166552,-0.197494,0.287197,-0.388127
-0.050000,-0.050000,0.000000,0.000000,0.000000,0.000000,0.000000,0.000000,0.000000,0.100000,0.100000,-0.251195,-0.279940,-0.050000,-0.050000,0.526687,-0.430469,0.000000,0.000000,0.001786,0.060635,0.191109,0.177703,-0.775276,0.620174,-0.168807,-0.201148,0.294358,-0.397188
-0.050000,-0.050000,0.000000,0.000000,0.000000,0.000000,0.000000,0.000000,0.000000,0.100000,0.100000,-0.250476,-0.280357,-0.050000,-0.050000,0.530024,-0.432843,0.000000,0.000000,0.008924,0.052388,0.189878,0.168218,-0.777703,0.616752,-0.171071,-0.204786,0.301331,-0.405645
-0.050000,-0.050000,0.000000,0.000000,0.000000,0.000000,0.000000,0.000000,0.000000,0.100000,0.100000,-0.249485,-0.280412,-0.050000,-0.050000,0.532894,-0.434796,0.000000,0.000000,0.016021,0.044337,0.188770,0.158811,-0.779760,0.613314,-0.173341,-0.208415,0.308211,-0.413801
-0.050000,-0.050000,0.000000,0.000000,0.000000,0.000000,0.000000,0.000000,0.000000,0.100000,0.100000,-0.247689,-0.279489,-0.050000,-0.050000,0.534048,-0.435179,0.000000,0.000000,0.022615,0.036951,0.187971,0.150473,-0.781012,0.610350,-0.175528,-0.211972,0.314535,-0.421092
-0.050000,-0.050000,0.000000,0.000000,0.000000,0.000000,0.000000,0.000000,0.000000,0.100000,0.100000,-0.245617,-0.278289,-0.050000,-0.050000,0.534595,-0.435002,0.000000,0.000000,0.028920,0.029810,0.187259,0.142753,-0.782099,0.607682,-0.177626,-0.215456,0.320612,-0.428143
-0.050000,-0.050000,0.000000,0.000000,0.000000,0.000000,0.000000,0.000000,0.000000,0.100000,0.100000,-0.242995,-0.276538,-0.050000,-0.050000,0.533928,-0.433705,0.000000,0.000000,0.034650,0.023158,0.186722,0.136268,-0.782856,0.605604,-0.179548,-0.218791,0.326193,-0.434711
-0.050000,-0.050000,0.000000,0.000000,0.000000,0.000000,0.000000,0.000000,0.000000,0.100000,0.100000,-0.239790,-0.274328,-0.050000,-0.050000,0.532122,-0.431343,0.000000,0.000000,0.039617,0.017050,0.186321,0.131423,-0.783455,0.604279,-0.181144,-0.221822,0.331216,-0.440905
-0.050000,-0.050000,0.000000,0.000000,0.000000,0.000000,0.000000,0.000000,0.000000,0.100000,0.100000,-0.236293,-0.271887,-0.050000,-0.050000,0.529746,-0.428449,0.000000,0.000000,0.044202,0.011215,0.185986,0.127397,-0.783977,0.603332,-0.182577,-0.224702,0.335959,-0.446912
-0.050000,-0.050000,0.000000,0.000000,0.000000,0.000000,0.000000,0.000000,0.000000,0.100000,0.100000,-0.231861,-0.268833,-0.050000,-0.050000,0.525947,-0.424184,0.000000,0.000000,0.047485,0.006303,0.185754,0.126172,-0.784451,0.603588,-0.183325,-0.226847,0.339844,-0.452455
-0.050000,-0.050000,0.000000,0.000000,0.000000,0.000000,0.000000,0.000000,0.000000,0.100000,0.100000,-0.228321,-0.266763,-0.050000,-0.050000,0.522020,-0.419297,0.000000,0.000000,0.050464,0.001498,0.185521,0.125979,-0.784835,0.604076,-0.183755,-0.228693,0.343648,-0.458157
-0.050000,-0.050000,0.000000,0.000000,0.000000,0.000000,0.000000,0.000000,0.000000,0.100000,0.100000,-0.226566,-0.266659,-0.050000,-0.050000,0.517836,-0.413163,0.000000,0.000000,0.052836,-0.003094,0.185290,0.127849,-0.785039,0.605028,-0.183552,-0.229939,0.347290,-0.464177
-0.050000,-0.050000,0.000000,0.000000,0.000000,0.000000,0.000000,0.000000,0.000000,0.100000,0.100000,-0.222529,-0.264676,-0.050000,-0.050000,0.513017,-0.406992,0.000000,0.000000,0.054202,-0.006548,0.185067,0.131832,-0.785466,0.606912,-0.182792,-0.230213,0.350103,-0.469122
-0.050000,-0.050000,0.000000,0.000000,0.000000,0.000000,0.000000,0.000000,0.000000,0.100000,0.100000,-0.217350,-0.261755,-0.050000,-0.050000,0.507881,-0.400802,0.000000,0.000000,0.055066,-0.009432,0.184848,0.136870,-0.786004,0.609262,-0.181754,-0.230000,0.352501,-0.473528
-0.050000,-0.050000,0.000000,0.000000,0.000000,0.000000,0.000000,0.000000,0.000000,0.100000,0.100000,-0.210408,-0.257172,-0.050000,-0.050000,0.502396,-0.394192,0.000000,0.000000,0.054910,-0.010775,0.184002,0.143966,-0.786604,0.612434,-0.180170,-0.228468,0.354136,-0.476764
-0.050000,-0.050000,0.000000,0.000000,0.000000,0.000000,0.000000,0.000000,0.000000,0.100000,0.100000,-0.203133,-0.252131,-0.050000,-0.050000,0.496902,-0.387476,0.000000,0.000000,0.054526,-0.011601,0.182934,0.151510,-0.787164,0.615708,-0.178465,-0.226470,0.355609,-0.479590
-0.050000,-0.050000,0.000000,0.000000,0.000000,0.000000,0.000000,0.000000,0.000000,0.100000,0.100000,-0.195192,-0.246175,-0.050000,-0.050000,0.491389,-0.380546,0.000000,0.000000,0.053684,-0.011396,0.181421,0.159952,-0.787643,0.619186,-0.176516,-0.223542,0.356761,-0.481593
-0.050000,-0.050000,0.000000,0.000000,0.000000,0.000000,0.000000,0.000000,0.000000,0.100000,0.100000,-0.186921,-0.239306,-0.050000,-0.050000,0.485938,-0.373484,0.000000,0.000000,0.052560,-0.010147,0.179523,0.168799,-0.787946,0.622590,-0.174500,-0.219773,0.357756,-0.482709
-0.050000,-0.050000,0.000000,0.000000,0.000000,0.000000,0.000000,0.000000,0.000000,0.100000,0.100000,-0.178485,-0.231980,-0.050000,-0.050000,0.480517,-0.366354,0.000000,0.000000,0.051295,-0.008377,0.177431,0.177850,-0.788160,0.625957,-0.172451,-0.215584,0.358672,-0.483382
-0.050000,-0.050000,0.000000,0.000000,0.000000,0.000000,0.000000,0.000000,0.000000,0.100000,0.100000,-0.170003,-0.223272,-0.050000,-0.050000,0.475166,-0.359142,0.000000,0.000000,0.049793,-0.005081,0.174988,0.186801,-0.788008,0.628859,-0.170543,-0.210448,0.359657,-0.482770
-0.050000,-0.050000,0.000000,0.000000,0.000000,0.000000,0.000000,0.000000,0.000000,0.100000,0.100000,-0.161646,-0.214136,-0.050000,-0.050000,0.469806,-0.351951,0.000000,0.000000,0.048245,-0.001309,0.172549,0.195526,-0.787726,0.631520,-0.168733,-0.205137,0.360788,-0.481805
-0.050000,-0.050000,0.000000,0.000000,0.000000,0.000000,0.000000,0.000000,0.000000,0.100000,0.100000,-0.153541,-0.204142,-0.050000,-0.050000,0.464426,-0.344803,0.000000,0.000000,0.046604,0.003416,0.170121,0.203800,-0.787181,0.633699,-0.167118,-0.199471,0.362209,-0.480134
-0.050000,-0.050000,0.000000,0.000000,0.000000,0.000000,0.000000,0.000000,0.000000,0.100000,0.100000,-0.145936,-0.193474,-0.050000,-0.050000,0.458963,-0.337830,0.000000,0.000000,0.044887,0.009001,0.168013,0.211391,-0.786432,0.635312,-0.165714,-0.193731,0.364169,-0.477990
-0.050000,-0.050000,0.000000,0.000000,0.000000,0.000000,0.000000,0.000000,0.000000,0.100000,0.100000,-0.138583,-0.182469,-0.050000,-0.050000,0.453458,-0.330945,0.000000,0.000000,0.043130,0.015015,0.166064,0.218639,-0.785579,0.636641,-0.164415,-0.187952,0.366400,-0.475610
-0.050000,-0.050000,0.000000,0.000000,0.000000,0.000000,0.000000,0.000000,0.000000,0.100000,0.100000,-0.132275,-0.170937,-0.050000,-0.050000,0.447795,-0.324586,0.000000,0.000000,0.041228,0.022165,0.165070,0.224792,-0.784635,0.637124,-0.163330,-0.182381,0.369725,-0.472878
-0.050000,-0.050000,0.000000,0.000000,0.000000,0.000000,0.000000,0.000000,0.000000,0.100000,0.100000,-0.126379,-0.159450,-0.050000,-0.050000,0.442105,-0.318507,0.000000,0.000000,0.039266,0.029644,0.164521,0.230642,-0.783777,0.637353,-0.162255,-0.176931,0.373447,-0.470111
-0.050000,-0.050000,0.000000,0.000000,0.000000,0.000000,0.000000,0.000000,0.000000,0.100000,0.100000,-0.121308,-0.148055,-0.050000,-0.050000,0.436361,-0.312987,0.000000,0.000000,0.037182,0.037782,0.164862,0.235885,-0.783088,0.637074,-0.161202,-0.171721,0.377963,-0.467272
-0.050000,-0.050000,0.000000,0.000000,0.000000,0.000000,0.000000,0.000000,0.000000,0.100000,0.100000,-0.117113,-0.137269,-0.050000,-0.050000,0.430694,-0.308241,0.000000,0.000000,0.034970,0.046501,0.166228,0.240757,-0.782856,0.636341,-0.160051,-0.166738,0.383169,-0.464400
-0.050000,-0.050000,0.000000,0.000000,0.000000,0.000000,0.000000,0.000000,0.000000,0.100000,0.100000,-0.113358,-0.126789,-0.050000,-0.050000,0.425064,-0.303881,0.000000,0.000000,0.032695,0.055511,0.168106,0.245445,-0.782853,0.635381,-0.158852,-0.161867,0.388719,-0.461511
-0.050000,-0.050000,0.000000,0.000000,0.000000,0.000000,0.000000,0.000000,0.000000,0.100000,0.100000,-0.107949,-0.115381,-0.050000,-0.050000,0.419165,-0.301614,0.000000,0.000000,0.029822,0.065164,0.170589,0.249539,-0.784014,0.633945,-0.157521,-0.157370,0.393914,-0.458429
-0.050000,-0.050000,0.000000,0.000000,0.000000,0.000000,0.000000,0.000000,0.000000,0.100000,0.100000,-0.103396,-0.105087,-0.050000,-0.050000,0.413637,-0.299694,0.000000,0.000000,0.026976,0.075174,0.173526,0.253603,-0.785541,0.632192,-0.156100,-0.152822,0.399406,-0.455185
-0.050000,-0.050000,0.000000,0.000000,0.000000,0.000000,0.000000,0.000000,0.000000,0.100000,0.100000,-0.100556,-0.097018,-0.050000,-0.050000,0.408851,-0.298466,0.000000,0.000000,0.024181,0.085898,0.177369,0.257604,-0.787799,0.629801,-0.154500,-0.148170,0.405492,-0.451619
-0.050000,-0.050000,0.000000,0.000000,0.000000,0.000000,0.000000,0.000000,0.000000,0.100000,0.100000,-0.098904,-0.091120,-0.050000,-0.050000,0.404880,-0.298229,0.000000,0.000000,0.021473,0.097128,0.181885,0.261749,-0.791016,0.626651,-0.152856,-0.143354,0.411446,-0.447615
-0.050000,-0.050000,0.000000,0.000000,0.000000,0.000000,0.000000,0.000000,0.000000,0.100000,0.100000,-0.097845,-0.086306,-0.050000,-0.050000,0.401316,-0.298487,0.000000,0.000000,0.018808,0.108613,0.186736,0.265968,-0.794711,0.623122,-0.151190,-0.138457,0.417333,-0.443393
-0.050000,-0.050000,0.000000,0.000000,0.000000,0.000000,0.000000,0.000000,0.000000,0.100000,0.100000,-0.098178,-0.084602,-0.050000,-0.050000,0.399194,-0.300217,0.000000,0.000000,0.016282,0.120928,0.192076,0.270344,-0.799845,0.618228,-0.149788,-0.133275,0.422303,-0.438203
-0.050000,-0.050000,0.000000,0.000000,0.000000,0.000000,0.000000,0.000000,0.000000,0.100000,0.100000,-0.098927,-0.083849,-0.050000,-0.050000,0.397630,-0.302360,0.000000,0.000000,0.013798,0.133541,0.197403,0.274690,-0.805379,0.612811,-0.148576,-0.128018,0.426813,-0.432623
-0.050000,-0.050000,0.000000,0.000000,0.000000,0.000000,0.000000,0.000000,0.000000,0.100000,0.100000,-0.100511,-0.084998,-0.050000,-0.050000,0.397182,-0.305330,0.000000,0.000000,0.011397,0.146752,0.202706,0.278974,-0.811710,0.606349,-0.147741,-0.122613,0.430403,-0.426265
-0.050000,-0.050000,0.000000,0.000000,0.000000,0.000000,0.000000,0.000000,0.000000,0.100000,0.100000,-0.102930,-0.087758,-0.050000,-0.050000,0.397978,-0.308896,0.000000,0.000000,0.009010,0.160580,0.207673,0.282966,-0.818563,0.598789,-0.147406,-0.117163,0.432888,-0.419082
-0.050000,-0.050000,0.000000,0.000000,0.000000,0.000000,0.000000,0.000000,0.000000,0.100000,0.100000,-0.105768,-0.091323,-0.050000,-0.050000,0.399397,-0.312759,0.000000,0.000000,0.006630,0.174716,0.212473,0.286812,-0.825677,0.590680,-0.147321,-0.111691,0.434822,-0.411488
-0.050000,-0.050000,0.000000,0.000000,0.000000,0.000000,0.000000,0.000000,0.000000,0.100000,0.100000,-0.109954,-0.096713,-0.050000,-0.050000,0.402843,-0.317141,0.000000,0.000000,0.004041,0.189724,0.216368,0.289850,-0.833042,0.581049,-0.147998,-0.106377,0.434944,-0.402701
-0.050000,-0.050000,0.000000,0.000000,0.000000,0.000000,0.000000,0.000000,0.000000,0.100000,0.100000,-0.114636,-0.102487,-0.050000,-0.050000,0.407009,-0.321587,0.000000,0.000000,0.001266,0.204964,0.219843,0.292501,-0.840286,0.571024,-0.148877,-0.101199,0.434427,-0.393557
-0.050000,-0.050000,0.000000,0.000000,0.000000,0.000000,0.000000,0.000000,0.000000,0.100000,0.100000,-0.120308,-0.109027,-0.050000,-0.050000,0.412615,-0.326160,0.000000,0.000000,-0.001879,0.220666,0.222478,0.294377,-0.847287,0.560214,-0.150160,-0.096297,0.432633,-0.383702
-0.050000,-0.050000,0.000000,0.000000,0.000000,0.000000,0.000000,0.000000,0.000000,0.100000,0.100000,-0.127058,-0.115886,-0.050000,-0.050000,0.419729,-0.330715,0.000000,0.000000,-0.005672,0.236607,0.224054,0.295254,-0.853585,0.548971,-0.151667,-0.091842,0.429506,-0.373259
-0.050000,-0.050000,0.000000,0.000000,0.000000,0.000000,0.000000,0.000000,0.000000,0.100000,0.100000,-0.134348,-0.122904,-0.050000,-0.050000,0.427597,-0.335262,0.000000,0.000000,-0.009789,0.252667,0.225099,0.295633,-0.859533,0.537511,-0.153288,-0.087611,0.425713,-0.362522
-0.050000,-0.050000,0.000000,0.000000,0.000000,0.000000,0.000000,0.000000,0.000000,0.100000,0.100000,-0.143322,-0.129803,-0.050000,-0.050000,0.437763,-0.339706,0.000000,0.000000,-0.015284,0.268592,0.224249,0.294170,-0.863698,0.526032,-0.154952,-0.084300,0.419866,-0.351155
-0.050000,-0.050000,0.000000,0.000000,0.000000,0.000000,0.000000,0.000000,0.000000,0.100000,0.100000,-0.152840,-0.136510,-0.050000,-0.050000,0.448665,-0.344132,0.000000,0.000000,-0.021342,0.284266,0.222687,0.291969,-0.867035,0.514758,-0.156553,-0.081373,0.413342,-0.339690
-0.050000,-0.050000,0.000000,0.000000,0.000000,0.000000,0.000000,0.000000,0.000000,0.100000,0.100000,-0.163448,-0.142833,-0.050000,-0.050000,0.461041,-0.348525,0.000000,0.000000,-0.028524,0.299438,0.219698,0.288290,-0.868714,0.503893,-0.158031,-0.079214,0.405465,-0.328026
-0.050000,-0.050000,0.000000,0.000000,0.000000,0.000000,0.000000,0.000000,0.000000,0.100000,0.100000,-0.175011,-0.148581,-0.050000,-0.050000,0.474705,-0.352977,0.000000,0.000000,-0.036909,0.313663,0.215211,0.282870,-0.868353,0.493811,-0.159319,-0.077954,0.396350,-0.316442
-0.050000,-0.050000,0.000000,0.000000,0.000000,0.000000,0.000000,0.000000,0.000000,0.100000,0.100000,-0.187050,-0.154042,-0.050000,-0.050000,0.489014,-0.357457,0.000000,0.000000,-0.045895,0.327415,0.209974,0.276580,-0.866973,0.484120,-0.160514,-0.077144,0.386615,-0.304898
-0.050000,-0.050000,0.000000,0.000000,0.000000,0.000000,0.000000,0.000000,0.000000,0.100000,0.100000,-0.200144,-0.158537,-0.050000,-0.050000,0.504734,-0.362163,0.000000,0.000000,-0.056551,0.339122,0.202596,0.267349,-0.862221,0.476041,-0.161483,-0.077821,0.375384,-0.293954
-0.050000,-0.050000,0.000000,0.000000,0.000000,0.000000,0.000000,0.000000,0.000000,0.100000,0.100000,-0.213405,-0.162729,-0.050000,-0.050000,0.520664,-0.366961,0.000000,0.000000,-0.067628,0.349990,0.194634,0.257095,-0.856365,0.468601,-0.162441,-0.079007,0.363839,-0.283378
-0.050000,-0.050000,0.000000,0.000000,0.000000,0.000000,0.000000,0.000000,0.000000,0.100000,0.100000,-0.227001,-0.166316,-0.050000,-0.050000,0.537013,-0.371941,0.000000,0.000000,-0.079544,0.359179,0.185503,0.244796,-0.848302,0.462441,-0.163375,-0.081211,0.351669,-0.273537
-0.050000,-0.050000,0.000000,0.000000,0.000000,0.000000,0.000000,0.000000,0.000000,0.100000,0.100000,-0.240463,-0.169419,-0.050000,-0.050000,0.553095,-0.377025,0.000000,0.000000,-0.091861,0.366530,0.175659,0.230602,-0.838371,0.457675,-0.164447,-0.084367,0.339345,-0.264735
-0.050000,-0.050000,0.000000,0.000000,0.000000,0.000000,0.000000,0.000000,0.000000,0.100000,0.100000,-0.253858,-0.172281,-0.050000,-0.050000,0.569044,-0.382162,0.000000,0.000000,-0.104379,0.372963,0.165458,0.215462,-0.827505,0.453608,-0.165588,-0.088000,0.326944,-0.256455
-0.050000,-0.050000,0.000000,0.000000,0.000000,0.000000,0.000000,0.000000,0.000000,0.100000,0.100000,-0.266233,-0.174676,-0.050000,-0.050000,0.583388,-0.387148,0.000000,0.000000,-0.116670,0.376688,0.155105,0.198156,-0.814785,0.451673,-0.167141,-0.092803,0.315096,-0.250102
-0.050000,-0.050000,0.000000,0.000000,0.000000,0.000000,0.000000,0.000000,0.000000,0.100000,0.100000,-0.277982,-0.177011,-0.050000,-0.050000,0.596773,-0.391927,0.000000,0.000000,-0.128587,0.379618,0.145040,0.180501,-0.801886,0.450411,-0.168859,-0.097860,0.303683,-0.244475
-0.050000,-0.050000,0.000000,0.000000,0.000000,0.000000,0.000000,0.000000,0.000000,0.100000,0.100000,-0.288477,-0.179225,-0.050000,-0.050000,0.608239,-0.396295,0.000000,0.000000,-0.139759,0.380962,0.135551,0.162145,-0.788628,0.450495,-0.170905,-0.103425,0.293141,-0.240296
-0.050000,-0.050000,0.000000,0.000000,0.000000,0.000000,0.000000,0.000000,0.000000,0.100000,0.100000,-0.297178,-0.181484,-0.050000,-0.050000,0.616985,-0.399893,0.000000,0.000000,-0.149638,0.381086,0.127260,0.144031,-0.776023,0.451739,-0.173229,-0.109160,0.283883,-0.237646
-0.050000,-0.050000,0.000000,0.000000,0.000000,0.000000,0.000000,0.000000,0.000000,0.100000,0.100000,-0.304983,-0.183766,-0.050000,-0.050000,0.624371,-0.403108,0.000000,0.000000,-0.158869,0.380600,0.119568,0.126038,-0.763745,0.453563,-0.175690,-0.114982,0.275266,-0.235759
-0.050000,-0.050000,0.000000,0.000000,0.000000,0.000000,0.000000,0.000000,0.000000,0.100000,0.100000,-0.309462,-0.186281,-0.050000,-0.050000,0.626717,-0.404682,0.000000,0.000000,-0.165533,0.378957,0.114312,0.109882,-0.753931,0.456696,-0.178353,-0.120542,0.268971,-0.236163
-0.050000,-0.050000,0.000000,0.000000,0.000000,0.000000,0.000000,0.000000,0.000000,0.100000,0.100000,-0.312720,-0.188880,-0.050000,-0.050000,0.627198,-0.405600,0.000000,0.000000,-0.171230,0.377151,0.109932,0.094759,-0.745330,0.460087,-0.180993,-0.125871,0.263488,-0.237295
-0.050000,-0.050000,0.000000,0.000000,0.000000,0.000000,0.000000,0.000000,0.000000,0.100000,0.100000,-0.313537,-0.191648,-0.050000,-0.050000,0.623952,-0.405204,0.000000,0.000000,-0.174996,0.375017,0.107307,0.081702,-0.739153,0.463994,-0.183590,-0.130738,0.259631,-0.239884
-0.050000,-0.050000,0.000000,0.000000,0.000000,0.000000,0.000000,0.000000,0.000000,0.100000,0.100000,-0.311948,-0.194484,-0.050000,-0.050000,0.616974,-0.403430,0.000000,0.000000,-0.176847,0.372922,0.106225,0.071261,-0.735801,0.468044,-0.185996,-0.134964,0.257285,-0.243792
-0.050000,-0.050000,0.000000,0.000000,0.000000,0.000000,0.000000,0.000000,0.000000,0.100000,0.100000,-0.309155,-0.197354,-0.050000,-0.050000,0.608130,-0.400968,0.000000,0.000000,-0.177742,0.370847,0.105914,0.062128,-0.733860,0.472166,-0.188307,-0.138869,0.255694,-0.248362
-0.050000,-0.050000,0.000000,0.000000,0.000000,0.000000,0.000000,0.000000,0.000000,0.100000,0.100000,-0.303214,-0.200021,-0.050000,-0.050000,0.594306,-0.396611,0.000000,0.000000,-0.176142,0.369192,0.107155,0.057205,-0.736022,0.475988,-0.190236,-0.141731,0.255946,-0.254612
-0.050000,-0.050000,0.000000,0.000000,0.000000,0.000000,0.000000,0.000000,0.000000,0.100000,0.100000,-0.296489,-0.202492,-0.050000,-0.050000,0.579225,-0.391765,0.000000,0.000000,-0.173926,0.367736,0.108569,0.053619,-0.739270,0.479566,-0.192049,-0.144264,0.256610,-0.261289
-0.050000,-0.050000,0.000000,0.000000,0.000000,0.000000,0.000000,0.000000,0.000000,0.100000,0.100000,-0.288195,-0.204570,-0.050000,-0.050000,0.561634,-0.385939,0.000000,0.000000,-0.170478,0.366679,0.110330,0.052706,-0.744689,0.482656,-0.193632,-0.146143,0.258097,-0.268820
-0.050000,-0.050000,0.000000,0.000000,0.000000,0.000000,0.000000,0.000000,0.000000,0.100000,0.100000,-0.278993,-0.206025,-0.050000,-0.050000,0.542649,-0.379558,0.000000,0.000000,-0.166324,0.366057,0.111733,0.054112,-0.751376,0.485007,-0.195072,-0.147439,0.259948,-0.276866
-0.050000,-0.050000,0.000000,0.000000,0.000000,0.000000,0.000000,0.000000,0.000000,0.100000,0.100000,-0.269337,-0.207168,-0.050000,-0.050000,0.522967,-0.372901,0.000000,0.000000,-0.161816,0.365652,0.112957,0.056677,-0.758697,0.486989,-0.196441,-0.148444,0.261979,-0.285169
-0.050000,-0.050000,0.000000,0.000000,0.000000,0.000000,0.000000,0.000000,0.000000,0.100000,0.100000,-0.259353,-0.207187,-0.050000,-0.050000,0.503115,-0.366183,0.000000,0.000000,-0.157029,0.365935,0.112799,0.062083,-0.766403,0.487488,-0.197756,-0.148617,0.263884,-0.293629
-0.050000,-0.050000,0.000000,0.000000,0.000000,0.000000,0.000000,0.000000,0.000000,0.100000,0.100000,-0.249576,-0.206847,-0.050000,-0.050000,0.483839,-0.359713,0.000000,0.000000,-0.152368,0.366486,0.112026,0.068246,-0.773797,0.487354,-0.199102,-0.148482,0.265565,-0.301904
-0.050000,-0.050000,0.000000,0.000000,0.000000,0.000000,0.000000,0.000000,0.000000,0.100000,0.100000,-0.240215,-0.205789,-0.050000,-0.050000,0.465714,-0.353738,0.000000,0.000000,-0.147961,0.367571,0.110021,0.075924,-0.780566,0.485952,-0.200507,-0.147729,0.266799,-0.309810
-0.050000,-0.050000,0.000000,0.000000,0.000000,0.000000,0.000000,0.000000,0.000000,0.100000,0.100000,-0.231805,-0.204207,-0.050000,-0.050000,0.449833,-0.348735,0.000000,0.000000,-0.144130,0.369359,0.106768,0.084846,-0.786131,0.482977,-0.202043,-0.146210,0.267358,-0.316836
-0.050000,-0.050000,0.000000,0.000000,0.000000,0.000000,0.000000,0.000000,0.000000,0.100000,0.100000,-0.223870,-0.202363,-0.050000,-0.050000,0.435075,-0.344218,0.000000,0.000000,-0.140587,0.371498,0.102891,0.094391,-0.791094,0.479216,-0.203644,-0.144307,0.267581,-0.323422
-0.050000,-0.050000,0.000000,0.000000,0.000000,0.000000,0.000000,0.000000,0.000000,0.100000,0.100000,-0.217987,-0.200198,-0.050000,-0.050000,0.424899,-0.341664,0.000000,0.000000,-0.138232,0.375068,0.097492,0.105546,-0.793893,0.472678,-0.205516,-0.140997,0.266688,-0.327930
-0.050000,-0.050000,0.000000,0.000000,0.000000,0.000000,0.000000,0.000000,0.000000,0.100000,0.100000,-0.212932,-0.198097,-0.050000,-0.050000,0.416492,-0.339832,0.000000,0.000000,-0.136349,0.379255,0.091776,0.117165,-0.795978,0.465134,-0.207485,-0.137170,0.265456,-0.331527
-0.050000,-0.050000,0.000000,0.000000,0.000000,0.000000,0.000000,0.000000,0.000000,0.100000,0.100000,-0.209537,-0.196125,-0.050000,-0.050000,0.411624,-0.339445,0.000000,0.000000,-0.135411,0.384675,0.085423,0.129711,-0.796634,0.455576,-0.209652,-0.132310,0.263545,-0.333298
-0.050000,-0.050000,0.000000,0.000000,0.000000,0.000000,0.000000,0.000000,0.000000,0.100000,0.100000,-0.207952,-0.194570,-0.050000,-0.050000,0.410473,-0.340410,0.000000,0.000000,-0.135572,0.391546,0.078823,0.142971,-0.795952,0.444054,-0.211971,-0.126491,0.261088,-0.332934
-0.050000,-0.050000,0.000000,0.000000,0.000000,0.000000,0.000000,0.000000,0.000000,0.100000,0.100000,-0.207273,-0.193224,-0.050000,-0.050000,0.411180,-0.342051,0.000000,0.000000,-0.136283,0.399143,0.072098,0.156587,-0.794602,0.431551,-0.214367,-0.120191,0.258359,-0.331503
-0.050000,-0.050000,0.000000,0.000000,0.000000,0.000000,0.000000,0.000000,0.000000,0.100000,0.100000,-0.209306,-0.192748,-0.050000,-0.050000,0.417355,-0.345270,0.000000,0.000000,-0.138944,0.409006,0.065424,0.170740,-0.791236,0.416581,-0.216782,-0.112877,0.254970,-0.326692
-0.050000,-0.050000,0.000000,0.000000,0.000000,0.000000,0.000000,0.000000,0.000000,0.100000,0.100000,-0.212157,-0.192567,-0.050000,-0.050000,0.425229,-0.348798,0.000000,0.000000,-0.142385,0.419537,0.058820,0.184811,-0.787086,0.401087,-0.219074,-0.105456,0.251355,-0.320811
-0.050000,-0.050000,0.000000,0.000000,0.000000,0.000000,0.000000,0.000000,0.000000,0.100000,0.100000,-0.216646,-0.192973,-0.050000,-0.050000,0.436500,-0.352941,0.000000,0.000000,-0.147386,0.431405,0.052358,0.198720,-0.781369,0.384544,-0.221119,-0.097821,0.247287,-0.312789
-0.050000,-0.050000,0.000000,0.000000,0.000000,0.000000,0.000000,0.000000,0.000000,0.100000,0.100000,-0.222438,-0.193834,-0.050000,-0.050000,0.450790,-0.357225,0.000000,0.000000,-0.154219,0.444176,0.045984,0.211818,-0.773644,0.367753,-0.222567,-0.090521,0.242577,-0.302962
-0.050000,-0.050000,0.000000,0.000000,0.000000,0.000000,0.000000,0.000000,0.000000,0.100000,0.100000,-0.228883,-0.194922,-0.050000,-0.050000,0.466589,-0.361579,0.000000,0.000000,-0.161969,0.457399,0.039652,0.224511,-0.764916,0.350838,-0.223717,-0.083390,0.237545,-0.292233
-0.050000,-0.050000,0.000000,0.000000,0.000000,0.000000,0.000000,0.000000,0.000000,0.100000,0.100000,-0.236589,-0.196362,-0.050000,-0.050000,0.486160,-0.365518,0.000000,0.000000,-0.172746,0.471006,0.033225,0.234957,-0.752349,0.334889,-0.223432,-0.077534,0.231009,-0.279562
-0.050000,-0.050000,0.000000,0.000000,0.000000,0.000000,0.000000,0.000000,0.000000,0.100000,0.100000,-0.244440,-0.197804,-0.050000,-0.050000,0.506655,-0.369171,0.000000,0.000000,-0.184517,0.484361,0.026695,0.244349,-0.738273,0.319679,-0.222550,-0.072292,0.223751,-0.266541
-0.050000,-0.050000,0.000000,0.000000,0.000000,0.000000,0.000000,0.000000,0.000000,0.100000,0.100000,-0.252584,-0.199252,-0.050000,-0.050000,0.528997,-0.372253,0.000000,0.000000,-0.198277,0.497215,0.019962,0.251633,-0.721175,0.305944,-0.220472,-0.068277,0.215050,-0.252822
-0.050000,-0.050000,0.000000,0.000000,0.000000,0.000000,0.000000,0.000000,0.000000,0.100000,0.100000,-0.260431,-0.200545,-0.050000,-0.050000,0.552307,-0.374604,0.000000,0.000000,-0.213661,0.508832,0.012999,0.256402,-0.700904,0.294319,-0.217201,-0.065666,0.204541,-0.238991
-0.050000,-0.050000,0.000000,0.000000,0.000000,0.000000,0.000000,0.000000,0.000000,0.100000,0.100000,-0.268129,-0.201761,-0.050000,-0.050000,0.576102,-0.376588,0.000000,0.000000,-0.229857,0.519830,0.005921,0.259913,-0.679045,0.283749,-0.213333,-0.063758,0.193128,-0.225106
-0.050000,-0.050000,0.000000,0.000000,0.000000,0.000000,0.000000,0.000000,0.000000,0.100000,0.100000,-0.274486,-0.202680,-0.050000,-0.050000,0.599676,-0.377396,0.000000,0.000000,-0.247348,0.528098,-0.001256,0.259491,-0.652912,0.276847,-0.208131,-0.063913,0.178876,-0.211835
-0.050000,-0.050000,0.000000,0.000000,0.000000,0.000000,0.000000,0.000000,0.000000,0.100000,0.100000,-0.280100,-0.203537,-0.050000,-0.050000,0.622524,-0.377817,0.000000,0.000000,-0.264714,0.535279,-0.008287,0.257878,-0.625785,0.271172,-0.202756,-0.064656,0.163863,-0.198984
-0.050000,-0.050000,0.000000,0.000000,0.000000,0.000000,0.000000,0.000000,0.000000,0.100000,0.100000,-0.284226,-0.204272,-0.050000,-0.050000,0.643921,-0.377466,0.000000,0.000000,-0.281828,0.540286,-0.015026,0.253883,-0.596669,0.267951,-0.197036,-0.066575,0.147329,-0.186976
-0.050000,-0.050000,0.000000,0.000000,0.000000,0.000000,0.000000,0.000000,0.000000,0.100000,0.100000,-0.286306,-0.205037,-0.050000,-0.050000,0.662504,-0.376388,0.000000,0.000000,-0.297374,0.543021,-0.020977,0.248072,-0.566878,0.266911,-0.191585,-0.069356,0.130164,-0.176166
