RRGGZZ/g1_deploy_sonic/data/example_scalelab/qwen_50fps_waist/case_test11_waist/joint_pos.csv
joint_0,joint_1,joint_2,joint_3,joint_4,joint_5,joint_6,joint_7,joint_8,joint_9,joint_10,joint_11,joint_12,joint_13,joint_14,joint_15,joint_16,joint_17,joint_18,joint_19,joint_20,joint_21,joint_22,joint_23,joint_24,joint_25,joint_26,joint_27,joint_28
-0.050000,-0.050000,-0.044194,0.000000,0.000000,-0.032809,0.000000,0.000000,0.274419,0.100000,0.100000,-0.198687,-0.487591,-0.050000,-0.050000,0.401941,-0.713280,0.000000,0.000000,-0.491022,0.252428,1.121257,-0.100277,0.153893,-0.356202,-0.092067,-0.086943,0.019873,-0.579837
-0.050000,-0.050000,-0.042562,0.000000,0.000000,-0.028525,0.000000,0.000000,0.279446,0.100000,0.100000,-0.205108,-0.491844,-0.050000,-0.050000,0.389927,-0.720702,0.000000,0.000000,-0.491210,0.254855,1.141457,-0.094366,0.156382,-0.352858,-0.103801,-0.091792,0.022665,-0.574315
-0.050000,-0.050000,-0.042246,0.000000,0.000000,-0.025297,0.000000,0.000000,0.282051,0.100000,0.100000,-0.206401,-0.492071,-0.050000,-0.050000,0.382916,-0.726357,0.000000,0.000000,-0.489696,0.253851,1.152057,-0.093152,0.159399,-0.349054,-0.109482,-0.095288,0.022800,-0.564251
-0.050000,-0.050000,-0.042331,0.000000,0.000000,-0.022693,0.000000,0.000000,0.283008,0.100000,0.100000,-0.204712,-0.489807,-0.050000,-0.050000,0.378087,-0.731180,0.000000,0.000000,-0.487406,0.250704,1.158526,-0.094268,0.162405,-0.345028,-0.111981,-0.097692,0.021585,-0.552453
-0.050000,-0.050000,-0.042457,0.000000,0.000000,-0.020426,0.000000,0.000000,0.283078,0.100000,0.100000,-0.201470,-0.485983,-0.050000,-0.050000,0.374259,-0.735597,0.000000,0.000000,-0.484899,0.246391,1.163072,-0.096675,0.165366,-0.340902,-0.112936,-0.099433,0.019740,-0.539876
-0.050000,-0.050000,-0.042605,0.000000,0.000000,-0.018110,0.000000,0.000000,0.282732,0.100000,0.100000,-0.196979,-0.481087,-0.050000,-0.050000,0.370819,-0.739918,0.000000,0.000000,-0.481647,0.240251,1.167117,-0.099395,0.168014,-0.336389,-0.112731,-0.100467,0.017576,-0.527897
-0.050000,-0.050000,-0.042681,0.000000,0.000000,-0.015800,0.000000,0.000000,0.282181,0.100000,0.100000,-0.192044,-0.475520,-0.050000,-0.050000,0.367593,-0.744139,0.000000,0.000000,-0.478235,0.233225,1.170790,-0.102361,0.170483,-0.331688,-0.111999,-0.101110,0.015321,-0.516528
-0.050000,-0.050000,-0.042728,0.000000,0.000000,-0.013360,0.000000,0.000000,0.281590,0.100000,0.100000,-0.186698,-0.469498,-0.050000,-0.050000,0.364463,-0.748256,0.000000,0.000000,-0.474356,0.224926,1.174461,-0.105116,0.172578,-0.326695,-0.110764,-0.101281,0.013077,-0.506576
-0.050000,-0.050000,-0.042740,0.000000,0.000000,-0.010786,0.000000,0.000000,0.281074,0.100000,0.100000,-0.181197,-0.463155,-0.050000,-0.050000,0.361441,-0.752130,0.000000,0.000000,-0.470078,0.215424,1.178088,-0.107432,0.174197,-0.321419,-0.109173,-0.100990,0.010988,-0.498769
-0.050000,-0.050000,-0.042680,0.000000,0.000000,-0.008171,0.000000,0.000000,0.280634,0.100000,0.100000,-0.175671,-0.456605,-0.050000,-0.050000,0.358521,-0.755841,0.000000,0.000000,-0.465661,0.205257,1.181667,-0.109446,0.175513,-0.316006,-0.107360,-0.100471,0.008995,-0.492413
-0.050000,-0.050000,-0.042630,0.000000,0.000000,-0.005370,0.000000,0.000000,0.280430,0.100000,0.100000,-0.170225,-0.449874,-0.050000,-0.050000,0.355771,-0.758931,0.000000,0.000000,-0.460746,0.193626,1.185079,-0.110441,0.176059,-0.310266,-0.105331,-0.099382,0.007434,-0.489823
-0.050000,-0.050000,-0.042476,0.000000,0.000000,-0.002604,0.000000,0.000000,0.280392,0.100000,0.100000,-0.164985,-0.443029,-0.050000,-0.050000,0.353225,-0.761660,0.000000,0.000000,-0.455882,0.181593,1.188291,-0.110865,0.176243,-0.304477,-0.103230,-0.098172,0.006107,-0.489302
-0.050000,-0.050000,-0.042289,0.000000,0.000000,0.000207,0.000000,0.000000,0.280567,0.100000,0.100000,-0.160001,-0.436091,-0.050000,-0.050000,0.350890,-0.763750,0.000000,0.000000,-0.450908,0.168825,1.191208,-0.110327,0.175870,-0.298559,-0.101114,-0.096693,0.005194,-0.491805
-0.050000,-0.050000,-0.042041,0.000000,0.000000,0.002982,0.000000,0.000000,0.280965,0.100000,0.100000,-0.155423,-0.429025,-0.050000,-0.050000,0.348816,-0.765122,0.000000,0.000000,-0.446066,0.155702,1.193716,-0.108706,0.175018,-0.292597,-0.099090,-0.095036,0.004749,-0.497223
-0.050000,-0.050000,-0.041715,0.000000,0.000000,0.005678,0.000000,0.000000,0.281512,0.100000,0.100000,-0.151098,-0.421958,-0.050000,-0.050000,0.346966,-0.766014,0.000000,0.000000,-0.441374,0.142455,1.195973,-0.106285,0.173844,-0.286647,-0.097113,-0.093393,0.004598,-0.504590
-0.050000,-0.050000,-0.041377,0.000000,0.000000,0.008301,0.000000,0.000000,0.282285,0.100000,0.100000,-0.147459,-0.414618,-0.050000,-0.050000,0.345396,-0.765871,0.000000,0.000000,-0.437105,0.129269,1.197583,-0.102208,0.172232,-0.280676,-0.095416,-0.091519,0.005095,-0.515024
-0.050000,-0.050000,-0.040946,0.000000,0.000000,0.010763,0.000000,0.000000,0.283155,0.100000,0.100000,-0.144150,-0.407277,-0.050000,-0.050000,0.344072,-0.765232,0.000000,0.000000,-0.433245,0.116454,1.198920,-0.097083,0.170423,-0.274766,-0.093823,-0.089771,0.005869,-0.526866
-0.050000,-0.050000,-0.040499,0.000000,0.000000,0.013089,0.000000,0.000000,0.284128,0.100000,0.100000,-0.141405,-0.399757,-0.050000,-0.050000,0.342961,-0.763858,0.000000,0.000000,-0.429949,0.104223,1.199793,-0.090472,0.168438,-0.268852,-0.092454,-0.088005,0.007034,-0.540204
-0.050000,-0.050000,-0.040026,0.000000,0.000000,0.015232,0.000000,0.000000,0.285143,0.100000,0.100000,-0.139250,-0.392040,-0.050000,-0.050000,0.342051,-0.761853,0.000000,0.000000,-0.427407,0.092986,1.200253,-0.082265,0.166411,-0.262894,-0.091276,-0.086282,0.008455,-0.554229
-0.050000,-0.050000,-0.039531,0.000000,0.000000,0.017241,0.000000,0.000000,0.286154,0.100000,0.100000,-0.137416,-0.384372,-0.050000,-0.050000,0.341286,-0.759446,0.000000,0.000000,-0.425343,0.082454,1.200481,-0.072873,0.164333,-0.256872,-0.090205,-0.084712,0.010026,-0.568679
-0.050000,-0.050000,-0.039070,0.000000,0.000000,0.019029,0.000000,0.000000,0.287148,0.100000,0.100000,-0.136516,-0.376242,-0.050000,-0.050000,0.340665,-0.756369,0.000000,0.000000,-0.424523,0.073858,1.200145,-0.061342,0.162458,-0.250588,-0.089362,-0.083102,0.011654,-0.582419
-0.050000,-0.050000,-0.038609,0.000000,0.000000,0.020690,0.000000,0.000000,0.288054,0.100000,0.100000,-0.135939,-0.368262,-0.050000,-0.050000,0.340142,-0.753039,0.000000,0.000000,-0.424307,0.066355,1.199604,-0.048518,0.160641,-0.244054,-0.088569,-0.081709,0.013221,-0.595569
-0.050000,-0.050000,-0.038199,0.000000,0.000000,0.022199,0.000000,0.000000,0.288892,0.100000,0.100000,-0.136066,-0.360110,-0.050000,-0.050000,0.339689,-0.749351,0.000000,0.000000,-0.425100,0.060686,1.198635,-0.034030,0.159054,-0.237117,-0.087895,-0.080412,0.014622,-0.607265
-0.050000,-0.050000,-0.037840,0.000000,0.000000,0.023590,0.000000,0.000000,0.289636,0.100000,0.100000,-0.136861,-0.351932,-0.050000,-0.050000,0.339289,-0.745439,0.000000,0.000000,-0.426882,0.056958,1.197214,-0.018063,0.157711,-0.229671,-0.087310,-0.079297,0.015746,-0.617014
-0.050000,-0.050000,-0.037554,0.000000,0.000000,0.024924,0.000000,0.000000,0.290298,0.100000,0.100000,-0.138023,-0.343947,-0.050000,-0.050000,0.338909,-0.741410,0.000000,0.000000,-0.429234,0.054521,1.195498,-0.001007,0.156495,-0.221819,-0.086753,-0.078382,0.016659,-0.625381
-0.050000,-0.050000,-0.037342,0.000000,0.000000,0.026171,0.000000,0.000000,0.290910,0.100000,0.100000,-0.140251,-0.335784,-0.050000,-0.050000,0.338561,-0.737217,0.000000,0.000000,-0.432940,0.054932,1.192943,0.017352,0.155688,-0.213308,-0.086395,-0.077713,0.017169,-0.630490
-0.050000,-0.050000,-0.037240,0.000000,0.000000,0.027433,0.000000,0.000000,0.291458,0.100000,0.100000,-0.142802,-0.327972,-0.050000,-0.050000,0.338210,-0.733039,0.000000,0.000000,-0.437069,0.056629,1.189974,0.036414,0.154980,-0.204422,-0.086077,-0.077329,0.017487,-0.633911
-0.050000,-0.050000,-0.037243,0.000000,0.000000,0.028705,0.000000,0.000000,0.292007,0.100000,0.100000,-0.146107,-0.320227,-0.050000,-0.050000,0.337860,-0.728845,0.000000,0.000000,-0.442008,0.060460,1.186231,0.056042,0.154535,-0.195169,-0.085952,-0.077274,0.017617,-0.634780
-0.050000,-0.050000,-0.037375,0.000000,0.000000,0.030041,0.000000,0.000000,0.292564,0.100000,0.100000,-0.150020,-0.312673,-0.050000,-0.050000,0.337505,-0.724727,0.000000,0.000000,-0.447477,0.066133,1.181720,0.075878,0.154276,-0.185795,-0.086042,-0.077631,0.017760,-0.633408
-0.050000,-0.050000,-0.037655,0.000000,0.000000,0.031445,0.000000,0.000000,0.293141,0.100000,0.100000,-0.154270,-0.305349,-0.050000,-0.050000,0.337109,-0.720635,0.000000,0.000000,-0.453191,0.073020,1.176682,0.095858,0.154127,-0.176382,-0.086256,-0.078254,0.017928,-0.630500
-0.050000,-0.050000,-0.038063,0.000000,0.000000,0.032961,0.000000,0.000000,0.293765,0.100000,0.100000,-0.159335,-0.298070,-0.050000,-0.050000,0.336715,-0.716707,0.000000,0.000000,-0.459367,0.082177,1.170623,0.115537,0.154212,-0.167400,-0.086895,-0.079474,0.018556,-0.625163
-0.050000,-0.050000,-0.038663,0.000000,0.000000,0.034578,0.000000,0.000000,0.294404,0.100000,0.100000,-0.164562,-0.291043,-0.050000,-0.050000,0.336235,-0.712817,0.000000,0.000000,-0.465464,0.092287,1.164156,0.135214,0.154357,-0.158777,-0.087674,-0.080946,0.019500,-0.618695
-0.050000,-0.050000,-0.039412,0.000000,0.000000,0.036302,0.000000,0.000000,0.295052,0.100000,0.100000,-0.170221,-0.284133,-0.050000,-0.050000,0.335701,-0.709014,0.000000,0.000000,-0.471569,0.103933,1.157097,0.154753,0.154631,-0.150857,-0.088760,-0.082811,0.021053,-0.610738
-0.050000,-0.050000,-0.040321,0.000000,0.000000,0.038118,0.000000,0.000000,0.295654,0.100000,0.100000,-0.176080,-0.277435,-0.050000,-0.050000,0.335066,-0.705225,0.000000,0.000000,-0.477451,0.116839,1.149761,0.174616,0.154970,-0.143720,-0.090035,-0.084872,0.023232,-0.601539
-0.050000,-0.050000,-0.041401,0.000000,0.000000,0.040004,0.000000,0.000000,0.296216,0.100000,0.100000,-0.182024,-0.271009,-0.050000,-0.050000,0.334313,-0.701352,0.000000,0.000000,-0.483100,0.130667,1.142280,0.194817,0.155366,-0.137180,-0.091445,-0.087068,0.025868,-0.591497
-0.050000,-0.050000,-0.042538,0.000000,0.000000,0.041938,0.000000,0.000000,0.296595,0.100000,0.100000,-0.188088,-0.264929,-0.050000,-0.050000,0.333425,-0.697337,0.000000,0.000000,-0.488368,0.146095,1.134960,0.216635,0.155760,-0.131575,-0.092890,-0.089038,0.029139,-0.579736
-0.050000,-0.050000,-0.043821,0.000000,0.000000,0.043893,0.000000,0.000000,0.296838,0.100000,0.100000,-0.194046,-0.259456,-0.050000,-0.050000,0.332365,-0.693016,0.000000,0.000000,-0.493313,0.162444,1.127918,0.239899,0.156144,-0.126375,-0.094288,-0.090803,0.032613,-0.566958
-0.050000,-0.050000,-0.045118,0.000000,0.000000,0.045842,0.000000,0.000000,0.296856,0.100000,0.100000,-0.199908,-0.254657,-0.050000,-0.050000,0.331137,-0.688255,0.000000,0.000000,-0.497888,0.180115,1.121439,0.265735,0.156450,-0.121610,-0.095484,-0.091933,0.036168,-0.552435
-0.050000,-0.050000,-0.046382,0.000000,0.000000,0.047762,0.000000,0.000000,0.296618,0.100000,0.100000,-0.205539,-0.250830,-0.050000,-0.050000,0.329713,-0.682833,0.000000,0.000000,-0.502160,0.199043,1.115755,0.294845,0.156616,-0.116923,-0.096318,-0.092125,0.039366,-0.535869
-0.050000,-0.050000,-0.047691,0.000000,0.000000,0.049644,0.000000,0.000000,0.296193,0.100000,0.100000,-0.211017,-0.247978,-0.050000,-0.050000,0.328158,-0.676753,0.000000,0.000000,-0.506147,0.218955,1.110663,0.326544,0.156664,-0.112321,-0.096900,-0.091715,0.042244,-0.517754
-0.050000,-0.050000,-0.048693,0.000000,0.000000,0.051477,0.000000,0.000000,0.295436,0.100000,0.100000,-0.216034,-0.246440,-0.050000,-0.050000,0.326368,-0.669501,0.000000,0.000000,-0.509936,0.240340,1.106929,0.363399,0.156384,-0.107374,-0.096712,-0.089357,0.043840,-0.496171
-0.050000,-0.050000,-0.049676,0.000000,0.000000,0.053255,0.000000,0.000000,0.294496,0.100000,0.100000,-0.220820,-0.246193,-0.050000,-0.050000,0.324498,-0.661289,0.000000,0.000000,-0.513515,0.262558,1.103895,0.403173,0.155880,-0.102344,-0.096170,-0.086205,0.044630,-0.472638
-0.050000,-0.050000,-0.050384,0.000000,0.000000,0.054998,0.000000,0.000000,0.293354,0.100000,0.100000,-0.225142,-0.247182,-0.050000,-0.050000,0.322492,-0.651783,0.000000,0.000000,-0.516924,0.285695,1.101974,0.446947,0.155016,-0.097135,-0.094978,-0.081436,0.043999,-0.446093
-0.050000,-0.050000,-0.050847,0.000000,0.000000,0.056715,0.000000,0.000000,0.292064,0.100000,0.100000,-0.228977,-0.249368,-0.050000,-0.050000,0.320431,-0.641031,0.000000,0.000000,-0.520134,0.309355,1.100964,0.493552,0.153756,-0.091984,-0.093288,-0.075462,0.042031,-0.417048
-0.050000,-0.050000,-0.051183,0.000000,0.000000,0.058405,0.000000,0.000000,0.290696,0.100000,0.100000,-0.232487,-0.252302,-0.050000,-0.050000,0.318373,-0.629137,0.000000,0.000000,-0.523139,0.333189,1.100566,0.542068,0.152195,-0.087217,-0.091264,-0.068637,0.039088,-0.386184
-0.050000,-0.050000,-0.051066,0.000000,0.000000,0.060130,0.000000,0.000000,0.289253,0.100000,0.100000,-0.235120,-0.256112,-0.050000,-0.050000,0.316324,-0.616081,0.000000,0.000000,-0.525793,0.356857,1.101116,0.591569,0.150022,-0.082972,-0.088817,-0.060839,0.034709,-0.353322
-0.050000,-0.050000,-0.050843,0.000000,0.000000,0.061847,0.000000,0.000000,0.287798,0.100000,0.100000,-0.237360,-0.260107,-0.050000,-0.050000,0.314386,-0.602223,0.000000,0.000000,-0.528123,0.379989,1.101985,0.640710,0.147492,-0.079587,-0.086304,-0.052809,0.029767,-0.319844
-0.050000,-0.050000,-0.050314,0.000000,0.000000,0.063605,0.000000,0.000000,0.286350,0.100000,0.100000,-0.238797,-0.264247,-0.050000,-0.050000,0.312580,-0.587807,0.000000,0.000000,-0.529950,0.402197,1.103294,0.687970,0.144389,-0.077166,-0.083768,-0.044849,0.024250,-0.286336
-0.050000,-0.050000,-0.049604,0.000000,0.000000,0.065386,0.000000,0.000000,0.284916,0.100000,0.100000,-0.239499,-0.268210,-0.050000,-0.050000,0.310990,-0.573286,0.000000,0.000000,-0.531164,0.423119,1.104761,0.731646,0.140716,-0.075700,-0.081451,-0.037583,0.018700,-0.254065
-0.050000,-0.050000,-0.048747,0.000000,0.000000,0.067200,0.000000,0.000000,0.283500,0.100000,0.100000,-0.239657,-0.271595,-0.050000,-0.050000,0.309554,-0.558766,0.000000,0.000000,-0.531955,0.442902,1.106297,0.772195,0.136636,-0.075092,-0.079336,-0.030734,0.013208,-0.222926
-0.050000,-0.050000,-0.047720,0.000000,0.000000,0.069017,0.000000,0.000000,0.282048,0.100000,0.100000,-0.238735,-0.274971,-0.050000,-0.050000,0.308509,-0.545151,0.000000,0.000000,-0.531728,0.460660,1.107799,0.805203,0.131718,-0.074858,-0.077788,-0.025960,0.008435,-0.195614
-0.050000,-0.050000,-0.046639,0.000000,0.000000,0.070857,0.000000,0.000000,0.280597,0.100000,0.100000,-0.237337,-0.277489,-0.050000,-0.050000,0.307658,-0.532235,0.000000,0.000000,-0.531045,0.477150,1.109198,0.833466,0.126418,-0.074840,-0.076602,-0.021881,0.004133,-0.170606
-0.050000,-0.050000,-0.045497,0.000000,0.000000,0.072673,0.000000,0.000000,0.279040,0.100000,0.100000,-0.235122,-0.279922,-0.050000,-0.050000,0.307165,-0.520629,0.000000,0.000000,-0.529552,0.491800,1.110472,0.854210,0.120489,-0.074407,-0.075960,-0.019668,0.000701,-0.149673
-0.050000,-0.050000,-0.044369,0.000000,0.000000,0.074450,0.000000,0.000000,0.277380,0.100000,0.100000,-0.232340,-0.282133,-0.050000,-0.050000,0.306989,-0.510438,0.000000,0.000000,-0.527458,0.504842,1.111650,0.868080,0.114148,-0.073143,-0.075756,-0.018816,-0.002008,-0.132397
-0.050000,-0.050000,-0.043228,0.000000,0.000000,0.076219,0.000000,0.000000,0.275641,0.100000,0.100000,-0.229172,-0.284016,-0.050000,-0.050000,0.307013,-0.501452,0.000000,0.000000,-0.524963,0.516709,1.112762,0.876625,0.107525,-0.071106,-0.075871,-0.018755,-0.004193,-0.117825
-0.050000,-0.050000,-0.042196,0.000000,0.000000,0.077835,0.000000,0.000000,0.273635,0.100000,0.100000,-0.225454,-0.286686,-0.050000,-0.050000,0.307475,-0.494346,0.000000,0.000000,-0.521904,0.526582,1.113974,0.877102,0.100701,-0.067155,-0.076292,-0.020470,-0.005808,-0.107443
-0.050000,-0.050000,-0.041181,0.000000,0.000000,0.079415,0.000000,0.000000,0.271590,0.100000,0.100000,-0.221658,-0.289163,-0.050000,-0.050000,0.308082,-0.488460,0.000000,0.000000,-0.518685,0.535520,1.115277,0.873323,0.093920,-0.062037,-0.076815,-0.022380,-0.007294,-0.098809
-0.050000,-0.050000,-0.040267,0.000000,0.000000,0.080842,0.000000,0.000000,0.269321,0.100000,0.100000,-0.217677,-0.292420,-0.050000,-0.050000,0.308964,-0.484059,0.000000,0.000000,-0.515301,0.542929,1.116888,0.864081,0.087369,-0.055056,-0.077320,-0.025113,-0.008813,-0.092436
-0.050000,-0.050000,-0.039425,0.000000,0.000000,0.082117,0.000000,0.000000,0.266956,0.100000,0.100000,-0.213782,-0.296132,-0.050000,-0.050000,0.310014,-0.480888,0.000000,0.000000,-0.511933,0.549109,1.118881,0.850972,0.081288,-0.046358,-0.077653,-0.028035,-0.010698,-0.087088
-0.050000,-0.050000,-0.038605,0.000000,0.000000,0.083289,0.000000,0.000000,0.264538,0.100000,0.100000,-0.210028,-0.300197,-0.050000,-0.050000,0.311160,-0.478666,0.000000,0.000000,-0.508606,0.554320,1.121203,0.835036,0.075616,-0.036322,-0.077820,-0.030977,-0.012935,-0.082287
-0.050000,-0.050000,-0.037935,0.000000,0.000000,0.084151,0.000000,0.000000,0.262016,0.100000,0.100000,-0.206508,-0.305047,-0.050000,-0.050000,0.312441,-0.477544,0.000000,0.000000,-0.505458,0.557839,1.124198,0.815914,0.070919,-0.023952,-0.077530,-0.034097,-0.016104,-0.077437
-0.050000,-0.050000,-0.037235,0.000000,0.000000,0.084873,0.000000,0.000000,0.259572,0.100000,0.100000,-0.203339,-0.310003,-0.050000,-0.050000,0.313727,-0.477102,0.000000,0.000000,-0.502392,0.560383,1.127546,0.795159,0.066783,-0.010197,-0.076997,-0.036983,-0.019840,-0.072145
-0.050000,-0.050000,-0.036622,0.000000,0.000000,0.085289,0.000000,0.000000,0.257177,0.100000,0.100000,-0.200511,-0.315241,-0.050000,-0.050000,0.315000,-0.477334,0.000000,0.000000,-0.499449,0.561339,1.131427,0.772631,0.063533,0.005737,-0.076060,-0.039840,-0.024484,-0.065978
-0.050000,-0.050000,-0.036010,0.000000,0.000000,0.085415,0.000000,0.000000,0.254944,0.100000,0.100000,-0.198083,-0.320359,-0.050000,-0.050000,0.316186,-0.478052,0.000000,0.000000,-0.496502,0.560771,1.135641,0.748856,0.060937,0.023839,-0.074852,-0.042607,-0.029837,-0.058769
-0.050000,-0.050000,-0.035356,0.000000,0.000000,0.085319,0.000000,0.000000,0.252856,0.100000,0.100000,-0.195993,-0.325308,-0.050000,-0.050000,0.317295,-0.479133,0.000000,0.000000,-0.493578,0.558949,1.140100,0.724141,0.058828,0.043667,-0.073451,-0.045268,-0.035728,-0.050674
-0.050000,-0.050000,-0.034740,0.000000,0.000000,0.084751,0.000000,0.000000,0.251062,0.100000,0.100000,-0.194273,-0.329642,-0.050000,-0.050000,0.318143,-0.480439,0.000000,0.000000,-0.490369,0.554831,1.144645,0.698286,0.057144,0.066908,-0.071906,-0.048094,-0.042175,-0.041344
-0.050000,-0.050000,-0.033981,0.000000,0.000000,0.083937,0.000000,0.000000,0.249479,0.100000,0.100000,-0.192860,-0.333454,-0.050000,-0.050000,0.318873,-0.481938,0.000000,0.000000,-0.487094,0.549370,1.149170,0.671703,0.055586,0.092149,-0.070342,-0.050885,-0.048820,-0.031325
-0.050000,-0.050000,-0.033162,0.000000,0.000000,0.082694,0.000000,0.000000,0.248215,0.100000,0.100000,-0.191717,-0.336381,-0.050000,-0.050000,0.319288,-0.483410,0.000000,0.000000,-0.483463,0.541758,1.153459,0.644271,0.053940,0.120708,-0.068855,-0.053883,-0.055509,-0.020648
-0.050000,-0.050000,-0.032179,0.000000,0.000000,0.081080,0.000000,0.000000,0.247235,0.100000,0.100000,-0.190807,-0.338427,-0.050000,-0.050000,0.319437,-0.484801,0.000000,0.000000,-0.479607,0.532294,1.157396,0.616188,0.051991,0.152238,-0.067530,-0.057037,-0.061945,-0.009776
-0.050000,-0.050000,-0.031022,0.000000,0.000000,0.079175,0.000000,0.000000,0.246479,0.100000,0.100000,-0.190072,-0.339702,-0.050000,-0.050000,0.319380,-0.486044,0.000000,0.000000,-0.475639,0.521359,1.161020,0.587602,0.049738,0.186107,-0.066346,-0.060307,-0.068106,0.001157
-0.050000,-0.050000,-0.029701,0.000000,0.000000,0.076775,0.000000,0.000000,0.246047,0.100000,0.100000,-0.189520,-0.339875,-0.050000,-0.050000,0.318869,-0.486835,0.000000,0.000000,-0.471402,0.508085,1.163948,0.558682,0.046785,0.223854,-0.065499,-0.063930,-0.073402,0.011299
-0.050000,-0.050000,-0.028136,0.000000,0.000000,0.074111,0.000000,0.000000,0.245768,0.100000,0.100000,-0.189106,-0.339390,-0.050000,-0.050000,0.318201,-0.487324,0.000000,0.000000,-0.467344,0.493635,1.166514,0.529632,0.043462,0.263553,-0.064817,-0.067722,-0.078109,0.020826
-0.050000,-0.050000,-0.026394,0.000000,0.000000,0.071048,0.000000,0.000000,0.245683,0.100000,0.100000,-0.188844,-0.338096,-0.050000,-0.050000,0.317160,-0.487207,0.000000,0.000000,-0.463407,0.477393,1.168456,0.500805,0.039580,0.306137,-0.064429,-0.071913,-0.081753,0.028823
-0.050000,-0.050000,-0.024449,0.000000,0.000000,0.067672,0.000000,0.000000,0.245683,0.100000,0.100000,-0.188739,-0.336265,-0.050000,-0.050000,0.315900,-0.486521,0.000000,0.000000,-0.459939,0.459873,1.169939,0.472520,0.035417,0.350647,-0.064241,-0.076526,-0.084380,0.035035
-0.050000,-0.050000,-0.022321,0.000000,0.000000,0.064050,0.000000,0.000000,0.245732,0.100000,0.100000,-0.188760,-0.334032,-0.050000,-0.050000,0.314460,-0.485221,0.000000,0.000000,-0.456920,0.441397,1.171073,0.444786,0.031062,0.396502,-0.064207,-0.081674,-0.086148,0.039719
-0.050000,-0.050000,-0.020127,0.000000,0.000000,0.060080,0.000000,0.000000,0.245732,0.100000,0.100000,-0.189003,-0.331499,-0.050000,-0.050000,0.312809,-0.483183,0.000000,0.000000,-0.454796,0.421519,1.171708,0.418578,0.026824,0.443788,-0.064358,-0.087641,-0.086542,0.041080
-0.050000,-0.050000,-0.017770,0.000000,0.000000,0.055931,0.000000,0.000000,0.245667,0.100000,0.100000,-0.189386,-0.328871,-0.050000,-0.050000,0.311102,-0.480497,0.000000,0.000000,-0.453377,0.401064,1.172126,0.393364,0.022751,0.491361,-0.064568,-0.094490,-0.086136,0.040540
-0.050000,-0.050000,-0.015429,0.000000,0.000000,0.051543,0.000000,0.000000,0.245427,0.100000,0.100000,-0.189980,-0.326245,-0.050000,-0.050000,0.309364,-0.477152,0.000000,0.000000,-0.452969,0.379646,1.172208,0.370029,0.019181,0.538952,-0.064846,-0.102519,-0.084610,0.036601
-0.050000,-0.050000,-0.013066,0.000000,0.000000,0.047003,0.000000,0.000000,0.244980,0.100000,0.100000,-0.190742,-0.323765,-0.050000,-0.050000,0.307709,-0.473229,0.000000,0.000000,-0.453466,0.357624,1.172050,0.348475,0.016183,0.585702,-0.065118,-0.111852,-0.082229,0.029721
-0.050000,-0.050000,-0.010697,0.000000,0.000000,0.042351,0.000000,0.000000,0.244349,0.100000,0.100000,-0.191627,-0.321470,-0.050000,-0.050000,0.306139,-0.468737,0.000000,0.000000,-0.454689,0.335180,1.171691,0.328438,0.013690,0.631465,-0.065367,-0.122558,-0.079181,0.020526
-0.050000,-0.050000,-0.008487,0.000000,0.000000,0.037613,0.000000,0.000000,0.243360,0.100000,0.100000,-0.192664,-0.319480,-0.050000,-0.050000,0.304898,-0.463988,0.000000,0.000000,-0.456820,0.312033,1.171010,0.311032,0.012060,0.674794,-0.065542,-0.134831,-0.075321,0.007388
-0.050000,-0.050000,-0.006269,0.000000,0.000000,0.032856,0.000000,0.000000,0.242180,0.100000,0.100000,-0.193737,-0.317806,-0.050000,-0.050000,0.303842,-0.458814,0.000000,0.000000,-0.459415,0.288717,1.170115,0.295093,0.010875,0.716171,-0.065634,-0.148511,-0.071038,-0.007645
-0.050000,-0.050000,-0.004218,0.000000,0.000000,0.028122,0.000000,0.000000,0.240679,0.100000,0.100000,-0.194834,-0.316458,-0.050000,-0.050000,0.303222,-0.453661,0.000000,0.000000,-0.462460,0.264997,1.168913,0.281530,0.010299,0.754255,-0.065617,-0.163547,-0.066276,-0.025693
-0.050000,-0.050000,-0.002245,0.000000,0.000000,0.023477,0.000000,0.000000,0.238953,0.100000,0.100000,-0.195854,-0.315448,-0.050000,-0.050000,0.302978,-0.448547,0.000000,0.000000,-0.465656,0.241197,1.167440,0.269831,0.010045,0.788993,-0.065485,-0.179646,-0.061249,-0.045717
-0.050000,-0.050000,-0.000373,0.000000,0.000000,0.018927,0.000000,0.000000,0.237045,0.100000,0.100000,-0.196770,-0.314753,-0.050000,-0.050000,0.303057,-0.443483,0.000000,0.000000,-0.468888,0.217384,1.165726,0.259656,0.010008,0.820745,-0.065250,-0.196638,-0.056052,-0.067198
-0.050000,-0.050000,0.001358,0.000000,0.000000,0.014589,0.000000,0.000000,0.234940,0.100000,0.100000,-0.197449,-0.314259,-0.050000,-0.050000,0.303719,-0.439181,0.000000,0.000000,-0.471832,0.193722,1.163794,0.251730,0.010011,0.847722,-0.064891,-0.213852,-0.050775,-0.090323
-0.050000,-0.050000,0.002986,0.000000,0.000000,0.010433,0.000000,0.000000,0.232741,0.100000,0.100000,-0.197891,-0.314058,-0.050000,-0.050000,0.304622,-0.435128,0.000000,0.000000,-0.474532,0.170353,1.161697,0.244955,0.009969,0.871628,-0.064437,-0.231286,-0.045531,-0.114025
-0.050000,-0.050000,0.004481,0.000000,0.000000,0.006533,0.000000,0.000000,0.230470,0.100000,0.100000,-0.197979,-0.313926,-0.050000,-0.050000,0.306007,-0.432081,0.000000,0.000000,-0.476692,0.147511,1.159564,0.239882,0.009720,0.891093,-0.063873,-0.248159,-0.040415,-0.138167
-0.050000,-0.050000,0.005832,0.000000,0.000000,0.002903,0.000000,0.000000,0.228183,0.100000,0.100000,-0.197673,-0.313902,-0.050000,-0.050000,0.307660,-0.429864,0.000000,0.000000,-0.478342,0.125362,1.157484,0.235928,0.009259,0.906919,-0.063211,-0.264284,-0.035537,-0.162075
-0.050000,-0.050000,0.007023,0.000000,0.000000,-0.000483,0.000000,0.000000,0.225889,0.100000,0.100000,-0.197009,-0.313935,-0.050000,-0.050000,0.309507,-0.428420,0.000000,0.000000,-0.479504,0.103858,1.155496,0.232856,0.008610,0.919720,-0.062475,-0.279614,-0.030894,-0.185619
-0.050000,-0.050000,0.008042,0.000000,0.000000,-0.003565,0.000000,0.000000,0.223685,0.100000,0.100000,-0.195801,-0.313794,-0.050000,-0.050000,0.311652,-0.428440,0.000000,0.000000,-0.480032,0.083591,1.153926,0.230694,0.007766,0.928534,-0.061598,-0.293276,-0.026731,-0.207847
-0.050000,-0.050000,0.008832,0.000000,0.000000,-0.006379,0.000000,0.000000,0.221486,0.100000,0.100000,-0.194203,-0.313640,-0.050000,-0.050000,0.313787,-0.429208,0.000000,0.000000,-0.480119,0.064101,1.152615,0.228934,0.006867,0.935080,-0.060665,-0.305910,-0.022929,-0.229147
-0.050000,-0.050000,0.009406,0.000000,0.000000,-0.008928,0.000000,0.000000,0.219401,0.100000,0.100000,-0.192078,-0.313223,-0.050000,-0.050000,0.316044,-0.431332,0.000000,0.000000,-0.479732,0.045946,1.151897,0.227464,0.006023,0.938682,-0.059585,-0.316885,-0.019705,-0.248621
-0.050000,-0.050000,0.009704,0.000000,0.000000,-0.011212,0.000000,0.000000,0.217367,0.100000,0.100000,-0.189498,-0.312608,-0.050000,-0.050000,0.318226,-0.434419,0.000000,0.000000,-0.478986,0.028885,1.151716,0.225957,0.005380,0.940304,-0.058406,-0.326582,-0.017034,-0.266407
-0.050000,-0.050000,0.009752,0.000000,0.000000,-0.013272,0.000000,0.000000,0.215375,0.100000,0.100000,-0.186533,-0.311765,-0.050000,-0.050000,0.320315,-0.438337,0.000000,0.000000,-0.477934,0.012779,1.152035,0.224325,0.004975,0.940403,-0.057150,-0.335207,-0.014850,-0.282672
-0.050000,-0.050000,0.009512,0.000000,0.000000,-0.015096,0.000000,0.000000,0.213496,0.100000,0.100000,-0.183074,-0.310590,-0.050000,-0.050000,0.322307,-0.443287,0.000000,0.000000,-0.476705,-0.001937,1.153111,0.222128,0.005085,0.938902,-0.055738,-0.342559,-0.013398,-0.296579
-0.050000,-0.050000,0.009005,0.000000,0.000000,-0.016706,0.000000,0.000000,0.211618,0.100000,0.100000,-0.179305,-0.309158,-0.050000,-0.050000,0.324090,-0.448748,0.000000,0.000000,-0.475244,-0.015900,1.154637,0.219571,0.005558,0.936677,-0.054296,-0.349200,-0.012406,-0.309055
-0.050000,-0.050000,0.008241,0.000000,0.000000,-0.018105,0.000000,0.000000,0.209836,0.100000,0.100000,-0.175144,-0.307425,-0.050000,-0.050000,0.325705,-0.454824,0.000000,0.000000,-0.473713,-0.028716,1.156787,0.216277,0.006600,0.933704,-0.052759,-0.355013,-0.012060,-0.319418
-0.050000,-0.050000,0.007244,0.000000,0.000000,-0.019292,0.000000,0.000000,0.208096,0.100000,0.100000,-0.170698,-0.305428,-0.050000,-0.050000,0.327094,-0.461170,0.000000,0.000000,-0.472047,-0.040729,1.159359,0.212432,0.008077,0.930497,-0.051216,-0.360279,-0.012206,-0.328149
-0.050000,-0.050000,0.006059,0.000000,0.000000,-0.020305,0.000000,0.000000,0.206397,0.100000,0.100000,-0.166014,-0.303204,-0.050000,-0.050000,0.328298,-0.467690,0.000000,0.000000,-0.470277,-0.052068,1.162272,0.208120,0.009920,0.927224,-0.049686,-0.365129,-0.012756,-0.335477
-0.050000,-0.050000,0.004736,0.000000,0.000000,-0.021076,0.000000,0.000000,0.204814,0.100000,0.100000,-0.161086,-0.300805,-0.050000,-0.050000,0.329290,-0.474125,0.000000,0.000000,-0.468448,-0.062496,1.165483,0.203320,0.012098,0.924175,-0.048210,-0.369467,-0.013783,-0.341026
-0.050000,-0.050000,0.003284,0.000000,0.000000,-0.021691,0.000000,0.000000,0.203273,0.100000,0.100000,-0.156006,-0.298264,-0.050000,-0.050000,0.330136,-0.480462,0.000000,0.000000,-0.466468,-0.072430,1.168848,0.198367,0.014439,0.921439,-0.046820,-0.373499,-0.015076,-0.345452
-0.050000,-0.050000,0.001795,0.000000,0.000000,-0.022069,0.000000,0.000000,0.201863,0.100000,0.100000,-0.150794,-0.295675,-0.050000,-0.050000,0.330829,-0.486426,0.000000,0.000000,-0.464390,-0.081574,1.172304,0.193391,0.016850,0.919258,-0.045566,-0.377039,-0.016681,-0.348422
-0.050000,-0.050000,0.000271,0.000000,0.000000,-0.022262,0.000000,0.000000,0.200550,0.100000,0.100000,-0.145518,-0.293093,-0.050000,-0.050000,0.331446,-0.492031,0.000000,0.000000,-0.462144,-0.090110,1.175772,0.188699,0.019201,0.917668,-0.044467,-0.380124,-0.018474,-0.350250
-0.050000,-0.050000,-0.001271,0.000000,0.000000,-0.022298,0.000000,0.000000,0.199334,0.100000,0.100000,-0.140207,-0.290587,-0.050000,-0.050000,0.332025,-0.497297,0.000000,0.000000,-0.459747,-0.098099,1.179220,0.184399,0.021447,0.916655,-0.043514,-0.382795,-0.020411,-0.351078
-0.050000,-0.050000,-0.002737,0.000000,0.000000,-0.022086,0.000000,0.000000,0.198268,0.100000,0.100000,-0.134996,-0.288235,-0.050000,-0.050000,0.332644,-0.502030,0.000000,0.000000,-0.457160,-0.105237,1.182576,0.180969,0.023423,0.916352,-0.042774,-0.384721,-0.022452,-0.350744
-0.050000,-0.050000,-0.004227,0.000000,0.000000,-0.021763,0.000000,0.000000,0.197288,0.100000,0.100000,-0.129851,-0.286102,-0.050000,-0.050000,0.333352,-0.506521,0.000000,0.000000,-0.454386,-0.111868,1.185882,0.178284,0.025192,0.916571,-0.042174,-0.386189,-0.024549,-0.349583
-0.050000,-0.050000,-0.005639,0.000000,0.000000,-0.021216,0.000000,0.000000,0.196439,0.100000,0.100000,-0.124971,-0.284220,-0.050000,-0.050000,0.334271,-0.510658,0.000000,0.000000,-0.451394,-0.117638,1.189086,0.176832,0.026623,0.917324,-0.041773,-0.386842,-0.026656,-0.347476
-0.050000,-0.050000,-0.007055,0.000000,0.000000,-0.020527,0.000000,0.000000,0.195679,0.100000,0.100000,-0.120379,-0.282653,-0.050000,-0.050000,0.335491,-0.514700,0.000000,0.000000,-0.448171,-0.122733,1.192221,0.176578,0.027747,0.918429,-0.041522,-0.386839,-0.028736,-0.344626
-0.050000,-0.050000,-0.008481,0.000000,0.000000,-0.019708,0.000000,0.000000,0.195006,0.100000,0.100000,-0.116094,-0.281417,-0.050000,-0.050000,0.337020,-0.518719,0.000000,0.000000,-0.444730,-0.127207,1.195291,0.177487,0.028586,0.919796,-0.041399,-0.386255,-0.030781,-0.341157
-0.050000,-0.050000,-0.009910,0.000000,0.000000,-0.018687,0.000000,0.000000,0.194400,0.100000,0.100000,-0.112441,-0.280459,-0.050000,-0.050000,0.339225,-0.522971,0.000000,0.000000,-0.440973,-0.130838,1.198232,0.180025,0.028993,0.921177,-0.041449,-0.384846,-0.032664,-0.337161
-0.050000,-0.050000,-0.011406,0.000000,0.000000,-0.017569,0.000000,0.000000,0.193859,0.100000,0.100000,-0.109197,-0.279893,-0.050000,-0.050000,0.341909,-0.527483,0.000000,0.000000,-0.436966,-0.133966,1.201075,0.183766,0.029064,0.922589,-0.041601,-0.382991,-0.034460,-0.332815
-0.050000,-0.050000,-0.012962,0.000000,0.000000,-0.016262,0.000000,0.000000,0.193351,0.100000,0.100000,-0.106770,-0.279557,-0.050000,-0.050000,0.345590,-0.532608,0.000000,0.000000,-0.432557,-0.136381,1.203677,0.189214,0.028572,0.923752,-0.041927,-0.380468,-0.035972,-0.328307
-0.050000,-0.050000,-0.014615,0.000000,0.000000,-0.014823,0.000000,0.000000,0.192880,0.100000,0.100000,-0.105055,-0.279540,-0.050000,-0.050000,0.350248,-0.538406,0.000000,0.000000,-0.427749,-0.138316,1.205972,0.196193,0.027456,0.924701,-0.042403,-0.377531,-0.037209,-0.323819
-0.050000,-0.050000,-0.016362,0.000000,0.000000,-0.013264,0.000000,0.000000,0.192453,0.100000,0.100000,-0.104023,-0.279821,-0.050000,-0.050000,0.355892,-0.544889,0.000000,0.000000,-0.422559,-0.139834,1.207918,0.204613,0.025699,0.925431,-0.043012,-0.374267,-0.038166,-0.319436
-0.050000,-0.050000,-0.018230,0.000000,0.000000,-0.011517,0.000000,0.000000,0.192015,0.100000,0.100000,-0.104102,-0.280192,-0.050000,-0.050000,0.363300,-0.552570,0.000000,0.000000,-0.416654,-0.140970,1.209170,0.215042,0.022753,0.925815,-0.043895,-0.370634,-0.038481,-0.315565
-0.050000,-0.050000,-0.020183,0.000000,0.000000,-0.009688,0.000000,0.000000,0.191645,0.100000,0.100000,-0.104827,-0.280918,-0.050000,-0.050000,0.371902,-0.561020,0.000000,0.000000,-0.410316,-0.141871,1.209849,0.226947,0.018857,0.926085,-0.044915,-0.366858,-0.038425,-0.312019
-0.050000,-0.050000,-0.022245,0.000000,0.000000,-0.007680,0.000000,0.000000,0.191265,0.100000,0.100000,-0.106727,-0.281659,-0.050000,-0.050000,0.382690,-0.570842,0.000000,0.000000,-0.403031,-0.142611,1.209530,0.241032,0.013257,0.926171,-0.046274,-0.362857,-0.037469,-0.309258
-0.050000,-0.050000,-0.024370,0.000000,0.000000,-0.005573,0.000000,0.000000,0.190941,0.100000,0.100000,-0.109496,-0.282635,-0.050000,-0.050000,0.395385,-0.581750,0.000000,0.000000,-0.394935,-0.143292,1.208242,0.257036,0.005925,0.926289,-0.047888,-0.358755,-0.035723,-0.307133
-0.050000,-0.050000,-0.026547,0.000000,0.000000,-0.003390,0.000000,0.000000,0.190681,0.100000,0.100000,-0.113057,-0.283821,-0.050000,-0.050000,0.409940,-0.593666,0.000000,0.000000,-0.386044,-0.143946,1.205986,0.274863,-0.003146,0.926501,-0.049746,-0.354567,-0.033180,-0.305578
-0.050000,-0.050000,-0.028728,0.000000,0.000000,-0.001056,0.000000,0.000000,0.190430,0.100000,0.100000,-0.117769,-0.284985,-0.050000,-0.050000,0.427229,-0.606992,0.000000,0.000000,-0.375651,-0.144768,1.202439,0.295069,-0.015005,0.926922,-0.052040,-0.350233,-0.029202,-0.304905
-0.050000,-0.050000,-0.030904,0.000000,0.000000,0.001276,0.000000,0.000000,0.190297,0.100000,0.100000,-0.123060,-0.286495,-0.050000,-0.050000,0.446297,-0.621101,0.000000,0.000000,-0.364446,-0.145641,1.197950,0.316940,-0.028891,0.927625,-0.054556,-0.345820,-0.024352,-0.304594
-0.050000,-0.050000,-0.032989,0.000000,0.000000,0.003726,0.000000,0.000000,0.190180,0.100000,0.100000,-0.129377,-0.287977,-0.050000,-0.050000,0.468114,-0.636446,0.000000,0.000000,-0.351410,-0.146805,1.192286,0.341027,-0.046058,0.928678,-0.057541,-0.341227,-0.017811,-0.304963
-0.050000,-0.050000,-0.034963,0.000000,0.000000,0.006173,0.000000,0.000000,0.190163,0.100000,0.100000,-0.136301,-0.289731,-0.050000,-0.050000,0.491981,-0.652551,0.000000,0.000000,-0.336983,-0.148167,1.185758,0.366772,-0.066074,0.930110,-0.060860,-0.336484,-0.009938,-0.305597
-0.050000,-0.050000,-0.036824,0.000000,0.000000,0.008606,0.000000,0.000000,0.190231,0.100000,0.100000,-0.143748,-0.291702,-0.050000,-0.050000,0.517688,-0.669287,0.000000,0.000000,-0.321190,-0.149715,1.178528,0.393949,-0.088772,0.931871,-0.064549,-0.331563,-0.000781,-0.306380
-0.050000,-0.050000,-0.038386,0.000000,0.000000,0.011071,0.000000,0.000000,0.190317,0.100000,0.100000,-0.151785,-0.293779,-0.050000,-0.050000,0.545467,-0.686661,0.000000,0.000000,-0.303188,-0.151627,1.170811,0.422472,-0.115094,0.933987,-0.068700,-0.326456,0.010155,-0.307300
-0.050000,-0.050000,-0.039813,0.000000,0.000000,0.013447,0.000000,0.000000,0.190512,0.100000,0.100000,-0.160024,-0.296177,-0.050000,-0.050000,0.574441,-0.704251,0.000000,0.000000,-0.284011,-0.153657,1.162815,0.451772,-0.143778,0.936342,-0.073255,-0.321170,0.022137,-0.308068
-0.050000,-0.050000,-0.040819,0.000000,0.000000,0.015810,0.000000,0.000000,0.190690,0.100000,0.100000,-0.168519,-0.298719,-0.050000,-0.050000,0.604743,-0.722026,0.000000,0.000000,-0.262563,-0.156034,1.154905,0.481636,-0.175839,0.938942,-0.078295,-0.315767,0.035671,-0.308710
-0.050000,-0.050000,-0.041537,0.000000,0.000000,0.018075,0.000000,0.000000,0.190918,0.100000,0.100000,-0.176956,-0.301551,-0.050000,-0.050000,0.635661,-0.739644,0.000000,0.000000,-0.239616,-0.158568,1.147258,0.511549,-0.210326,0.941695,-0.083794,-0.310287,0.050152,-0.309067
-0.050000,-0.050000,-0.041956,0.000000,0.000000,0.020252,0.000000,0.000000,0.191154,0.100000,0.100000,-0.185249,-0.304590,-0.050000,-0.050000,0.666929,-0.757006,0.000000,0.000000,-0.215267,-0.161240,1.140016,0.541266,-0.246878,0.944521,-0.089809,-0.304761,0.065387,-0.309158
-0.050000,-0.050000,-0.041850,0.000000,0.000000,0.022329,0.000000,0.000000,0.191343,0.100000,0.100000,-0.193117,-0.307895,-0.050000,-0.050000,0.697926,-0.773717,0.000000,0.000000,-0.189193,-0.164135,1.133642,0.570145,-0.285630,0.947479,-0.096200,-0.299403,0.081198,-0.308904
-0.050000,-0.050000,-0.041522,0.000000,0.000000,0.024307,0.000000,0.000000,0.191529,0.100000,0.100000,-0.200562,-0.311339,-0.050000,-0.050000,0.728594,-0.789882,0.000000,0.000000,-0.162217,-0.167062,1.127855,0.598227,-0.325563,0.950419,-0.103118,-0.294115,0.097155,-0.308433
-0.050000,-0.050000,-0.040640,0.000000,0.000000,0.026161,0.000000,0.000000,0.191638,0.100000,0.100000,-0.207225,-0.315036,-0.050000,-0.050000,0.758080,-0.804973,0.000000,0.000000,-0.134015,-0.170163,1.123175,0.624784,-0.366777,0.953508,-0.110263,-0.289211,0.112981,-0.307660
-0.050000,-0.050000,-0.039460,0.000000,0.000000,0.027917,0.000000,0.000000,0.191704,0.100000,0.100000,-0.213100,-0.318822,-0.050000,-0.050000,0.786353,-0.819083,0.000000,0.000000,-0.105198,-0.173309,1.119308,0.649821,-0.408491,0.956659,-0.117702,-0.284647,0.128343,-0.306743
-0.050000,-0.050000,-0.037977,0.000000,0.000000,0.029586,0.000000,0.000000,0.191702,0.100000,0.100000,-0.218153,-0.322633,-0.050000,-0.050000,0.813288,-0.832201,0.000000,0.000000,-0.075930,-0.176517,1.116204,0.673299,-0.450405,0.959883,-0.125377,-0.280452,0.143088,-0.305750
-0.050000,-0.050000,-0.036119,0.000000,0.000000,0.031133,0.000000,0.000000,0.191653,0.100000,0.100000,-0.222054,-0.326546,-0.050000,-0.050000,0.838008,-0.843864,0.000000,0.000000,-0.046563,-0.179841,1.113954,0.694672,-0.492001,0.963389,-0.132948,-0.276894,0.156765,-0.304660
-0.050000,-0.050000,-0.034100,0.000000,0.000000,0.032649,0.000000,0.000000,0.191532,0.100000,0.100000,-0.225101,-0.330239,-0.050000,-0.050000,0.861272,-0.854608,0.000000,0.000000,-0.017166,-0.183228,1.112136,0.714443,-0.533118,0.966979,-0.140657,-0.273750,0.169599,-0.303678
-0.050000,-0.050000,-0.031829,0.000000,0.000000,0.034058,0.000000,0.000000,0.191398,0.100000,0.100000,-0.226886,-0.333896,-0.050000,-0.050000,0.881928,-0.863808,0.000000,0.000000,0.011732,-0.186785,1.110812,0.732010,-0.573131,0.970985,-0.148053,-0.271349,0.181110,-0.302715
-0.050000,-0.050000,-0.029470,0.000000,0.000000,0.035445,0.000000,0.000000,0.191227,0.100000,0.100000,-0.227642,-0.337192,-0.050000,-0.050000,0.900578,-0.871909,0.000000,0.000000,0.040144,-0.190505,1.109588,0.747742,-0.611916,0.975262,-0.155331,-0.269549,0.191566,-0.301938
-0.050000,-0.050000,-0.027041,0.000000,0.000000,0.036810,0.000000,0.000000,0.191030,0.100000,0.100000,-0.227404,-0.340098,-0.050000,-0.050000,0.917267,-0.878974,0.000000,0.000000,0.067960,-0.194438,1.108323,0.761768,-0.649375,0.979840,-0.162462,-0.268322,0.201043,-0.301349
-0.050000,-0.050000,-0.024656,0.000000,0.000000,0.038114,0.000000,0.000000,0.190894,0.100000,0.100000,-0.225996,-0.342594,-0.050000,-0.050000,0.931447,-0.884760,0.000000,0.000000,0.094646,-0.198667,1.106734,0.773856,-0.684856,0.984929,-0.169313,-0.267854,0.209378,-0.300924
-0.050000,-0.050000,-0.022283,0.000000,0.000000,0.039438,0.000000,0.000000,0.190730,0.100000,0.100000,-0.223757,-0.344443,-0.050000,-0.050000,0.943995,-0.889802,0.000000,0.000000,0.120684,-0.203192,1.104724,0.784521,-0.718817,0.990297,-0.176115,-0.267907,0.217049,-0.300744
-0.050000,-0.050000,-0.020112,0.000000,0.000000,0.040692,0.000000,0.000000,0.190695,0.100000,0.100000,-0.220426,-0.345725,-0.050000,-0.050000,0.954165,-0.893711,0.000000,0.000000,0.145276,-0.208107,1.101976,0.793445,-0.750407,0.996243,-0.182726,-0.268717,0.223784,-0.300714
-0.050000,-0.050000,-0.018090,0.000000,0.000000,0.041933,0.000000,0.000000,0.190715,0.100000,0.100000,-0.216276,-0.346217,-0.050000,-0.050000,0.962610,-0.896884,0.000000,0.000000,0.168809,-0.213416,1.098433,0.800993,-0.779929,1.002595,-0.189330,-0.270124,0.229976,-0.300881
-0.050000,-0.050000,-0.016240,0.000000,0.000000,0.043144,0.000000,0.000000,0.190810,0.100000,0.100000,-0.211388,-0.345950,-0.050000,-0.050000,0.969470,-0.899382,0.000000,0.000000,0.191238,-0.219136,1.094062,0.807305,-0.807426,1.009347,-0.195952,-0.272072,0.235712,-0.301196
-0.050000,-0.050000,-0.014737,0.000000,0.000000,0.044266,0.000000,0.000000,0.191096,0.100000,0.100000,-0.205714,-0.344897,-0.050000,-0.050000,0.974594,-0.901105,0.000000,0.000000,0.212058,-0.225261,1.088679,0.812323,-0.832333,1.016618,-0.202579,-0.274627,0.240895,-0.301585
-0.050000,-0.050000,-0.013374,0.000000,0.000000,0.045355,0.000000,0.000000,0.191434,0.100000,0.100000,-0.199568,-0.343015,-0.050000,-0.050000,0.978545,-0.902356,0.000000,0.000000,0.231868,-0.231777,1.082513,0.816402,-0.855328,1.024211,-0.209281,-0.277599,0.245859,-0.302062
-0.050000,-0.050000,-0.012433,0.000000,0.000000,0.046322,0.000000,0.000000,0.192021,0.100000,0.100000,-0.192834,-0.340365,-0.050000,-0.050000,0.981068,-0.902932,0.000000,0.000000,0.249843,-0.238612,1.075437,0.819416,-0.875613,1.032282,-0.215930,-0.281044,0.250322,-0.302508
-0.050000,-0.050000,-0.011718,0.000000,0.000000,0.047214,0.000000,0.000000,0.192729,0.100000,0.100000,-0.185806,-0.336918,-0.050000,-0.050000,0.982573,-0.903047,0.000000,0.000000,0.266426,-0.245726,1.067732,0.821644,-0.893681,1.040679,-0.222514,-0.284801,0.254522,-0.302924
-0.050000,-0.050000,-0.011232,0.000000,0.000000,0.048024,0.000000,0.000000,0.193574,0.100000,0.100000,-0.178597,-0.332771,-0.050000,-0.050000,0.983214,-0.902745,0.000000,0.000000,0.281578,-0.253064,1.059558,0.823206,-0.909673,1.049358,-0.228958,-0.288779,0.258444,-0.303266
-0.050000,-0.050000,-0.011069,0.000000,0.000000,0.048729,0.000000,0.000000,0.194636,0.100000,0.100000,-0.171267,-0.327998,-0.050000,-0.050000,0.983025,-0.901996,0.000000,0.000000,0.294864,-0.260457,1.051189,0.824189,-0.923255,1.058309,-0.234995,-0.292845,0.261908,-0.303436
-0.050000,-0.050000,-0.011015,0.000000,0.000000,0.049378,0.000000,0.000000,0.195769,0.100000,0.100000,-0.164086,-0.322665,-0.050000,-0.050000,0.982318,-0.900982,0.000000,0.000000,0.306848,-0.267950,1.042833,0.824808,-0.935137,1.067427,-0.240713,-0.296933,0.265128,-0.303477
-0.050000,-0.050000,-0.011224,0.000000,0.000000,0.049943,0.000000,0.000000,0.197121,0.100000,0.100000,-0.157030,-0.316895,-0.050000,-0.050000,0.981074,-0.899650,0.000000,0.000000,0.316855,-0.275287,1.034927,0.825157,-0.944820,1.076688,-0.245661,-0.300830,0.267790,-0.303252
-0.050000,-0.050000,-0.011505,0.000000,0.000000,0.050472,0.000000,0.000000,0.198551,0.100000,0.100000,-0.150350,-0.310761,-0.050000,-0.050000,0.979556,-0.898179,0.000000,0.000000,0.325343,-0.282498,1.027723,0.825439,-0.952881,1.086014,-0.249892,-0.304476,0.270037,-0.302790
-0.050000,-0.050000,-0.011829,0.000000,0.000000,0.050976,0.000000,0.000000,0.200067,0.100000,0.100000,-0.144108,-0.304375,-0.050000,-0.050000,0.977883,-0.896637,0.000000,0.000000,0.332349,-0.289540,1.021433,0.825774,-0.959546,1.095363,-0.253338,-0.307793,0.271826,-0.302069
-0.050000,-0.050000,-0.012156,0.000000,0.000000,0.051469,0.000000,0.000000,0.201685,0.100000,0.100000,-0.138319,-0.297858,-0.050000,-0.050000,0.976186,-0.895142,0.000000,0.000000,0.337736,-0.296251,1.016603,0.826362,-0.964787,1.104640,-0.255675,-0.310570,0.273016,-0.301013
-0.050000,-0.050000,-0.012407,0.000000,0.000000,0.051975,0.000000,0.000000,0.203312,0.100000,0.100000,-0.133133,-0.291280,-0.050000,-0.050000,0.974615,-0.893779,0.000000,0.000000,0.341948,-0.302758,1.013075,0.827255,-0.969144,1.113875,-0.257218,-0.312920,0.273719,-0.299684
-0.050000,-0.050000,-0.012518,0.000000,0.000000,0.052495,0.000000,0.000000,0.204997,0.100000,0.100000,-0.128412,-0.284773,-0.050000,-0.050000,0.973308,-0.892715,0.000000,0.000000,0.344807,-0.308872,1.011555,0.828675,-0.972468,1.122926,-0.257543,-0.314581,0.273768,-0.297981
-0.050000,-0.050000,-0.012445,0.000000,0.000000,0.053048,0.000000,0.000000,0.206648,0.100000,0.100000,-0.124259,-0.278417,-0.050000,-0.050000,0.972404,-0.892035,0.000000,0.000000,0.346710,-0.314699,1.011887,0.830662,-0.975162,1.131829,-0.256955,-0.315666,0.273223,-0.295953
-0.050000,-0.050000,-0.012160,0.000000,0.000000,0.053631,0.000000,0.000000,0.208268,0.100000,0.100000,-0.120592,-0.272278,-0.050000,-0.050000,0.971961,-0.891788,0.000000,0.000000,0.347829,-0.320262,1.014079,0.833254,-0.977383,1.140570,-0.255543,-0.316198,0.272099,-0.293608
-0.050000,-0.050000,-0.011559,0.000000,0.000000,0.054244,0.000000,0.000000,0.209811,0.100000,0.100000,-0.117238,-0.266470,-0.050000,-0.050000,0.972165,-0.892171,0.000000,0.000000,0.348394,-0.325558,1.018428,0.836554,-0.979151,1.149057,-0.253284,-0.316129,0.270407,-0.290929
-0.050000,-0.050000,-0.010750,0.000000,0.000000,0.054883,0.000000,0.000000,0.211274,0.100000,0.100000,-0.114241,-0.261006,-0.050000,-0.050000,0.972924,-0.893051,0.000000,0.000000,0.348603,-0.330650,1.024440,0.840472,-0.980694,1.157392,-0.250496,-0.315619,0.268176,-0.287974
-0.050000,-0.050000,-0.009556,0.000000,0.000000,0.055548,0.000000,0.000000,0.212587,0.100000,0.100000,-0.111271,-0.256013,-0.050000,-0.050000,0.974482,-0.894709,0.000000,0.000000,0.348775,-0.335584,1.032490,0.845089,-0.981897,1.165431,-0.247157,-0.314637,0.265506,-0.284731
-0.050000,-0.050000,-0.008117,0.000000,0.000000,0.056233,0.000000,0.000000,0.213747,0.100000,0.100000,-0.108337,-0.251508,-0.050000,-0.050000,0.976713,-0.896986,0.000000,0.000000,0.349069,-0.340385,1.042090,0.850312,-0.982881,1.173263,-0.243529,-0.313312,0.262409,-0.281248
-0.050000,-0.050000,-0.006445,0.000000,0.000000,0.056933,0.000000,0.000000,0.214751,0.100000,0.100000,-0.105295,-0.247503,-0.050000,-0.050000,0.979572,-0.899855,0.000000,0.000000,0.349657,-0.345097,1.053012,0.856069,-0.983646,1.180892,-0.239750,-0.311734,0.258985,-0.277564
-0.050000,-0.050000,-0.004509,0.000000,0.000000,0.057658,0.000000,0.000000,0.215524,0.100000,0.100000,-0.101918,-0.244064,-0.050000,-0.050000,0.983099,-0.903374,0.000000,0.000000,0.350826,-0.349819,1.065110,0.862296,-0.984101,1.188272,-0.235990,-0.309990,0.255377,-0.273713
-0.050000,-0.050000,-0.002475,0.000000,0.000000,0.058391,0.000000,0.000000,0.216141,0.100000,0.100000,-0.098240,-0.241106,-0.050000,-0.050000,0.987042,-0.907300,0.000000,0.000000,0.352519,-0.354475,1.077938,0.868897,-0.984315,1.195479,-0.232305,-0.308126,0.251580,-0.269735
-0.050000,-0.050000,-0.000270,0.000000,0.000000,0.059162,0.000000,0.000000,0.216473,0.100000,0.100000,-0.093991,-0.238703,-0.050000,-0.050000,0.991463,-0.911720,0.000000,0.000000,0.355069,-0.359243,1.091335,0.875782,-0.984136,1.202428,-0.228906,-0.306255,0.247807,-0.265665
-0.050000,-0.050000,0.001947,0.000000,0.000000,0.059953,0.000000,0.000000,0.216595,0.100000,0.100000,-0.089201,-0.236748,-0.050000,-0.050000,0.996095,-0.916381,0.000000,0.000000,0.358388,-0.364027,1.104896,0.882863,-0.983608,1.209157,-0.225799,-0.304387,0.244053,-0.261536
-0.050000,-0.050000,0.004133,0.000000,0.000000,0.060771,0.000000,0.000000,0.216503,0.100000,0.100000,-0.083825,-0.235182,-0.050000,-0.050000,1.000820,-0.921185,0.000000,0.000000,0.362490,-0.368845,1.118368,0.890049,-0.982728,1.215663,-0.223026,-0.302567,0.240403,-0.257381
-0.050000,-0.050000,0.006222,0.000000,0.000000,0.061626,0.000000,0.000000,0.216148,0.100000,0.100000,-0.077828,-0.233938,-0.050000,-0.050000,1.005484,-0.925964,0.000000,0.000000,0.367407,-0.373739,1.131384,0.897235,-0.981455,1.221871,-0.220701,-0.300842,0.236950,-0.253227
-0.050000,-0.050000,0.008178,0.000000,0.000000,0.062494,0.000000,0.000000,0.215619,0.100000,0.100000,-0.071243,-0.232901,-0.050000,-0.050000,1.009970,-0.930632,0.000000,0.000000,0.373006,-0.378628,1.143866,0.904367,-0.979857,1.227816,-0.218703,-0.299186,0.233700,-0.249106
-0.050000,-0.050000,0.009904,0.000000,0.000000,0.063393,0.000000,0.000000,0.214818,0.100000,0.100000,-0.064136,-0.231989,-0.050000,-0.050000,1.014107,-0.934936,0.000000,0.000000,0.379255,-0.383537,1.155344,0.911328,-0.977908,1.233350,-0.217196,-0.297643,0.230718,-0.245028
-0.050000,-0.050000,0.011400,0.000000,0.000000,0.064292,0.000000,0.000000,0.213824,0.100000,0.100000,-0.056552,-0.231082,-0.050000,-0.050000,1.017824,-0.938812,0.000000,0.000000,0.386006,-0.388395,1.165795,0.918059,-0.975671,1.238460,-0.216060,-0.296188,0.228026,-0.241034
-0.050000,-0.050000,0.012644,0.000000,0.000000,0.065181,0.000000,0.000000,0.212642,0.100000,0.100000,-0.048591,-0.230105,-0.050000,-0.050000,1.021081,-0.942177,0.000000,0.000000,0.393132,-0.393168,1.175132,0.924508,-0.973197,1.243111,-0.215259,-0.294811,0.225618,-0.237144
-0.050000,-0.050000,0.013568,0.000000,0.000000,0.066038,0.000000,0.000000,0.211251,0.100000,0.100000,-0.040460,-0.228955,-0.050000,-0.050000,1.023784,-0.944822,0.000000,0.000000,0.400424,-0.397732,1.183098,0.930586,-0.970549,1.247155,-0.214812,-0.293496,0.223464,-0.233362
-0.050000,-0.050000,0.014274,0.000000,0.000000,0.066853,0.000000,0.000000,0.209707,0.100000,0.100000,-0.032140,-0.227617,-0.050000,-0.050000,1.026041,-0.946892,0.000000,0.000000,0.407832,-0.402157,1.189978,0.936296,-0.967764,1.250674,-0.214597,-0.292250,0.221606,-0.229742
-0.050000,-0.050000,0.014631,0.000000,0.000000,0.067588,0.000000,0.000000,0.207964,0.100000,0.100000,-0.024024,-0.226002,-0.050000,-0.050000,1.027760,-0.948084,0.000000,0.000000,0.415029,-0.406163,1.195382,0.941529,-0.964943,1.253424,-0.214661,-0.291032,0.219919,-0.226253
-0.050000,-0.050000,0.014760,0.000000,0.000000,0.068235,0.000000,0.000000,0.206064,0.100000,0.100000,-0.016102,-0.224130,-0.050000,-0.050000,1.029083,-0.948567,0.000000,0.000000,0.421964,-0.409841,1.199637,0.946287,-0.962121,1.255479,-0.214903,-0.289874,0.218463,-0.222965
-0.050000,-0.050000,0.014679,0.000000,0.000000,0.068784,0.000000,0.000000,0.204014,0.100000,0.100000,-0.008527,-0.222011,-0.050000,-0.050000,1.030089,-0.948371,0.000000,0.000000,0.428512,-0.413136,1.202844,0.950568,-0.959351,1.256839,-0.215275,-0.288762,0.217177,-0.219882
-0.050000,-0.050000,0.014377,0.000000,0.000000,0.069204,0.000000,0.000000,0.201805,0.100000,0.100000,-0.001582,-0.219674,-0.050000,-0.050000,1.030860,-0.947472,0.000000,0.000000,0.434449,-0.415859,1.204982,0.954318,-0.956721,1.257412,-0.215744,-0.287688,0.215975,-0.217001
-0.050000,-0.050000,0.013969,0.000000,0.000000,0.069521,0.000000,0.000000,0.199474,0.100000,0.100000,0.004849,-0.217172,-0.050000,-0.050000,1.031510,-0.946065,0.000000,0.000000,0.439849,-0.418227,1.206437,0.957630,-0.954217,1.257367,-0.216257,-0.286689,0.214911,-0.214374
-0.050000,-0.050000,0.013391,0.000000,0.000000,0.069681,0.000000,0.000000,0.196988,0.100000,0.100000,0.010331,-0.214566,-0.050000,-0.050000,1.032139,-0.944108,0.000000,0.000000,0.444404,-0.419877,1.207037,0.960399,-0.951949,1.256544,-0.216790,-0.285747,0.213825,-0.211964
-0.050000,-0.050000,0.012752,0.000000,0.000000,0.069717,0.000000,0.000000,0.194380,0.100000,0.100000,0.014991,-0.211924,-0.050000,-0.050000,1.032834,-0.941777,0.000000,0.000000,0.448191,-0.421039,1.207137,0.962731,-0.949889,1.255100,-0.217305,-0.284914,0.212795,-0.209840
-0.050000,-0.050000,0.012077,0.000000,0.000000,0.069630,0.000000,0.000000,0.191663,0.100000,0.100000,0.018783,-0.209289,-0.050000,-0.050000,1.033662,-0.939175,0.000000,0.000000,0.451198,-0.421719,1.206843,0.964660,-0.948031,1.253100,-0.217787,-0.284192,0.211782,-0.207989
-0.050000,-0.050000,0.011371,0.000000,0.000000,0.069400,0.000000,0.000000,0.188831,0.100000,0.100000,0.021584,-0.206742,-0.050000,-0.050000,1.034702,-0.936399,0.000000,0.000000,0.453333,-0.421838,1.206167,0.966178,-0.946365,1.250542,-0.218219,-0.283606,0.210745,-0.206422
-0.050000,-0.050000,0.010691,0.000000,0.000000,0.069076,0.000000,0.000000,0.185924,0.100000,0.100000,0.023585,-0.204276,-0.050000,-0.050000,1.035929,-0.933520,0.000000,0.000000,0.454743,-0.421619,1.205330,0.967418,-0.944835,1.247575,-0.218605,-0.283153,0.209739,-0.205144
-0.050000,-0.050000,0.010008,0.000000,0.000000,0.068602,0.000000,0.000000,0.182922,0.100000,0.100000,0.024608,-0.201986,-0.050000,-0.050000,1.037427,-0.930658,0.000000,0.000000,0.455266,-0.420883,1.204164,0.968307,-0.943377,1.244130,-0.218943,-0.282863,0.208698,-0.204161
-0.050000,-0.050000,0.009363,0.000000,0.000000,0.068027,0.000000,0.000000,0.179864,0.100000,0.100000,0.024841,-0.199854,-0.050000,-0.050000,1.039127,-0.927841,0.000000,0.000000,0.455030,-0.419830,1.202819,0.968975,-0.941918,1.240317,-0.219242,-0.282723,0.207699,-0.203489
-0.050000,-0.050000,0.008758,0.000000,0.000000,0.067354,0.000000,0.000000,0.176768,0.100000,0.100000,0.024367,-0.197869,-0.050000,-0.050000,1.041005,-0.925118,0.000000,0.000000,0.454089,-0.418515,1.201274,0.969454,-0.940378,1.236176,-0.219524,-0.282711,0.206743,-0.203104
-0.050000,-0.050000,0.008176,0.000000,0.000000,0.066567,0.000000,0.000000,0.173657,0.100000,0.100000,0.023236,-0.196043,-0.050000,-0.050000,1.043029,-0.922548,0.000000,0.000000,0.452411,-0.416936,1.199406,0.969757,-0.938631,1.231699,-0.219811,-0.282804,0.205827,-0.203004
-0.050000,-0.050000,0.007641,0.000000,0.000000,0.065715,0.000000,0.000000,0.170545,0.100000,0.100000,0.021599,-0.194320,-0.050000,-0.050000,1.045120,-0.920096,0.000000,0.000000,0.450161,-0.415221,1.197314,0.969964,-0.936688,1.226972,-0.220106,-0.282961,0.205002,-0.203150
-0.050000,-0.050000,0.007107,0.000000,0.000000,0.064742,0.000000,0.000000,0.167481,0.100000,0.100000,0.019482,-0.192716,-0.050000,-0.050000,1.047247,-0.917840,0.000000,0.000000,0.447210,-0.413293,1.194728,0.970043,-0.934367,1.221936,-0.220451,-0.283123,0.204212,-0.203538
-0.050000,-0.050000,0.006602,0.000000,0.000000,0.063696,0.000000,0.000000,0.164474,0.100000,0.100000,0.016996,-0.191182,-0.050000,-0.050000,1.049326,-0.915735,0.000000,0.000000,0.443710,-0.411245,1.191732,0.970059,-0.931713,1.216663,-0.220835,-0.283239,0.203513,-0.204131
-0.050000,-0.050000,0.006115,0.000000,0.000000,0.062581,0.000000,0.000000,0.161553,0.100000,0.100000,0.014219,-0.189691,-0.050000,-0.050000,1.051310,-0.913775,0.000000,0.000000,0.439709,-0.409088,1.188289,0.970017,-0.928726,1.211181,-0.221265,-0.283255,0.202880,-0.204882
-0.050000,-0.050000,0.005634,0.000000,0.000000,0.061377,0.000000,0.000000,0.158769,0.100000,0.100000,0.011194,-0.188230,-0.050000,-0.050000,1.053129,-0.911960,0.000000,0.000000,0.435202,-0.406771,1.184310,0.969902,-0.925417,1.205505,-0.221738,-0.283081,0.202256,-0.205743
-0.050000,-0.050000,0.005174,0.000000,0.000000,0.060132,0.000000,0.000000,0.156092,0.100000,0.100000,0.007988,-0.186781,-0.050000,-0.050000,1.054778,-0.910264,0.000000,0.000000,0.430341,-0.404366,1.179932,0.969743,-0.921884,1.199697,-0.222234,-0.282733,0.201679,-0.206684
-0.050000,-0.050000,0.004718,0.000000,0.000000,0.058787,0.000000,0.000000,0.153627,0.100000,0.100000,0.004598,-0.185359,-0.050000,-0.050000,1.056140,-0.908681,0.000000,0.000000,0.425046,-0.401715,1.175026,0.969464,-0.918201,1.193760,-0.222730,-0.282066,0.200999,-0.207631
-0.050000,-0.050000,0.004281,0.000000,0.000000,0.057391,0.000000,0.000000,0.151339,0.100000,0.100000,0.001068,-0.183979,-0.050000,-0.050000,1.057218,-0.907201,0.000000,0.000000,0.419465,-0.398879,1.169759,0.969074,-0.914497,1.187755,-0.223197,-0.281120,0.200250,-0.208573
-0.050000,-0.050000,0.003861,0.000000,0.000000,0.055944,0.000000,0.000000,0.149244,0.100000,0.100000,-0.002586,-0.182658,-0.050000,-0.050000,1.057988,-0.905804,0.000000,0.000000,0.413651,-0.395822,1.164215,0.968540,-0.910891,1.181717,-0.223604,-0.279888,0.199379,-0.209474
-0.050000,-0.050000,0.003469,0.000000,0.000000,0.054431,0.000000,0.000000,0.147386,0.100000,0.100000,-0.006366,-0.181452,-0.050000,-0.050000,1.058364,-0.904472,0.000000,0.000000,0.407647,-0.392466,1.158494,0.967771,-0.907557,1.175687,-0.223898,-0.278351,0.198309,-0.210293
-0.050000,-0.050000,0.003084,0.000000,0.000000,0.052899,0.000000,0.000000,0.145712,0.100000,0.100000,-0.010225,-0.180362,-0.050000,-0.050000,1.058440,-0.903210,0.000000,0.000000,0.401544,-0.388891,1.152707,0.966816,-0.904498,1.169685,-0.224098,-0.276591,0.197073,-0.211063
-0.050000,-0.050000,0.002744,0.000000,0.000000,0.051299,0.000000,0.000000,0.144317,0.100000,0.100000,-0.014187,-0.179488,-0.050000,-0.050000,1.058017,-0.901979,0.000000,0.000000,0.395378,-0.384965,1.147011,0.965485,-0.901979,1.163777,-0.224103,-0.274584,0.195565,-0.211718
-0.050000,-0.050000,0.002415,0.000000,0.000000,0.049690,0.000000,0.000000,0.143152,0.100000,0.100000,-0.018195,-0.178833,-0.050000,-0.050000,1.057210,-0.900799,0.000000,0.000000,0.389232,-0.380787,1.141499,0.963832,-0.899962,1.157981,-0.223956,-0.272426,0.193829,-0.212317
-0.050000,-0.050000,0.002100,0.000000,0.000000,0.048075,0.000000,0.000000,0.142214,0.100000,0.100000,-0.022214,-0.178415,-0.050000,-0.050000,1.056019,-0.899655,0.000000,0.000000,0.383166,-0.376388,1.136264,0.961841,-0.898462,1.152326,-0.223654,-0.270178,0.191881,-0.212870
-0.050000,-0.050000,0.001812,0.000000,0.000000,0.046467,0.000000,0.000000,0.141524,0.100000,0.100000,-0.026196,-0.178269,-0.050000,-0.050000,1.054411,-0.898537,0.000000,0.000000,0.377262,-0.371827,1.131446,0.959459,-0.897526,1.146887,-0.223182,-0.267912,0.189750,-0.213384
-0.050000,-0.050000,0.001514,0.000000,0.000000,0.044890,0.000000,0.000000,0.141029,0.100000,0.100000,-0.030115,-0.178340,-0.050000,-0.050000,1.052521,-0.897456,0.000000,0.000000,0.371532,-0.367155,1.126977,0.956790,-0.897014,1.141631,-0.222608,-0.265662,0.187466,-0.213894
-0.050000,-0.050000,0.001255,0.000000,0.000000,0.043364,0.000000,0.000000,0.140775,0.100000,0.100000,-0.033867,-0.178671,-0.050000,-0.050000,1.050267,-0.896400,0.000000,0.000000,0.366119,-0.362532,1.123097,0.953770,-0.896990,1.136726,-0.221899,-0.263540,0.185134,-0.214401
-0.050000,-0.050000,0.000995,0.000000,0.000000,0.041915,0.000000,0.000000,0.140711,0.100000,0.100000,-0.037437,-0.179184,-0.050000,-0.050000,1.047800,-0.895387,0.000000,0.000000,0.361030,-0.357998,1.119690,0.950517,-0.897301,1.132142,-0.221131,-0.261556,0.182770,-0.214923
-0.050000,-0.050000,0.000739,0.000000,0.000000,0.040555,0.000000,0.000000,0.140809,0.100000,0.100000,-0.040776,-0.179834,-0.050000,-0.050000,1.045190,-0.894417,0.000000,0.000000,0.356300,-0.353646,1.116751,0.947116,-0.897851,1.127911,-0.220336,-0.259742,0.180445,-0.215466
-0.050000,-0.050000,0.000503,0.000000,0.000000,0.039317,0.000000,0.000000,0.141048,0.100000,0.100000,-0.043809,-0.180571,-0.050000,-0.050000,1.042521,-0.893506,0.000000,0.000000,0.352017,-0.349631,1.114323,0.943666,-0.898562,1.124120,-0.219549,-0.258150,0.178259,-0.216037
-0.050000,-0.050000,0.000265,0.000000,0.000000,0.038172,0.000000,0.000000,0.141387,0.100000,0.100000,-0.046592,-0.181347,-0.050000,-0.050000,1.039847,-0.892645,0.000000,0.000000,0.348098,-0.345865,1.112239,0.940217,-0.899351,1.120679,-0.218789,-0.256726,0.176166,-0.216598
