RRGGZZ/g1_deploy_sonic/data/example_scalelab/qwen_audio/g1_ref_en/case_test15/joint_pos.csv
joint_0,joint_1,joint_2,joint_3,joint_4,joint_5,joint_6,joint_7,joint_8,joint_9,joint_10,joint_11,joint_12,joint_13,joint_14,joint_15,joint_16,joint_17,joint_18,joint_19,joint_20,joint_21,joint_22,joint_23,joint_24,joint_25,joint_26,joint_27,joint_28
-0.050000,-0.050000,0.000000,0.000000,0.000000,0.000000,0.000000,0.000000,0.000000,0.100000,0.100000,-0.138356,-0.488872,-0.050000,-0.050000,0.383250,-0.745741,0.000000,0.000000,-0.475420,0.230130,1.107964,-0.172781,0.177238,-0.393749,-0.083601,-0.062093,0.015358,-0.499679
-0.050000,-0.050000,0.000000,0.000000,0.000000,0.000000,0.000000,0.000000,0.000000,0.100000,0.100000,-0.143404,-0.490421,-0.050000,-0.050000,0.375394,-0.749123,0.000000,0.000000,-0.473492,0.229007,1.124480,-0.168367,0.178983,-0.389134,-0.089736,-0.063280,0.016598,-0.501362
-0.050000,-0.050000,0.000000,0.000000,0.000000,0.000000,0.000000,0.000000,0.000000,0.100000,0.100000,-0.146971,-0.490723,-0.050000,-0.050000,0.368700,-0.751901,0.000000,0.000000,-0.471141,0.227037,1.139124,-0.164537,0.180730,-0.384333,-0.094499,-0.064244,0.017315,-0.502652
-0.050000,-0.050000,0.000000,0.000000,0.000000,0.000000,0.000000,0.000000,0.000000,0.100000,0.100000,-0.147573,-0.488527,-0.050000,-0.050000,0.364332,-0.753470,0.000000,0.000000,-0.467944,0.223371,1.150022,-0.161876,0.182482,-0.379165,-0.096519,-0.064763,0.016985,-0.503154
-0.050000,-0.050000,0.000000,0.000000,0.000000,0.000000,0.000000,0.000000,0.000000,0.100000,0.100000,-0.146423,-0.484583,-0.050000,-0.050000,0.361151,-0.754460,0.000000,0.000000,-0.464307,0.218529,1.159248,-0.159465,0.184030,-0.374020,-0.097160,-0.064877,0.016349,-0.503918
-0.050000,-0.050000,0.000000,0.000000,0.000000,0.000000,0.000000,0.000000,0.000000,0.100000,0.100000,-0.144396,-0.479765,-0.050000,-0.050000,0.358566,-0.755161,0.000000,0.000000,-0.460450,0.213099,1.167639,-0.157181,0.185476,-0.368887,-0.097112,-0.064788,0.015559,-0.504812
-0.050000,-0.050000,0.000000,0.000000,0.000000,0.000000,0.000000,0.000000,0.000000,0.100000,0.100000,-0.140771,-0.473025,-0.050000,-0.050000,0.356950,-0.755567,0.000000,0.000000,-0.456201,0.206298,1.174865,-0.154517,0.186492,-0.364147,-0.096066,-0.064344,0.014869,-0.506972
-0.050000,-0.050000,0.000000,0.000000,0.000000,0.000000,0.000000,0.000000,0.000000,0.100000,0.100000,-0.136824,-0.465781,-0.050000,-0.050000,0.355520,-0.755980,0.000000,0.000000,-0.451892,0.199139,1.181856,-0.151591,0.187360,-0.359609,-0.094893,-0.063870,0.014290,-0.509718
-0.050000,-0.050000,0.000000,0.000000,0.000000,0.000000,0.000000,0.000000,0.000000,0.100000,0.100000,-0.132233,-0.457530,-0.050000,-0.050000,0.354462,-0.756408,0.000000,0.000000,-0.447462,0.191263,1.188378,-0.148138,0.187933,-0.355475,-0.093466,-0.063336,0.013933,-0.513634
-0.050000,-0.050000,0.000000,0.000000,0.000000,0.000000,0.000000,0.000000,0.000000,0.100000,0.100000,-0.127301,-0.448416,-0.050000,-0.050000,0.353622,-0.756932,0.000000,0.000000,-0.443074,0.182872,1.194429,-0.143986,0.188272,-0.351740,-0.092050,-0.062888,0.013825,-0.518835
-0.050000,-0.050000,0.000000,0.000000,0.000000,0.000000,0.000000,0.000000,0.000000,0.100000,0.100000,-0.122198,-0.438870,-0.050000,-0.050000,0.352892,-0.757505,0.000000,0.000000,-0.438708,0.174223,1.200245,-0.139484,0.188493,-0.348205,-0.090639,-0.062483,0.013842,-0.524677
-0.050000,-0.050000,0.000000,0.000000,0.000000,0.000000,0.000000,0.000000,0.000000,0.100000,0.100000,-0.116974,-0.428143,-0.050000,-0.050000,0.352355,-0.758200,0.000000,0.000000,-0.434702,0.165156,1.205106,-0.133668,0.188527,-0.344977,-0.089511,-0.062333,0.014171,-0.532294
-0.050000,-0.050000,0.000000,0.000000,0.000000,0.000000,0.000000,0.000000,0.000000,0.100000,0.100000,-0.111837,-0.417056,-0.050000,-0.050000,0.351859,-0.758898,0.000000,0.000000,-0.430926,0.156100,1.209529,-0.127280,0.188557,-0.341659,-0.088527,-0.062272,0.014578,-0.540344
-0.050000,-0.050000,0.000000,0.000000,0.000000,0.000000,0.000000,0.000000,0.000000,0.100000,0.100000,-0.106875,-0.405246,-0.050000,-0.050000,0.351448,-0.759600,0.000000,0.000000,-0.427613,0.147064,1.213076,-0.119750,0.188582,-0.338162,-0.087830,-0.062389,0.015139,-0.549262
-0.050000,-0.050000,0.000000,0.000000,0.000000,0.000000,0.000000,0.000000,0.000000,0.100000,0.100000,-0.102359,-0.392830,-0.050000,-0.050000,0.351118,-0.760214,0.000000,0.000000,-0.424989,0.138425,1.215493,-0.110669,0.188685,-0.333971,-0.087442,-0.062619,0.015827,-0.558537
-0.050000,-0.050000,0.000000,0.000000,0.000000,0.000000,0.000000,0.000000,0.000000,0.100000,0.100000,-0.098066,-0.380112,-0.050000,-0.050000,0.350829,-0.760785,0.000000,0.000000,-0.422710,0.129985,1.217346,-0.100813,0.188826,-0.329431,-0.087209,-0.062905,0.016580,-0.567990
-0.050000,-0.050000,0.000000,0.000000,0.000000,0.000000,0.000000,0.000000,0.000000,0.100000,0.100000,-0.094882,-0.366806,-0.050000,-0.050000,0.350717,-0.761125,0.000000,0.000000,-0.421783,0.122830,1.217174,-0.087792,0.189109,-0.323001,-0.087366,-0.063182,0.017552,-0.576960
-0.050000,-0.050000,0.000000,0.000000,0.000000,0.000000,0.000000,0.000000,0.000000,0.100000,0.100000,-0.092224,-0.353471,-0.050000,-0.050000,0.350694,-0.761381,0.000000,0.000000,-0.421394,0.116368,1.216244,-0.073376,0.189408,-0.315683,-0.087607,-0.063386,0.018627,-0.585362
-0.050000,-0.050000,0.000000,0.000000,0.000000,0.000000,0.000000,0.000000,0.000000,0.100000,0.100000,-0.090616,-0.340077,-0.050000,-0.050000,0.350852,-0.761470,0.000000,0.000000,-0.422081,0.111295,1.213800,-0.056172,0.189738,-0.306589,-0.088016,-0.063445,0.019908,-0.592626
-0.050000,-0.050000,0.000000,0.000000,0.000000,0.000000,0.000000,0.000000,0.000000,0.100000,0.100000,-0.090365,-0.327053,-0.050000,-0.050000,0.351252,-0.761419,0.000000,0.000000,-0.423966,0.108181,1.209742,-0.035456,0.189978,-0.295355,-0.088495,-0.063234,0.021473,-0.597844
-0.050000,-0.050000,0.000000,0.000000,0.000000,0.000000,0.000000,0.000000,0.000000,0.100000,0.100000,-0.090793,-0.314215,-0.050000,-0.050000,0.351773,-0.761300,0.000000,0.000000,-0.426451,0.106046,1.204876,-0.012984,0.190172,-0.283051,-0.089008,-0.062888,0.023180,-0.602040
-0.050000,-0.050000,0.000000,0.000000,0.000000,0.000000,0.000000,0.000000,0.000000,0.100000,0.100000,-0.093658,-0.302640,-0.050000,-0.050000,0.352718,-0.761006,0.000000,0.000000,-0.430816,0.107696,1.197525,0.015753,0.190013,-0.267354,-0.089540,-0.062010,0.025424,-0.601751
-0.050000,-0.050000,0.000000,0.000000,0.000000,0.000000,0.000000,0.000000,0.000000,0.100000,0.100000,-0.097427,-0.291697,-0.050000,-0.050000,0.353800,-0.760626,0.000000,0.000000,-0.435796,0.110855,1.189351,0.046821,0.189675,-0.250630,-0.090085,-0.060936,0.027876,-0.599525
-0.050000,-0.050000,0.000000,0.000000,0.000000,0.000000,0.000000,0.000000,0.000000,0.100000,0.100000,-0.103004,-0.282021,-0.050000,-0.050000,0.355158,-0.760073,0.000000,0.000000,-0.442007,0.117033,1.179529,0.082553,0.188979,-0.231851,-0.090659,-0.059471,0.030744,-0.593424
-0.050000,-0.050000,0.000000,0.000000,0.000000,0.000000,0.000000,0.000000,0.000000,0.100000,0.100000,-0.110435,-0.273887,-0.050000,-0.050000,0.356729,-0.759135,0.000000,0.000000,-0.449332,0.126579,1.168120,0.123145,0.187872,-0.211617,-0.091361,-0.057619,0.034069,-0.582754
-0.050000,-0.050000,0.000000,0.000000,0.000000,0.000000,0.000000,0.000000,0.000000,0.100000,0.100000,-0.118794,-0.266524,-0.050000,-0.050000,0.358407,-0.758003,0.000000,0.000000,-0.457215,0.137809,1.155916,0.166167,0.186559,-0.190655,-0.092128,-0.055572,0.037623,-0.569799
-0.050000,-0.050000,0.000000,0.000000,0.000000,0.000000,0.000000,0.000000,0.000000,0.100000,0.100000,-0.133239,-0.269489,-0.050000,-0.050000,0.360767,-0.757190,0.000000,0.000000,-0.467249,0.155594,1.140291,0.225122,0.183649,-0.165248,-0.091940,-0.056195,0.041473,-0.548005
-0.050000,-0.050000,0.000000,0.000000,0.000000,0.000000,0.000000,0.000000,0.000000,0.100000,0.100000,-0.147440,-0.271711,-0.050000,-0.050000,0.362965,-0.755096,0.000000,0.000000,-0.477061,0.175130,1.124408,0.284349,0.180851,-0.141348,-0.092310,-0.056120,0.045670,-0.524077
-0.050000,-0.050000,0.000000,0.000000,0.000000,0.000000,0.000000,0.000000,0.000000,0.100000,0.100000,-0.161155,-0.272447,-0.050000,-0.050000,0.364839,-0.750439,0.000000,0.000000,-0.486426,0.198167,1.108007,0.344121,0.178276,-0.120461,-0.093794,-0.054648,0.050560,-0.495878
-0.050000,-0.050000,0.000000,0.000000,0.000000,0.000000,0.000000,0.000000,0.000000,0.100000,0.100000,-0.175266,-0.272721,-0.050000,-0.050000,0.366699,-0.743288,0.000000,0.000000,-0.495943,0.223386,1.090734,0.405739,0.175865,-0.102357,-0.096085,-0.052317,0.055997,-0.463884
-0.050000,-0.050000,0.000000,0.000000,0.000000,0.000000,0.000000,0.000000,0.000000,0.100000,0.100000,-0.189574,-0.272764,-0.050000,-0.050000,0.368552,-0.734890,0.000000,0.000000,-0.505536,0.249696,1.073025,0.468279,0.173537,-0.085646,-0.098778,-0.049557,0.061708,-0.429994
-0.050000,-0.050000,0.000000,0.000000,0.000000,0.000000,0.000000,0.000000,0.000000,0.100000,0.100000,-0.204097,-0.271591,-0.050000,-0.050000,0.370296,-0.722245,0.000000,0.000000,-0.514952,0.277480,1.054611,0.532457,0.171619,-0.074285,-0.102392,-0.046156,0.067901,-0.392671
-0.050000,-0.050000,0.000000,0.000000,0.000000,0.000000,0.000000,0.000000,0.000000,0.100000,0.100000,-0.218421,-0.269702,-0.050000,-0.050000,0.371983,-0.708108,0.000000,0.000000,-0.524141,0.305054,1.036254,0.596532,0.169898,-0.064885,-0.106188,-0.042664,0.074108,-0.355142
-0.050000,-0.050000,0.000000,0.000000,0.000000,0.000000,0.000000,0.000000,0.000000,0.100000,0.100000,-0.232347,-0.266379,-0.050000,-0.050000,0.373554,-0.690990,0.000000,0.000000,-0.532878,0.332208,1.018007,0.660398,0.168569,-0.059404,-0.110350,-0.038989,0.080343,-0.317199
-0.050000,-0.050000,0.000000,0.000000,0.000000,0.000000,0.000000,0.000000,0.000000,0.100000,0.100000,-0.245322,-0.261239,-0.050000,-0.050000,0.374991,-0.671124,0.000000,0.000000,-0.540900,0.357566,1.000554,0.722689,0.167635,-0.057459,-0.114505,-0.035273,0.086215,-0.280689
-0.050000,-0.050000,0.000000,0.000000,0.000000,0.000000,0.000000,0.000000,0.000000,0.100000,0.100000,-0.257821,-0.255191,-0.050000,-0.050000,0.376361,-0.649883,0.000000,0.000000,-0.548564,0.382027,0.983497,0.784194,0.166897,-0.057283,-0.118656,-0.031536,0.091905,-0.244894
-0.050000,-0.050000,0.000000,0.000000,0.000000,0.000000,0.000000,0.000000,0.000000,0.100000,0.100000,-0.268215,-0.246575,-0.050000,-0.050000,0.377488,-0.625443,0.000000,0.000000,-0.554878,0.402238,0.968731,0.841506,0.166525,-0.060871,-0.122136,-0.027791,0.096397,-0.213429
-0.050000,-0.050000,0.000000,0.000000,0.000000,0.000000,0.000000,0.000000,0.000000,0.100000,0.100000,-0.277757,-0.237403,-0.050000,-0.050000,0.378510,-0.600387,0.000000,0.000000,-0.560675,0.420784,0.955080,0.896921,0.166143,-0.065046,-0.125185,-0.024023,0.100295,-0.183818
-0.050000,-0.050000,0.000000,0.000000,0.000000,0.000000,0.000000,0.000000,0.000000,0.100000,0.100000,-0.285597,-0.227121,-0.050000,-0.050000,0.379320,-0.574100,0.000000,0.000000,-0.565439,0.436003,0.943660,0.948542,0.165739,-0.070393,-0.127376,-0.020210,0.103005,-0.157915
-0.050000,-0.050000,0.000000,0.000000,0.000000,0.000000,0.000000,0.000000,0.000000,0.100000,0.100000,-0.290245,-0.213476,-0.050000,-0.050000,0.379009,-0.549275,0.000000,0.000000,-0.569006,0.448110,0.935253,0.991682,0.165293,-0.075186,-0.128840,-0.015117,0.104579,-0.136565
-0.050000,-0.050000,0.000000,0.000000,0.000000,0.000000,0.000000,0.000000,0.000000,0.100000,0.100000,-0.293297,-0.198149,-0.050000,-0.050000,0.378139,-0.525183,0.000000,0.000000,-0.571974,0.458661,0.928352,1.030581,0.164825,-0.079702,-0.129942,-0.009384,0.105584,-0.117492
-0.050000,-0.050000,0.000000,0.000000,0.000000,0.000000,0.000000,0.000000,0.000000,0.100000,0.100000,-0.294746,-0.187325,-0.050000,-0.050000,0.377469,-0.500778,0.000000,0.000000,-0.573474,0.465092,0.925634,1.066428,0.163262,-0.083509,-0.128720,-0.004861,0.104356,-0.102257
-0.050000,-0.050000,0.000000,0.000000,0.000000,0.000000,0.000000,0.000000,0.000000,0.100000,0.100000,-0.295518,-0.177673,-0.050000,-0.050000,0.376724,-0.477023,0.000000,0.000000,-0.574322,0.470579,0.924478,1.100095,0.161303,-0.086797,-0.126871,-0.000706,0.102486,-0.088441
-0.050000,-0.050000,0.000000,0.000000,0.000000,0.000000,0.000000,0.000000,0.000000,0.100000,0.100000,-0.294937,-0.170362,-0.050000,-0.050000,0.375827,-0.454566,0.000000,0.000000,-0.573868,0.474179,0.926449,1.129401,0.158555,-0.089045,-0.123765,0.002711,0.099329,-0.077460
-0.050000,-0.050000,0.000000,0.000000,0.000000,0.000000,0.000000,0.000000,0.000000,0.100000,0.100000,-0.293108,-0.165344,-0.050000,-0.050000,0.374606,-0.434405,0.000000,0.000000,-0.572115,0.476770,0.931363,1.153559,0.155050,-0.090280,-0.119777,0.005421,0.095333,-0.068793
-0.050000,-0.050000,0.000000,0.000000,0.000000,0.000000,0.000000,0.000000,0.000000,0.100000,0.100000,-0.290655,-0.161473,-0.050000,-0.050000,0.373223,-0.415391,0.000000,0.000000,-0.569713,0.478858,0.937748,1.175143,0.151166,-0.091008,-0.115350,0.007777,0.090915,-0.061283
-0.050000,-0.050000,0.000000,0.000000,0.000000,0.000000,0.000000,0.000000,0.000000,0.100000,0.100000,-0.286725,-0.161032,-0.050000,-0.050000,0.371268,-0.400719,0.000000,0.000000,-0.565479,0.480557,0.947793,1.188849,0.146324,-0.090657,-0.110261,0.008932,0.086076,-0.056485
-0.050000,-0.050000,0.000000,0.000000,0.000000,0.000000,0.000000,0.000000,0.000000,0.100000,0.100000,-0.282457,-0.161662,-0.050000,-0.050000,0.369149,-0.387612,0.000000,0.000000,-0.560707,0.482373,0.958691,1.200089,0.141257,-0.090087,-0.105178,0.009653,0.081370,-0.052430
-0.050000,-0.050000,0.000000,0.000000,0.000000,0.000000,0.000000,0.000000,0.000000,0.100000,0.100000,-0.277513,-0.164435,-0.050000,-0.050000,0.366703,-0.377633,0.000000,0.000000,-0.554857,0.484422,0.971294,1.206397,0.135736,-0.089079,-0.100106,0.009505,0.076931,-0.049861
-0.050000,-0.050000,0.000000,0.000000,0.000000,0.000000,0.000000,0.000000,0.000000,0.100000,0.100000,-0.272196,-0.169064,-0.050000,-0.050000,0.364085,-0.370696,0.000000,0.000000,-0.548150,0.486887,0.984728,1.208377,0.129973,-0.087712,-0.095428,0.008536,0.073193,-0.048602
-0.050000,-0.050000,0.000000,0.000000,0.000000,0.000000,0.000000,0.000000,0.000000,0.100000,0.100000,-0.266693,-0.174622,-0.050000,-0.050000,0.361381,-0.365280,0.000000,0.000000,-0.541015,0.489560,0.998577,1.208192,0.124089,-0.086165,-0.090947,0.007157,0.069807,-0.048000
-0.050000,-0.050000,0.000000,0.000000,0.000000,0.000000,0.000000,0.000000,0.000000,0.100000,0.100000,-0.261073,-0.182397,-0.050000,-0.050000,0.358774,-0.363922,0.000000,0.000000,-0.533014,0.492714,1.012289,1.202660,0.118134,-0.083805,-0.087436,0.004798,0.067873,-0.049176
-0.050000,-0.050000,0.000000,0.000000,0.000000,0.000000,0.000000,0.000000,0.000000,0.100000,0.100000,-0.255564,-0.190703,-0.050000,-0.050000,0.356341,-0.363665,0.000000,0.000000,-0.524873,0.495885,1.025508,1.195747,0.112226,-0.080974,-0.084295,0.002239,0.066474,-0.050858
-0.050000,-0.050000,0.000000,0.000000,0.000000,0.000000,0.000000,0.000000,0.000000,0.100000,0.100000,-0.250273,-0.200073,-0.050000,-0.050000,0.354260,-0.365608,0.000000,0.000000,-0.516451,0.499093,1.037740,1.186073,0.106410,-0.077203,-0.081894,-0.000722,0.066144,-0.053553
-0.050000,-0.050000,0.000000,0.000000,0.000000,0.000000,0.000000,0.000000,0.000000,0.100000,0.100000,-0.245505,-0.210102,-0.050000,-0.050000,0.352829,-0.369154,0.000000,0.000000,-0.508000,0.501958,1.048161,1.174377,0.100730,-0.071983,-0.080188,-0.003822,0.066870,-0.056997
-0.050000,-0.050000,0.000000,0.000000,0.000000,0.000000,0.000000,0.000000,0.000000,0.100000,0.100000,-0.240999,-0.220461,-0.050000,-0.050000,0.351724,-0.373501,0.000000,0.000000,-0.499536,0.504651,1.057677,1.161670,0.095118,-0.066038,-0.078830,-0.006991,0.068123,-0.060818
-0.050000,-0.050000,0.000000,0.000000,0.000000,0.000000,0.000000,0.000000,0.000000,0.100000,0.100000,-0.237737,-0.231255,-0.050000,-0.050000,0.352012,-0.379329,0.000000,0.000000,-0.491254,0.506223,1.063368,1.146811,0.089561,-0.057131,-0.078319,-0.010060,0.070858,-0.065277
-0.050000,-0.050000,0.000000,0.000000,0.000000,0.000000,0.000000,0.000000,0.000000,0.100000,0.100000,-0.235027,-0.242032,-0.050000,-0.050000,0.352872,-0.385362,0.000000,0.000000,-0.483034,0.507223,1.067455,1.131426,0.083879,-0.047000,-0.078017,-0.013046,0.074053,-0.069795
-0.050000,-0.050000,0.000000,0.000000,0.000000,0.000000,0.000000,0.000000,0.000000,0.100000,0.100000,-0.233424,-0.252776,-0.050000,-0.050000,0.354874,-0.391803,0.000000,0.000000,-0.474936,0.507079,1.068335,1.114990,0.077948,-0.034419,-0.078132,-0.015869,0.078165,-0.074430
-0.050000,-0.050000,0.000000,0.000000,0.000000,0.000000,0.000000,0.000000,0.000000,0.100000,0.100000,-0.233123,-0.263204,-0.050000,-0.050000,0.358133,-0.398161,0.000000,0.000000,-0.466797,0.505409,1.065433,1.097654,0.071270,-0.018992,-0.078570,-0.018565,0.083140,-0.078977
-0.050000,-0.050000,0.000000,0.000000,0.000000,0.000000,0.000000,0.000000,0.000000,0.100000,0.100000,-0.233474,-0.273474,-0.050000,-0.050000,0.362020,-0.404479,0.000000,0.000000,-0.458636,0.502978,1.060640,1.079869,0.064219,-0.002143,-0.079169,-0.021198,0.088547,-0.083480
-0.050000,-0.050000,0.000000,0.000000,0.000000,0.000000,0.000000,0.000000,0.000000,0.100000,0.100000,-0.235879,-0.282891,-0.050000,-0.050000,0.367756,-0.410116,0.000000,0.000000,-0.449936,0.497727,1.049480,1.060639,0.055002,0.019419,-0.080254,-0.023897,0.095159,-0.087788
-0.050000,-0.050000,0.000000,0.000000,0.000000,0.000000,0.000000,0.000000,0.000000,0.100000,0.100000,-0.238915,-0.291913,-0.050000,-0.050000,0.374016,-0.415409,0.000000,0.000000,-0.440845,0.491384,1.036056,1.040816,0.044651,0.042635,-0.081557,-0.026761,0.102125,-0.092092
-0.050000,-0.050000,0.000000,0.000000,0.000000,0.000000,0.000000,0.000000,0.000000,0.100000,0.100000,-0.243216,-0.300143,-0.050000,-0.050000,0.381323,-0.420015,0.000000,0.000000,-0.430971,0.482857,1.018103,1.019809,0.032030,0.069160,-0.083299,-0.029954,0.109799,-0.096388
-0.050000,-0.050000,0.000000,0.000000,0.000000,0.000000,0.000000,0.000000,0.000000,0.100000,0.100000,-0.248502,-0.307410,-0.050000,-0.050000,0.389322,-0.423835,0.000000,0.000000,-0.419858,0.471938,0.995617,0.997334,0.016306,0.098987,-0.085681,-0.033829,0.118006,-0.100900
-0.050000,-0.050000,0.000000,0.000000,0.000000,0.000000,0.000000,0.000000,0.000000,0.100000,0.100000,-0.254281,-0.314193,-0.050000,-0.050000,0.397667,-0.427262,0.000000,0.000000,-0.408126,0.459823,0.970863,0.974126,-0.000971,0.130464,-0.088384,-0.038046,0.126480,-0.105518
-0.050000,-0.050000,0.000000,0.000000,0.000000,0.000000,0.000000,0.000000,0.000000,0.100000,0.100000,-0.260925,-0.319391,-0.050000,-0.050000,0.406301,-0.429533,0.000000,0.000000,-0.393933,0.444034,0.939861,0.948392,-0.023927,0.166530,-0.092400,-0.043829,0.135342,-0.110796
-0.050000,-0.050000,0.000000,0.000000,0.000000,0.000000,0.000000,0.000000,0.000000,0.100000,0.100000,-0.267627,-0.324074,-0.050000,-0.050000,0.414741,-0.431469,0.000000,0.000000,-0.378791,0.427090,0.907168,0.921798,-0.048969,0.203869,-0.096944,-0.050282,0.144151,-0.116357
-0.050000,-0.050000,0.000000,0.000000,0.000000,0.000000,0.000000,0.000000,0.000000,0.100000,0.100000,-0.274445,-0.327725,-0.050000,-0.050000,0.422792,-0.432734,0.000000,0.000000,-0.361749,0.407835,0.871097,0.893485,-0.078181,0.243753,-0.102547,-0.058071,0.152850,-0.122487
-0.050000,-0.050000,0.000000,0.000000,0.000000,0.000000,0.000000,0.000000,0.000000,0.100000,0.100000,-0.280966,-0.330511,-0.050000,-0.050000,0.429893,-0.433490,0.000000,0.000000,-0.342762,0.386614,0.832816,0.863676,-0.111547,0.285394,-0.109260,-0.067340,0.161028,-0.129174
-0.050000,-0.050000,0.000000,0.000000,0.000000,0.000000,0.000000,0.000000,0.000000,0.100000,0.100000,-0.287338,-0.332863,-0.050000,-0.050000,0.436518,-0.433992,0.000000,0.000000,-0.322801,0.364410,0.793429,0.833119,-0.146988,0.327914,-0.116527,-0.077348,0.168945,-0.136140
-0.050000,-0.050000,0.000000,0.000000,0.000000,0.000000,0.000000,0.000000,0.000000,0.100000,0.100000,-0.292840,-0.334343,-0.050000,-0.050000,0.441086,-0.434047,0.000000,0.000000,-0.300208,0.340038,0.752850,0.801045,-0.187996,0.371571,-0.125268,-0.089476,0.175523,-0.143757
-0.050000,-0.050000,0.000000,0.000000,0.000000,0.000000,0.000000,0.000000,0.000000,0.100000,0.100000,-0.298630,-0.336291,-0.050000,-0.050000,0.445844,-0.434761,0.000000,0.000000,-0.276632,0.314885,0.710908,0.767476,-0.232105,0.416525,-0.133614,-0.101953,0.181433,-0.151776
-0.050000,-0.050000,0.000000,0.000000,0.000000,0.000000,0.000000,0.000000,0.000000,0.100000,0.100000,-0.304997,-0.339175,-0.050000,-0.050000,0.450982,-0.436794,0.000000,0.000000,-0.251090,0.288171,0.666239,0.730917,-0.282418,0.464074,-0.141170,-0.115128,0.186009,-0.160602
-0.050000,-0.050000,0.000000,0.000000,0.000000,0.000000,0.000000,0.000000,0.000000,0.100000,0.100000,-0.309654,-0.341224,-0.050000,-0.050000,0.452923,-0.437798,0.000000,0.000000,-0.225048,0.261951,0.626742,0.697182,-0.331867,0.507382,-0.150230,-0.129355,0.189534,-0.169202
-0.050000,-0.050000,0.000000,0.000000,0.000000,0.000000,0.000000,0.000000,0.000000,0.100000,0.100000,-0.313457,-0.342856,-0.050000,-0.050000,0.453265,-0.438287,0.000000,0.000000,-0.198756,0.235979,0.589832,0.664860,-0.380884,0.548569,-0.160042,-0.144109,0.192534,-0.177689
-0.050000,-0.050000,0.000000,0.000000,0.000000,0.000000,0.000000,0.000000,0.000000,0.100000,0.100000,-0.316437,-0.344892,-0.050000,-0.050000,0.451652,-0.439406,0.000000,0.000000,-0.172075,0.210738,0.558132,0.634644,-0.430306,0.585759,-0.170456,-0.159509,0.194250,-0.186364
-0.050000,-0.050000,0.000000,0.000000,0.000000,0.000000,0.000000,0.000000,0.000000,0.100000,0.100000,-0.319274,-0.347155,-0.050000,-0.050000,0.449757,-0.440892,0.000000,0.000000,-0.145470,0.185924,0.528236,0.605265,-0.479337,0.621347,-0.180790,-0.174812,0.195756,-0.195168
-0.050000,-0.050000,0.000000,0.000000,0.000000,0.000000,0.000000,0.000000,0.000000,0.100000,0.100000,-0.321826,-0.349868,-0.050000,-0.050000,0.447299,-0.443109,0.000000,0.000000,-0.119017,0.161967,0.501950,0.577559,-0.527588,0.653733,-0.190962,-0.189919,0.196844,-0.204233
-0.050000,-0.050000,0.000000,0.000000,0.000000,0.000000,0.000000,0.000000,0.000000,0.100000,0.100000,-0.324195,-0.352919,-0.050000,-0.050000,0.444917,-0.446199,0.000000,0.000000,-0.093028,0.139122,0.479151,0.551684,-0.573921,0.682465,-0.200844,-0.204479,0.198090,-0.213702
-0.050000,-0.050000,0.000000,0.000000,0.000000,0.000000,0.000000,0.000000,0.000000,0.100000,0.100000,-0.326473,-0.356140,-0.050000,-0.050000,0.442571,-0.449725,0.000000,0.000000,-0.067270,0.116835,0.458096,0.526726,-0.619297,0.709369,-0.210580,-0.218765,0.199413,-0.223373
-0.050000,-0.050000,0.000000,0.000000,0.000000,0.000000,0.000000,0.000000,0.000000,0.100000,0.100000,-0.325912,-0.357189,-0.050000,-0.050000,0.439664,-0.453323,0.000000,0.000000,-0.043865,0.097164,0.443334,0.506987,-0.655560,0.728523,-0.220200,-0.231609,0.202448,-0.232555
-0.050000,-0.050000,0.000000,0.000000,0.000000,0.000000,0.000000,0.000000,0.000000,0.100000,0.100000,-0.326678,-0.359374,-0.050000,-0.050000,0.438127,-0.458107,0.000000,0.000000,-0.020030,0.077598,0.428416,0.486349,-0.692949,0.747014,-0.229748,-0.244386,0.205652,-0.242727
-0.050000,-0.050000,0.000000,0.000000,0.000000,0.000000,0.000000,0.000000,0.000000,0.100000,0.100000,-0.330099,-0.363828,-0.050000,-0.050000,0.439330,-0.465263,0.000000,0.000000,0.004662,0.058243,0.413186,0.463914,-0.732590,0.764178,-0.239152,-0.257028,0.209194,-0.254880
-0.050000,-0.050000,0.000000,0.000000,0.000000,0.000000,0.000000,0.000000,0.000000,0.100000,0.100000,-0.330278,-0.365205,-0.050000,-0.050000,0.440368,-0.471866,0.000000,0.000000,0.027052,0.040937,0.401524,0.445708,-0.763226,0.776120,-0.248473,-0.268244,0.214192,-0.265789
-0.050000,-0.050000,0.000000,0.000000,0.000000,0.000000,0.000000,0.000000,0.000000,0.100000,0.100000,-0.328836,-0.365044,-0.050000,-0.050000,0.441324,-0.478195,0.000000,0.000000,0.048291,0.024656,0.391646,0.429617,-0.789361,0.785450,-0.257751,-0.278747,0.219917,-0.276076
-0.050000,-0.050000,0.000000,0.000000,0.000000,0.000000,0.000000,0.000000,0.000000,0.100000,0.100000,-0.331024,-0.367492,-0.050000,-0.050000,0.445909,-0.486344,0.000000,0.000000,0.070325,0.008415,0.379986,0.410556,-0.815070,0.791095,-0.267832,-0.289204,0.227518,-0.289645
-0.050000,-0.050000,0.000000,0.000000,0.000000,0.000000,0.000000,0.000000,0.000000,0.100000,0.100000,-0.332343,-0.368988,-0.050000,-0.050000,0.450835,-0.494335,0.000000,0.000000,0.091581,-0.007218,0.368921,0.392464,-0.837581,0.794965,-0.277831,-0.299100,0.235604,-0.302979
-0.050000,-0.050000,0.000000,0.000000,0.000000,0.000000,0.000000,0.000000,0.000000,0.100000,0.100000,-0.331923,-0.368580,-0.050000,-0.050000,0.456442,-0.502009,0.000000,0.000000,0.111280,-0.021635,0.359045,0.376308,-0.853697,0.795284,-0.287668,-0.307872,0.244659,-0.315843
-0.050000,-0.050000,0.000000,0.000000,0.000000,0.000000,0.000000,0.000000,0.000000,0.100000,0.100000,-0.330397,-0.366859,-0.050000,-0.050000,0.462813,-0.509503,0.000000,0.000000,0.129804,-0.035304,0.349055,0.360894,-0.865202,0.793026,-0.297385,-0.316018,0.254593,-0.328579
-0.050000,-0.050000,0.000000,0.000000,0.000000,0.000000,0.000000,0.000000,0.000000,0.100000,0.100000,-0.328317,-0.364483,-0.050000,-0.050000,0.469567,-0.516906,0.000000,0.000000,0.147740,-0.048600,0.339008,0.345849,-0.874402,0.789481,-0.307041,-0.323852,0.264965,-0.341251
-0.050000,-0.050000,0.000000,0.000000,0.000000,0.000000,0.000000,0.000000,0.000000,0.100000,0.100000,-0.324912,-0.360502,-0.050000,-0.050000,0.477061,-0.523783,0.000000,0.000000,0.163912,-0.060898,0.328735,0.331722,-0.877707,0.782793,-0.315920,-0.330587,0.276284,-0.353742
-0.050000,-0.050000,0.000000,0.000000,0.000000,0.000000,0.000000,0.000000,0.000000,0.100000,0.100000,-0.321168,-0.356086,-0.050000,-0.050000,0.484617,-0.530387,0.000000,0.000000,0.179476,-0.072857,0.318477,0.317898,-0.879427,0.775311,-0.324358,-0.336905,0.287789,-0.366131
-0.050000,-0.050000,0.000000,0.000000,0.000000,0.000000,0.000000,0.000000,0.000000,0.100000,0.100000,-0.316747,-0.350798,-0.050000,-0.050000,0.492294,-0.536448,0.000000,0.000000,0.193821,-0.084138,0.308249,0.304681,-0.877980,0.766240,-0.331916,-0.342390,0.299665,-0.378316
-0.050000,-0.050000,0.000000,0.000000,0.000000,0.000000,0.000000,0.000000,0.000000,0.100000,0.100000,-0.311911,-0.344851,-0.050000,-0.050000,0.499712,-0.541792,0.000000,0.000000,0.206908,-0.094671,0.298272,0.292037,-0.874267,0.756145,-0.338318,-0.346985,0.311640,-0.390170
-0.050000,-0.050000,0.000000,0.000000,0.000000,0.000000,0.000000,0.000000,0.000000,0.100000,0.100000,-0.306868,-0.338575,-0.050000,-0.050000,0.506999,-0.546777,0.000000,0.000000,0.219366,-0.104831,0.288420,0.279681,-0.869420,0.745539,-0.344141,-0.351136,0.323664,-0.401858
-0.050000,-0.050000,0.000000,0.000000,0.000000,0.000000,0.000000,0.000000,0.000000,0.100000,0.100000,-0.301660,-0.331652,-0.050000,-0.050000,0.513424,-0.550479,0.000000,0.000000,0.229873,-0.113717,0.279184,0.268027,-0.862556,0.734295,-0.347994,-0.353970,0.335380,-0.412794
-0.050000,-0.050000,0.000000,0.000000,0.000000,0.000000,0.000000,0.000000,0.000000,0.100000,0.100000,-0.296547,-0.324633,-0.050000,-0.050000,0.519475,-0.553716,0.000000,0.000000,0.239705,-0.122124,0.270175,0.256519,-0.855420,0.723128,-0.351166,-0.356404,0.346826,-0.423380
-0.050000,-0.050000,0.000000,0.000000,0.000000,0.000000,0.000000,0.000000,0.000000,0.100000,0.100000,-0.291625,-0.317421,-0.050000,-0.050000,0.524775,-0.556020,0.000000,0.000000,0.248188,-0.129573,0.261621,0.245301,-0.847739,0.712116,-0.352979,-0.358038,0.357732,-0.433265
-0.050000,-0.050000,0.000000,0.000000,0.000000,0.000000,0.000000,0.000000,0.000000,0.100000,0.100000,-0.287153,-0.310258,-0.050000,-0.050000,0.529356,-0.557409,0.000000,0.000000,0.255258,-0.135971,0.253442,0.234154,-0.840062,0.701746,-0.353465,-0.358994,0.367755,-0.442245
-0.050000,-0.050000,0.000000,0.000000,0.000000,0.000000,0.000000,0.000000,0.000000,0.100000,0.100000,-0.282907,-0.303120,-0.050000,-0.050000,0.533578,-0.558340,0.000000,0.000000,0.261624,-0.141843,0.245450,0.223044,-0.832387,0.691698,-0.353287,-0.359612,0.377338,-0.450773
-0.050000,-0.050000,0.000000,0.000000,0.000000,0.000000,0.000000,0.000000,0.000000,0.100000,0.100000,-0.279640,-0.296423,-0.050000,-0.050000,0.537132,-0.558119,0.000000,0.000000,0.265765,-0.146051,0.237758,0.211735,-0.825048,0.683096,-0.351225,-0.359411,0.385143,-0.457692
-0.050000,-0.050000,0.000000,0.000000,0.000000,0.000000,0.000000,0.000000,0.000000,0.100000,0.100000,-0.276775,-0.289997,-0.050000,-0.050000,0.540721,-0.557663,0.000000,0.000000,0.269131,-0.149696,0.230063,0.200291,-0.817758,0.675025,-0.348582,-0.358995,0.392256,-0.464029
-0.050000,-0.050000,0.000000,0.000000,0.000000,0.000000,0.000000,0.000000,0.000000,0.100000,0.100000,-0.274713,-0.284114,-0.050000,-0.050000,0.544382,-0.556738,0.000000,0.000000,0.270946,-0.152214,0.222360,0.188575,-0.810564,0.668017,-0.344777,-0.358149,0.397986,-0.469204
-0.050000,-0.050000,0.000000,0.000000,0.000000,0.000000,0.000000,0.000000,0.000000,0.100000,0.100000,-0.273581,-0.279039,-0.050000,-0.050000,0.548824,-0.555794,0.000000,0.000000,0.271160,-0.153632,0.214477,0.176544,-0.803028,0.661929,-0.339939,-0.356968,0.402296,-0.473237
-0.050000,-0.050000,0.000000,0.000000,0.000000,0.000000,0.000000,0.000000,0.000000,0.100000,0.100000,-0.272914,-0.274368,-0.050000,-0.050000,0.553655,-0.554841,0.000000,0.000000,0.270574,-0.154500,0.206504,0.164355,-0.795322,0.656301,-0.334586,-0.355619,0.405897,-0.476700
-0.050000,-0.050000,0.000000,0.000000,0.000000,0.000000,0.000000,0.000000,0.000000,0.100000,0.100000,-0.273854,-0.271344,-0.050000,-0.050000,0.560861,-0.554717,0.000000,0.000000,0.267559,-0.153808,0.198141,0.151803,-0.786116,0.651526,-0.327991,-0.353898,0.407630,-0.478680
-0.050000,-0.050000,0.000000,0.000000,0.000000,0.000000,0.000000,0.000000,0.000000,0.100000,0.100000,-0.275424,-0.269033,-0.050000,-0.050000,0.569237,-0.555183,0.000000,0.000000,0.263744,-0.152632,0.189675,0.139226,-0.776040,0.646801,-0.321136,-0.352106,0.408933,-0.480303
-0.050000,-0.050000,0.000000,0.000000,0.000000,0.000000,0.000000,0.000000,0.000000,0.100000,0.100000,-0.278257,-0.268149,-0.050000,-0.050000,0.579956,-0.556829,0.000000,0.000000,0.258328,-0.150487,0.181004,0.126599,-0.764221,0.642178,-0.313761,-0.350175,0.409376,-0.481213
-0.050000,-0.050000,0.000000,0.000000,0.000000,0.000000,0.000000,0.000000,0.000000,0.100000,0.100000,-0.282620,-0.269061,-0.050000,-0.050000,0.593583,-0.560251,0.000000,0.000000,0.251357,-0.147432,0.172334,0.114243,-0.750007,0.637209,-0.306262,-0.348238,0.409507,-0.481762
-0.050000,-0.050000,0.000000,0.000000,0.000000,0.000000,0.000000,0.000000,0.000000,0.100000,0.100000,-0.287748,-0.270871,-0.050000,-0.050000,0.608665,-0.564559,0.000000,0.000000,0.243609,-0.143922,0.163664,0.102022,-0.734596,0.632068,-0.298701,-0.346299,0.409482,-0.482131
-0.050000,-0.050000,0.000000,0.000000,0.000000,0.000000,0.000000,0.000000,0.000000,0.100000,0.100000,-0.295685,-0.275973,-0.050000,-0.050000,0.628471,-0.572221,0.000000,0.000000,0.233596,-0.139058,0.155532,0.090888,-0.715042,0.626004,-0.291585,-0.344573,0.409903,-0.482494
-0.050000,-0.050000,0.000000,0.000000,0.000000,0.000000,0.000000,0.000000,0.000000,0.100000,0.100000,-0.304756,-0.282370,-0.050000,-0.050000,0.649765,-0.581117,0.000000,0.000000,0.222832,-0.133709,0.147821,0.080410,-0.694153,0.619653,-0.284789,-0.342977,0.410739,-0.482988
-0.050000,-0.050000,0.000000,0.000000,0.000000,0.000000,0.000000,0.000000,0.000000,0.100000,0.100000,-0.316096,-0.291360,-0.050000,-0.050000,0.674034,-0.592483,0.000000,0.000000,0.210567,-0.127389,0.140952,0.071245,-0.670596,0.612725,-0.278629,-0.341640,0.412403,-0.483745
-0.050000,-0.050000,0.000000,0.000000,0.000000,0.000000,0.000000,0.000000,0.000000,0.100000,0.100000,-0.330103,-0.303298,-0.050000,-0.050000,0.700663,-0.606259,0.000000,0.000000,0.196739,-0.119937,0.135502,0.064093,-0.645038,0.605628,-0.273275,-0.340602,0.415203,-0.484863
-0.050000,-0.050000,0.000000,0.000000,0.000000,0.000000,0.000000,0.000000,0.000000,0.100000,0.100000,-0.345444,-0.316711,-0.050000,-0.050000,0.728472,-0.621242,0.000000,0.000000,0.182129,-0.111918,0.130760,0.057947,-0.618479,0.598448,-0.268323,-0.339715,0.418572,-0.486161
-0.050000,-0.050000,0.000000,0.000000,0.000000,0.000000,0.000000,0.000000,0.000000,0.100000,0.100000,-0.365293,-0.334946,-0.050000,-0.050000,0.758310,-0.639282,0.000000,0.000000,0.164960,-0.101829,0.129067,0.055951,-0.590786,0.592126,-0.264529,-0.339184,0.423610,-0.487821
-0.050000,-0.050000,0.000000,0.000000,0.000000,0.000000,0.000000,0.000000,0.000000,0.100000,0.100000,-0.386749,-0.354853,-0.050000,-0.050000,0.788179,-0.658009,0.000000,0.000000,0.146842,-0.090902,0.128684,0.055695,-0.563565,0.586562,-0.261029,-0.338695,0.429008,-0.489439
-0.050000,-0.050000,0.000000,0.000000,0.000000,0.000000,0.000000,0.000000,0.000000,0.100000,0.100000,-0.411419,-0.378101,-0.050000,-0.050000,0.818107,-0.678113,0.000000,0.000000,0.126826,-0.078302,0.130924,0.058918,-0.537285,0.582511,-0.258120,-0.338288,0.435128,-0.490972
-0.050000,-0.050000,0.000000,0.000000,0.000000,0.000000,0.000000,0.000000,0.000000,0.100000,0.100000,-0.439312,-0.404629,-0.050000,-0.050000,0.846680,-0.698713,0.000000,0.000000,0.104752,-0.063765,0.136282,0.066167,-0.513843,0.580913,-0.255579,-0.337745,0.441280,-0.491954
-0.050000,-0.050000,0.000000,0.000000,0.000000,0.000000,0.000000,0.000000,0.000000,0.100000,0.100000,-0.468816,-0.432797,-0.050000,-0.050000,0.874575,-0.719560,0.000000,0.000000,0.081647,-0.048259,0.143201,0.075428,-0.491819,0.580542,-0.253222,-0.337134,0.447447,-0.492660
-0.050000,-0.050000,0.000000,0.000000,0.000000,0.000000,0.000000,0.000000,0.000000,0.100000,0.100000,-0.502785,-0.465450,-0.050000,-0.050000,0.898401,-0.739665,0.000000,0.000000,0.055417,-0.029646,0.155310,0.091123,-0.476689,0.584926,-0.251159,-0.335962,0.452425,-0.491802
-0.050000,-0.050000,0.000000,0.000000,0.000000,0.000000,0.000000,0.000000,0.000000,0.100000,0.100000,-0.537978,-0.499327,-0.050000,-0.050000,0.920313,-0.759033,0.000000,0.000000,0.028249,-0.010041,0.169215,0.108910,-0.464493,0.591052,-0.249144,-0.334491,0.456632,-0.490231
-0.050000,-0.050000,0.000000,0.000000,0.000000,0.000000,0.000000,0.000000,0.000000,0.100000,0.100000,-0.575619,-0.535650,-0.050000,-0.050000,0.938396,-0.776927,0.000000,0.000000,-0.000793,0.011549,0.186713,0.130878,-0.458168,0.600661,-0.247225,-0.332425,0.459296,-0.487235
-0.050000,-0.050000,0.000000,0.000000,0.000000,0.000000,0.000000,0.000000,0.000000,0.100000,0.100000,-0.614904,-0.573639,-0.050000,-0.050000,0.951912,-0.792499,0.000000,0.000000,-0.031207,0.034759,0.207689,0.156524,-0.458253,0.613564,-0.245340,-0.329596,0.459923,-0.482658
-0.050000,-0.050000,0.000000,0.000000,0.000000,0.000000,0.000000,0.000000,0.000000,0.100000,0.100000,-0.655011,-0.612459,-0.050000,-0.050000,0.963145,-0.806910,0.000000,0.000000,-0.062308,0.058780,0.230402,0.184008,-0.461542,0.628113,-0.243472,-0.326386,0.459531,-0.477290
-0.050000,-0.050000,0.000000,0.000000,0.000000,0.000000,0.000000,0.000000,0.000000,0.100000,0.100000,-0.696068,-0.652342,-0.050000,-0.050000,0.967091,-0.816916,0.000000,0.000000,-0.094298,0.084298,0.257753,0.215697,-0.474011,0.646592,-0.241535,-0.321918,0.455858,-0.469751
-0.050000,-0.050000,0.000000,0.000000,0.000000,0.000000,0.000000,0.000000,0.000000,0.100000,0.100000,-0.736888,-0.692065,-0.050000,-0.050000,0.968672,-0.825289,0.000000,0.000000,-0.126099,0.109919,0.286318,0.248203,-0.489026,0.665867,-0.239521,-0.317061,0.451187,-0.461694
-0.050000,-0.050000,0.000000,0.000000,0.000000,0.000000,0.000000,0.000000,0.000000,0.100000,0.100000,-0.777233,-0.731471,-0.050000,-0.050000,0.965524,-0.830397,0.000000,0.000000,-0.157522,0.135747,0.317310,0.282343,-0.509135,0.686731,-0.237350,-0.311427,0.444518,-0.452598
-0.050000,-0.050000,0.000000,0.000000,0.000000,0.000000,0.000000,0.000000,0.000000,0.100000,0.100000,-0.816052,-0.769584,-0.050000,-0.050000,0.958098,-0.832199,0.000000,0.000000,-0.187542,0.160958,0.349803,0.316756,-0.532802,0.707998,-0.234927,-0.305240,0.436307,-0.443062
-0.050000,-0.050000,0.000000,0.000000,0.000000,0.000000,0.000000,0.000000,0.000000,0.100000,0.100000,-0.854107,-0.807051,-0.050000,-0.050000,0.948532,-0.832348,0.000000,0.000000,-0.216861,0.185861,0.383047,0.351306,-0.558248,0.729466,-0.232378,-0.298778,0.427323,-0.433306
-0.050000,-0.050000,0.000000,0.000000,0.000000,0.000000,0.000000,0.000000,0.000000,0.100000,0.100000,-0.888589,-0.841344,-0.050000,-0.050000,0.933497,-0.827843,0.000000,0.000000,-0.242689,0.208743,0.416833,0.384104,-0.586433,0.749846,-0.229440,-0.292076,0.416961,-0.423886
-0.050000,-0.050000,0.000000,0.000000,0.000000,0.000000,0.000000,0.000000,0.000000,0.100000,0.100000,-0.921600,-0.874274,-0.050000,-0.050000,0.916978,-0.821970,0.000000,0.000000,-0.266998,0.230672,0.450169,0.415621,-0.614719,0.769421,-0.226452,-0.285557,0.406487,-0.414878
-0.050000,-0.050000,0.000000,0.000000,0.000000,0.000000,0.000000,0.000000,0.000000,0.100000,0.100000,-0.951669,-0.904476,-0.050000,-0.050000,0.897495,-0.813364,0.000000,0.000000,-0.288270,0.250695,0.482601,0.444574,-0.643206,0.787387,-0.223363,-0.279402,0.395792,-0.406697
-0.050000,-0.050000,0.000000,0.000000,0.000000,0.000000,0.000000,0.000000,0.000000,0.100000,0.100000,-0.978557,-0.931570,-0.050000,-0.050000,0.875699,-0.802488,0.000000,0.000000,-0.306064,0.268443,0.512855,0.469734,-0.670622,0.803211,-0.220527,-0.274196,0.385554,-0.399787
-0.050000,-0.050000,0.000000,0.000000,0.000000,0.000000,0.000000,0.000000,0.000000,0.100000,0.100000,-1.003854,-0.957108,-0.050000,-0.050000,0.852747,-0.790476,0.000000,0.000000,-0.322119,0.285052,0.542020,0.492996,-0.697501,0.817964,-0.217816,-0.269465,0.375543,-0.393513
-0.050000,-0.050000,0.000000,0.000000,0.000000,0.000000,0.000000,0.000000,0.000000,0.100000,0.100000,-1.024426,-0.977747,-0.050000,-0.050000,0.827222,-0.775809,0.000000,0.000000,-0.332704,0.297950,0.566178,0.509141,-0.721572,0.829267,-0.216235,-0.266987,0.367059,-0.389494
-0.050000,-0.050000,0.000000,0.000000,0.000000,0.000000,0.000000,0.000000,0.000000,0.100000,0.100000,-1.043532,-0.996771,-0.050000,-0.050000,0.801120,-0.760507,0.000000,0.000000,-0.341505,0.309582,0.588208,0.522623,-0.744533,0.839496,-0.215299,-0.265476,0.359265,-0.386230
-0.050000,-0.050000,0.000000,0.000000,0.000000,0.000000,0.000000,0.000000,0.000000,0.100000,0.100000,-1.059706,-1.012566,-0.050000,-0.050000,0.773862,-0.743933,0.000000,0.000000,-0.346741,0.318683,0.605984,0.530781,-0.765275,0.847578,-0.215651,-0.265900,0.352851,-0.384477
-0.050000,-0.050000,0.000000,0.000000,0.000000,0.000000,0.000000,0.000000,0.000000,0.100000,0.100000,-1.070414,-1.023337,-0.050000,-0.050000,0.746667,-0.726221,0.000000,0.000000,-0.348578,0.324875,0.617340,0.533304,-0.782836,0.854171,-0.216956,-0.267894,0.348327,-0.383461
-0.050000,-0.050000,0.000000,0.000000,0.000000,0.000000,0.000000,0.000000,0.000000,0.100000,0.100000,-1.078391,-1.031596,-0.050000,-0.050000,0.719504,-0.707939,0.000000,0.000000,-0.348715,0.329614,0.625485,0.533009,-0.798806,0.860021,-0.218738,-0.270672,0.344747,-0.382814
-0.050000,-0.050000,0.000000,0.000000,0.000000,0.000000,0.000000,0.000000,0.000000,0.100000,0.100000,-1.085996,-1.038354,-0.050000,-0.050000,0.691258,-0.689069,0.000000,0.000000,-0.345244,0.331763,0.628479,0.526336,-0.813165,0.864101,-0.223876,-0.277209,0.342582,-0.383648
-0.050000,-0.050000,0.000000,0.000000,0.000000,0.000000,0.000000,0.000000,0.000000,0.100000,0.100000,-1.093073,-1.044308,-0.050000,-0.050000,0.663155,-0.670292,0.000000,0.000000,-0.340784,0.332974,0.629578,0.517668,-0.826705,0.867764,-0.230004,-0.284786,0.340799,-0.384776
-0.050000,-0.050000,0.000000,0.000000,0.000000,0.000000,0.000000,0.000000,0.000000,0.100000,0.100000,-1.099095,-1.048653,-0.050000,-0.050000,0.635337,-0.651700,0.000000,0.000000,-0.334347,0.332310,0.626882,0.505009,-0.838609,0.870588,-0.238112,-0.294441,0.339778,-0.386490
-0.050000,-0.050000,0.000000,0.000000,0.000000,0.000000,0.000000,0.000000,0.000000,0.100000,0.100000,-1.105214,-1.051571,-0.050000,-0.050000,0.607613,-0.634042,0.000000,0.000000,-0.325808,0.329697,0.619938,0.486668,-0.848525,0.871551,-0.248815,-0.306727,0.339655,-0.389783
-0.050000,-0.050000,0.000000,0.000000,0.000000,0.000000,0.000000,0.000000,0.000000,0.100000,0.100000,-1.111381,-1.053774,-0.050000,-0.050000,0.579937,-0.616850,0.000000,0.000000,-0.316217,0.326110,0.610870,0.465486,-0.857446,0.871581,-0.260815,-0.320327,0.339981,-0.393866
-0.050000,-0.050000,0.000000,0.000000,0.000000,0.000000,0.000000,0.000000,0.000000,0.100000,0.100000,-1.112878,-1.052320,-0.050000,-0.050000,0.554485,-0.600106,0.000000,0.000000,-0.306488,0.320636,0.597928,0.443113,-0.863541,0.872495,-0.272276,-0.333565,0.340355,-0.396595
-0.050000,-0.050000,0.000000,0.000000,0.000000,0.000000,0.000000,0.000000,0.000000,0.100000,0.100000,-1.113318,-1.050077,-0.050000,-0.050000,0.529611,-0.583612,0.000000,0.000000,-0.296875,0.314757,0.584232,0.420729,-0.868931,0.873688,-0.283563,-0.346824,0.340628,-0.398891
-0.050000,-0.050000,0.000000,0.000000,0.000000,0.000000,0.000000,0.000000,0.000000,0.100000,0.100000,-1.111643,-1.046258,-0.050000,-0.050000,0.505890,-0.567621,0.000000,0.000000,-0.287496,0.308069,0.569026,0.398324,-0.872912,0.875439,-0.294505,-0.360127,0.340701,-0.400322
-0.050000,-0.050000,0.000000,0.000000,0.000000,0.000000,0.000000,0.000000,0.000000,0.100000,0.100000,-1.108213,-1.041347,-0.050000,-0.050000,0.483267,-0.552353,0.000000,0.000000,-0.278931,0.301074,0.553883,0.377433,-0.875889,0.878043,-0.304368,-0.372809,0.340362,-0.400910
-0.050000,-0.050000,0.000000,0.000000,0.000000,0.000000,0.000000,0.000000,0.000000,0.100000,0.100000,-1.103906,-1.035889,-0.050000,-0.050000,0.461193,-0.537448,0.000000,0.000000,-0.270774,0.293924,0.538771,0.357298,-0.878364,0.881074,-0.313692,-0.385181,0.339817,-0.401075
-0.050000,-0.050000,0.000000,0.000000,0.000000,0.000000,0.000000,0.000000,0.000000,0.100000,0.100000,-1.097311,-1.029380,-0.050000,-0.050000,0.440623,-0.523791,0.000000,0.000000,-0.264522,0.286974,0.526014,0.341781,-0.880141,0.885939,-0.320408,-0.395635,0.338461,-0.399975
-0.050000,-0.050000,0.000000,0.000000,0.000000,0.000000,0.000000,0.000000,0.000000,0.100000,0.100000,-1.090083,-1.022704,-0.050000,-0.050000,0.420511,-0.510587,0.000000,0.000000,-0.259042,0.280272,0.514701,0.328478,-0.881969,0.891571,-0.326035,-0.405192,0.336813,-0.398463
-0.050000,-0.050000,0.000000,0.000000,0.000000,0.000000,0.000000,0.000000,0.000000,0.100000,0.100000,-1.081586,-1.015696,-0.050000,-0.050000,0.401314,-0.498291,0.000000,0.000000,-0.255107,0.274064,0.506274,0.319604,-0.883901,0.898733,-0.329487,-0.412956,0.334580,-0.396126
-0.050000,-0.050000,0.000000,0.000000,0.000000,0.000000,0.000000,0.000000,0.000000,0.100000,0.100000,-1.072141,-1.008706,-0.050000,-0.050000,0.383000,-0.486969,0.000000,0.000000,-0.252809,0.268621,0.501752,0.316122,-0.886404,0.907577,-0.330593,-0.418588,0.331780,-0.392983
-0.050000,-0.050000,0.000000,0.000000,0.000000,0.000000,0.000000,0.000000,0.000000,0.100000,0.100000,-1.062222,-1.001724,-0.050000,-0.050000,0.365128,-0.476135,0.000000,0.000000,-0.251330,0.263558,0.499183,0.315336,-0.889191,0.917260,-0.330527,-0.423153,0.328696,-0.389437
-0.050000,-0.050000,0.000000,0.000000,0.000000,0.000000,0.000000,0.000000,0.000000,0.100000,0.100000,-1.051418,-0.995228,-0.050000,-0.050000,0.348665,-0.466866,0.000000,0.000000,-0.252184,0.259905,0.503422,0.323299,-0.893204,0.929337,-0.327086,-0.424275,0.324874,-0.384690
-0.050000,-0.050000,0.000000,0.000000,0.000000,0.000000,0.000000,0.000000,0.000000,0.100000,0.100000,-1.040487,-0.989005,-0.050000,-0.050000,0.332740,-0.458151,0.000000,0.000000,-0.253700,0.256767,0.510023,0.334105,-0.897614,0.942033,-0.322681,-0.424248,0.320872,-0.379542
-0.050000,-0.050000,0.000000,0.000000,0.000000,0.000000,0.000000,0.000000,0.000000,0.100000,0.100000,-1.029303,-0.983329,-0.050000,-0.050000,0.317893,-0.450544,0.000000,0.000000,-0.256538,0.254659,0.521349,0.350596,-0.902818,0.955968,-0.316350,-0.421924,0.316511,-0.373595
-0.050000,-0.050000,0.000000,0.000000,0.000000,0.000000,0.000000,0.000000,0.000000,0.100000,0.100000,-1.018113,-0.978311,-0.050000,-0.050000,0.304306,-0.444090,0.000000,0.000000,-0.260338,0.253601,0.537118,0.372056,-0.908547,0.970517,-0.308587,-0.417456,0.311982,-0.366886
-0.050000,-0.050000,0.000000,0.000000,0.000000,0.000000,0.000000,0.000000,0.000000,0.100000,0.100000,-1.006920,-0.973622,-0.050000,-0.050000,0.291348,-0.438212,0.000000,0.000000,-0.264618,0.253068,0.555108,0.396000,-0.914539,0.985372,-0.300109,-0.411916,0.307369,-0.359796
-0.050000,-0.050000,0.000000,0.000000,0.000000,0.000000,0.000000,0.000000,0.000000,0.100000,0.100000,-0.995876,-0.969888,-0.050000,-0.050000,0.280538,-0.434078,0.000000,0.000000,-0.269660,0.254036,0.578690,0.425604,-0.920703,0.999904,-0.290380,-0.403623,0.302848,-0.351750
-0.050000,-0.050000,0.000000,0.000000,0.000000,0.000000,0.000000,0.000000,0.000000,0.100000,0.100000,-0.984856,-0.966398,-0.050000,-0.050000,0.270501,-0.430504,0.000000,0.000000,-0.274706,0.255443,0.603606,0.456338,-0.926713,1.013873,-0.280546,-0.394642,0.298473,-0.343504
-0.050000,-0.050000,0.000000,0.000000,0.000000,0.000000,0.000000,0.000000,0.000000,0.100000,0.100000,-0.973885,-0.963398,-0.050000,-0.050000,0.262010,-0.428054,0.000000,0.000000,-0.279760,0.257726,0.631191,0.489331,-0.932412,1.026714,-0.270502,-0.384285,0.294394,-0.334858
-0.050000,-0.050000,0.000000,0.000000,0.000000,0.000000,0.000000,0.000000,0.000000,0.100000,0.100000,-0.962782,-0.960646,-0.050000,-0.050000,0.255093,-0.426636,0.000000,0.000000,-0.284338,0.260675,0.660183,0.522947,-0.937477,1.037603,-0.260812,-0.373133,0.290798,-0.326149
-0.050000,-0.050000,0.000000,0.000000,0.000000,0.000000,0.000000,0.000000,0.000000,0.100000,0.100000,-0.951614,-0.958018,-0.050000,-0.050000,0.248962,-0.425734,0.000000,0.000000,-0.288678,0.263957,0.689877,0.556873,-0.942224,1.047515,-0.251300,-0.361584,0.287445,-0.317407
-0.050000,-0.050000,0.000000,0.000000,0.000000,0.000000,0.000000,0.000000,0.000000,0.100000,0.100000,-0.939892,-0.955342,-0.050000,-0.050000,0.245088,-0.426195,0.000000,0.000000,-0.291699,0.267792,0.719738,0.589413,-0.945765,1.053639,-0.242960,-0.349790,0.284979,-0.309129
-0.050000,-0.050000,0.000000,0.000000,0.000000,0.000000,0.000000,0.000000,0.000000,0.100000,0.100000,-0.927881,-0.952525,-0.050000,-0.050000,0.241891,-0.427043,0.000000,0.000000,-0.294154,0.271635,0.749074,0.620858,-0.948894,1.058400,-0.235127,-0.338203,0.282807,-0.301172
-0.050000,-0.050000,0.000000,0.000000,0.000000,0.000000,0.000000,0.000000,0.000000,0.100000,0.100000,-0.915291,-0.949427,-0.050000,-0.050000,0.240047,-0.428666,0.000000,0.000000,-0.295474,0.275492,0.777362,0.650116,-0.951202,1.060434,-0.228311,-0.327031,0.281223,-0.293860
-0.050000,-0.050000,0.000000,0.000000,0.000000,0.000000,0.000000,0.000000,0.000000,0.100000,0.100000,-0.902034,-0.945889,-0.050000,-0.050000,0.239337,-0.430938,0.000000,0.000000,-0.295598,0.279015,0.803710,0.676341,-0.952768,1.059936,-0.222539,-0.316701,0.280112,-0.287425
-0.050000,-0.050000,0.000000,0.000000,0.000000,0.000000,0.000000,0.000000,0.000000,0.100000,0.100000,-0.888443,-0.942131,-0.050000,-0.050000,0.239194,-0.433535,0.000000,0.000000,-0.295124,0.282371,0.829088,0.701050,-0.953963,1.058172,-0.217289,-0.306794,0.279238,-0.281430
-0.050000,-0.050000,0.000000,0.000000,0.000000,0.000000,0.000000,0.000000,0.000000,0.100000,0.100000,-0.873988,-0.937651,-0.050000,-0.050000,0.240371,-0.436938,0.000000,0.000000,-0.293068,0.284812,0.850713,0.720619,-0.954217,1.053402,-0.213391,-0.298499,0.278761,-0.276903
-0.050000,-0.050000,0.000000,0.000000,0.000000,0.000000,0.000000,0.000000,0.000000,0.100000,0.100000,-0.859394,-0.932962,-0.050000,-0.050000,0.241862,-0.440558,0.000000,0.000000,-0.290643,0.286874,0.870967,0.738470,-0.954207,1.048002,-0.209822,-0.290764,0.278285,-0.272853
-0.050000,-0.050000,0.000000,0.000000,0.000000,0.000000,0.000000,0.000000,0.000000,0.100000,0.100000,-0.844518,-0.927855,-0.050000,-0.050000,0.243982,-0.444610,0.000000,0.000000,-0.287480,0.288177,0.888476,0.752886,-0.953670,1.041340,-0.206914,-0.284152,0.277807,-0.269755
-0.050000,-0.050000,0.000000,0.000000,0.000000,0.000000,0.000000,0.000000,0.000000,0.100000,0.100000,-0.829840,-0.922458,-0.050000,-0.050000,0.246536,-0.448991,0.000000,0.000000,-0.284006,0.288711,0.903243,0.764107,-0.952676,1.034244,-0.204415,-0.278590,0.277047,-0.267480
-0.050000,-0.050000,0.000000,0.000000,0.000000,0.000000,0.000000,0.000000,0.000000,0.100000,0.100000,-0.815261,-0.916915,-0.050000,-0.050000,0.249306,-0.453536,0.000000,0.000000,-0.280378,0.288861,0.916640,0.773729,-0.951453,1.026931,-0.202120,-0.273554,0.276147,-0.265616
-0.050000,-0.050000,0.000000,0.000000,0.000000,0.000000,0.000000,0.000000,0.000000,0.100000,0.100000,-0.801875,-0.911155,-0.050000,-0.050000,0.252583,-0.458417,0.000000,0.000000,-0.276970,0.288015,0.926147,0.779064,-0.949620,1.020156,-0.200168,-0.269930,0.274443,-0.264695
-0.050000,-0.050000,0.000000,0.000000,0.000000,0.000000,0.000000,0.000000,0.000000,0.100000,0.100000,-0.788659,-0.905030,-0.050000,-0.050000,0.255922,-0.463193,0.000000,0.000000,-0.274086,0.287094,0.934445,0.783334,-0.947674,1.014122,-0.198306,-0.266787,0.272651,-0.264021
-0.050000,-0.050000,0.000000,0.000000,0.000000,0.000000,0.000000,0.000000,0.000000,0.100000,0.100000,-0.775783,-0.898171,-0.050000,-0.050000,0.259384,-0.467759,0.000000,0.000000,-0.272253,0.286020,0.940327,0.785471,-0.945501,1.009572,-0.196626,-0.264606,0.270682,-0.263838
-0.050000,-0.050000,0.000000,0.000000,0.000000,0.000000,0.000000,0.000000,0.000000,0.100000,0.100000,-0.765379,-0.891859,-0.050000,-0.050000,0.263455,-0.472591,0.000000,0.000000,-0.270859,0.284461,0.943941,0.785268,-0.942941,1.005969,-0.195246,-0.263190,0.267495,-0.263645
-0.050000,-0.050000,0.000000,0.000000,0.000000,0.000000,0.000000,0.000000,0.000000,0.100000,0.100000,-0.756211,-0.885819,-0.050000,-0.050000,0.267831,-0.477556,0.000000,0.000000,-0.269684,0.282660,0.946421,0.783894,-0.940187,1.002838,-0.194015,-0.262156,0.263699,-0.263447
-0.050000,-0.050000,0.000000,0.000000,0.000000,0.000000,0.000000,0.000000,0.000000,0.100000,0.100000,-0.751027,-0.880475,-0.050000,-0.050000,0.273337,-0.482717,0.000000,0.000000,-0.269676,0.280591,0.945836,0.779320,-0.937120,1.001919,-0.193304,-0.262308,0.258595,-0.263429
-0.050000,-0.050000,0.000000,0.000000,0.000000,0.000000,0.000000,0.000000,0.000000,0.100000,0.100000,-0.747218,-0.875374,-0.050000,-0.050000,0.279333,-0.487936,0.000000,0.000000,-0.270073,0.278506,0.944273,0.773768,-0.934020,1.001738,-0.192865,-0.262884,0.253174,-0.263461
-0.050000,-0.050000,0.000000,0.000000,0.000000,0.000000,0.000000,0.000000,0.000000,0.100000,0.100000,-0.746163,-0.870759,-0.050000,-0.050000,0.286311,-0.493272,0.000000,0.000000,-0.271281,0.276389,0.940756,0.766258,-0.930856,1.003035,-0.192970,-0.264309,0.247116,-0.263589
-0.050000,-0.050000,0.000000,0.000000,0.000000,0.000000,0.000000,0.000000,0.000000,0.100000,0.100000,-0.747827,-0.866763,-0.050000,-0.050000,0.294456,-0.498764,0.000000,0.000000,-0.273141,0.274294,0.935384,0.756998,-0.927762,1.005510,-0.193837,-0.266618,0.240722,-0.263830
-0.050000,-0.050000,0.000000,0.000000,0.000000,0.000000,0.000000,0.000000,0.000000,0.100000,0.100000,-0.750851,-0.863076,-0.050000,-0.050000,0.303186,-0.504335,0.000000,0.000000,-0.275326,0.272210,0.929083,0.746864,-0.924704,1.008575,-0.195084,-0.269369,0.234160,-0.264127
-0.050000,-0.050000,0.000000,0.000000,0.000000,0.000000,0.000000,0.000000,0.000000,0.100000,0.100000,-0.757615,-0.860597,-0.050000,-0.050000,0.313768,-0.510197,0.000000,0.000000,-0.278090,0.270167,0.920237,0.734554,-0.921914,1.012683,-0.197735,-0.273406,0.227637,-0.264692
-0.050000,-0.050000,0.000000,0.000000,0.000000,0.000000,0.000000,0.000000,0.000000,0.100000,0.100000,-0.765414,-0.858612,-0.050000,-0.050000,0.324923,-0.516158,0.000000,0.000000,-0.280895,0.268125,0.910666,0.721725,-0.919243,1.016860,-0.200896,-0.277815,0.221313,-0.265391
-0.050000,-0.050000,0.000000,0.000000,0.000000,0.000000,0.000000,0.000000,0.000000,0.100000,0.100000,-0.775283,-0.857614,-0.050000,-0.050000,0.337221,-0.522317,0.000000,0.000000,-0.283785,0.266082,0.899644,0.707857,-0.916813,1.021175,-0.205080,-0.282969,0.215389,-0.266358
-0.050000,-0.050000,0.000000,0.000000,0.000000,0.000000,0.000000,0.000000,0.000000,0.100000,0.100000,-0.786627,-0.857736,-0.050000,-0.050000,0.350409,-0.528629,0.000000,0.000000,-0.286486,0.264002,0.887527,0.693460,-0.914614,1.025099,-0.210245,-0.288659,0.210181,-0.267674
-0.050000,-0.050000,0.000000,0.000000,0.000000,0.000000,0.000000,0.000000,0.000000,0.100000,0.100000,-0.798710,-0.858417,-0.050000,-0.050000,0.364040,-0.535017,0.000000,0.000000,-0.289093,0.261903,0.874862,0.678798,-0.912529,1.028828,-0.215901,-0.294617,0.205332,-0.269164
-0.050000,-0.050000,0.000000,0.000000,0.000000,0.000000,0.000000,0.000000,0.000000,0.100000,0.100000,-0.811921,-0.860833,-0.050000,-0.050000,0.378413,-0.541493,0.000000,0.000000,-0.291132,0.259706,0.861258,0.664192,-0.910641,1.031345,-0.222739,-0.300938,0.201861,-0.271234
-0.050000,-0.050000,0.000000,0.000000,0.000000,0.000000,0.000000,0.000000,0.000000,0.100000,0.100000,-0.825106,-0.863789,-0.050000,-0.050000,0.392792,-0.547937,0.000000,0.000000,-0.292945,0.257476,0.847627,0.649883,-0.908713,1.033323,-0.229795,-0.307207,0.198877,-0.273487
-0.050000,-0.050000,0.000000,0.000000,0.000000,0.000000,0.000000,0.000000,0.000000,0.100000,0.100000,-0.838238,-0.867822,-0.050000,-0.050000,0.407184,-0.554315,0.000000,0.000000,-0.294306,0.255181,0.833942,0.636168,-0.906704,1.034222,-0.237287,-0.313373,0.196866,-0.276105
-0.050000,-0.050000,0.000000,0.000000,0.000000,0.000000,0.000000,0.000000,0.000000,0.100000,0.100000,-0.850479,-0.872728,-0.050000,-0.050000,0.421084,-0.560503,0.000000,0.000000,-0.295264,0.252854,0.820838,0.623523,-0.904277,1.033910,-0.244725,-0.319089,0.195740,-0.279007
-0.050000,-0.050000,0.000000,0.000000,0.000000,0.000000,0.000000,0.000000,0.000000,0.100000,0.100000,-0.862274,-0.878071,-0.050000,-0.050000,0.434739,-0.566594,0.000000,0.000000,-0.296020,0.250511,0.808026,0.611413,-0.901641,1.032992,-0.252137,-0.324580,0.195056,-0.282050
-0.050000,-0.050000,0.000000,0.000000,0.000000,0.000000,0.000000,0.000000,0.000000,0.100000,0.100000,-0.871490,-0.884248,-0.050000,-0.050000,0.446958,-0.572251,0.000000,0.000000,-0.296410,0.248209,0.797068,0.601396,-0.897682,1.030194,-0.258596,-0.328951,0.195393,-0.285332
-0.050000,-0.050000,0.000000,0.000000,0.000000,0.000000,0.000000,0.000000,0.000000,0.100000,0.100000,-0.879464,-0.890501,-0.050000,-0.050000,0.458511,-0.577744,0.000000,0.000000,-0.296793,0.245951,0.787033,0.592144,-0.892997,1.026761,-0.264431,-0.332848,0.195931,-0.288624
-0.050000,-0.050000,0.000000,0.000000,0.000000,0.000000,0.000000,0.000000,0.000000,0.100000,0.100000,-0.884949,-0.896904,-0.050000,-0.050000,0.468731,-0.582906,0.000000,0.000000,-0.297163,0.243782,0.778844,0.584423,-0.886860,1.022056,-0.269018,-0.335796,0.196875,-0.291937
-0.050000,-0.050000,0.000000,0.000000,0.000000,0.000000,0.000000,0.000000,0.000000,0.100000,0.100000,-0.887289,-0.902998,-0.050000,-0.050000,0.477357,-0.587771,0.000000,0.000000,-0.297782,0.241740,0.773007,0.578169,-0.878647,1.016032,-0.271793,-0.337712,0.197913,-0.295161
-0.050000,-0.050000,0.000000,0.000000,0.000000,0.000000,0.000000,0.000000,0.000000,0.100000,0.100000,-0.888057,-0.908938,-0.050000,-0.050000,0.485186,-0.592488,0.000000,0.000000,-0.298525,0.239762,0.768346,0.572649,-0.869395,1.009347,-0.273661,-0.339111,0.198998,-0.298339
-0.050000,-0.050000,0.000000,0.000000,0.000000,0.000000,0.000000,0.000000,0.000000,0.100000,0.100000,-0.883369,-0.913706,-0.050000,-0.050000,0.490410,-0.596926,0.000000,0.000000,-0.300014,0.237963,0.767733,0.568981,-0.856126,1.000532,-0.272154,-0.339006,0.199740,-0.301306
-0.050000,-0.050000,0.000000,0.000000,0.000000,0.000000,0.000000,0.000000,0.000000,0.100000,0.100000,-0.876731,-0.917863,-0.050000,-0.050000,0.494745,-0.601354,0.000000,0.000000,-0.301853,0.236192,0.768549,0.565760,-0.841278,0.990947,-0.269406,-0.338459,0.200200,-0.304214
-0.050000,-0.050000,0.000000,0.000000,0.000000,0.000000,0.000000,0.000000,0.000000,0.100000,0.100000,-0.866192,-0.920800,-0.050000,-0.050000,0.497300,-0.605760,0.000000,0.000000,-0.304392,0.234476,0.772221,0.563432,-0.823273,0.979823,-0.264176,-0.337028,0.200099,-0.307004
-0.050000,-0.050000,0.000000,0.000000,0.000000,0.000000,0.000000,0.000000,0.000000,0.100000,0.100000,-0.853113,-0.923326,-0.050000,-0.050000,0.497842,-0.610155,0.000000,0.000000,-0.306754,0.232034,0.778301,0.560909,-0.799320,0.965284,-0.256001,-0.334543,0.199444,-0.310723
-0.050000,-0.050000,0.000000,0.000000,0.000000,0.000000,0.000000,0.000000,0.000000,0.100000,0.100000,-0.838765,-0.925647,-0.050000,-0.050000,0.497376,-0.614544,0.000000,0.000000,-0.309029,0.229230,0.785586,0.558287,-0.772393,0.949037,-0.246352,-0.331532,0.198513,-0.314905
-0.050000,-0.050000,0.000000,0.000000,0.000000,0.000000,0.000000,0.000000,0.000000,0.100000,0.100000,-0.817221,-0.923304,-0.050000,-0.050000,0.494321,-0.619587,0.000000,0.000000,-0.313634,0.226986,0.797472,0.556452,-0.742903,0.932236,-0.233853,-0.327712,0.195357,-0.318467
-0.050000,-0.050000,0.000000,0.000000,0.000000,0.000000,0.000000,0.000000,0.000000,0.100000,0.100000,-0.794054,-0.919804,-0.050000,-0.050000,0.490545,-0.624837,0.000000,0.000000,-0.318758,0.224624,0.810564,0.554659,-0.712204,0.915007,-0.220734,-0.323707,0.191340,-0.321947
-0.050000,-0.050000,0.000000,0.000000,0.000000,0.000000,0.000000,0.000000,0.000000,0.100000,0.100000,-0.767639,-0.913988,-0.050000,-0.050000,0.485326,-0.630503,0.000000,0.000000,-0.324917,0.222024,0.826067,0.552952,-0.679085,0.896921,-0.206377,-0.319329,0.185603,-0.325263
-0.050000,-0.050000,0.000000,0.000000,0.000000,0.000000,0.000000,0.000000,0.000000,0.100000,0.100000,-0.739146,-0.906270,-0.050000,-0.050000,0.479002,-0.636535,0.000000,0.000000,-0.331846,0.219116,0.843559,0.551296,-0.644270,0.878365,-0.191543,-0.314532,0.178176,-0.328458
-0.050000,-0.050000,0.000000,0.000000,0.000000,0.000000,0.000000,0.000000,0.000000,0.100000,0.100000,-0.709614,-0.897601,-0.050000,-0.050000,0.472126,-0.642751,0.000000,0.000000,-0.339158,0.216052,0.862044,0.549665,-0.608607,0.859573,-0.176471,-0.309523,0.169903,-0.331593
-0.050000,-0.050000,0.000000,0.000000,0.000000,0.000000,0.000000,0.000000,0.000000,0.100000,0.100000,-0.678642,-0.886669,-0.050000,-0.050000,0.464197,-0.649286,0.000000,0.000000,-0.347145,0.212678,0.882782,0.548336,-0.572153,0.841031,-0.161952,-0.303792,0.159415,-0.334250
-0.050000,-0.050000,0.000000,0.000000,0.000000,0.000000,0.000000,0.000000,0.000000,0.100000,0.100000,-0.647734,-0.875206,-0.050000,-0.050000,0.456144,-0.655810,0.000000,0.000000,-0.355160,0.209308,0.903973,0.547211,-0.536078,0.822870,-0.147982,-0.297793,0.148419,-0.336587
-0.050000,-0.050000,0.000000,0.000000,0.000000,0.000000,0.000000,0.000000,0.000000,0.100000,0.100000,-0.616956,-0.862681,-0.050000,-0.050000,0.447845,-0.662316,0.000000,0.000000,-0.363232,0.205949,0.926068,0.546493,-0.500762,0.805471,-0.135113,-0.291260,0.136411,-0.338284
-0.050000,-0.050000,0.000000,0.000000,0.000000,0.000000,0.000000,0.000000,0.000000,0.100000,0.100000,-0.587293,-0.849567,-0.050000,-0.050000,0.439768,-0.668533,0.000000,0.000000,-0.370967,0.202897,0.948338,0.546337,-0.467360,0.789187,-0.123823,-0.284184,0.124042,-0.339004
-0.050000,-0.050000,0.000000,0.000000,0.000000,0.000000,0.000000,0.000000,0.000000,0.100000,0.100000,-0.558187,-0.836159,-0.050000,-0.050000,0.431802,-0.674607,0.000000,0.000000,-0.378532,0.199999,0.970695,0.546463,-0.434915,0.773460,-0.113322,-0.276837,0.111494,-0.339235
-0.050000,-0.050000,0.000000,0.000000,0.000000,0.000000,0.000000,0.000000,0.000000,0.100000,0.100000,-0.531952,-0.822545,-0.050000,-0.050000,0.424828,-0.679866,0.000000,0.000000,-0.385135,0.198034,0.992057,0.547470,-0.406551,0.759418,-0.105471,-0.268783,0.099448,-0.337612
-0.050000,-0.050000,0.000000,0.000000,0.000000,0.000000,0.000000,0.000000,0.000000,0.100000,0.100000,-0.506955,-0.809053,-0.050000,-0.050000,0.418364,-0.684749,0.000000,0.000000,-0.391354,0.196507,1.012652,0.548700,-0.379704,0.745781,-0.098476,-0.260581,0.087852,-0.335312
-0.050000,-0.050000,0.000000,0.000000,0.000000,0.000000,0.000000,0.000000,0.000000,0.100000,0.100000,-0.484432,-0.795804,-0.050000,-0.050000,0.412920,-0.688880,0.000000,0.000000,-0.396804,0.195854,1.031712,0.550380,-0.355890,0.732955,-0.093192,-0.252082,0.077159,-0.331659
-0.050000,-0.050000,0.000000,0.000000,0.000000,0.000000,0.000000,0.000000,0.000000,0.100000,0.100000,-0.464684,-0.783076,-0.050000,-0.050000,0.408732,-0.692125,0.000000,0.000000,-0.401569,0.196185,1.048457,0.552226,-0.334900,0.720442,-0.089414,-0.243570,0.067695,-0.326706
-0.050000,-0.050000,0.000000,0.000000,0.000000,0.000000,0.000000,0.000000,0.000000,0.100000,0.100000,-0.446324,-0.770608,-0.050000,-0.050000,0.405171,-0.694926,0.000000,0.000000,-0.405992,0.197007,1.064045,0.554155,-0.315321,0.708086,-0.086389,-0.235050,0.058846,-0.321104
-0.050000,-0.050000,0.000000,0.000000,0.000000,0.000000,0.000000,0.000000,0.000000,0.100000,0.100000,-0.432201,-0.759163,-0.050000,-0.050000,0.403608,-0.696320,0.000000,0.000000,-0.409790,0.199168,1.075319,0.555784,-0.299009,0.695466,-0.085217,-0.227055,0.051918,-0.313891
-0.050000,-0.050000,0.000000,0.000000,0.000000,0.000000,0.000000,0.000000,0.000000,0.100000,0.100000,-0.418810,-0.747900,-0.050000,-0.050000,0.402701,-0.697320,0.000000,0.000000,-0.413800,0.201997,1.084816,0.557312,-0.283839,0.683140,-0.084380,-0.219611,0.045719,-0.306460
-0.050000,-0.050000,0.000000,0.000000,0.000000,0.000000,0.000000,0.000000,0.000000,0.100000,0.100000,-0.406887,-0.736998,-0.050000,-0.050000,0.403106,-0.697533,0.000000,0.000000,-0.418233,0.206160,1.090759,0.558639,-0.270951,0.671404,-0.084212,-0.213269,0.040976,-0.298591
-0.050000,-0.050000,0.000000,0.000000,0.000000,0.000000,0.000000,0.000000,0.000000,0.100000,0.100000,-0.397974,-0.726903,-0.050000,-0.050000,0.404316,-0.696907,0.000000,0.000000,-0.422619,0.210008,1.094124,0.558906,-0.257527,0.658443,-0.085043,-0.207696,0.036676,-0.290211
-0.050000,-0.050000,0.000000,0.000000,0.000000,0.000000,0.000000,0.000000,0.000000,0.100000,0.100000,-0.390565,-0.717212,-0.050000,-0.050000,0.405929,-0.695861,0.000000,0.000000,-0.426983,0.213698,1.096200,0.558642,-0.243834,0.644870,-0.086376,-0.202507,0.032598,-0.281576
-0.050000,-0.050000,0.000000,0.000000,0.000000,0.000000,0.000000,0.000000,0.000000,0.100000,0.100000,-0.386338,-0.708549,-0.050000,-0.050000,0.408478,-0.693879,0.000000,0.000000,-0.432064,0.216579,1.094753,0.556796,-0.229396,0.630753,-0.088541,-0.199064,0.029123,-0.273432
-0.050000,-0.050000,0.000000,0.000000,0.000000,0.000000,0.000000,0.000000,0.000000,0.100000,0.100000,-0.382820,-0.700126,-0.050000,-0.050000,0.411169,-0.691676,0.000000,0.000000,-0.437457,0.218992,1.092382,0.554488,-0.214570,0.616777,-0.090836,-0.196257,0.025756,-0.265755
-0.050000,-0.050000,0.000000,0.000000,0.000000,0.000000,0.000000,0.000000,0.000000,0.100000,0.100000,-0.380720,-0.692181,-0.050000,-0.050000,0.414143,-0.689030,0.000000,0.000000,-0.443474,0.220466,1.088160,0.551253,-0.198964,0.603083,-0.093392,-0.194722,0.022604,-0.259012
-0.050000,-0.050000,0.000000,0.000000,0.000000,0.000000,0.000000,0.000000,0.000000,0.100000,0.100000,-0.379447,-0.684499,-0.050000,-0.050000,0.417042,-0.686130,0.000000,0.000000,-0.450002,0.220680,1.082738,0.547361,-0.182562,0.590325,-0.095999,-0.194350,0.019596,-0.253711
-0.050000,-0.050000,0.000000,0.000000,0.000000,0.000000,0.000000,0.000000,0.000000,0.100000,0.100000,-0.378587,-0.676949,-0.050000,-0.050000,0.419905,-0.683101,0.000000,0.000000,-0.456785,0.220263,1.076717,0.543140,-0.165762,0.578034,-0.098632,-0.194558,0.016659,-0.249132
-0.050000,-0.050000,0.000000,0.000000,0.000000,0.000000,0.000000,0.000000,0.000000,0.100000,0.100000,-0.378226,-0.669493,-0.050000,-0.050000,0.422203,-0.679924,0.000000,0.000000,-0.463886,0.217819,1.069845,0.538565,-0.148322,0.568043,-0.101145,-0.196098,0.014081,-0.247222
-0.050000,-0.050000,0.000000,0.000000,0.000000,0.000000,0.000000,0.000000,0.000000,0.100000,0.100000,-0.377846,-0.661993,-0.050000,-0.050000,0.424206,-0.676749,0.000000,0.000000,-0.470882,0.214801,1.062935,0.534148,-0.131028,0.559038,-0.103590,-0.197896,0.011738,-0.246241
-0.050000,-0.050000,0.000000,0.000000,0.000000,0.000000,0.000000,0.000000,0.000000,0.100000,0.100000,-0.377429,-0.654408,-0.050000,-0.050000,0.425622,-0.673575,0.000000,0.000000,-0.477670,0.210638,1.055948,0.530045,-0.114025,0.552006,-0.105898,-0.200211,0.009866,-0.247118
-0.050000,-0.050000,0.000000,0.000000,0.000000,0.000000,0.000000,0.000000,0.000000,0.100000,0.100000,-0.376755,-0.646659,-0.050000,-0.050000,0.426341,-0.670440,0.000000,0.000000,-0.483785,0.205813,1.049174,0.526889,-0.098262,0.547141,-0.108075,-0.202645,0.008756,-0.249611
-0.050000,-0.050000,0.000000,0.000000,0.000000,0.000000,0.000000,0.000000,0.000000,0.100000,0.100000,-0.375952,-0.638829,-0.050000,-0.050000,0.426712,-0.667325,0.000000,0.000000,-0.489565,0.200657,1.042506,0.524206,-0.083120,0.543360,-0.110188,-0.205136,0.008026,-0.252914
-0.050000,-0.050000,0.000000,0.000000,0.000000,0.000000,0.000000,0.000000,0.000000,0.100000,0.100000,-0.374671,-0.630748,-0.050000,-0.050000,0.426009,-0.664231,0.000000,0.000000,-0.493685,0.195534,1.036308,0.523914,-0.071378,0.542701,-0.112198,-0.207234,0.008812,-0.257808
-0.050000,-0.050000,0.000000,0.000000,0.000000,0.000000,0.000000,0.000000,0.000000,0.100000,0.100000,-0.373270,-0.622612,-0.050000,-0.050000,0.424970,-0.661109,0.000000,0.000000,-0.497076,0.190797,1.030253,0.524710,-0.061243,0.542908,-0.114226,-0.209037,0.010164,-0.262828
-0.050000,-0.050000,0.000000,0.000000,0.000000,0.000000,0.000000,0.000000,0.000000,0.100000,0.100000,-0.371629,-0.614362,-0.050000,-0.050000,0.423255,-0.657932,0.000000,0.000000,-0.499008,0.186832,1.024484,0.527680,-0.054323,0.544845,-0.116287,-0.210252,0.012649,-0.268101
-0.050000,-0.050000,0.000000,0.000000,0.000000,0.000000,0.000000,0.000000,0.000000,0.100000,0.100000,-0.369931,-0.606077,-0.050000,-0.050000,0.420933,-0.654599,0.000000,0.000000,-0.499230,0.184305,1.018924,0.533242,-0.051368,0.547972,-0.118497,-0.210636,0.016221,-0.272705
-0.050000,-0.050000,0.000000,0.000000,0.000000,0.000000,0.000000,0.000000,0.000000,0.100000,0.100000,-0.368203,-0.597775,-0.050000,-0.050000,0.418307,-0.651187,0.000000,0.000000,-0.498597,0.182495,1.013470,0.540101,-0.050395,0.551693,-0.120781,-0.210606,0.020336,-0.276973
-0.050000,-0.050000,0.000000,0.000000,0.000000,0.000000,0.000000,0.000000,0.000000,0.100000,0.100000,-0.366728,-0.589514,-0.050000,-0.050000,0.414872,-0.647359,0.000000,0.000000,-0.495162,0.183490,1.008252,0.551077,-0.056086,0.556287,-0.123416,-0.209142,0.025774,-0.278945
-0.050000,-0.050000,0.000000,0.000000,0.000000,0.000000,0.000000,0.000000,0.000000,0.100000,0.100000,-0.365447,-0.581274,-0.050000,-0.050000,0.411196,-0.643331,0.000000,0.000000,-0.490753,0.185468,1.003120,0.563331,-0.064088,0.560909,-0.126174,-0.207210,0.031495,-0.279843
-0.050000,-0.050000,0.000000,0.000000,0.000000,0.000000,0.000000,0.000000,0.000000,0.100000,0.100000,-0.364550,-0.573075,-0.050000,-0.050000,0.407040,-0.638903,0.000000,0.000000,-0.484393,0.189411,0.998157,0.578140,-0.076712,0.565588,-0.129174,-0.204340,0.037784,-0.278594
-0.050000,-0.050000,0.000000,0.000000,0.000000,0.000000,0.000000,0.000000,0.000000,0.100000,0.100000,-0.364195,-0.564863,-0.050000,-0.050000,0.402470,-0.633979,0.000000,0.000000,-0.476068,0.195045,0.993427,0.594934,-0.093837,0.570014,-0.132328,-0.200713,0.044294,-0.274966
-0.050000,-0.050000,0.000000,0.000000,0.000000,0.000000,0.000000,0.000000,0.000000,0.100000,0.100000,-0.364111,-0.556643,-0.050000,-0.050000,0.397692,-0.628808,0.000000,0.000000,-0.466759,0.201524,0.988815,0.612721,-0.113213,0.574313,-0.135558,-0.196707,0.050914,-0.270148
-0.050000,-0.050000,0.000000,0.000000,0.000000,0.000000,0.000000,0.000000,0.000000,0.100000,0.100000,-0.364935,-0.548224,-0.050000,-0.050000,0.392442,-0.622849,0.000000,0.000000,-0.454597,0.209641,0.984652,0.632107,-0.138724,0.578212,-0.138752,-0.192039,0.057399,-0.262074
-0.050000,-0.050000,0.000000,0.000000,0.000000,0.000000,0.000000,0.000000,0.000000,0.100000,0.100000,-0.366044,-0.539668,-0.050000,-0.050000,0.387116,-0.616660,0.000000,0.000000,-0.441574,0.217905,0.980634,0.651442,-0.165933,0.582114,-0.141834,-0.187346,0.063722,-0.253209
-0.050000,-0.050000,0.000000,0.000000,0.000000,0.000000,0.000000,0.000000,0.000000,0.100000,0.100000,-0.367722,-0.530837,-0.050000,-0.050000,0.381637,-0.610014,0.000000,0.000000,-0.426828,0.226465,0.976905,0.670676,-0.196536,0.586024,-0.144690,-0.182606,0.069720,-0.242762
-0.050000,-0.050000,0.000000,0.000000,0.000000,0.000000,0.000000,0.000000,0.000000,0.100000,0.100000,-0.369850,-0.521627,-0.050000,-0.050000,0.376235,-0.603079,0.000000,0.000000,-0.410687,0.234503,0.973317,0.688553,-0.229589,0.590417,-0.147172,-0.178213,0.075236,-0.231552
-0.050000,-0.050000,0.000000,0.000000,0.000000,0.000000,0.000000,0.000000,0.000000,0.100000,0.100000,-0.372203,-0.512228,-0.050000,-0.050000,0.370871,-0.595999,0.000000,0.000000,-0.393847,0.242278,0.969800,0.705750,-0.263866,0.595051,-0.149468,-0.173993,0.080510,-0.219959
-0.050000,-0.050000,0.000000,0.000000,0.000000,0.000000,0.000000,0.000000,0.000000,0.100000,0.100000,-0.374995,-0.502270,-0.050000,-0.050000,0.366030,-0.588838,0.000000,0.000000,-0.375634,0.248267,0.966021,0.719171,-0.300141,0.601207,-0.151165,-0.170788,0.084896,-0.208490
-0.050000,-0.050000,0.000000,0.000000,0.000000,0.000000,0.000000,0.000000,0.000000,0.100000,0.100000,-0.377867,-0.492208,-0.050000,-0.050000,0.361498,-0.581772,0.000000,0.000000,-0.357256,0.253459,0.961927,0.730885,-0.336504,0.608091,-0.152723,-0.168038,0.088938,-0.197407
-0.050000,-0.050000,0.000000,0.000000,0.000000,0.000000,0.000000,0.000000,0.000000,0.100000,0.100000,-0.380899,-0.481938,-0.050000,-0.050000,0.357584,-0.574895,0.000000,0.000000,-0.338549,0.257057,0.957205,0.739189,-0.373048,0.616430,-0.154004,-0.166194,0.092292,-0.187098
-0.050000,-0.050000,0.000000,0.000000,0.000000,0.000000,0.000000,0.000000,0.000000,0.100000,0.100000,-0.384043,-0.471789,-0.050000,-0.050000,0.354503,-0.568401,0.000000,0.000000,-0.320117,0.258955,0.951329,0.743581,-0.408760,0.626464,-0.155254,-0.165382,0.094861,-0.177989
-0.050000,-0.050000,0.000000,0.000000,0.000000,0.000000,0.000000,0.000000,0.000000,0.100000,0.100000,-0.387244,-0.461701,-0.050000,-0.050000,0.351839,-0.562099,0.000000,0.000000,-0.301823,0.260004,0.944876,0.746017,-0.444058,0.637346,-0.156490,-0.165086,0.097036,-0.169480
-0.050000,-0.050000,0.000000,0.000000,0.000000,0.000000,0.000000,0.000000,0.000000,0.100000,0.100000,-0.390726,-0.452489,-0.050000,-0.050000,0.350627,-0.556557,0.000000,0.000000,-0.284705,0.258714,0.935943,0.742488,-0.477046,0.650756,-0.158151,-0.166371,0.097912,-0.162998
-0.050000,-0.050000,0.000000,0.000000,0.000000,0.000000,0.000000,0.000000,0.000000,0.100000,0.100000,-0.394397,-0.443834,-0.050000,-0.050000,0.349926,-0.551297,0.000000,0.000000,-0.268140,0.256788,0.925992,0.737138,-0.509100,0.664884,-0.160111,-0.168154,0.098346,-0.157164
-0.050000,-0.050000,0.000000,0.000000,0.000000,0.000000,0.000000,0.000000,0.000000,0.100000,0.100000,-0.398444,-0.436296,-0.050000,-0.050000,0.350244,-0.546601,0.000000,0.000000,-0.252682,0.253591,0.914007,0.728147,-0.539288,0.680450,-0.162668,-0.170931,0.097895,-0.152625
-0.050000,-0.050000,0.000000,0.000000,0.000000,0.000000,0.000000,0.000000,0.000000,0.100000,0.100000,-0.403121,-0.430394,-0.050000,-0.050000,0.351569,-0.542488,0.000000,0.000000,-0.238424,0.249454,0.899797,0.716149,-0.567633,0.697028,-0.166077,-0.174588,0.096654,-0.149232
-0.050000,-0.050000,0.000000,0.000000,0.000000,0.000000,0.000000,0.000000,0.000000,0.100000,0.100000,-0.408113,-0.425311,-0.050000,-0.050000,0.353399,-0.538667,0.000000,0.000000,-0.224765,0.244848,0.884473,0.702647,-0.595057,0.714111,-0.169910,-0.178685,0.095019,-0.146412
-0.050000,-0.050000,0.000000,0.000000,0.000000,0.000000,0.000000,0.000000,0.000000,0.100000,0.100000,-0.414397,-0.423321,-0.050000,-0.050000,0.356666,-0.535725,0.000000,0.000000,-0.212743,0.239285,0.865867,0.685826,-0.620082,0.731927,-0.175249,-0.183896,0.092548,-0.145098
-0.050000,-0.050000,0.000000,0.000000,0.000000,0.000000,0.000000,0.000000,0.000000,0.100000,0.100000,-0.421172,-0.422488,-0.050000,-0.050000,0.360378,-0.533077,0.000000,0.000000,-0.201151,0.233517,0.846298,0.668307,-0.644449,0.749722,-0.181105,-0.189419,0.089976,-0.144248
-0.050000,-0.050000,0.000000,0.000000,0.000000,0.000000,0.000000,0.000000,0.000000,0.100000,0.100000,-0.428931,-0.423967,-0.050000,-0.050000,0.364978,-0.531014,0.000000,0.000000,-0.190420,0.227344,0.824805,0.649389,-0.667497,0.767472,-0.187996,-0.195566,0.087199,-0.144328
-0.050000,-0.050000,0.000000,0.000000,0.000000,0.000000,0.000000,0.000000,0.000000,0.100000,0.100000,-0.437628,-0.427780,-0.050000,-0.050000,0.370384,-0.529526,0.000000,0.000000,-0.180299,0.220924,0.801839,0.629798,-0.689383,0.784708,-0.195836,-0.202254,0.084628,-0.145329
-0.050000,-0.050000,0.000000,0.000000,0.000000,0.000000,0.000000,0.000000,0.000000,0.100000,0.100000,-0.446793,-0.432759,-0.050000,-0.050000,0.376193,-0.528326,0.000000,0.000000,-0.170483,0.214381,0.778137,0.609869,-0.710688,0.801685,-0.204149,-0.209212,0.082160,-0.146791
-0.050000,-0.050000,0.000000,0.000000,0.000000,0.000000,0.000000,0.000000,0.000000,0.100000,0.100000,-0.457003,-0.440888,-0.050000,-0.050000,0.383052,-0.527939,0.000000,0.000000,-0.161308,0.207629,0.753100,0.589785,-0.730176,0.817332,-0.213595,-0.216912,0.080573,-0.149641
-0.050000,-0.050000,0.000000,0.000000,0.000000,0.000000,0.000000,0.000000,0.000000,0.100000,0.100000,-0.467356,-0.449833,-0.050000,-0.050000,0.390191,-0.527793,0.000000,0.000000,-0.152308,0.200846,0.727942,0.569855,-0.748938,0.832401,-0.223280,-0.224837,0.079419,-0.152931
-0.050000,-0.050000,0.000000,0.000000,0.000000,0.000000,0.000000,0.000000,0.000000,0.100000,0.100000,-0.477992,-0.460407,-0.050000,-0.050000,0.397890,-0.528126,0.000000,0.000000,-0.143660,0.193998,0.702543,0.550235,-0.766248,0.846314,-0.233444,-0.233214,0.079130,-0.157101
-0.050000,-0.050000,0.000000,0.000000,0.000000,0.000000,0.000000,0.000000,0.000000,0.100000,0.100000,-0.488383,-0.471958,-0.050000,-0.050000,0.405960,-0.528844,0.000000,0.000000,-0.135390,0.187150,0.677558,0.531231,-0.781756,0.858890,-0.243755,-0.241962,0.079830,-0.162008
-0.050000,-0.050000,0.000000,0.000000,0.000000,0.000000,0.000000,0.000000,0.000000,0.100000,0.100000,-0.498650,-0.483997,-0.050000,-0.050000,0.414216,-0.529754,0.000000,0.000000,-0.127309,0.180301,0.652781,0.512535,-0.796364,0.870797,-0.254140,-0.250896,0.081024,-0.167284
-0.050000,-0.050000,0.000000,0.000000,0.000000,0.000000,0.000000,0.000000,0.000000,0.100000,0.100000,-0.507686,-0.496354,-0.050000,-0.050000,0.422672,-0.531060,0.000000,0.000000,-0.119942,0.173542,0.629572,0.495185,-0.807752,0.880529,-0.264205,-0.260149,0.083646,-0.173311
-0.050000,-0.050000,0.000000,0.000000,0.000000,0.000000,0.000000,0.000000,0.000000,0.100000,0.100000,-0.516039,-0.508421,-0.050000,-0.050000,0.431054,-0.532430,0.000000,0.000000,-0.112879,0.166847,0.607182,0.478460,-0.817944,0.889512,-0.273979,-0.269375,0.086658,-0.179443
-0.050000,-0.050000,0.000000,0.000000,0.000000,0.000000,0.000000,0.000000,0.000000,0.100000,0.100000,-0.523028,-0.519908,-0.050000,-0.050000,0.439289,-0.533926,0.000000,0.000000,-0.106420,0.160280,0.586429,0.462986,-0.825746,0.896999,-0.283170,-0.278547,0.090451,-0.185785
-0.050000,-0.050000,0.000000,0.000000,0.000000,0.000000,0.000000,0.000000,0.000000,0.100000,0.100000,-0.528216,-0.530075,-0.050000,-0.050000,0.447078,-0.535405,0.000000,0.000000,-0.100701,0.153924,0.567869,0.449261,-0.831076,0.903014,-0.291411,-0.287284,0.094769,-0.192059
-0.050000,-0.050000,0.000000,0.000000,0.000000,0.000000,0.000000,0.000000,0.000000,0.100000,0.100000,-0.532502,-0.539581,-0.050000,-0.050000,0.454643,-0.536875,0.000000,0.000000,-0.095352,0.147674,0.550407,0.436411,-0.835170,0.908293,-0.299179,-0.295804,0.099349,-0.198299
-0.050000,-0.050000,0.000000,0.000000,0.000000,0.000000,0.000000,0.000000,0.000000,0.100000,0.100000,-0.533658,-0.546168,-0.050000,-0.050000,0.461107,-0.538110,0.000000,0.000000,-0.091305,0.141909,0.537035,0.427205,-0.835708,0.911519,-0.304994,-0.302955,0.104281,-0.204109
-0.050000,-0.050000,0.000000,0.000000,0.000000,0.000000,0.000000,0.000000,0.000000,0.100000,0.100000,-0.533721,-0.551551,-0.050000,-0.050000,0.467080,-0.539203,0.000000,0.000000,-0.087749,0.136380,0.525275,0.419625,-0.835197,0.914137,-0.309993,-0.309382,0.109189,-0.209707
-0.050000,-0.050000,0.000000,0.000000,0.000000,0.000000,0.000000,0.000000,0.000000,0.100000,0.100000,-0.531594,-0.554526,-0.050000,-0.050000,0.472072,-0.540013,0.000000,0.000000,-0.085177,0.131326,0.516737,0.415301,-0.832587,0.915538,-0.313362,-0.314358,0.114051,-0.214877
-0.050000,-0.050000,0.000000,0.000000,0.000000,0.000000,0.000000,0.000000,0.000000,0.100000,0.100000,-0.527350,-0.554824,-0.050000,-0.050000,0.475911,-0.540430,0.000000,0.000000,-0.083678,0.126935,0.511831,0.415103,-0.828280,0.915860,-0.314820,-0.317334,0.118613,-0.219529
-0.050000,-0.050000,0.000000,0.000000,0.000000,0.000000,0.000000,0.000000,0.000000,0.100000,0.100000,-0.522048,-0.553782,-0.050000,-0.050000,0.479173,-0.540651,0.000000,0.000000,-0.082714,0.122877,0.508741,0.416968,-0.823124,0.915642,-0.315322,-0.319310,0.123025,-0.223920
-0.050000,-0.050000,0.000000,0.000000,0.000000,0.000000,0.000000,0.000000,0.000000,0.100000,0.100000,-0.513887,-0.548620,-0.050000,-0.050000,0.480575,-0.540150,0.000000,0.000000,-0.083401,0.120134,0.511436,0.426137,-0.816134,0.913846,-0.312677,-0.317537,0.126654,-0.227378
-0.050000,-0.050000,0.000000,0.000000,0.000000,0.000000,0.000000,0.000000,0.000000,0.100000,0.100000,-0.505803,-0.543045,-0.050000,-0.050000,0.481278,-0.539357,0.000000,0.000000,-0.084575,0.117738,0.516252,0.438572,-0.808344,0.911252,-0.308797,-0.314261,0.130106,-0.230312
-0.050000,-0.050000,0.000000,0.000000,0.000000,0.000000,0.000000,0.000000,0.000000,0.100000,0.100000,-0.497871,-0.536645,-0.050000,-0.050000,0.480583,-0.537982,0.000000,0.000000,-0.086721,0.116040,0.525311,0.457538,-0.798954,0.907065,-0.302444,-0.307981,0.133208,-0.232200
-0.050000,-0.050000,0.000000,0.000000,0.000000,0.000000,0.000000,0.000000,0.000000,0.100000,0.100000,-0.487298,-0.526683,-0.050000,-0.050000,0.478774,-0.536069,0.000000,0.000000,-0.089743,0.115859,0.537742,0.481361,-0.790082,0.901537,-0.294372,-0.298684,0.134896,-0.232800
-0.050000,-0.050000,0.000000,0.000000,0.000000,0.000000,0.000000,0.000000,0.000000,0.100000,0.100000,-0.475406,-0.514940,-0.050000,-0.050000,0.476408,-0.533888,0.000000,0.000000,-0.093204,0.116437,0.551860,0.507614,-0.781470,0.895339,-0.285442,-0.287880,0.135877,-0.232754
-0.050000,-0.050000,0.000000,0.000000,0.000000,0.000000,0.000000,0.000000,0.000000,0.100000,0.100000,-0.461223,-0.499566,-0.050000,-0.050000,0.472581,-0.530579,0.000000,0.000000,-0.097179,0.118761,0.569050,0.539792,-0.773386,0.885742,-0.274452,-0.273007,0.135157,-0.230792
-0.050000,-0.050000,0.000000,0.000000,0.000000,0.000000,0.000000,0.000000,0.000000,0.100000,0.100000,-0.446462,-0.483260,-0.050000,-0.050000,0.468358,-0.526869,0.000000,0.000000,-0.101039,0.121513,0.586497,0.573097,-0.765585,0.874703,-0.263083,-0.257122,0.133979,-0.228171
-0.050000,-0.050000,0.000000,0.000000,0.000000,0.000000,0.000000,0.000000,0.000000,0.100000,0.100000,-0.430548,-0.465089,-0.050000,-0.050000,0.463345,-0.522354,0.000000,0.000000,-0.104669,0.125122,0.604460,0.608655,-0.758346,0.860781,-0.250956,-0.239212,0.131885,-0.224230
-0.050000,-0.050000,0.000000,0.000000,0.000000,0.000000,0.000000,0.000000,0.000000,0.100000,0.100000,-0.413610,-0.445390,-0.050000,-0.050000,0.457731,-0.517079,0.000000,0.000000,-0.107535,0.129149,0.621239,0.644206,-0.751952,0.843801,-0.238871,-0.220402,0.129153,-0.219073
-0.050000,-0.050000,0.000000,0.000000,0.000000,0.000000,0.000000,0.000000,0.000000,0.100000,0.100000,-0.396161,-0.424927,-0.050000,-0.050000,0.451818,-0.511424,0.000000,0.000000,-0.110019,0.133384,0.637426,0.679753,-0.745979,0.825292,-0.226807,-0.201143,0.126102,-0.213308
-0.050000,-0.050000,0.000000,0.000000,0.000000,0.000000,0.000000,0.000000,0.000000,0.100000,0.100000,-0.377343,-0.402589,-0.050000,-0.050000,0.445261,-0.504893,0.000000,0.000000,-0.110797,0.137450,0.649534,0.711692,-0.741705,0.802916,-0.215987,-0.182552,0.122661,-0.206196
-0.050000,-0.050000,0.000000,0.000000,0.000000,0.000000,0.000000,0.000000,0.000000,0.100000,0.100000,-0.358172,-0.379793,-0.050000,-0.050000,0.438559,-0.498224,0.000000,0.000000,-0.110950,0.141203,0.659768,0.741409,-0.738125,0.779842,-0.205880,-0.164803,0.119302,-0.198886
-0.050000,-0.050000,0.000000,0.000000,0.000000,0.000000,0.000000,0.000000,0.000000,0.100000,0.100000,-0.338297,-0.356081,-0.050000,-0.050000,0.431567,-0.491276,0.000000,0.000000,-0.109849,0.144333,0.666254,0.766680,-0.735931,0.755371,-0.197196,-0.148740,0.116104,-0.191178
-0.050000,-0.050000,0.000000,0.000000,0.000000,0.000000,0.000000,0.000000,0.000000,0.100000,0.100000,-0.318075,-0.331926,-0.050000,-0.050000,0.424398,-0.484418,0.000000,0.000000,-0.107652,0.146465,0.668684,0.786227,-0.735277,0.731157,-0.190206,-0.135199,0.113440,-0.183635
-0.050000,-0.050000,0.000000,0.000000,0.000000,0.000000,0.000000,0.000000,0.000000,0.100000,0.100000,-0.297679,-0.307549,-0.050000,-0.050000,0.417140,-0.477605,0.000000,0.000000,-0.104905,0.148098,0.669086,0.802911,-0.735392,0.707070,-0.184064,-0.122918,0.111042,-0.176175
-0.050000,-0.050000,0.000000,0.000000,0.000000,0.000000,0.000000,0.000000,0.000000,0.100000,0.100000,-0.277498,-0.283450,-0.050000,-0.050000,0.409803,-0.471433,0.000000,0.000000,-0.101058,0.147987,0.664053,0.810518,-0.737821,0.685939,-0.180333,-0.114864,0.109833,-0.169678
-0.050000,-0.050000,0.000000,0.000000,0.000000,0.000000,0.000000,0.000000,0.000000,0.100000,0.100000,-0.257664,-0.259812,-0.050000,-0.050000,0.402532,-0.465591,0.000000,0.000000,-0.097072,0.147322,0.657706,0.815379,-0.740939,0.666470,-0.177216,-0.108123,0.109087,-0.163646
-0.050000,-0.050000,0.000000,0.000000,0.000000,0.000000,0.000000,0.000000,0.000000,0.100000,0.100000,-0.238520,-0.237094,-0.050000,-0.050000,0.395392,-0.460409,0.000000,0.000000,-0.092812,0.145548,0.648729,0.814751,-0.745439,0.650329,-0.175329,-0.104010,0.109267,-0.158545
-0.050000,-0.050000,0.000000,0.000000,0.000000,0.000000,0.000000,0.000000,0.000000,0.100000,0.100000,-0.220498,-0.216095,-0.050000,-0.050000,0.388580,-0.456070,0.000000,0.000000,-0.088919,0.143573,0.639669,0.810919,-0.750884,0.639124,-0.174556,-0.102246,0.110030,-0.154404
-0.050000,-0.050000,0.000000,0.000000,0.000000,0.000000,0.000000,0.000000,0.000000,0.100000,0.100000,-0.203036,-0.195957,-0.050000,-0.050000,0.381934,-0.452151,0.000000,0.000000,-0.085211,0.141496,0.630567,0.805485,-0.756800,0.630388,-0.174340,-0.101656,0.111086,-0.150744
-0.050000,-0.050000,0.000000,0.000000,0.000000,0.000000,0.000000,0.000000,0.000000,0.100000,0.100000,-0.187646,-0.179011,-0.050000,-0.050000,0.376398,-0.449223,0.000000,0.000000,-0.081842,0.137783,0.619659,0.794802,-0.763936,0.626231,-0.174106,-0.103287,0.113650,-0.148229
-0.050000,-0.050000,0.000000,0.000000,0.000000,0.000000,0.000000,0.000000,0.000000,0.100000,0.100000,-0.173105,-0.163298,-0.050000,-0.050000,0.371448,-0.446609,0.000000,0.000000,-0.078774,0.133881,0.608897,0.783212,-0.771239,0.623829,-0.173702,-0.105368,0.116702,-0.146165
-0.050000,-0.050000,0.000000,0.000000,0.000000,0.000000,0.000000,0.000000,0.000000,0.100000,0.100000,-0.160263,-0.150053,-0.050000,-0.050000,0.367669,-0.444623,0.000000,0.000000,-0.076306,0.129603,0.598428,0.769806,-0.778877,0.624937,-0.172959,-0.108349,0.120729,-0.145000
-0.050000,-0.050000,0.000000,0.000000,0.000000,0.000000,0.000000,0.000000,0.000000,0.100000,0.100000,-0.149295,-0.139437,-0.050000,-0.050000,0.365457,-0.443165,0.000000,0.000000,-0.074450,0.125296,0.588871,0.755756,-0.786501,0.629004,-0.171780,-0.111859,0.125571,-0.144629
-0.050000,-0.050000,0.000000,0.000000,0.000000,0.000000,0.000000,0.000000,0.000000,0.100000,0.100000,-0.139263,-0.130137,-0.050000,-0.050000,0.364029,-0.441971,0.000000,0.000000,-0.072900,0.120977,0.579769,0.741383,-0.794118,0.634550,-0.170384,-0.115632,0.130821,-0.144654
-0.050000,-0.050000,0.000000,0.000000,0.000000,0.000000,0.000000,0.000000,0.000000,0.100000,0.100000,-0.132129,-0.124656,-0.050000,-0.050000,0.365464,-0.441360,0.000000,0.000000,-0.072033,0.116843,0.572154,0.727147,-0.801250,0.643321,-0.168434,-0.119885,0.136993,-0.145752
-0.050000,-0.050000,0.000000,0.000000,0.000000,0.000000,0.000000,0.000000,0.000000,0.100000,0.100000,-0.125948,-0.120285,-0.050000,-0.050000,0.367976,-0.440871,0.000000,0.000000,-0.071286,0.112778,0.564884,0.713125,-0.808092,0.652764,-0.166399,-0.124262,0.143352,-0.147193
-0.050000,-0.050000,0.000000,0.000000,0.000000,0.000000,0.000000,0.000000,0.000000,0.100000,0.100000,-0.121672,-0.118137,-0.050000,-0.050000,0.372639,-0.440626,0.000000,0.000000,-0.070780,0.108850,0.558305,0.699533,-0.814351,0.663554,-0.164196,-0.128890,0.150086,-0.149321
-0.050000,-0.050000,0.000000,0.000000,0.000000,0.000000,0.000000,0.000000,0.000000,0.100000,0.100000,-0.119223,-0.117714,-0.050000,-0.050000,0.379574,-0.440506,0.000000,0.000000,-0.070326,0.104992,0.551905,0.686407,-0.819831,0.674985,-0.162086,-0.133784,0.156921,-0.152132
-0.050000,-0.050000,0.000000,0.000000,0.000000,0.000000,0.000000,0.000000,0.000000,0.100000,0.100000,-0.117686,-0.118154,-0.050000,-0.050000,0.387645,-0.440447,0.000000,0.000000,-0.069898,0.101169,0.545594,0.673514,-0.824920,0.686737,-0.160022,-0.138810,0.163807,-0.155284
-0.050000,-0.050000,0.000000,0.000000,0.000000,0.000000,0.000000,0.000000,0.000000,0.100000,0.100000,-0.118719,-0.120314,-0.050000,-0.050000,0.399115,-0.440463,0.000000,0.000000,-0.069410,0.097330,0.538690,0.661089,-0.828635,0.698560,-0.158479,-0.144284,0.170407,-0.159433
-0.050000,-0.050000,0.000000,0.000000,0.000000,0.000000,0.000000,0.000000,0.000000,0.100000,0.100000,-0.120537,-0.122764,-0.050000,-0.050000,0.411658,-0.440499,0.000000,0.000000,-0.068922,0.093473,0.531327,0.648693,-0.831846,0.710148,-0.157200,-0.149905,0.176764,-0.163878
-0.050000,-0.050000,0.000000,0.000000,0.000000,0.000000,0.000000,0.000000,0.000000,0.100000,0.100000,-0.123927,-0.125792,-0.050000,-0.050000,0.426349,-0.440573,0.000000,0.000000,-0.068434,0.089578,0.523045,0.636353,-0.834047,0.721267,-0.156450,-0.155821,0.182636,-0.168917
-0.050000,-0.050000,0.000000,0.000000,0.000000,0.000000,0.000000,0.000000,0.000000,0.100000,0.100000,-0.128712,-0.128915,-0.050000,-0.050000,0.442983,-0.440740,0.000000,0.000000,-0.068115,0.085715,0.513439,0.623765,-0.835160,0.731450,-0.156309,-0.161960,0.187737,-0.174398
-0.050000,-0.050000,0.000000,0.000000,0.000000,0.000000,0.000000,0.000000,0.000000,0.100000,0.100000,-0.134193,-0.132087,-0.050000,-0.050000,0.460587,-0.440952,0.000000,0.000000,-0.067881,0.081867,0.503170,0.611054,-0.835729,0.741166,-0.156473,-0.168210,0.192452,-0.180101
-0.050000,-0.050000,0.000000,0.000000,0.000000,0.000000,0.000000,0.000000,0.000000,0.100000,0.100000,-0.141427,-0.134878,-0.050000,-0.050000,0.480691,-0.441456,0.000000,0.000000,-0.068294,0.078323,0.490530,0.597479,-0.834527,0.748860,-0.157507,-0.174583,0.195615,-0.186116
-0.050000,-0.050000,0.000000,0.000000,0.000000,0.000000,0.000000,0.000000,0.000000,0.100000,0.100000,-0.149103,-0.137444,-0.050000,-0.050000,0.501456,-0.442121,0.000000,0.000000,-0.069068,0.075002,0.477056,0.583452,-0.832680,0.755719,-0.158771,-0.180905,0.198148,-0.192085
-0.050000,-0.050000,0.000000,0.000000,0.000000,0.000000,0.000000,0.000000,0.000000,0.100000,0.100000,-0.157662,-0.139559,-0.050000,-0.050000,0.523546,-0.443107,0.000000,0.000000,-0.070564,0.072125,0.461914,0.568521,-0.829545,0.760908,-0.160494,-0.187123,0.199419,-0.197963
-0.050000,-0.050000,0.000000,0.000000,0.000000,0.000000,0.000000,0.000000,0.000000,0.100000,0.100000,-0.166762,-0.141172,-0.050000,-0.050000,0.546532,-0.444526,0.000000,0.000000,-0.073024,0.069955,0.445211,0.552400,-0.825035,0.764251,-0.162493,-0.193045,0.199261,-0.203421
-0.050000,-0.050000,0.000000,0.000000,0.000000,0.000000,0.000000,0.000000,0.000000,0.100000,0.100000,-0.176132,-0.142534,-0.050000,-0.050000,0.569966,-0.446162,0.000000,0.000000,-0.075966,0.068138,0.427727,0.535686,-0.819837,0.766669,-0.164630,-0.198820,0.198389,-0.208670
-0.050000,-0.050000,0.000000,0.000000,0.000000,0.000000,0.000000,0.000000,0.000000,0.100000,0.100000,-0.185723,-0.143250,-0.050000,-0.050000,0.593931,-0.448544,0.000000,0.000000,-0.080534,0.067707,0.408399,0.516939,-0.812579,0.766326,-0.166873,-0.203905,0.195253,-0.212837
-0.050000,-0.050000,0.000000,0.000000,0.000000,0.000000,0.000000,0.000000,0.000000,0.100000,0.100000,-0.195181,-0.143831,-0.050000,-0.050000,0.617730,-0.451167,0.000000,0.000000,-0.085623,0.067802,0.388748,0.497541,-0.804713,0.765158,-0.169049,-0.208703,0.191377,-0.216532
-0.050000,-0.050000,0.000000,0.000000,0.000000,0.000000,0.000000,0.000000,0.000000,0.100000,0.100000,-0.204370,-0.144143,-0.050000,-0.050000,0.641194,-0.454272,0.000000,0.000000,-0.091754,0.068950,0.368453,0.476842,-0.795631,0.762342,-0.171093,-0.212925,0.186021,-0.219284
-0.050000,-0.050000,0.000000,0.000000,0.000000,0.000000,0.000000,0.000000,0.000000,0.100000,0.100000,-0.212882,-0.144412,-0.050000,-0.050000,0.663487,-0.457748,0.000000,0.000000,-0.098717,0.071171,0.348357,0.455209,-0.785679,0.758210,-0.172818,-0.216498,0.179340,-0.220997
-0.050000,-0.050000,0.000000,0.000000,0.000000,0.000000,0.000000,0.000000,0.000000,0.100000,0.100000,-0.221055,-0.144659,-0.050000,-0.050000,0.685194,-0.461409,0.000000,0.000000,-0.106095,0.073928,0.328361,0.433110,-0.775293,0.753420,-0.174384,-0.219747,0.171997,-0.222189
-0.050000,-0.050000,0.000000,0.000000,0.000000,0.000000,0.000000,0.000000,0.000000,0.100000,0.100000,-0.227659,-0.145239,-0.050000,-0.050000,0.703715,-0.465320,0.000000,0.000000,-0.114222,0.078175,0.310248,0.410720,-0.764355,0.747223,-0.175204,-0.221937,0.163070,-0.221908
-0.050000,-0.050000,0.000000,0.000000,0.000000,0.000000,0.000000,0.000000,0.000000,0.100000,0.100000,-0.233592,-0.146074,-0.050000,-0.050000,0.720685,-0.469174,0.000000,0.000000,-0.122404,0.082847,0.293340,0.388777,-0.753509,0.740713,-0.175683,-0.223743,0.153791,-0.221241
-0.050000,-0.050000,0.000000,0.000000,0.000000,0.000000,0.000000,0.000000,0.000000,0.100000,0.100000,-0.238183,-0.147417,-0.050000,-0.050000,0.734551,-0.472915,0.000000,0.000000,-0.130697,0.088367,0.278843,0.367728,-0.742849,0.733579,-0.175479,-0.224780,0.143812,-0.219803
-0.050000,-0.050000,0.000000,0.000000,0.000000,0.000000,0.000000,0.000000,0.000000,0.100000,0.100000,-0.241231,-0.149553,-0.050000,-0.050000,0.744437,-0.476216,0.000000,0.000000,-0.138735,0.094565,0.267830,0.348880,-0.732831,0.725979,-0.174403,-0.224958,0.133522,-0.217926
-0.050000,-0.050000,0.000000,0.000000,0.000000,0.000000,0.000000,0.000000,0.000000,0.100000,0.100000,-0.243508,-0.152085,-0.050000,-0.050000,0.752333,-0.479297,0.000000,0.000000,-0.146647,0.101101,0.258559,0.331133,-0.723135,0.718147,-0.172891,-0.224707,0.123077,-0.215828
-0.050000,-0.050000,0.000000,0.000000,0.000000,0.000000,0.000000,0.000000,0.000000,0.100000,0.100000,-0.243334,-0.156158,-0.050000,-0.050000,0.753324,-0.481218,0.000000,0.000000,-0.153755,0.108400,0.255663,0.318647,-0.714751,0.709567,-0.169835,-0.223009,0.112732,-0.213647
-0.050000,-0.050000,0.000000,0.000000,0.000000,0.000000,0.000000,0.000000,0.000000,0.100000,0.100000,-0.242354,-0.160808,-0.050000,-0.050000,0.751895,-0.482604,0.000000,0.000000,-0.160512,0.115877,0.255022,0.308434,-0.706776,0.700648,-0.166235,-0.220781,0.102580,-0.211611
-0.050000,-0.050000,0.000000,0.000000,0.000000,0.000000,0.000000,0.000000,0.000000,0.100000,0.100000,-0.239763,-0.166609,-0.050000,-0.050000,0.745626,-0.482921,0.000000,0.000000,-0.166569,0.123709,0.258892,0.302766,-0.699618,0.691050,-0.161548,-0.217493,0.092813,-0.209865
-0.050000,-0.050000,0.000000,0.000000,0.000000,0.000000,0.000000,0.000000,0.000000,0.100000,0.100000,-0.235694,-0.173509,-0.050000,-0.050000,0.734751,-0.481962,0.000000,0.000000,-0.171885,0.131760,0.266925,0.302182,-0.692954,0.680535,-0.155884,-0.213097,0.083666,-0.208625
-0.050000,-0.050000,0.000000,0.000000,0.000000,0.000000,0.000000,0.000000,0.000000,0.100000,0.100000,-0.230885,-0.180958,-0.050000,-0.050000,0.721572,-0.480366,0.000000,0.000000,-0.176829,0.139920,0.277039,0.304140,-0.686538,0.669563,-0.149732,-0.208147,0.074829,-0.207638
-0.050000,-0.050000,0.000000,0.000000,0.000000,0.000000,0.000000,0.000000,0.000000,0.100000,0.100000,-0.224220,-0.189658,-0.050000,-0.050000,0.702545,-0.476754,0.000000,0.000000,-0.180776,0.148230,0.292034,0.313619,-0.680133,0.656928,-0.142580,-0.201587,0.067133,-0.207446
-0.050000,-0.050000,0.000000,0.000000,0.000000,0.000000,0.000000,0.000000,0.000000,0.100000,0.100000,-0.217105,-0.198547,-0.050000,-0.050000,0.682124,-0.472522,0.000000,0.000000,-0.184481,0.156546,0.308025,0.325293,-0.673468,0.643691,-0.135325,-0.194550,0.059842,-0.207429
-0.050000,-0.050000,0.000000,0.000000,0.000000,0.000000,0.000000,0.000000,0.000000,0.100000,0.100000,-0.209091,-0.207811,-0.050000,-0.050000,0.658915,-0.467049,0.000000,0.000000,-0.187702,0.164876,0.326006,0.341358,-0.666281,0.629252,-0.127866,-0.186560,0.053363,-0.207760
-0.050000,-0.050000,0.000000,0.000000,0.000000,0.000000,0.000000,0.000000,0.000000,0.100000,0.100000,-0.200603,-0.216879,-0.050000,-0.050000,0.634283,-0.460607,0.000000,0.000000,-0.190713,0.173196,0.344665,0.360839,-0.658096,0.613594,-0.120702,-0.177798,0.047671,-0.208095
-0.050000,-0.050000,0.000000,0.000000,0.000000,0.000000,0.000000,0.000000,0.000000,0.100000,0.100000,-0.191877,-0.225848,-0.050000,-0.050000,0.608941,-0.453680,0.000000,0.000000,-0.193620,0.181510,0.363663,0.382030,-0.649410,0.597326,-0.113686,-0.168650,0.042374,-0.208431
-0.050000,-0.050000,0.000000,0.000000,0.000000,0.000000,0.000000,0.000000,0.000000,0.100000,0.100000,-0.183158,-0.233659,-0.050000,-0.050000,0.583634,-0.445882,0.000000,0.000000,-0.196733,0.189912,0.382107,0.406782,-0.638650,0.579213,-0.107714,-0.158627,0.038144,-0.208118
-0.050000,-0.050000,0.000000,0.000000,0.000000,0.000000,0.000000,0.000000,0.000000,0.100000,0.100000,-0.174687,-0.240858,-0.050000,-0.050000,0.559007,-0.438004,0.000000,0.000000,-0.200101,0.198426,0.400090,0.432303,-0.627053,0.560446,-0.102193,-0.148384,0.034221,-0.207369
-0.050000,-0.050000,0.000000,0.000000,0.000000,0.000000,0.000000,0.000000,0.000000,0.100000,0.100000,-0.166710,-0.246830,-0.050000,-0.050000,0.535739,-0.429966,0.000000,0.000000,-0.203982,0.207169,0.417153,0.459359,-0.613783,0.540372,-0.097573,-0.137703,0.030913,-0.205747
-0.050000,-0.050000,0.000000,0.000000,0.000000,0.000000,0.000000,0.000000,0.000000,0.100000,0.100000,-0.159678,-0.251332,-0.050000,-0.050000,0.514883,-0.422122,0.000000,0.000000,-0.208719,0.216388,0.433324,0.487490,-0.598634,0.518825,-0.093848,-0.126667,0.028130,-0.202879
-0.050000,-0.050000,0.000000,0.000000,0.000000,0.000000,0.000000,0.000000,0.000000,0.100000,0.100000,-0.153118,-0.255100,-0.050000,-0.050000,0.495234,-0.414375,0.000000,0.000000,-0.213883,0.225845,0.449050,0.516160,-0.582545,0.496542,-0.090570,-0.115455,0.025610,-0.199387
-0.050000,-0.050000,0.000000,0.000000,0.000000,0.000000,0.000000,0.000000,0.000000,0.100000,0.100000,-0.148518,-0.256654,-0.050000,-0.050000,0.480180,-0.407226,0.000000,0.000000,-0.220696,0.236417,0.464232,0.546364,-0.563470,0.471746,-0.088397,-0.103796,0.023805,-0.193647
-0.050000,-0.050000,0.000000,0.000000,0.000000,0.000000,0.000000,0.000000,0.000000,0.100000,0.100000,-0.144687,-0.257569,-0.050000,-0.050000,0.466750,-0.400288,0.000000,0.000000,-0.228103,0.247462,0.479649,0.577198,-0.543408,0.446047,-0.086483,-0.092036,0.022238,-0.187109
-0.050000,-0.050000,0.000000,0.000000,0.000000,0.000000,0.000000,0.000000,0.000000,0.100000,0.100000,-0.142393,-0.257203,-0.050000,-0.050000,0.456569,-0.393774,0.000000,0.000000,-0.236698,0.259454,0.495537,0.609294,-0.521371,0.418542,-0.085088,-0.080074,0.021147,-0.178971
-0.050000,-0.050000,0.000000,0.000000,0.000000,0.000000,0.000000,0.000000,0.000000,0.100000,0.100000,-0.141705,-0.255856,-0.050000,-0.050000,0.449374,-0.387550,0.000000,0.000000,-0.246397,0.272454,0.512798,0.642970,-0.497541,0.389287,-0.084002,-0.068099,0.020570,-0.169311
-0.050000,-0.050000,0.000000,0.000000,0.000000,0.000000,0.000000,0.000000,0.000000,0.100000,0.100000,-0.141820,-0.254019,-0.050000,-0.050000,0.443672,-0.381473,0.000000,0.000000,-0.256648,0.285959,0.530746,0.677436,-0.472814,0.359159,-0.083072,-0.056117,0.020249,-0.158888
-0.050000,-0.050000,0.000000,0.000000,0.000000,0.000000,0.000000,0.000000,0.000000,0.100000,0.100000,-0.144174,-0.251163,-0.050000,-0.050000,0.441523,-0.375513,0.000000,0.000000,-0.268184,0.300795,0.551897,0.714526,-0.445952,0.326896,-0.082348,-0.044558,0.020762,-0.146564
-0.050000,-0.050000,0.000000,0.000000,0.000000,0.000000,0.000000,0.000000,0.000000,0.100000,0.100000,-0.147128,-0.248080,-0.050000,-0.050000,0.440147,-0.369495,0.000000,0.000000,-0.279964,0.315920,0.574354,0.752414,-0.418649,0.294224,-0.081618,-0.033317,0.021553,-0.133820
-0.050000,-0.050000,0.000000,0.000000,0.000000,0.000000,0.000000,0.000000,0.000000,0.100000,0.100000,-0.151282,-0.244541,-0.050000,-0.050000,0.440320,-0.363360,0.000000,0.000000,-0.292229,0.331624,0.599424,0.791899,-0.390466,0.260733,-0.080880,-0.022714,0.022899,-0.120236
-0.050000,-0.050000,0.000000,0.000000,0.000000,0.000000,0.000000,0.000000,0.000000,0.100000,0.100000,-0.156196,-0.240666,-0.050000,-0.050000,0.441192,-0.357020,0.000000,0.000000,-0.304531,0.347458,0.627210,0.832429,-0.362073,0.227244,-0.080007,-0.013089,0.024722,-0.106368
-0.050000,-0.050000,0.000000,0.000000,0.000000,0.000000,0.000000,0.000000,0.000000,0.100000,0.100000,-0.161491,-0.236625,-0.050000,-0.050000,0.442412,-0.350577,0.000000,0.000000,-0.316850,0.363358,0.656354,0.873481,-0.333574,0.193756,-0.079068,-0.003952,0.026784,-0.092359
-0.050000,-0.050000,0.000000,0.000000,0.000000,0.000000,0.000000,0.000000,0.000000,0.100000,0.100000,-0.167139,-0.232145,-0.050000,-0.050000,0.443596,-0.343926,0.000000,0.000000,-0.328506,0.378692,0.689120,0.914717,-0.305861,0.161656,-0.077788,0.003338,0.029299,-0.078856
-0.050000,-0.050000,0.000000,0.000000,0.000000,0.000000,0.000000,0.000000,0.000000,0.100000,0.100000,-0.172643,-0.227528,-0.050000,-0.050000,0.444520,-0.337313,0.000000,0.000000,-0.339713,0.393599,0.722744,0.955431,-0.278772,0.130466,-0.076378,0.009948,0.031843,-0.065822
-0.050000,-0.050000,0.000000,0.000000,0.000000,0.000000,0.000000,0.000000,0.000000,0.100000,0.100000,-0.177858,-0.222638,-0.050000,-0.050000,0.444925,-0.330773,0.000000,0.000000,-0.350023,0.407652,0.758086,0.995102,-0.252934,0.101096,-0.074710,0.015199,0.034444,-0.053722
-0.050000,-0.050000,0.000000,0.000000,0.000000,0.000000,0.000000,0.000000,0.000000,0.100000,0.100000,-0.182345,-0.217519,-0.050000,-0.050000,0.444577,-0.324605,0.000000,0.000000,-0.359051,0.420479,0.794130,1.032503,-0.229004,0.074294,-0.072830,0.019092,0.036835,-0.043047
-0.050000,-0.050000,0.000000,0.000000,0.000000,0.000000,0.000000,0.000000,0.000000,0.100000,0.100000,-0.186467,-0.212284,-0.050000,-0.050000,0.443854,-0.318622,0.000000,0.000000,-0.367438,0.432693,0.830525,1.068770,-0.206029,0.048776,-0.070844,0.022306,0.039123,-0.033082
-0.050000,-0.050000,0.000000,0.000000,0.000000,0.000000,0.000000,0.000000,0.000000,0.100000,0.100000,-0.189077,-0.206843,-0.050000,-0.050000,0.441997,-0.313636,0.000000,0.000000,-0.373498,0.442715,0.866175,1.100025,-0.186722,0.027890,-0.068711,0.023653,0.040774,-0.025725
-0.050000,-0.050000,0.000000,0.000000,0.000000,0.000000,0.000000,0.000000,0.000000,0.100000,0.100000,-0.191144,-0.201400,-0.050000,-0.050000,0.439833,-0.309086,0.000000,0.000000,-0.378718,0.451953,0.900981,1.129243,-0.168828,0.008678,-0.066595,0.024481,0.042160,-0.019290
-0.050000,-0.050000,0.000000,0.000000,0.000000,0.000000,0.000000,0.000000,0.000000,0.100000,0.100000,-0.192125,-0.195955,-0.050000,-0.050000,0.437058,-0.305407,0.000000,0.000000,-0.382256,0.459621,0.934097,1.154385,-0.153760,-0.007188,-0.064514,0.024269,0.043017,-0.014701
-0.050000,-0.050000,0.000000,0.000000,0.000000,0.000000,0.000000,0.000000,0.000000,0.100000,0.100000,-0.192157,-0.190660,-0.050000,-0.050000,0.433872,-0.302675,0.000000,0.000000,-0.384124,0.465700,0.964531,1.175177,-0.141731,-0.019691,-0.062556,0.023294,0.043377,-0.011861
