RRGGZZ/g1_deploy_sonic/data/example_scalelab/qwen_audio/g1_ref_en/case_test11/joint_pos.csv
joint_0,joint_1,joint_2,joint_3,joint_4,joint_5,joint_6,joint_7,joint_8,joint_9,joint_10,joint_11,joint_12,joint_13,joint_14,joint_15,joint_16,joint_17,joint_18,joint_19,joint_20,joint_21,joint_22,joint_23,joint_24,joint_25,joint_26,joint_27,joint_28
-0.050000,-0.050000,0.000000,0.000000,0.000000,0.000000,0.000000,0.000000,0.000000,0.100000,0.100000,-0.196817,-0.485730,-0.050000,-0.050000,0.400892,-0.714760,0.000000,0.000000,-0.490268,0.251341,1.122132,-0.101554,0.155298,-0.354627,-0.092291,-0.088081,0.018593,-0.573090
-0.050000,-0.050000,0.000000,0.000000,0.000000,0.000000,0.000000,0.000000,0.000000,0.100000,0.100000,-0.198980,-0.486787,-0.050000,-0.050000,0.392833,-0.720459,0.000000,0.000000,-0.489480,0.251477,1.135223,-0.098843,0.157751,-0.351395,-0.099200,-0.091616,0.019334,-0.565152
-0.050000,-0.050000,0.000000,0.000000,0.000000,0.000000,0.000000,0.000000,0.000000,0.100000,0.100000,-0.199933,-0.486861,-0.050000,-0.050000,0.385675,-0.725928,0.000000,0.000000,-0.488162,0.250551,1.146523,-0.097138,0.160342,-0.347896,-0.104806,-0.094819,0.019496,-0.556154
-0.050000,-0.050000,0.000000,0.000000,0.000000,0.000000,0.000000,0.000000,0.000000,0.100000,0.100000,-0.198463,-0.484969,-0.050000,-0.050000,0.380320,-0.730937,0.000000,0.000000,-0.485782,0.247502,1.154243,-0.097443,0.163211,-0.343862,-0.107804,-0.097358,0.018500,-0.545036
-0.050000,-0.050000,0.000000,0.000000,0.000000,0.000000,0.000000,0.000000,0.000000,0.100000,0.100000,-0.195572,-0.481824,-0.050000,-0.050000,0.375734,-0.735716,0.000000,0.000000,-0.482746,0.242809,1.160513,-0.098625,0.165951,-0.339467,-0.109303,-0.099197,0.016972,-0.533738
-0.050000,-0.050000,0.000000,0.000000,0.000000,0.000000,0.000000,0.000000,0.000000,0.100000,0.100000,-0.191970,-0.478053,-0.050000,-0.050000,0.371531,-0.740379,0.000000,0.000000,-0.479381,0.237294,1.166060,-0.100246,0.168629,-0.334893,-0.110052,-0.100684,0.015179,-0.522351
-0.050000,-0.050000,0.000000,0.000000,0.000000,0.000000,0.000000,0.000000,0.000000,0.100000,0.100000,-0.187189,-0.473059,-0.050000,-0.050000,0.367881,-0.744726,0.000000,0.000000,-0.475240,0.229581,1.170701,-0.102170,0.170790,-0.329837,-0.109453,-0.101206,0.013152,-0.512614
-0.050000,-0.050000,0.000000,0.000000,0.000000,0.000000,0.000000,0.000000,0.000000,0.100000,0.100000,-0.182237,-0.467802,-0.050000,-0.050000,0.364352,-0.748916,0.000000,0.000000,-0.470894,0.221201,1.175178,-0.103972,0.172706,-0.324640,-0.108580,-0.101445,0.011170,-0.503914
-0.050000,-0.050000,0.000000,0.000000,0.000000,0.000000,0.000000,0.000000,0.000000,0.100000,0.100000,-0.176941,-0.462021,-0.050000,-0.050000,0.361065,-0.752789,0.000000,0.000000,-0.466141,0.211487,1.179327,-0.105530,0.174134,-0.319160,-0.107163,-0.101117,0.009278,-0.497290
-0.050000,-0.050000,0.000000,0.000000,0.000000,0.000000,0.000000,0.000000,0.000000,0.100000,0.100000,-0.171627,-0.455892,-0.050000,-0.050000,0.358011,-0.756184,0.000000,0.000000,-0.461131,0.200642,1.183165,-0.106523,0.174997,-0.313461,-0.105453,-0.100324,0.007653,-0.493419
-0.050000,-0.050000,0.000000,0.000000,0.000000,0.000000,0.000000,0.000000,0.000000,0.100000,0.100000,-0.166304,-0.449590,-0.050000,-0.050000,0.355072,-0.759340,0.000000,0.000000,-0.455991,0.189232,1.186848,-0.107233,0.175578,-0.307653,-0.103597,-0.099298,0.006162,-0.490926
-0.050000,-0.050000,0.000000,0.000000,0.000000,0.000000,0.000000,0.000000,0.000000,0.100000,0.100000,-0.161317,-0.442910,-0.050000,-0.050000,0.352526,-0.761538,0.000000,0.000000,-0.450762,0.176584,1.189948,-0.106713,0.175310,-0.301648,-0.101608,-0.097760,0.005269,-0.493039
-0.050000,-0.050000,0.000000,0.000000,0.000000,0.000000,0.000000,0.000000,0.000000,0.100000,0.100000,-0.156529,-0.436122,-0.050000,-0.050000,0.350124,-0.763361,0.000000,0.000000,-0.445616,0.163724,1.192815,-0.105670,0.174794,-0.295621,-0.099651,-0.096116,0.004613,-0.496644
-0.050000,-0.050000,0.000000,0.000000,0.000000,0.000000,0.000000,0.000000,0.000000,0.100000,0.100000,-0.152137,-0.429117,-0.050000,-0.050000,0.348011,-0.764431,0.000000,0.000000,-0.440639,0.150440,1.195215,-0.103580,0.173782,-0.289554,-0.097760,-0.094258,0.004432,-0.503234
-0.050000,-0.050000,0.000000,0.000000,0.000000,0.000000,0.000000,0.000000,0.000000,0.100000,0.100000,-0.148257,-0.421890,-0.050000,-0.050000,0.346192,-0.764707,0.000000,0.000000,-0.436067,0.137197,1.197112,-0.100228,0.172400,-0.283512,-0.096034,-0.092298,0.004734,-0.512332
-0.050000,-0.050000,0.000000,0.000000,0.000000,0.000000,0.000000,0.000000,0.000000,0.100000,0.100000,-0.144634,-0.414552,-0.050000,-0.050000,0.344521,-0.764586,0.000000,0.000000,-0.431697,0.123974,1.198757,-0.096244,0.170833,-0.277482,-0.094389,-0.090288,0.005276,-0.522685
-0.050000,-0.050000,0.000000,0.000000,0.000000,0.000000,0.000000,0.000000,0.000000,0.100000,0.100000,-0.141884,-0.406849,-0.050000,-0.050000,0.343257,-0.763319,0.000000,0.000000,-0.428270,0.111554,1.199671,-0.090053,0.168949,-0.271502,-0.093050,-0.088253,0.006432,-0.535611
-0.050000,-0.050000,0.000000,0.000000,0.000000,0.000000,0.000000,0.000000,0.000000,0.100000,0.100000,-0.139447,-0.399018,-0.050000,-0.050000,0.342108,-0.761715,0.000000,0.000000,-0.425254,0.099642,1.200365,-0.083037,0.167039,-0.265503,-0.091806,-0.086241,0.007718,-0.548900
-0.050000,-0.050000,0.000000,0.000000,0.000000,0.000000,0.000000,0.000000,0.000000,0.100000,0.100000,-0.137636,-0.390933,-0.050000,-0.050000,0.341187,-0.759439,0.000000,0.000000,-0.423060,0.088747,1.200618,-0.074371,0.165081,-0.259466,-0.090754,-0.084274,0.009263,-0.562913
-0.050000,-0.050000,0.000000,0.000000,0.000000,0.000000,0.000000,0.000000,0.000000,0.100000,0.100000,-0.136483,-0.382616,-0.050000,-0.050000,0.340438,-0.756618,0.000000,0.000000,-0.421839,0.079305,1.200467,-0.063946,0.163218,-0.253242,-0.089856,-0.082398,0.010869,-0.576603
-0.050000,-0.050000,0.000000,0.000000,0.000000,0.000000,0.000000,0.000000,0.000000,0.100000,0.100000,-0.135658,-0.374183,-0.050000,-0.050000,0.339775,-0.753525,0.000000,0.000000,-0.421103,0.070590,1.200115,-0.052643,0.161402,-0.246925,-0.089034,-0.080569,0.012505,-0.590131
-0.050000,-0.050000,0.000000,0.000000,0.000000,0.000000,0.000000,0.000000,0.000000,0.100000,0.100000,-0.135863,-0.365509,-0.050000,-0.050000,0.339286,-0.749831,0.000000,0.000000,-0.421961,0.064589,1.199147,-0.038725,0.159882,-0.240050,-0.088384,-0.078956,0.013927,-0.601732
-0.050000,-0.050000,0.000000,0.000000,0.000000,0.000000,0.000000,0.000000,0.000000,0.100000,0.100000,-0.136425,-0.356809,-0.050000,-0.050000,0.338831,-0.746009,0.000000,0.000000,-0.423356,0.059616,1.197939,-0.024025,0.158487,-0.232911,-0.087784,-0.077448,0.015204,-0.612318
-0.050000,-0.050000,0.000000,0.000000,0.000000,0.000000,0.000000,0.000000,0.000000,0.100000,0.100000,-0.137700,-0.348060,-0.050000,-0.050000,0.338444,-0.741930,0.000000,0.000000,-0.425826,0.056698,1.196250,-0.007762,0.157344,-0.225248,-0.087283,-0.076152,0.016191,-0.620873
-0.050000,-0.050000,0.000000,0.000000,0.000000,0.000000,0.000000,0.000000,0.000000,0.100000,0.100000,-0.139701,-0.339388,-0.050000,-0.050000,0.338092,-0.737727,0.000000,0.000000,-0.429293,0.055945,1.193957,0.009713,0.156459,-0.217022,-0.086903,-0.075152,0.016855,-0.626960
-0.050000,-0.050000,0.000000,0.000000,0.000000,0.000000,0.000000,0.000000,0.000000,0.100000,0.100000,-0.142064,-0.330753,-0.050000,-0.050000,0.337757,-0.733462,0.000000,0.000000,-0.433258,0.056275,1.191361,0.027793,0.155703,-0.208515,-0.086583,-0.074301,0.017357,-0.631812
-0.050000,-0.050000,0.000000,0.000000,0.000000,0.000000,0.000000,0.000000,0.000000,0.100000,0.100000,-0.145492,-0.322387,-0.050000,-0.050000,0.337437,-0.729188,0.000000,0.000000,-0.438456,0.059806,1.187659,0.046978,0.155293,-0.199367,-0.086523,-0.074038,0.017536,-0.632817
-0.050000,-0.050000,0.000000,0.000000,0.000000,0.000000,0.000000,0.000000,0.000000,0.100000,0.100000,-0.149245,-0.314138,-0.050000,-0.050000,0.337113,-0.724956,0.000000,0.000000,-0.443938,0.064329,1.183548,0.066291,0.154979,-0.190159,-0.086583,-0.074011,0.017726,-0.632640
-0.050000,-0.050000,0.000000,0.000000,0.000000,0.000000,0.000000,0.000000,0.000000,0.100000,0.100000,-0.153649,-0.306121,-0.050000,-0.050000,0.336778,-0.720807,0.000000,0.000000,-0.449986,0.070833,1.178617,0.085861,0.154853,-0.180829,-0.086881,-0.074454,0.017937,-0.630099
-0.050000,-0.050000,0.000000,0.000000,0.000000,0.000000,0.000000,0.000000,0.000000,0.100000,0.100000,-0.158594,-0.298341,-0.050000,-0.050000,0.336410,-0.716789,0.000000,0.000000,-0.456299,0.079097,1.172896,0.105368,0.154871,-0.171777,-0.087461,-0.075394,0.018466,-0.625580
-0.050000,-0.050000,0.000000,0.000000,0.000000,0.000000,0.000000,0.000000,0.000000,0.100000,0.100000,-0.163810,-0.290678,-0.050000,-0.050000,0.336024,-0.712835,0.000000,0.000000,-0.462743,0.088241,1.166780,0.124844,0.154961,-0.162863,-0.088183,-0.076582,0.019153,-0.620071
-0.050000,-0.050000,0.000000,0.000000,0.000000,0.000000,0.000000,0.000000,0.000000,0.100000,0.100000,-0.169608,-0.283358,-0.050000,-0.050000,0.335534,-0.709052,0.000000,0.000000,-0.469143,0.099685,1.159744,0.144246,0.155205,-0.154911,-0.089314,-0.078405,0.020694,-0.612187
-0.050000,-0.050000,0.000000,0.000000,0.000000,0.000000,0.000000,0.000000,0.000000,0.100000,0.100000,-0.175510,-0.276170,-0.050000,-0.050000,0.334986,-0.705277,0.000000,0.000000,-0.475412,0.111813,1.152557,0.163853,0.155478,-0.147376,-0.090538,-0.080335,0.022566,-0.603629
-0.050000,-0.050000,0.000000,0.000000,0.000000,0.000000,0.000000,0.000000,0.000000,0.100000,0.100000,-0.181619,-0.269248,-0.050000,-0.050000,0.334323,-0.701519,0.000000,0.000000,-0.481421,0.125308,1.145072,0.183868,0.155811,-0.140676,-0.091948,-0.082478,0.025102,-0.593723
-0.050000,-0.050000,0.000000,0.000000,0.000000,0.000000,0.000000,0.000000,0.000000,0.100000,0.100000,-0.187752,-0.262734,-0.050000,-0.050000,0.333494,-0.697593,0.000000,0.000000,-0.487045,0.140098,1.137692,0.205182,0.156151,-0.134753,-0.093380,-0.084475,0.028158,-0.582427
-0.050000,-0.050000,0.000000,0.000000,0.000000,0.000000,0.000000,0.000000,0.000000,0.100000,0.100000,-0.193896,-0.256423,-0.050000,-0.050000,0.332582,-0.693583,0.000000,0.000000,-0.492477,0.155535,1.130365,0.227144,0.156494,-0.129220,-0.094822,-0.086400,0.031476,-0.570436
-0.050000,-0.050000,0.000000,0.000000,0.000000,0.000000,0.000000,0.000000,0.000000,0.100000,0.100000,-0.199827,-0.251114,-0.050000,-0.050000,0.331355,-0.688930,0.000000,0.000000,-0.497315,0.172929,1.123822,0.252777,0.156745,-0.124426,-0.095971,-0.087411,0.034996,-0.555849
-0.050000,-0.050000,0.000000,0.000000,0.000000,0.000000,0.000000,0.000000,0.000000,0.100000,0.100000,-0.205620,-0.246304,-0.050000,-0.050000,0.330012,-0.683907,0.000000,0.000000,-0.501991,0.190989,1.117715,0.280182,0.156920,-0.119689,-0.096913,-0.087882,0.038309,-0.540132
-0.050000,-0.050000,0.000000,0.000000,0.000000,0.000000,0.000000,0.000000,0.000000,0.100000,0.100000,-0.211137,-0.242494,-0.050000,-0.050000,0.328437,-0.678145,0.000000,0.000000,-0.506344,0.210380,1.112476,0.311131,0.156945,-0.115063,-0.097442,-0.087269,0.041208,-0.522153
-0.050000,-0.050000,0.000000,0.000000,0.000000,0.000000,0.000000,0.000000,0.000000,0.100000,0.100000,-0.216271,-0.239978,-0.050000,-0.050000,0.326642,-0.671335,0.000000,0.000000,-0.510462,0.231044,1.108316,0.346283,0.156720,-0.110267,-0.097397,-0.085223,0.043133,-0.501402
-0.050000,-0.050000,0.000000,0.000000,0.000000,0.000000,0.000000,0.000000,0.000000,0.100000,0.100000,-0.221215,-0.238110,-0.050000,-0.050000,0.324736,-0.663999,0.000000,0.000000,-0.514464,0.252345,1.104695,0.383535,0.156370,-0.105387,-0.097066,-0.082459,0.044572,-0.479264
-0.050000,-0.050000,0.000000,0.000000,0.000000,0.000000,0.000000,0.000000,0.000000,0.100000,0.100000,-0.225452,-0.238377,-0.050000,-0.050000,0.322577,-0.654736,0.000000,0.000000,-0.518174,0.275195,1.102753,0.426914,0.155502,-0.100244,-0.095805,-0.077392,0.043966,-0.452640
-0.050000,-0.050000,0.000000,0.000000,0.000000,0.000000,0.000000,0.000000,0.000000,0.100000,0.100000,-0.229410,-0.239295,-0.050000,-0.050000,0.320380,-0.644795,0.000000,0.000000,-0.521761,0.298327,1.101309,0.471799,0.154419,-0.095170,-0.094277,-0.071678,0.042639,-0.424679
-0.050000,-0.050000,0.000000,0.000000,0.000000,0.000000,0.000000,0.000000,0.000000,0.100000,0.100000,-0.232812,-0.241515,-0.050000,-0.050000,0.318105,-0.633497,0.000000,0.000000,-0.525100,0.322024,1.100863,0.519699,0.152906,-0.090236,-0.092219,-0.064667,0.039869,-0.394043
-0.050000,-0.050000,0.000000,0.000000,0.000000,0.000000,0.000000,0.000000,0.000000,0.100000,0.100000,-0.237350,-0.250333,-0.050000,-0.050000,0.316071,-0.620293,0.000000,0.000000,-0.527237,0.347116,1.101433,0.574363,0.150426,-0.085159,-0.089378,-0.058324,0.035303,-0.359725
-0.050000,-0.050000,0.000000,0.000000,0.000000,0.000000,0.000000,0.000000,0.000000,0.100000,0.100000,-0.242458,-0.262450,-0.050000,-0.050000,0.314158,-0.606137,0.000000,0.000000,-0.528773,0.372905,1.102510,0.632408,0.147463,-0.080012,-0.086146,-0.052315,0.029840,-0.323565
-0.050000,-0.050000,0.000000,0.000000,0.000000,0.000000,0.000000,0.000000,0.000000,0.100000,0.100000,-0.242198,-0.261771,-0.050000,-0.050000,0.312099,-0.592434,0.000000,0.000000,-0.530754,0.394349,1.103683,0.674516,0.144873,-0.078243,-0.084093,-0.043712,0.025007,-0.292578
-0.050000,-0.050000,0.000000,0.000000,0.000000,0.000000,0.000000,0.000000,0.000000,0.100000,0.100000,-0.241853,-0.262071,-0.050000,-0.050000,0.310177,-0.578593,0.000000,0.000000,-0.532473,0.415235,1.104963,0.715764,0.141836,-0.076817,-0.082040,-0.035558,0.020019,-0.261626
-0.050000,-0.050000,0.000000,0.000000,0.000000,0.000000,0.000000,0.000000,0.000000,0.100000,0.100000,-0.241336,-0.264328,-0.050000,-0.050000,0.308534,-0.564476,0.000000,0.000000,-0.533669,0.435005,1.106455,0.755291,0.137907,-0.076078,-0.079990,-0.028301,0.014720,-0.230741
-0.050000,-0.050000,0.000000,0.000000,0.000000,0.000000,0.000000,0.000000,0.000000,0.100000,0.100000,-0.240277,-0.267103,-0.050000,-0.050000,0.307269,-0.550862,0.000000,0.000000,-0.533905,0.453219,1.107929,0.789520,0.133231,-0.075767,-0.078338,-0.022819,0.009893,-0.202635
-0.050000,-0.050000,0.000000,0.000000,0.000000,0.000000,0.000000,0.000000,0.000000,0.100000,0.100000,-0.238947,-0.270135,-0.050000,-0.050000,0.306195,-0.537501,0.000000,0.000000,-0.533661,0.470655,1.109393,0.821100,0.128182,-0.075668,-0.076885,-0.018224,0.005302,-0.175917
-0.050000,-0.050000,0.000000,0.000000,0.000000,0.000000,0.000000,0.000000,0.000000,0.100000,0.100000,-0.236638,-0.273199,-0.050000,-0.050000,0.305732,-0.525801,0.000000,0.000000,-0.532051,0.485462,1.110672,0.842184,0.122195,-0.075176,-0.076222,-0.016459,0.001909,-0.155044
-0.050000,-0.050000,0.000000,0.000000,0.000000,0.000000,0.000000,0.000000,0.000000,0.100000,0.100000,-0.234038,-0.276269,-0.050000,-0.050000,0.305465,-0.514845,0.000000,0.000000,-0.530086,0.499392,1.111906,0.859565,0.115987,-0.074181,-0.075793,-0.015512,-0.001098,-0.136192
-0.050000,-0.050000,0.000000,0.000000,0.000000,0.000000,0.000000,0.000000,0.000000,0.100000,0.100000,-0.230856,-0.279352,-0.050000,-0.050000,0.305593,-0.505377,0.000000,0.000000,-0.527413,0.511569,1.113049,0.869542,0.109339,-0.072181,-0.075831,-0.016202,-0.003333,-0.121382
-0.050000,-0.050000,0.000000,0.000000,0.000000,0.000000,0.000000,0.000000,0.000000,0.100000,0.100000,-0.227274,-0.282640,-0.050000,-0.050000,0.306063,-0.497526,0.000000,0.000000,-0.524306,0.522116,1.114248,0.872706,0.102539,-0.068637,-0.076142,-0.018056,-0.005104,-0.109982
-0.050000,-0.050000,0.000000,0.000000,0.000000,0.000000,0.000000,0.000000,0.000000,0.100000,0.100000,-0.223491,-0.286031,-0.050000,-0.050000,0.306705,-0.490482,0.000000,0.000000,-0.520982,0.531848,1.115476,0.872464,0.095664,-0.064322,-0.076591,-0.020492,-0.006643,-0.100288
-0.050000,-0.050000,0.000000,0.000000,0.000000,0.000000,0.000000,0.000000,0.000000,0.100000,0.100000,-0.219456,-0.290029,-0.050000,-0.050000,0.307748,-0.485738,0.000000,0.000000,-0.517429,0.539357,1.117093,0.863822,0.089100,-0.057295,-0.077068,-0.023875,-0.008176,-0.094027
-0.050000,-0.050000,0.000000,0.000000,0.000000,0.000000,0.000000,0.000000,0.000000,0.100000,0.100000,-0.215455,-0.294268,-0.050000,-0.050000,0.308879,-0.481652,0.000000,0.000000,-0.513907,0.546171,1.118931,0.853091,0.082815,-0.049322,-0.077436,-0.027347,-0.009934,-0.088276
-0.050000,-0.050000,0.000000,0.000000,0.000000,0.000000,0.000000,0.000000,0.000000,0.100000,0.100000,-0.211521,-0.298990,-0.050000,-0.050000,0.310187,-0.478882,0.000000,0.000000,-0.510449,0.551597,1.121213,0.838180,0.077089,-0.039455,-0.077587,-0.030999,-0.012142,-0.083545
-0.050000,-0.050000,0.000000,0.000000,0.000000,0.000000,0.000000,0.000000,0.000000,0.100000,0.100000,-0.207844,-0.304102,-0.050000,-0.050000,0.311570,-0.477157,0.000000,0.000000,-0.507149,0.555623,1.124036,0.820370,0.072164,-0.027629,-0.077375,-0.034552,-0.015119,-0.078721
-0.050000,-0.050000,0.000000,0.000000,0.000000,0.000000,0.000000,0.000000,0.000000,0.100000,0.100000,-0.204296,-0.309407,-0.050000,-0.050000,0.312990,-0.475953,0.000000,0.000000,-0.503928,0.558949,1.127128,0.801110,0.067640,-0.014823,-0.076981,-0.038055,-0.018481,-0.073851
-0.050000,-0.050000,0.000000,0.000000,0.000000,0.000000,0.000000,0.000000,0.000000,0.100000,0.100000,-0.201312,-0.314912,-0.050000,-0.050000,0.314366,-0.475902,0.000000,0.000000,-0.500880,0.559988,1.130985,0.778912,0.064406,0.001188,-0.076009,-0.041278,-0.023164,-0.067705
-0.050000,-0.050000,0.000000,0.000000,0.000000,0.000000,0.000000,0.000000,0.000000,0.100000,0.100000,-0.198538,-0.320305,-0.050000,-0.050000,0.315675,-0.476108,0.000000,0.000000,-0.497817,0.560163,1.135014,0.756015,0.061524,0.018427,-0.074893,-0.044437,-0.028233,-0.060967
-0.050000,-0.050000,0.000000,0.000000,0.000000,0.000000,0.000000,0.000000,0.000000,0.100000,0.100000,-0.196180,-0.325477,-0.050000,-0.050000,0.316852,-0.476830,0.000000,0.000000,-0.494726,0.558611,1.139388,0.731724,0.059346,0.038123,-0.073488,-0.047467,-0.034074,-0.053044
-0.050000,-0.050000,0.000000,0.000000,0.000000,0.000000,0.000000,0.000000,0.000000,0.100000,0.100000,-0.194216,-0.330067,-0.050000,-0.050000,0.317806,-0.477838,0.000000,0.000000,-0.491433,0.555122,1.143852,0.706325,0.057541,0.060675,-0.071966,-0.050490,-0.040398,-0.043999
-0.050000,-0.050000,0.000000,0.000000,0.000000,0.000000,0.000000,0.000000,0.000000,0.100000,0.100000,-0.192448,-0.334366,-0.050000,-0.050000,0.318649,-0.478990,0.000000,0.000000,-0.488038,0.550664,1.148360,0.680373,0.055923,0.084654,-0.070385,-0.053509,-0.046964,-0.034393
-0.050000,-0.050000,0.000000,0.000000,0.000000,0.000000,0.000000,0.000000,0.000000,0.100000,0.100000,-0.191177,-0.337372,-0.050000,-0.050000,0.319049,-0.480252,0.000000,0.000000,-0.484173,0.543091,1.152580,0.653016,0.054254,0.113438,-0.068901,-0.056682,-0.053661,-0.023673
-0.050000,-0.050000,0.000000,0.000000,0.000000,0.000000,0.000000,0.000000,0.000000,0.100000,0.100000,-0.190035,-0.339878,-0.050000,-0.050000,0.319280,-0.481448,0.000000,0.000000,-0.480161,0.534474,1.156588,0.625296,0.052392,0.143904,-0.067520,-0.059940,-0.060188,-0.012880
-0.050000,-0.050000,0.000000,0.000000,0.000000,0.000000,0.000000,0.000000,0.000000,0.100000,0.100000,-0.189155,-0.341383,-0.050000,-0.050000,0.319172,-0.482509,0.000000,0.000000,-0.475855,0.523767,1.160169,0.596849,0.050143,0.177733,-0.066344,-0.063369,-0.066378,-0.001943
-0.050000,-0.050000,0.000000,0.000000,0.000000,0.000000,0.000000,0.000000,0.000000,0.100000,0.100000,-0.188480,-0.341907,-0.050000,-0.050000,0.318714,-0.483235,0.000000,0.000000,-0.471435,0.511097,1.163190,0.568012,0.047323,0.214802,-0.065441,-0.067014,-0.071850,0.008411
-0.050000,-0.050000,0.000000,0.000000,0.000000,0.000000,0.000000,0.000000,0.000000,0.100000,0.100000,-0.187908,-0.341942,-0.050000,-0.050000,0.318082,-0.483795,0.000000,0.000000,-0.466958,0.497445,1.165930,0.538981,0.044217,0.253492,-0.064676,-0.070769,-0.076962,0.018472
-0.050000,-0.050000,0.000000,0.000000,0.000000,0.000000,0.000000,0.000000,0.000000,0.100000,0.100000,-0.187610,-0.340744,-0.050000,-0.050000,0.316963,-0.483585,0.000000,0.000000,-0.462773,0.481204,1.167800,0.510089,0.040320,0.296386,-0.064322,-0.074986,-0.080572,0.026486
-0.050000,-0.050000,0.000000,0.000000,0.000000,0.000000,0.000000,0.000000,0.000000,0.100000,0.100000,-0.187405,-0.339259,-0.050000,-0.050000,0.315713,-0.483052,0.000000,0.000000,-0.458867,0.464245,1.169414,0.481531,0.036285,0.340320,-0.064079,-0.079453,-0.083602,0.033441
-0.050000,-0.050000,0.000000,0.000000,0.000000,0.000000,0.000000,0.000000,0.000000,0.100000,0.100000,-0.187386,-0.337201,-0.050000,-0.050000,0.314202,-0.481874,0.000000,0.000000,-0.455516,0.445849,1.170518,0.453639,0.031974,0.386332,-0.064059,-0.084421,-0.085474,0.038279
-0.050000,-0.050000,0.000000,0.000000,0.000000,0.000000,0.000000,0.000000,0.000000,0.100000,0.100000,-0.187569,-0.334849,-0.050000,-0.050000,0.312530,-0.479987,0.000000,0.000000,-0.453033,0.426304,1.171218,0.426988,0.027755,0.433471,-0.064184,-0.090197,-0.086160,0.040357
-0.050000,-0.050000,0.000000,0.000000,0.000000,0.000000,0.000000,0.000000,0.000000,0.100000,0.100000,-0.187853,-0.332349,-0.050000,-0.050000,0.310778,-0.477745,0.000000,0.000000,-0.450984,0.406184,1.171717,0.400959,0.023583,0.481173,-0.064382,-0.096378,-0.086254,0.041055
-0.050000,-0.050000,0.000000,0.000000,0.000000,0.000000,0.000000,0.000000,0.000000,0.100000,0.100000,-0.188451,-0.329796,-0.050000,-0.050000,0.308983,-0.474468,0.000000,0.000000,-0.450496,0.384707,1.171749,0.377526,0.020085,0.528919,-0.064674,-0.104334,-0.084699,0.036950
-0.050000,-0.050000,0.000000,0.000000,0.000000,0.000000,0.000000,0.000000,0.000000,0.100000,0.100000,-0.189142,-0.327326,-0.050000,-0.050000,0.307248,-0.470901,0.000000,0.000000,-0.450519,0.362877,1.171649,0.355131,0.016929,0.576104,-0.064959,-0.113045,-0.082677,0.031157
-0.050000,-0.050000,0.000000,0.000000,0.000000,0.000000,0.000000,0.000000,0.000000,0.100000,0.100000,-0.190018,-0.325023,-0.050000,-0.050000,0.305632,-0.466751,0.000000,0.000000,-0.451563,0.340343,1.171282,0.334809,0.014455,0.622166,-0.065231,-0.123266,-0.079725,0.021987
-0.050000,-0.050000,0.000000,0.000000,0.000000,0.000000,0.000000,0.000000,0.000000,0.100000,0.100000,-0.191018,-0.323014,-0.050000,-0.050000,0.304282,-0.462210,0.000000,0.000000,-0.453427,0.317282,1.170647,0.316735,0.012706,0.666002,-0.065434,-0.135143,-0.076055,0.009573
-0.050000,-0.050000,0.000000,0.000000,0.000000,0.000000,0.000000,0.000000,0.000000,0.100000,0.100000,-0.192079,-0.321152,-0.050000,-0.050000,0.303064,-0.457473,0.000000,0.000000,-0.455701,0.293957,1.169878,0.299786,0.011320,0.708726,-0.065602,-0.147849,-0.072027,-0.004462
-0.050000,-0.050000,0.000000,0.000000,0.000000,0.000000,0.000000,0.000000,0.000000,0.100000,0.100000,-0.193178,-0.319809,-0.050000,-0.050000,0.302422,-0.452541,0.000000,0.000000,-0.458703,0.270130,1.168681,0.286239,0.010805,0.746690,-0.065613,-0.162840,-0.067263,-0.022718
-0.050000,-0.050000,0.000000,0.000000,0.000000,0.000000,0.000000,0.000000,0.000000,0.100000,0.100000,-0.194228,-0.318632,-0.050000,-0.050000,0.302009,-0.447699,0.000000,0.000000,-0.461758,0.246256,1.167346,0.273770,0.010448,0.782718,-0.065566,-0.178376,-0.062363,-0.042042
-0.050000,-0.050000,0.000000,0.000000,0.000000,0.000000,0.000000,0.000000,0.000000,0.100000,0.100000,-0.195180,-0.317784,-0.050000,-0.050000,0.302054,-0.443034,0.000000,0.000000,-0.464920,0.222285,1.165735,0.263460,0.010407,0.814876,-0.065400,-0.195000,-0.057190,-0.063503
-0.050000,-0.050000,0.000000,0.000000,0.000000,0.000000,0.000000,0.000000,0.000000,0.100000,0.100000,-0.195906,-0.317198,-0.050000,-0.050000,0.302572,-0.438871,0.000000,0.000000,-0.467849,0.198512,1.163916,0.255093,0.010395,0.842777,-0.065116,-0.212047,-0.051947,-0.086266
-0.050000,-0.050000,0.000000,0.000000,0.000000,0.000000,0.000000,0.000000,0.000000,0.100000,0.100000,-0.196517,-0.316742,-0.050000,-0.050000,0.303327,-0.434959,0.000000,0.000000,-0.470662,0.174837,1.161994,0.247698,0.010396,0.868550,-0.064773,-0.229307,-0.046669,-0.109679
-0.050000,-0.050000,0.000000,0.000000,0.000000,0.000000,0.000000,0.000000,0.000000,0.100000,0.100000,-0.196607,-0.316524,-0.050000,-0.050000,0.304728,-0.432248,0.000000,0.000000,-0.472769,0.151947,1.159967,0.242759,0.010122,0.887856,-0.064255,-0.246083,-0.041561,-0.133706
-0.050000,-0.050000,0.000000,0.000000,0.000000,0.000000,0.000000,0.000000,0.000000,0.100000,0.100000,-0.196474,-0.316327,-0.050000,-0.050000,0.306298,-0.430055,0.000000,0.000000,-0.474588,0.129476,1.158001,0.238446,0.009722,0.905131,-0.063678,-0.262370,-0.036595,-0.157514
-0.050000,-0.050000,0.000000,0.000000,0.000000,0.000000,0.000000,0.000000,0.000000,0.100000,0.100000,-0.195898,-0.316171,-0.050000,-0.050000,0.308206,-0.428898,0.000000,0.000000,-0.475829,0.107846,1.156155,0.235381,0.009068,0.918346,-0.062982,-0.277678,-0.031913,-0.180884
-0.050000,-0.050000,0.000000,0.000000,0.000000,0.000000,0.000000,0.000000,0.000000,0.100000,0.100000,-0.194818,-0.315943,-0.050000,-0.050000,0.310330,-0.428912,0.000000,0.000000,-0.476506,0.087310,1.154637,0.233111,0.008245,0.927994,-0.062157,-0.291580,-0.027667,-0.203105
-0.050000,-0.050000,0.000000,0.000000,0.000000,0.000000,0.000000,0.000000,0.000000,0.100000,0.100000,-0.193486,-0.315679,-0.050000,-0.050000,0.312560,-0.429512,0.000000,0.000000,-0.476901,0.067322,1.153283,0.231238,0.007337,0.935859,-0.061268,-0.304780,-0.023638,-0.224751
-0.050000,-0.050000,0.000000,0.000000,0.000000,0.000000,0.000000,0.000000,0.000000,0.100000,0.100000,-0.191368,-0.315163,-0.050000,-0.050000,0.314910,-0.431890,0.000000,0.000000,-0.476592,0.049204,1.152692,0.229831,0.006476,0.939362,-0.060167,-0.315665,-0.020448,-0.243896
-0.050000,-0.050000,0.000000,0.000000,0.000000,0.000000,0.000000,0.000000,0.000000,0.100000,0.100000,-0.188997,-0.314527,-0.050000,-0.050000,0.317237,-0.434807,0.000000,0.000000,-0.476112,0.031725,1.152412,0.228352,0.005749,0.941780,-0.058995,-0.325838,-0.017578,-0.262061
-0.050000,-0.050000,0.000000,0.000000,0.000000,0.000000,0.000000,0.000000,0.000000,0.100000,0.100000,-0.186120,-0.313653,-0.050000,-0.050000,0.319517,-0.438801,0.000000,0.000000,-0.475292,0.015526,1.152755,0.226729,0.005292,0.942026,-0.057680,-0.334588,-0.015348,-0.278263
-0.050000,-0.050000,0.000000,0.000000,0.000000,0.000000,0.000000,0.000000,0.000000,0.100000,0.100000,-0.182785,-0.312500,-0.050000,-0.050000,0.321648,-0.443653,0.000000,0.000000,-0.474248,0.000536,1.153745,0.224614,0.005294,0.940833,-0.056241,-0.342193,-0.013782,-0.292417
-0.050000,-0.050000,0.000000,0.000000,0.000000,0.000000,0.000000,0.000000,0.000000,0.100000,0.100000,-0.179221,-0.311207,-0.050000,-0.050000,0.323705,-0.448934,0.000000,0.000000,-0.473092,-0.013851,1.155059,0.222253,0.005526,0.938921,-0.054741,-0.349227,-0.012548,-0.305547
-0.050000,-0.050000,0.000000,0.000000,0.000000,0.000000,0.000000,0.000000,0.000000,0.100000,0.100000,-0.175071,-0.309483,-0.050000,-0.050000,0.325433,-0.455059,0.000000,0.000000,-0.471715,-0.026632,1.157244,0.218883,0.006561,0.935851,-0.053125,-0.355010,-0.012258,-0.315716
-0.050000,-0.050000,0.000000,0.000000,0.000000,0.000000,0.000000,0.000000,0.000000,0.100000,0.100000,-0.170766,-0.307630,-0.050000,-0.050000,0.327038,-0.461300,0.000000,0.000000,-0.470277,-0.038952,1.159651,0.215190,0.007835,0.932675,-0.051506,-0.360497,-0.012242,-0.324985
-0.050000,-0.050000,0.000000,0.000000,0.000000,0.000000,0.000000,0.000000,0.000000,0.100000,0.100000,-0.166148,-0.305517,-0.050000,-0.050000,0.328393,-0.467771,0.000000,0.000000,-0.468719,-0.050352,1.162502,0.210850,0.009587,0.929288,-0.049880,-0.365391,-0.012772,-0.332454
-0.050000,-0.050000,0.000000,0.000000,0.000000,0.000000,0.000000,0.000000,0.000000,0.100000,0.100000,-0.161300,-0.303205,-0.050000,-0.050000,0.329511,-0.474160,0.000000,0.000000,-0.467031,-0.060953,1.165627,0.206089,0.011651,0.926124,-0.048329,-0.369810,-0.013732,-0.338330
-0.050000,-0.050000,0.000000,0.000000,0.000000,0.000000,0.000000,0.000000,0.000000,0.100000,0.100000,-0.156336,-0.300795,-0.050000,-0.050000,0.330510,-0.480507,0.000000,0.000000,-0.465278,-0.071154,1.168888,0.201116,0.013870,0.923070,-0.046814,-0.373992,-0.014907,-0.343411
-0.050000,-0.050000,0.000000,0.000000,0.000000,0.000000,0.000000,0.000000,0.000000,0.100000,0.100000,-0.151157,-0.298225,-0.050000,-0.050000,0.331232,-0.486363,0.000000,0.000000,-0.463287,-0.080255,1.172317,0.196063,0.016236,0.920792,-0.045517,-0.377456,-0.016542,-0.346398
-0.050000,-0.050000,0.000000,0.000000,0.000000,0.000000,0.000000,0.000000,0.000000,0.100000,0.100000,-0.145957,-0.295659,-0.050000,-0.050000,0.331906,-0.491988,0.000000,0.000000,-0.461201,-0.088993,1.175742,0.191201,0.018552,0.918849,-0.044316,-0.380636,-0.018274,-0.348771
-0.050000,-0.050000,0.000000,0.000000,0.000000,0.000000,0.000000,0.000000,0.000000,0.100000,0.100000,-0.140712,-0.293100,-0.050000,-0.050000,0.332486,-0.497153,0.000000,0.000000,-0.458928,-0.097005,1.179160,0.186720,0.020767,0.917574,-0.043307,-0.383253,-0.020197,-0.349914
-0.050000,-0.050000,0.000000,0.000000,0.000000,0.000000,0.000000,0.000000,0.000000,0.100000,0.100000,-0.135540,-0.290661,-0.050000,-0.050000,0.333101,-0.501862,0.000000,0.000000,-0.456443,-0.104266,1.182511,0.183037,0.022745,0.916971,-0.042505,-0.385192,-0.022216,-0.349969
-0.050000,-0.050000,0.000000,0.000000,0.000000,0.000000,0.000000,0.000000,0.000000,0.100000,0.100000,-0.130405,-0.288283,-0.050000,-0.050000,0.333734,-0.506344,0.000000,0.000000,-0.453853,-0.111149,1.185827,0.179752,0.024603,0.916706,-0.041806,-0.386794,-0.024282,-0.349480
-0.050000,-0.050000,0.000000,0.000000,0.000000,0.000000,0.000000,0.000000,0.000000,0.100000,0.100000,-0.125591,-0.286233,-0.050000,-0.050000,0.334661,-0.510351,0.000000,0.000000,-0.450916,-0.116857,1.189021,0.178171,0.025994,0.917255,-0.041402,-0.387253,-0.026372,-0.347570
-0.050000,-0.050000,0.000000,0.000000,0.000000,0.000000,0.000000,0.000000,0.000000,0.100000,0.100000,-0.120967,-0.284323,-0.050000,-0.050000,0.335786,-0.514325,0.000000,0.000000,-0.447850,-0.122171,1.192173,0.177277,0.027210,0.917964,-0.041086,-0.387320,-0.028432,-0.345273
-0.050000,-0.050000,0.000000,0.000000,0.000000,0.000000,0.000000,0.000000,0.000000,0.100000,0.100000,-0.116721,-0.282696,-0.050000,-0.050000,0.337307,-0.518232,0.000000,0.000000,-0.444525,-0.126696,1.195244,0.177758,0.028077,0.918990,-0.040947,-0.386601,-0.030434,-0.342204
-0.050000,-0.050000,0.000000,0.000000,0.000000,0.000000,0.000000,0.000000,0.000000,0.100000,0.100000,-0.113029,-0.281373,-0.050000,-0.050000,0.339460,-0.522385,0.000000,0.000000,-0.440891,-0.130474,1.198201,0.179772,0.028537,0.920074,-0.040969,-0.385147,-0.032294,-0.338597
-0.050000,-0.050000,0.000000,0.000000,0.000000,0.000000,0.000000,0.000000,0.000000,0.100000,0.100000,-0.109615,-0.280202,-0.050000,-0.050000,0.341931,-0.526660,0.000000,0.000000,-0.437102,-0.133879,1.201101,0.182551,0.028794,0.921188,-0.041072,-0.383326,-0.034084,-0.334721
-0.050000,-0.050000,0.000000,0.000000,0.000000,0.000000,0.000000,0.000000,0.000000,0.100000,0.100000,-0.107295,-0.279465,-0.050000,-0.050000,0.345779,-0.531797,0.000000,0.000000,-0.432730,-0.136307,1.203681,0.187809,0.028250,0.922060,-0.041430,-0.380579,-0.035504,-0.330488
-0.050000,-0.050000,0.000000,0.000000,0.000000,0.000000,0.000000,0.000000,0.000000,0.100000,0.100000,-0.105417,-0.278854,-0.050000,-0.050000,0.350254,-0.537370,0.000000,0.000000,-0.428104,-0.138481,1.206060,0.193957,0.027320,0.922794,-0.041889,-0.377599,-0.036730,-0.326306
-0.050000,-0.050000,0.000000,0.000000,0.000000,0.000000,0.000000,0.000000,0.000000,0.100000,0.100000,-0.104422,-0.278492,-0.050000,-0.050000,0.355983,-0.543816,0.000000,0.000000,-0.422972,-0.140145,1.208039,0.201884,0.025618,0.923253,-0.042550,-0.374157,-0.037568,-0.322225
-0.050000,-0.050000,0.000000,0.000000,0.000000,0.000000,0.000000,0.000000,0.000000,0.100000,0.100000,-0.104426,-0.278331,-0.050000,-0.050000,0.363334,-0.551372,0.000000,0.000000,-0.417180,-0.141470,1.209365,0.211746,0.022786,0.923451,-0.043466,-0.370406,-0.037837,-0.318572
-0.050000,-0.050000,0.000000,0.000000,0.000000,0.000000,0.000000,0.000000,0.000000,0.100000,0.100000,-0.104930,-0.278271,-0.050000,-0.050000,0.371497,-0.559483,0.000000,0.000000,-0.411058,-0.142626,1.210364,0.222575,0.019387,0.923518,-0.044509,-0.366502,-0.037822,-0.315134
-0.050000,-0.050000,0.000000,0.000000,0.000000,0.000000,0.000000,0.000000,0.000000,0.100000,0.100000,-0.107033,-0.278452,-0.050000,-0.050000,0.382656,-0.569492,0.000000,0.000000,-0.403659,-0.143542,1.209978,0.236563,0.013597,0.923389,-0.046020,-0.362315,-0.036620,-0.312714
-0.050000,-0.050000,0.000000,0.000000,0.000000,0.000000,0.000000,0.000000,0.000000,0.100000,0.100000,-0.109672,-0.278701,-0.050000,-0.050000,0.394975,-0.580161,0.000000,0.000000,-0.395722,-0.144461,1.209020,0.251673,0.006745,0.923290,-0.047713,-0.358066,-0.034900,-0.310694
-0.050000,-0.050000,0.000000,0.000000,0.000000,0.000000,0.000000,0.000000,0.000000,0.100000,0.100000,-0.113385,-0.279089,-0.050000,-0.050000,0.409616,-0.592151,0.000000,0.000000,-0.386709,-0.145388,1.206920,0.269026,-0.002227,0.923251,-0.049768,-0.353695,-0.032140,-0.309474
-0.050000,-0.050000,0.000000,0.000000,0.000000,0.000000,0.000000,0.000000,0.000000,0.100000,0.100000,-0.118118,-0.279616,-0.050000,-0.050000,0.426782,-0.605415,0.000000,0.000000,-0.376373,-0.146461,1.203582,0.288657,-0.013846,0.923459,-0.052219,-0.349208,-0.028092,-0.309014
-0.050000,-0.050000,0.000000,0.000000,0.000000,0.000000,0.000000,0.000000,0.000000,0.100000,0.100000,-0.123359,-0.280213,-0.050000,-0.050000,0.445211,-0.619315,0.000000,0.000000,-0.365375,-0.147606,1.199625,0.309426,-0.026787,0.923790,-0.054869,-0.344664,-0.023399,-0.308934
-0.050000,-0.050000,0.000000,0.000000,0.000000,0.000000,0.000000,0.000000,0.000000,0.100000,0.100000,-0.129954,-0.281058,-0.050000,-0.050000,0.467462,-0.634891,0.000000,0.000000,-0.352021,-0.149119,1.193923,0.333418,-0.044361,0.924684,-0.058141,-0.339907,-0.016459,-0.309724
-0.050000,-0.050000,0.000000,0.000000,0.000000,0.000000,0.000000,0.000000,0.000000,0.100000,0.100000,-0.136910,-0.282007,-0.050000,-0.050000,0.490885,-0.650897,0.000000,0.000000,-0.337774,-0.150780,1.187765,0.358318,-0.063620,0.925787,-0.061627,-0.335062,-0.008709,-0.310665
-0.050000,-0.050000,0.000000,0.000000,0.000000,0.000000,0.000000,0.000000,0.000000,0.100000,0.100000,-0.144588,-0.283164,-0.050000,-0.050000,0.516650,-0.667765,0.000000,0.000000,-0.321743,-0.152740,1.180697,0.385036,-0.086247,0.927306,-0.065541,-0.330044,0.000658,-0.311910
-0.050000,-0.050000,0.000000,0.000000,0.000000,0.000000,0.000000,0.000000,0.000000,0.100000,0.100000,-0.154934,-0.289496,-0.050000,-0.050000,0.545715,-0.686096,0.000000,0.000000,-0.303500,-0.154762,1.172194,0.416842,-0.114924,0.930435,-0.069577,-0.324777,0.011503,-0.311814
-0.050000,-0.050000,0.000000,0.000000,0.000000,0.000000,0.000000,0.000000,0.000000,0.100000,0.100000,-0.166614,-0.298416,-0.050000,-0.050000,0.576428,-0.705158,0.000000,0.000000,-0.284153,-0.156814,1.162975,0.451191,-0.146625,0.934370,-0.073674,-0.319387,0.023086,-0.311048
-0.050000,-0.050000,0.000000,0.000000,0.000000,0.000000,0.000000,0.000000,0.000000,0.100000,0.100000,-0.176076,-0.303264,-0.050000,-0.050000,0.607352,-0.723496,0.000000,0.000000,-0.261843,-0.158805,1.155132,0.483135,-0.180283,0.937712,-0.078711,-0.314131,0.036992,-0.310668
-0.050000,-0.050000,0.000000,0.000000,0.000000,0.000000,0.000000,0.000000,0.000000,0.100000,0.100000,-0.185234,-0.307765,-0.050000,-0.050000,0.638427,-0.741588,0.000000,0.000000,-0.238674,-0.160956,1.147550,0.514560,-0.215126,0.940980,-0.084091,-0.308832,0.051440,-0.310307
-0.050000,-0.050000,0.000000,0.000000,0.000000,0.000000,0.000000,0.000000,0.000000,0.100000,0.100000,-0.193782,-0.311573,-0.050000,-0.050000,0.669802,-0.759189,0.000000,0.000000,-0.213784,-0.163422,1.140490,0.544949,-0.252337,0.944103,-0.090156,-0.303446,0.066967,-0.309984
-0.050000,-0.050000,0.000000,0.000000,0.000000,0.000000,0.000000,0.000000,0.000000,0.100000,0.100000,-0.201733,-0.315287,-0.050000,-0.050000,0.700803,-0.776020,0.000000,0.000000,-0.187447,-0.166140,1.134245,0.574090,-0.291426,0.947174,-0.096748,-0.298154,0.082929,-0.309499
-0.050000,-0.050000,0.000000,0.000000,0.000000,0.000000,0.000000,0.000000,0.000000,0.100000,0.100000,-0.209384,-0.318954,-0.050000,-0.050000,0.731618,-0.792467,0.000000,0.000000,-0.160388,-0.168983,1.128407,0.602608,-0.331453,0.950219,-0.103602,-0.292908,0.099108,-0.308934
-0.050000,-0.050000,0.000000,0.000000,0.000000,0.000000,0.000000,0.000000,0.000000,0.100000,0.100000,-0.215850,-0.322716,-0.050000,-0.050000,0.760796,-0.807340,0.000000,0.000000,-0.131764,-0.172075,1.124041,0.628679,-0.373116,0.953301,-0.111020,-0.288119,0.114991,-0.308094
-0.050000,-0.050000,0.000000,0.000000,0.000000,0.000000,0.000000,0.000000,0.000000,0.100000,0.100000,-0.221821,-0.326505,-0.050000,-0.050000,0.789127,-0.821582,0.000000,0.000000,-0.102867,-0.175229,1.120150,0.653776,-0.414912,0.956441,-0.118532,-0.283572,0.130504,-0.307203
-0.050000,-0.050000,0.000000,0.000000,0.000000,0.000000,0.000000,0.000000,0.000000,0.100000,0.100000,-0.226804,-0.330344,-0.050000,-0.050000,0.815764,-0.834562,0.000000,0.000000,-0.073421,-0.178503,1.117205,0.676923,-0.456977,0.959695,-0.126230,-0.279506,0.145277,-0.306208
-0.050000,-0.050000,0.000000,0.000000,0.000000,0.000000,0.000000,0.000000,0.000000,0.100000,0.100000,-0.230662,-0.334134,-0.050000,-0.050000,0.840274,-0.846163,0.000000,0.000000,-0.043934,-0.181900,1.114992,0.697945,-0.498551,0.963169,-0.133917,-0.276049,0.158944,-0.305225
-0.050000,-0.050000,0.000000,0.000000,0.000000,0.000000,0.000000,0.000000,0.000000,0.100000,0.100000,-0.233957,-0.337899,-0.050000,-0.050000,0.863721,-0.857075,0.000000,0.000000,-0.014427,-0.185357,1.113143,0.717906,-0.539880,0.966753,-0.141597,-0.272898,0.172058,-0.304247
-0.050000,-0.050000,0.000000,0.000000,0.000000,0.000000,0.000000,0.000000,0.000000,0.100000,0.100000,-0.235472,-0.341360,-0.050000,-0.050000,0.883604,-0.865906,0.000000,0.000000,0.014456,-0.189062,1.111868,0.734641,-0.579511,0.970816,-0.149031,-0.270779,0.183285,-0.303444
-0.050000,-0.050000,0.000000,0.000000,0.000000,0.000000,0.000000,0.000000,0.000000,0.100000,0.100000,-0.236396,-0.344631,-0.050000,-0.050000,0.902263,-0.874082,0.000000,0.000000,0.042948,-0.192888,1.110577,0.750347,-0.618321,0.975082,-0.156351,-0.269023,0.193906,-0.302738
-0.050000,-0.050000,0.000000,0.000000,0.000000,0.000000,0.000000,0.000000,0.000000,0.100000,0.100000,-0.236137,-0.347520,-0.050000,-0.050000,0.918473,-0.880952,0.000000,0.000000,0.070657,-0.196956,1.109256,0.763995,-0.655490,0.979754,-0.163445,-0.267993,0.203314,-0.302222
-0.050000,-0.050000,0.000000,0.000000,0.000000,0.000000,0.000000,0.000000,0.000000,0.100000,0.100000,-0.234753,-0.349845,-0.050000,-0.050000,0.932309,-0.886656,0.000000,0.000000,0.097314,-0.201356,1.107499,0.775753,-0.690635,0.984893,-0.170346,-0.267697,0.211688,-0.301927
-0.050000,-0.050000,0.000000,0.000000,0.000000,0.000000,0.000000,0.000000,0.000000,0.100000,0.100000,-0.232806,-0.351889,-0.050000,-0.050000,0.944958,-0.891778,0.000000,0.000000,0.123445,-0.205922,1.105523,0.786565,-0.724768,0.990266,-0.177152,-0.267767,0.219544,-0.301744
-0.050000,-0.050000,0.000000,0.000000,0.000000,0.000000,0.000000,0.000000,0.000000,0.100000,0.100000,-0.228462,-0.348798,-0.050000,-0.050000,0.954036,-0.895097,0.000000,0.000000,0.145512,-0.210920,1.103741,0.794173,-0.751831,0.995605,-0.183279,-0.268659,0.225994,-0.302429
-0.050000,-0.050000,0.000000,0.000000,0.000000,0.000000,0.000000,0.000000,0.000000,0.100000,0.100000,-0.223989,-0.346081,-0.050000,-0.050000,0.962324,-0.898019,0.000000,0.000000,0.167231,-0.216342,1.101207,0.801139,-0.778736,1.001381,-0.189576,-0.269914,0.232185,-0.303058
-0.050000,-0.050000,0.000000,0.000000,0.000000,0.000000,0.000000,0.000000,0.000000,0.100000,0.100000,-0.219256,-0.344111,-0.050000,-0.050000,0.969032,-0.900147,0.000000,0.000000,0.188256,-0.222611,1.097165,0.806821,-0.805322,1.008032,-0.196213,-0.271893,0.237857,-0.303571
-0.050000,-0.050000,0.000000,0.000000,0.000000,0.000000,0.000000,0.000000,0.000000,0.100000,0.100000,-0.213959,-0.342009,-0.050000,-0.050000,0.974228,-0.901650,0.000000,0.000000,0.208040,-0.229224,1.092075,0.811487,-0.829885,1.015233,-0.202913,-0.274443,0.242986,-0.304062
-0.050000,-0.050000,0.000000,0.000000,0.000000,0.000000,0.000000,0.000000,0.000000,0.100000,0.100000,-0.208379,-0.339840,-0.050000,-0.050000,0.978669,-0.902841,0.000000,0.000000,0.227204,-0.236009,1.086461,0.815645,-0.853437,1.022710,-0.209644,-0.277279,0.247844,-0.304542
-0.050000,-0.050000,0.000000,0.000000,0.000000,0.000000,0.000000,0.000000,0.000000,0.100000,0.100000,-0.201969,-0.336921,-0.050000,-0.050000,0.981143,-0.903205,0.000000,0.000000,0.244212,-0.243092,1.079550,0.818490,-0.873338,1.030866,-0.216356,-0.280801,0.252011,-0.304964
-0.050000,-0.050000,0.000000,0.000000,0.000000,0.000000,0.000000,0.000000,0.000000,0.100000,0.100000,-0.195682,-0.334732,-0.050000,-0.050000,0.982789,-0.903350,0.000000,0.000000,0.261268,-0.250565,1.071471,0.820839,-0.892655,1.039579,-0.223227,-0.284725,0.256257,-0.305228
-0.050000,-0.050000,0.000000,0.000000,0.000000,0.000000,0.000000,0.000000,0.000000,0.100000,0.100000,-0.189641,-0.334005,-0.050000,-0.050000,0.982777,-0.903055,0.000000,0.000000,0.278420,-0.258815,1.061057,0.822196,-0.910805,1.049405,-0.230417,-0.289453,0.260658,-0.305177
-0.050000,-0.050000,0.000000,0.000000,0.000000,0.000000,0.000000,0.000000,0.000000,0.100000,0.100000,-0.182834,-0.331248,-0.050000,-0.050000,0.982214,-0.902449,0.000000,0.000000,0.292799,-0.266271,1.051754,0.823375,-0.924919,1.058852,-0.236647,-0.293810,0.264387,-0.305105
-0.050000,-0.050000,0.000000,0.000000,0.000000,0.000000,0.000000,0.000000,0.000000,0.100000,0.100000,-0.175644,-0.327476,-0.050000,-0.050000,0.981376,-0.901688,0.000000,0.000000,0.305791,-0.273331,1.043005,0.824465,-0.937016,1.068109,-0.242396,-0.297981,0.267779,-0.305022
-0.050000,-0.050000,0.000000,0.000000,0.000000,0.000000,0.000000,0.000000,0.000000,0.100000,0.100000,-0.168651,-0.322308,-0.050000,-0.050000,0.979895,-0.900408,0.000000,0.000000,0.315632,-0.280194,1.035248,0.825087,-0.945787,1.077505,-0.247039,-0.301840,0.270324,-0.304628
-0.050000,-0.050000,0.000000,0.000000,0.000000,0.000000,0.000000,0.000000,0.000000,0.100000,0.100000,-0.161882,-0.316893,-0.050000,-0.050000,0.978324,-0.899061,0.000000,0.000000,0.324532,-0.286971,1.028053,0.825701,-0.953709,1.086905,-0.251199,-0.305495,0.272574,-0.304088
-0.050000,-0.050000,0.000000,0.000000,0.000000,0.000000,0.000000,0.000000,0.000000,0.100000,0.100000,-0.155559,-0.310988,-0.050000,-0.050000,0.976574,-0.897581,0.000000,0.000000,0.331553,-0.293578,1.021982,0.826297,-0.959932,1.096315,-0.254394,-0.308743,0.274235,-0.303256
-0.050000,-0.050000,0.000000,0.000000,0.000000,0.000000,0.000000,0.000000,0.000000,0.100000,0.100000,-0.149823,-0.304873,-0.050000,-0.050000,0.974901,-0.896192,0.000000,0.000000,0.336922,-0.299917,1.017538,0.827178,-0.964867,1.105637,-0.256470,-0.311411,0.275259,-0.302083
-0.050000,-0.050000,0.000000,0.000000,0.000000,0.000000,0.000000,0.000000,0.000000,0.100000,0.100000,-0.144379,-0.298652,-0.050000,-0.050000,0.973266,-0.894850,0.000000,0.000000,0.341466,-0.306123,1.013908,0.828202,-0.969159,1.114915,-0.257987,-0.313791,0.275964,-0.300741
-0.050000,-0.050000,0.000000,0.000000,0.000000,0.000000,0.000000,0.000000,0.000000,0.100000,0.100000,-0.139847,-0.292447,-0.050000,-0.050000,0.972117,-0.893980,0.000000,0.000000,0.344004,-0.311864,1.013293,0.830016,-0.972098,1.123947,-0.257803,-0.315167,0.275663,-0.298850
-0.050000,-0.050000,0.000000,0.000000,0.000000,0.000000,0.000000,0.000000,0.000000,0.100000,0.100000,-0.135578,-0.286340,-0.050000,-0.050000,0.971237,-0.893366,0.000000,0.000000,0.346070,-0.317457,1.013779,0.832171,-0.974744,1.132871,-0.257115,-0.316207,0.275027,-0.296777
-0.050000,-0.050000,0.000000,0.000000,0.000000,0.000000,0.000000,0.000000,0.000000,0.100000,0.100000,-0.131833,-0.280428,-0.050000,-0.050000,0.970897,-0.893266,0.000000,0.000000,0.347194,-0.322756,1.016469,0.835007,-0.976804,1.141579,-0.255415,-0.316575,0.273725,-0.294339
-0.050000,-0.050000,0.000000,0.000000,0.000000,0.000000,0.000000,0.000000,0.000000,0.100000,0.100000,-0.128439,-0.274865,-0.050000,-0.050000,0.971256,-0.893826,0.000000,0.000000,0.347816,-0.327820,1.021343,0.838583,-0.978490,1.150039,-0.252939,-0.316350,0.271811,-0.291560
-0.050000,-0.050000,0.000000,0.000000,0.000000,0.000000,0.000000,0.000000,0.000000,0.100000,0.100000,-0.125221,-0.269477,-0.050000,-0.050000,0.971966,-0.894715,0.000000,0.000000,0.348188,-0.332768,1.027310,0.842529,-0.979989,1.158375,-0.250074,-0.315828,0.269592,-0.288612
-0.050000,-0.050000,0.000000,0.000000,0.000000,0.000000,0.000000,0.000000,0.000000,0.100000,0.100000,-0.122181,-0.264793,-0.050000,-0.050000,0.973841,-0.896701,0.000000,0.000000,0.348473,-0.337491,1.036217,0.847536,-0.981073,1.166325,-0.246487,-0.314618,0.266619,-0.285226
-0.050000,-0.050000,0.000000,0.000000,0.000000,0.000000,0.000000,0.000000,0.000000,0.100000,0.100000,-0.119073,-0.260384,-0.050000,-0.050000,0.976094,-0.899043,0.000000,0.000000,0.348926,-0.342183,1.045908,0.852844,-0.982020,1.174147,-0.242811,-0.313261,0.263471,-0.281725
-0.050000,-0.050000,0.000000,0.000000,0.000000,0.000000,0.000000,0.000000,0.000000,0.100000,0.100000,-0.115831,-0.256525,-0.050000,-0.050000,0.979099,-0.902100,0.000000,0.000000,0.349716,-0.346816,1.057164,0.858755,-0.982695,1.181715,-0.238958,-0.311607,0.259971,-0.277995
-0.050000,-0.050000,0.000000,0.000000,0.000000,0.000000,0.000000,0.000000,0.000000,0.100000,0.100000,-0.112220,-0.253242,-0.050000,-0.050000,0.982728,-0.905764,0.000000,0.000000,0.351148,-0.351465,1.069472,0.865120,-0.983046,1.189039,-0.235194,-0.309812,0.256292,-0.274107
-0.050000,-0.050000,0.000000,0.000000,0.000000,0.000000,0.000000,0.000000,0.000000,0.100000,0.100000,-0.108425,-0.250247,-0.050000,-0.050000,0.986667,-0.909732,0.000000,0.000000,0.352901,-0.356122,1.082307,0.871712,-0.983236,1.196240,-0.231475,-0.307947,0.252524,-0.270140
-0.050000,-0.050000,0.000000,0.000000,0.000000,0.000000,0.000000,0.000000,0.000000,0.100000,0.100000,-0.103812,-0.248060,-0.050000,-0.050000,0.991209,-0.914329,0.000000,0.000000,0.355896,-0.360886,1.095861,0.878729,-0.982852,1.203075,-0.228191,-0.306058,0.248740,-0.266035
-0.050000,-0.050000,0.000000,0.000000,0.000000,0.000000,0.000000,0.000000,0.000000,0.100000,0.100000,-0.098878,-0.246092,-0.050000,-0.050000,0.995814,-0.919012,0.000000,0.000000,0.359333,-0.365694,1.109369,0.885803,-0.982261,1.209776,-0.225113,-0.304202,0.245025,-0.261915
-0.050000,-0.050000,0.000000,0.000000,0.000000,0.000000,0.000000,0.000000,0.000000,0.100000,0.100000,-0.093302,-0.244561,-0.050000,-0.050000,1.000546,-0.923867,0.000000,0.000000,0.363655,-0.370591,1.122785,0.892989,-0.981254,1.216210,-0.222447,-0.302413,0.241444,-0.257764
-0.050000,-0.050000,0.000000,0.000000,0.000000,0.000000,0.000000,0.000000,0.000000,0.100000,0.100000,-0.087080,-0.243312,-0.050000,-0.050000,1.005125,-0.928614,0.000000,0.000000,0.368796,-0.375557,1.135593,0.900127,-0.979841,1.222318,-0.220245,-0.300728,0.238103,-0.253632
-0.050000,-0.050000,0.000000,0.000000,0.000000,0.000000,0.000000,0.000000,0.000000,0.100000,0.100000,-0.080535,-0.242203,-0.050000,-0.050000,1.009627,-0.933308,0.000000,0.000000,0.374345,-0.380557,1.148097,0.907240,-0.978225,1.228263,-0.218274,-0.299096,0.234883,-0.249511
-0.050000,-0.050000,0.000000,0.000000,0.000000,0.000000,0.000000,0.000000,0.000000,0.100000,0.100000,-0.073155,-0.241242,-0.050000,-0.050000,1.013549,-0.937432,0.000000,0.000000,0.380864,-0.385564,1.159067,0.914064,-0.976080,1.233575,-0.216988,-0.297628,0.232114,-0.245488
-0.050000,-0.050000,0.000000,0.000000,0.000000,0.000000,0.000000,0.000000,0.000000,0.100000,0.100000,-0.065583,-0.240243,-0.050000,-0.050000,1.017204,-0.941249,0.000000,0.000000,0.387583,-0.390523,1.169388,0.920727,-0.973802,1.238616,-0.215906,-0.296205,0.229505,-0.241519
-0.050000,-0.050000,0.000000,0.000000,0.000000,0.000000,0.000000,0.000000,0.000000,0.100000,0.100000,-0.057628,-0.239166,-0.050000,-0.050000,1.020322,-0.944454,0.000000,0.000000,0.394700,-0.395383,1.178408,0.927072,-0.971257,1.243116,-0.215233,-0.294875,0.227214,-0.237658
-0.050000,-0.050000,0.000000,0.000000,0.000000,0.000000,0.000000,0.000000,0.000000,0.100000,0.100000,-0.049530,-0.237880,-0.050000,-0.050000,1.022863,-0.946890,0.000000,0.000000,0.401924,-0.400015,1.186006,0.932995,-0.968555,1.246950,-0.214894,-0.293613,0.225217,-0.233944
-0.050000,-0.050000,0.000000,0.000000,0.000000,0.000000,0.000000,0.000000,0.000000,0.100000,0.100000,-0.041360,-0.236489,-0.050000,-0.050000,1.025115,-0.948942,0.000000,0.000000,0.409201,-0.404532,1.192891,0.938707,-0.965774,1.250451,-0.214722,-0.292385,0.223368,-0.230304
-0.050000,-0.050000,0.000000,0.000000,0.000000,0.000000,0.000000,0.000000,0.000000,0.100000,0.100000,-0.033393,-0.234685,-0.050000,-0.050000,1.026593,-0.949742,0.000000,0.000000,0.416191,-0.408496,1.197685,0.943674,-0.962931,1.252805,-0.214921,-0.291231,0.221882,-0.226941
-0.050000,-0.050000,0.000000,0.000000,0.000000,0.000000,0.000000,0.000000,0.000000,0.100000,0.100000,-0.025639,-0.232749,-0.050000,-0.050000,1.027883,-0.950142,0.000000,0.000000,0.422950,-0.412211,1.201859,0.948371,-0.960123,1.254751,-0.215197,-0.290099,0.220482,-0.223687
-0.050000,-0.050000,0.000000,0.000000,0.000000,0.000000,0.000000,0.000000,0.000000,0.100000,0.100000,-0.018309,-0.230546,-0.050000,-0.050000,1.028800,-0.949740,0.000000,0.000000,0.429247,-0.415428,1.204794,0.952528,-0.957389,1.255881,-0.215628,-0.289012,0.219255,-0.220654
-0.050000,-0.050000,0.000000,0.000000,0.000000,0.000000,0.000000,0.000000,0.000000,0.100000,0.100000,-0.011663,-0.228149,-0.050000,-0.050000,1.029529,-0.948654,0.000000,0.000000,0.434867,-0.418057,1.206729,0.956137,-0.954823,1.256201,-0.216129,-0.287982,0.218127,-0.217871
-0.050000,-0.050000,0.000000,0.000000,0.000000,0.000000,0.000000,0.000000,0.000000,0.100000,0.100000,-0.005358,-0.225655,-0.050000,-0.050000,1.030164,-0.947225,0.000000,0.000000,0.440148,-0.420390,1.208165,0.959471,-0.952341,1.256117,-0.216666,-0.286980,0.217050,-0.215214
-0.050000,-0.050000,0.000000,0.000000,0.000000,0.000000,0.000000,0.000000,0.000000,0.100000,0.100000,-0.000377,-0.223031,-0.050000,-0.050000,1.030800,-0.945028,0.000000,0.000000,0.444199,-0.421779,1.208504,0.962021,-0.950204,1.254911,-0.217205,-0.286107,0.216032,-0.212978
-0.050000,-0.050000,0.000000,0.000000,0.000000,0.000000,0.000000,0.000000,0.000000,0.100000,0.100000,0.004109,-0.220420,-0.050000,-0.050000,1.031511,-0.942673,0.000000,0.000000,0.447805,-0.422863,1.208596,0.964338,-0.948186,1.253379,-0.217721,-0.285296,0.215017,-0.210895
-0.050000,-0.050000,0.000000,0.000000,0.000000,0.000000,0.000000,0.000000,0.000000,0.100000,0.100000,0.007602,-0.217835,-0.050000,-0.050000,1.032374,-0.940001,0.000000,0.000000,0.450521,-0.423335,1.208197,0.966187,-0.946405,1.251197,-0.218194,-0.284609,0.214005,-0.209118
-0.050000,-0.050000,0.000000,0.000000,0.000000,0.000000,0.000000,0.000000,0.000000,0.100000,0.100000,0.010088,-0.215368,-0.050000,-0.050000,1.033474,-0.937195,0.000000,0.000000,0.452340,-0.423266,1.207474,0.967643,-0.944801,1.248469,-0.218605,-0.284078,0.212989,-0.207666
-0.050000,-0.050000,0.000000,0.000000,0.000000,0.000000,0.000000,0.000000,0.000000,0.100000,0.100000,0.012070,-0.212960,-0.050000,-0.050000,1.034693,-0.934322,0.000000,0.000000,0.453710,-0.422926,1.206590,0.968903,-0.943287,1.245468,-0.218986,-0.283625,0.211971,-0.206377
-0.050000,-0.050000,0.000000,0.000000,0.000000,0.000000,0.000000,0.000000,0.000000,0.100000,0.100000,0.012650,-0.210805,-0.050000,-0.050000,1.036292,-0.931470,0.000000,0.000000,0.453785,-0.421928,1.205331,0.969699,-0.941856,1.241788,-0.219290,-0.283427,0.210971,-0.205591
-0.050000,-0.050000,0.000000,0.000000,0.000000,0.000000,0.000000,0.000000,0.000000,0.100000,0.100000,0.013939,-0.207796,-0.050000,-0.050000,1.038107,-0.928815,0.000000,0.000000,0.453463,-0.420615,1.204012,0.970452,-0.940492,1.238183,-0.219594,-0.283181,0.209748,-0.204784
-0.050000,-0.050000,0.000000,0.000000,0.000000,0.000000,0.000000,0.000000,0.000000,0.100000,0.100000,0.016642,-0.203079,-0.050000,-0.050000,1.040356,-0.926555,0.000000,0.000000,0.452344,-0.418672,1.202570,0.971120,-0.939265,1.234731,-0.219899,-0.282842,0.208080,-0.203939
-0.050000,-0.050000,0.000000,0.000000,0.000000,0.000000,0.000000,0.000000,0.000000,0.100000,0.100000,0.017649,-0.199567,-0.050000,-0.050000,1.042560,-0.924110,0.000000,0.000000,0.450719,-0.416670,1.200452,0.971414,-0.937755,1.230765,-0.220209,-0.282729,0.206590,-0.203391
-0.050000,-0.050000,0.000000,0.000000,0.000000,0.000000,0.000000,0.000000,0.000000,0.100000,0.100000,0.017808,-0.196657,-0.050000,-0.050000,1.044742,-0.921572,0.000000,0.000000,0.448841,-0.414639,1.197996,0.971520,-0.936104,1.226544,-0.220520,-0.282728,0.205189,-0.202991
-0.050000,-0.050000,0.000000,0.000000,0.000000,0.000000,0.000000,0.000000,0.000000,0.100000,0.100000,0.016567,-0.194620,-0.050000,-0.050000,1.046898,-0.919261,0.000000,0.000000,0.446084,-0.412455,1.194920,0.971463,-0.933808,1.221667,-0.220869,-0.282844,0.204109,-0.203148
-0.050000,-0.050000,0.000000,0.000000,0.000000,0.000000,0.000000,0.000000,0.000000,0.100000,0.100000,0.015047,-0.192719,-0.050000,-0.050000,1.049007,-0.917038,0.000000,0.000000,0.443026,-0.410197,1.191616,0.971386,-0.931295,1.216624,-0.221242,-0.282920,0.203091,-0.203441
-0.050000,-0.050000,0.000000,0.000000,0.000000,0.000000,0.000000,0.000000,0.000000,0.100000,0.100000,0.012970,-0.191086,-0.050000,-0.050000,1.051021,-0.914991,0.000000,0.000000,0.439365,-0.407790,1.187854,0.971265,-0.928351,1.211250,-0.221664,-0.282917,0.202199,-0.204006
-0.050000,-0.050000,0.000000,0.000000,0.000000,0.000000,0.000000,0.000000,0.000000,0.100000,0.100000,0.010522,-0.189578,-0.050000,-0.050000,1.052846,-0.913097,0.000000,0.000000,0.435168,-0.405216,1.183601,0.971098,-0.925074,1.205641,-0.222128,-0.282710,0.201351,-0.204728
-0.050000,-0.050000,0.000000,0.000000,0.000000,0.000000,0.000000,0.000000,0.000000,0.100000,0.100000,0.007888,-0.188132,-0.050000,-0.050000,1.054577,-0.911280,0.000000,0.000000,0.430702,-0.402559,1.179103,0.970906,-0.921631,1.199914,-0.222613,-0.282401,0.200526,-0.205528
-0.050000,-0.050000,0.000000,0.000000,0.000000,0.000000,0.000000,0.000000,0.000000,0.100000,0.100000,0.004843,-0.186789,-0.050000,-0.050000,1.055887,-0.909644,0.000000,0.000000,0.425574,-0.399602,1.173935,0.970580,-0.917958,1.193967,-0.223097,-0.281653,0.199647,-0.206409
-0.050000,-0.050000,0.000000,0.000000,0.000000,0.000000,0.000000,0.000000,0.000000,0.100000,0.100000,0.001686,-0.185484,-0.050000,-0.050000,1.057017,-0.908056,0.000000,0.000000,0.420282,-0.396523,1.168606,0.970171,-0.914325,1.187988,-0.223549,-0.280740,0.198712,-0.207276
-0.050000,-0.050000,0.000000,0.000000,0.000000,0.000000,0.000000,0.000000,0.000000,0.100000,0.100000,-0.001692,-0.184254,-0.050000,-0.050000,1.057785,-0.906561,0.000000,0.000000,0.414661,-0.393200,1.162956,0.969597,-0.910771,1.181944,-0.223936,-0.279498,0.197663,-0.208115
-0.050000,-0.050000,0.000000,0.000000,0.000000,0.000000,0.000000,0.000000,0.000000,0.100000,0.100000,-0.005254,-0.183149,-0.050000,-0.050000,1.058125,-0.905138,0.000000,0.000000,0.408829,-0.389597,1.157178,0.968767,-0.907530,1.175912,-0.224192,-0.277947,0.196437,-0.208879
-0.050000,-0.050000,0.000000,0.000000,0.000000,0.000000,0.000000,0.000000,0.000000,0.100000,0.100000,-0.008907,-0.182106,-0.050000,-0.050000,1.058252,-0.903751,0.000000,0.000000,0.402891,-0.385855,1.151336,0.967808,-0.904447,1.169885,-0.224381,-0.276243,0.195122,-0.209605
-0.050000,-0.050000,0.000000,0.000000,0.000000,0.000000,0.000000,0.000000,0.000000,0.100000,0.100000,-0.012762,-0.181350,-0.050000,-0.050000,1.057676,-0.902448,0.000000,0.000000,0.396821,-0.381699,1.145630,0.966332,-0.902108,1.163986,-0.224299,-0.274190,0.193490,-0.210201
-0.050000,-0.050000,0.000000,0.000000,0.000000,0.000000,0.000000,0.000000,0.000000,0.100000,0.100000,-0.016651,-0.180717,-0.050000,-0.050000,1.056865,-0.901169,0.000000,0.000000,0.390769,-0.377434,1.140075,0.964655,-0.900062,1.158166,-0.224119,-0.272078,0.191757,-0.210764
-0.050000,-0.050000,0.000000,0.000000,0.000000,0.000000,0.000000,0.000000,0.000000,0.100000,0.100000,-0.020605,-0.180328,-0.050000,-0.050000,1.055584,-0.899936,0.000000,0.000000,0.384752,-0.372952,1.134818,0.962578,-0.898600,1.152507,-0.223744,-0.269845,0.189822,-0.211262
-0.050000,-0.050000,0.000000,0.000000,0.000000,0.000000,0.000000,0.000000,0.000000,0.100000,0.100000,-0.024530,-0.180200,-0.050000,-0.050000,1.053880,-0.898748,0.000000,0.000000,0.378894,-0.368371,1.130020,0.960104,-0.897706,1.147091,-0.223200,-0.267617,0.187742,-0.211735
-0.050000,-0.050000,0.000000,0.000000,0.000000,0.000000,0.000000,0.000000,0.000000,0.100000,0.100000,-0.028442,-0.180202,-0.050000,-0.050000,1.051965,-0.897582,0.000000,0.000000,0.373116,-0.363740,1.125450,0.957432,-0.897095,1.141796,-0.222571,-0.265392,0.185589,-0.212194
-0.050000,-0.050000,0.000000,0.000000,0.000000,0.000000,0.000000,0.000000,0.000000,0.100000,0.100000,-0.032152,-0.180550,-0.050000,-0.050000,1.049569,-0.896493,0.000000,0.000000,0.367758,-0.359205,1.121707,0.954277,-0.897174,1.136994,-0.221776,-0.263338,0.183355,-0.212675
-0.050000,-0.050000,0.000000,0.000000,0.000000,0.000000,0.000000,0.000000,0.000000,0.100000,0.100000,-0.035744,-0.180976,-0.050000,-0.050000,1.047086,-0.895434,0.000000,0.000000,0.362593,-0.354789,1.118249,0.951029,-0.897405,1.132397,-0.220961,-0.261380,0.181148,-0.213177
-0.050000,-0.050000,0.000000,0.000000,0.000000,0.000000,0.000000,0.000000,0.000000,0.100000,0.100000,-0.039101,-0.181559,-0.050000,-0.050000,1.044426,-0.894437,0.000000,0.000000,0.357813,-0.350611,1.115362,0.947596,-0.897939,1.128208,-0.220110,-0.259615,0.178993,-0.213718
-0.050000,-0.050000,0.000000,0.000000,0.000000,0.000000,0.000000,0.000000,0.000000,0.100000,0.100000,-0.042148,-0.182206,-0.050000,-0.050000,1.041752,-0.893516,0.000000,0.000000,0.353498,-0.346817,1.113007,0.944150,-0.898616,1.124484,-0.219291,-0.258082,0.176989,-0.214304
-0.050000,-0.050000,0.000000,0.000000,0.000000,0.000000,0.000000,0.000000,0.000000,0.100000,0.100000,-0.045038,-0.182886,-0.050000,-0.050000,1.039072,-0.892633,0.000000,0.000000,0.349414,-0.343216,1.110918,0.940696,-0.899364,1.120993,-0.218489,-0.256664,0.175060,-0.214911
