RRGGZZ/g1_deploy_sonic/data/example_scalelab/qwen_audio/g1_ref_en/case_test12/joint_pos.csv
joint_0,joint_1,joint_2,joint_3,joint_4,joint_5,joint_6,joint_7,joint_8,joint_9,joint_10,joint_11,joint_12,joint_13,joint_14,joint_15,joint_16,joint_17,joint_18,joint_19,joint_20,joint_21,joint_22,joint_23,joint_24,joint_25,joint_26,joint_27,joint_28
-0.050000,-0.050000,0.000000,0.000000,0.000000,0.000000,0.000000,0.000000,0.000000,0.100000,0.100000,-0.183057,-0.623916,-0.050000,-0.050000,0.408362,-0.845544,0.000000,0.000000,-0.478550,0.284150,1.152545,0.149497,0.114983,-0.367704,-0.068382,0.027198,0.024502,-0.551510
-0.050000,-0.050000,0.000000,0.000000,0.000000,0.000000,0.000000,0.000000,0.000000,0.100000,0.100000,-0.187652,-0.636434,-0.050000,-0.050000,0.402547,-0.848479,0.000000,0.000000,-0.476696,0.292382,1.166645,0.146934,0.117742,-0.362279,-0.075007,0.019841,0.025805,-0.552549
-0.050000,-0.050000,0.000000,0.000000,0.000000,0.000000,0.000000,0.000000,0.000000,0.100000,0.100000,-0.190640,-0.647024,-0.050000,-0.050000,0.397897,-0.850630,0.000000,0.000000,-0.474737,0.299087,1.178889,0.142672,0.120705,-0.357016,-0.080265,0.012932,0.026449,-0.552828
-0.050000,-0.050000,0.000000,0.000000,0.000000,0.000000,0.000000,0.000000,0.000000,0.100000,0.100000,-0.190415,-0.653755,-0.050000,-0.050000,0.395578,-0.851210,0.000000,0.000000,-0.472569,0.302737,1.187419,0.135010,0.124074,-0.352078,-0.082790,0.006917,0.025772,-0.551583
-0.050000,-0.050000,0.000000,0.000000,0.000000,0.000000,0.000000,0.000000,0.000000,0.100000,0.100000,-0.188460,-0.658119,-0.050000,-0.050000,0.394164,-0.850819,0.000000,0.000000,-0.470317,0.304292,1.194422,0.125931,0.127571,-0.347221,-0.083974,0.001637,0.024351,-0.549836
-0.050000,-0.050000,0.000000,0.000000,0.000000,0.000000,0.000000,0.000000,0.000000,0.100000,0.100000,-0.185640,-0.661299,-0.050000,-0.050000,0.393203,-0.849942,0.000000,0.000000,-0.468022,0.304800,1.200663,0.116145,0.131132,-0.342405,-0.084487,-0.003274,0.022557,-0.547837
-0.050000,-0.050000,0.000000,0.000000,0.000000,0.000000,0.000000,0.000000,0.000000,0.100000,0.100000,-0.181314,-0.662074,-0.050000,-0.050000,0.392653,-0.848092,0.000000,0.000000,-0.465479,0.302988,1.205785,0.106166,0.134648,-0.337516,-0.084030,-0.007241,0.020195,-0.546025
-0.050000,-0.050000,0.000000,0.000000,0.000000,0.000000,0.000000,0.000000,0.000000,0.100000,0.100000,-0.176682,-0.662230,-0.050000,-0.050000,0.392122,-0.846020,0.000000,0.000000,-0.462824,0.300605,1.210612,0.096574,0.138082,-0.332585,-0.083444,-0.010931,0.017794,-0.544499
-0.050000,-0.050000,0.000000,0.000000,0.000000,0.000000,0.000000,0.000000,0.000000,0.100000,0.100000,-0.171435,-0.661149,-0.050000,-0.050000,0.391629,-0.843507,0.000000,0.000000,-0.459946,0.297080,1.214847,0.087756,0.141354,-0.327567,-0.082601,-0.014071,0.015314,-0.543545
-0.050000,-0.050000,0.000000,0.000000,0.000000,0.000000,0.000000,0.000000,0.000000,0.100000,0.100000,-0.165821,-0.658994,-0.050000,-0.050000,0.391140,-0.840711,0.000000,0.000000,-0.456867,0.292794,1.218416,0.080369,0.144362,-0.322474,-0.081742,-0.016748,0.013006,-0.543445
-0.050000,-0.050000,0.000000,0.000000,0.000000,0.000000,0.000000,0.000000,0.000000,0.100000,0.100000,-0.160024,-0.656302,-0.050000,-0.050000,0.390654,-0.837772,0.000000,0.000000,-0.453689,0.288127,1.221651,0.073697,0.147237,-0.317344,-0.080875,-0.019195,0.010786,-0.543771
-0.050000,-0.050000,0.000000,0.000000,0.000000,0.000000,0.000000,0.000000,0.000000,0.100000,0.100000,-0.153953,-0.652124,-0.050000,-0.050000,0.390268,-0.834582,0.000000,0.000000,-0.450370,0.282934,1.223756,0.069927,0.149640,-0.312128,-0.080194,-0.021094,0.009092,-0.545476
-0.050000,-0.050000,0.000000,0.000000,0.000000,0.000000,0.000000,0.000000,0.000000,0.100000,0.100000,-0.147870,-0.647493,-0.050000,-0.050000,0.389957,-0.831338,0.000000,0.000000,-0.447089,0.277796,1.225492,0.067342,0.151893,-0.306886,-0.079600,-0.022847,0.007610,-0.547546
-0.050000,-0.050000,0.000000,0.000000,0.000000,0.000000,0.000000,0.000000,0.000000,0.100000,0.100000,-0.141764,-0.641953,-0.050000,-0.050000,0.389797,-0.827985,0.000000,0.000000,-0.443887,0.272767,1.226491,0.067128,0.153845,-0.301588,-0.079180,-0.024305,0.006551,-0.550348
-0.050000,-0.050000,0.000000,0.000000,0.000000,0.000000,0.000000,0.000000,0.000000,0.100000,0.100000,-0.135782,-0.635643,-0.050000,-0.050000,0.389849,-0.824510,0.000000,0.000000,-0.440968,0.268359,1.226908,0.069725,0.155570,-0.296199,-0.078904,-0.025482,0.005869,-0.553433
-0.050000,-0.050000,0.000000,0.000000,0.000000,0.000000,0.000000,0.000000,0.000000,0.100000,0.100000,-0.129864,-0.628948,-0.050000,-0.050000,0.390008,-0.820973,0.000000,0.000000,-0.438192,0.264261,1.227035,0.073729,0.157181,-0.290763,-0.078700,-0.026520,0.005376,-0.556660
-0.050000,-0.050000,0.000000,0.000000,0.000000,0.000000,0.000000,0.000000,0.000000,0.100000,0.100000,-0.124358,-0.621430,-0.050000,-0.050000,0.390505,-0.817104,0.000000,0.000000,-0.436151,0.261906,1.226678,0.082703,0.158610,-0.285051,-0.078574,-0.027049,0.005230,-0.559294
-0.050000,-0.050000,0.000000,0.000000,0.000000,0.000000,0.000000,0.000000,0.000000,0.100000,0.100000,-0.119072,-0.613789,-0.050000,-0.050000,0.391099,-0.813035,0.000000,0.000000,-0.434446,0.260400,1.226303,0.093622,0.160029,-0.279171,-0.078417,-0.027352,0.005101,-0.561311
-0.050000,-0.050000,0.000000,0.000000,0.000000,0.000000,0.000000,0.000000,0.000000,0.100000,0.100000,-0.114227,-0.605907,-0.050000,-0.050000,0.391883,-0.808565,0.000000,0.000000,-0.433410,0.260595,1.225892,0.108433,0.161426,-0.272953,-0.078197,-0.027201,0.005004,-0.562097
-0.050000,-0.050000,0.000000,0.000000,0.000000,0.000000,0.000000,0.000000,0.000000,0.100000,0.100000,-0.110005,-0.598137,-0.050000,-0.050000,0.392786,-0.803445,0.000000,0.000000,-0.433166,0.262975,1.225666,0.127755,0.162853,-0.266205,-0.077819,-0.026460,0.004748,-0.560758
-0.050000,-0.050000,0.000000,0.000000,0.000000,0.000000,0.000000,0.000000,0.000000,0.100000,0.100000,-0.106096,-0.590425,-0.050000,-0.050000,0.393749,-0.798001,0.000000,0.000000,-0.433320,0.266447,1.225532,0.149332,0.164295,-0.259191,-0.077361,-0.025425,0.004412,-0.558356
-0.050000,-0.050000,0.000000,0.000000,0.000000,0.000000,0.000000,0.000000,0.000000,0.100000,0.100000,-0.103431,-0.583380,-0.050000,-0.050000,0.394762,-0.791130,0.000000,0.000000,-0.434742,0.273735,1.225788,0.178535,0.165744,-0.251117,-0.076603,-0.023344,0.003653,-0.551537
-0.050000,-0.050000,0.000000,0.000000,0.000000,0.000000,0.000000,0.000000,0.000000,0.100000,0.100000,-0.101289,-0.576657,-0.050000,-0.050000,0.395752,-0.783620,0.000000,0.000000,-0.436573,0.282369,1.226121,0.210478,0.167140,-0.242658,-0.075762,-0.020899,0.002748,-0.542937
-0.050000,-0.050000,0.000000,0.000000,0.000000,0.000000,0.000000,0.000000,0.000000,0.100000,0.100000,-0.100192,-0.570580,-0.050000,-0.050000,0.396694,-0.774830,0.000000,0.000000,-0.439223,0.293696,1.226608,0.247901,0.168430,-0.233426,-0.074755,-0.017723,0.001554,-0.530775
-0.050000,-0.050000,0.000000,0.000000,0.000000,0.000000,0.000000,0.000000,0.000000,0.100000,0.100000,-0.100341,-0.565101,-0.050000,-0.050000,0.397524,-0.764440,0.000000,0.000000,-0.442585,0.307572,1.226975,0.290871,0.169437,-0.223568,-0.073693,-0.013888,0.000197,-0.514755
-0.050000,-0.050000,0.000000,0.000000,0.000000,0.000000,0.000000,0.000000,0.000000,0.100000,0.100000,-0.101114,-0.559921,-0.050000,-0.050000,0.398300,-0.753251,0.000000,0.000000,-0.446305,0.322723,1.227281,0.336616,0.170302,-0.213397,-0.072603,-0.009723,-0.001241,-0.496806
-0.050000,-0.050000,0.000000,0.000000,0.000000,0.000000,0.000000,0.000000,0.000000,0.100000,0.100000,-0.103992,-0.555071,-0.050000,-0.050000,0.398840,-0.739273,0.000000,0.000000,-0.450832,0.340946,1.226833,0.390092,0.170427,-0.202906,-0.071674,-0.004840,-0.002563,-0.473214
-0.050000,-0.050000,0.000000,0.000000,0.000000,0.000000,0.000000,0.000000,0.000000,0.100000,0.100000,-0.107607,-0.549975,-0.050000,-0.050000,0.399284,-0.724298,0.000000,0.000000,-0.455517,0.359763,1.225935,0.445681,0.170203,-0.192626,-0.070887,0.000145,-0.003700,-0.448000
-0.050000,-0.050000,0.000000,0.000000,0.000000,0.000000,0.000000,0.000000,0.000000,0.100000,0.100000,-0.112697,-0.544385,-0.050000,-0.050000,0.399537,-0.707328,0.000000,0.000000,-0.460519,0.379769,1.224138,0.505498,0.169282,-0.182770,-0.070381,0.005332,-0.004464,-0.419541
-0.050000,-0.050000,0.000000,0.000000,0.000000,0.000000,0.000000,0.000000,0.000000,0.100000,0.100000,-0.119216,-0.537360,-0.050000,-0.050000,0.399567,-0.688410,0.000000,0.000000,-0.465598,0.399826,1.221128,0.568111,0.167506,-0.174036,-0.070295,0.010393,-0.004591,-0.388739
-0.050000,-0.050000,0.000000,0.000000,0.000000,0.000000,0.000000,0.000000,0.000000,0.100000,0.100000,-0.126450,-0.529618,-0.050000,-0.050000,0.399487,-0.668517,0.000000,0.000000,-0.470715,0.419909,1.217512,0.632124,0.165304,-0.165864,-0.070418,0.015390,-0.004399,-0.356764
-0.050000,-0.050000,0.000000,0.000000,0.000000,0.000000,0.000000,0.000000,0.000000,0.100000,0.100000,-0.135555,-0.518297,-0.050000,-0.050000,0.399023,-0.646067,0.000000,0.000000,-0.475602,0.438217,1.211866,0.697661,0.161693,-0.160148,-0.071258,0.019714,-0.003024,-0.323044
-0.050000,-0.050000,0.000000,0.000000,0.000000,0.000000,0.000000,0.000000,0.000000,0.100000,0.100000,-0.145131,-0.505436,-0.050000,-0.050000,0.398414,-0.622966,0.000000,0.000000,-0.480317,0.455383,1.205585,0.762764,0.157615,-0.155302,-0.072313,0.023695,-0.001264,-0.289384
-0.050000,-0.050000,0.000000,0.000000,0.000000,0.000000,0.000000,0.000000,0.000000,0.100000,0.100000,-0.155645,-0.489492,-0.050000,-0.050000,0.397514,-0.598563,0.000000,0.000000,-0.484685,0.470265,1.198033,0.826996,0.152603,-0.152196,-0.073798,0.026989,0.001269,-0.255843
-0.050000,-0.050000,0.000000,0.000000,0.000000,0.000000,0.000000,0.000000,0.000000,0.100000,0.100000,-0.166695,-0.470230,-0.050000,-0.050000,0.396290,-0.573332,0.000000,0.000000,-0.488564,0.482108,1.189524,0.888631,0.146750,-0.150430,-0.075565,0.029497,0.004380,-0.223587
-0.050000,-0.050000,0.000000,0.000000,0.000000,0.000000,0.000000,0.000000,0.000000,0.100000,0.100000,-0.178015,-0.449309,-0.050000,-0.050000,0.394904,-0.547688,0.000000,0.000000,-0.492198,0.492431,1.180536,0.948967,0.140475,-0.149334,-0.077472,0.031614,0.007782,-0.191972
-0.050000,-0.050000,0.000000,0.000000,0.000000,0.000000,0.000000,0.000000,0.000000,0.100000,0.100000,-0.189485,-0.423862,-0.050000,-0.050000,0.393007,-0.521511,0.000000,0.000000,-0.494966,0.497771,1.170870,1.003374,0.133189,-0.149069,-0.079459,0.032647,0.011574,-0.163534
-0.050000,-0.050000,0.000000,0.000000,0.000000,0.000000,0.000000,0.000000,0.000000,0.100000,0.100000,-0.200802,-0.397291,-0.050000,-0.050000,0.390948,-0.495378,0.000000,0.000000,-0.497432,0.501556,1.161284,1.055366,0.125674,-0.148638,-0.081345,0.033408,0.015317,-0.136345
-0.050000,-0.050000,0.000000,0.000000,0.000000,0.000000,0.000000,0.000000,0.000000,0.100000,0.100000,-0.211814,-0.368474,-0.050000,-0.050000,0.388562,-0.469333,0.000000,0.000000,-0.499291,0.502230,1.151861,1.102526,0.117701,-0.147872,-0.083030,0.033626,0.018961,-0.111656
-0.050000,-0.050000,0.000000,0.000000,0.000000,0.000000,0.000000,0.000000,0.000000,0.100000,0.100000,-0.222201,-0.338499,-0.050000,-0.050000,0.385908,-0.443810,0.000000,0.000000,-0.500561,0.500418,1.143217,1.144461,0.109504,-0.146101,-0.084286,0.033522,0.022205,-0.089421
-0.050000,-0.050000,0.000000,0.000000,0.000000,0.000000,0.000000,0.000000,0.000000,0.100000,0.100000,-0.232275,-0.307945,-0.050000,-0.050000,0.383120,-0.418550,0.000000,0.000000,-0.501537,0.497363,1.134963,1.183782,0.101196,-0.143828,-0.085329,0.033258,0.025249,-0.068412
-0.050000,-0.050000,0.000000,0.000000,0.000000,0.000000,0.000000,0.000000,0.000000,0.100000,0.100000,-0.241108,-0.277500,-0.050000,-0.050000,0.380080,-0.394780,0.000000,0.000000,-0.501709,0.491917,1.128639,1.215297,0.092878,-0.139707,-0.085510,0.032802,0.027438,-0.050603
-0.050000,-0.050000,0.000000,0.000000,0.000000,0.000000,0.000000,0.000000,0.000000,0.100000,0.100000,-0.249490,-0.247692,-0.050000,-0.050000,0.377022,-0.371763,0.000000,0.000000,-0.501648,0.486160,1.123109,1.244374,0.084645,-0.135095,-0.085387,0.032345,0.029340,-0.033672
-0.050000,-0.050000,0.000000,0.000000,0.000000,0.000000,0.000000,0.000000,0.000000,0.100000,0.100000,-0.256968,-0.219160,-0.050000,-0.050000,0.373926,-0.350255,0.000000,0.000000,-0.501121,0.479778,1.119170,1.268576,0.076581,-0.129501,-0.084658,0.031886,0.030670,-0.018497
-0.050000,-0.050000,0.000000,0.000000,0.000000,0.000000,0.000000,0.000000,0.000000,0.100000,0.100000,-0.263579,-0.192950,-0.050000,-0.050000,0.370933,-0.330777,0.000000,0.000000,-0.500209,0.473635,1.116864,1.288412,0.068806,-0.123510,-0.083406,0.031480,0.031570,-0.004843
-0.050000,-0.050000,0.000000,0.000000,0.000000,0.000000,0.000000,0.000000,0.000000,0.100000,0.100000,-0.269756,-0.167901,-0.050000,-0.050000,0.367992,-0.312315,0.000000,0.000000,-0.499106,0.467610,1.115375,1.306065,0.061176,-0.117320,-0.081891,0.031099,0.032256,0.008052
-0.050000,-0.050000,0.000000,0.000000,0.000000,0.000000,0.000000,0.000000,0.000000,0.100000,0.100000,-0.274818,-0.147535,-0.050000,-0.050000,0.365411,-0.297586,0.000000,0.000000,-0.497578,0.462862,1.116014,1.318022,0.054091,-0.111521,-0.079850,0.030779,0.032648,0.018664
-0.050000,-0.050000,0.000000,0.000000,0.000000,0.000000,0.000000,0.000000,0.000000,0.100000,0.100000,-0.279601,-0.128985,-0.050000,-0.050000,0.363010,-0.284254,0.000000,0.000000,-0.495977,0.458690,1.117148,1.328347,0.047213,-0.106087,-0.077743,0.030453,0.033062,0.028406
-0.050000,-0.050000,0.000000,0.000000,0.000000,0.000000,0.000000,0.000000,0.000000,0.100000,0.100000,-0.283826,-0.114067,-0.050000,-0.050000,0.360970,-0.273720,0.000000,0.000000,-0.494228,0.455670,1.119275,1.335408,0.040749,-0.101383,-0.075503,0.030112,0.033520,0.036408
-0.050000,-0.050000,0.000000,0.000000,0.000000,0.000000,0.000000,0.000000,0.000000,0.100000,0.100000,-0.287717,-0.102998,-0.050000,-0.050000,0.359400,-0.266084,0.000000,0.000000,-0.492504,0.453813,1.121839,1.339641,0.034753,-0.097527,-0.073342,0.029683,0.034205,0.042360
-0.050000,-0.050000,0.000000,0.000000,0.000000,0.000000,0.000000,0.000000,0.000000,0.100000,0.100000,-0.291441,-0.093854,-0.050000,-0.050000,0.358064,-0.259898,0.000000,0.000000,-0.490794,0.452536,1.124621,1.342458,0.028989,-0.094095,-0.071221,0.029211,0.035003,0.047286
-0.050000,-0.050000,0.000000,0.000000,0.000000,0.000000,0.000000,0.000000,0.000000,0.100000,0.100000,-0.295026,-0.090426,-0.050000,-0.050000,0.357584,-0.257890,0.000000,0.000000,-0.489411,0.452691,1.127164,1.341493,0.024007,-0.091534,-0.069469,0.028513,0.036268,0.048764
-0.050000,-0.050000,0.000000,0.000000,0.000000,0.000000,0.000000,0.000000,0.000000,0.100000,0.100000,-0.298686,-0.088786,-0.050000,-0.050000,0.357441,-0.257125,0.000000,0.000000,-0.488218,0.453158,1.129343,1.339355,0.019295,-0.088981,-0.067891,0.027720,0.037686,0.049065
-0.050000,-0.050000,0.000000,0.000000,0.000000,0.000000,0.000000,0.000000,0.000000,0.100000,0.100000,-0.302495,-0.090722,-0.050000,-0.050000,0.357969,-0.258847,0.000000,0.000000,-0.487407,0.454251,1.130794,1.334870,0.015120,-0.086446,-0.066662,0.026738,0.039411,0.047012
-0.050000,-0.050000,0.000000,0.000000,0.000000,0.000000,0.000000,0.000000,0.000000,0.100000,0.100000,-0.306672,-0.095870,-0.050000,-0.050000,0.359268,-0.262637,0.000000,0.000000,-0.487045,0.455599,1.131012,1.328092,0.011386,-0.083213,-0.065820,0.025545,0.041391,0.042788
-0.050000,-0.050000,0.000000,0.000000,0.000000,0.000000,0.000000,0.000000,0.000000,0.100000,0.100000,-0.311032,-0.102624,-0.050000,-0.050000,0.360953,-0.267462,0.000000,0.000000,-0.486908,0.457073,1.130613,1.320166,0.007872,-0.079632,-0.065171,0.024246,0.043499,0.037480
-0.050000,-0.050000,0.000000,0.000000,0.000000,0.000000,0.000000,0.000000,0.000000,0.100000,0.100000,-0.316206,-0.113541,-0.050000,-0.050000,0.363916,-0.274684,0.000000,0.000000,-0.487301,0.458383,1.127705,1.308718,0.004553,-0.073905,-0.065104,0.022590,0.045932,0.029489
-0.050000,-0.050000,0.000000,0.000000,0.000000,0.000000,0.000000,0.000000,0.000000,0.100000,0.100000,-0.321704,-0.125608,-0.050000,-0.050000,0.367324,-0.282471,0.000000,0.000000,-0.487723,0.459467,1.123766,1.296029,0.001002,-0.067131,-0.065226,0.020787,0.048487,0.020845
-0.050000,-0.050000,0.000000,0.000000,0.000000,0.000000,0.000000,0.000000,0.000000,0.100000,0.100000,-0.327848,-0.139977,-0.050000,-0.050000,0.371625,-0.291391,0.000000,0.000000,-0.488204,0.460099,1.117767,1.280857,-0.003015,-0.058260,-0.065729,0.018692,0.051285,0.010894
-0.050000,-0.050000,0.000000,0.000000,0.000000,0.000000,0.000000,0.000000,0.000000,0.100000,0.100000,-0.334650,-0.156151,-0.050000,-0.050000,0.376784,-0.301012,0.000000,0.000000,-0.488252,0.459960,1.109365,1.263027,-0.008381,-0.046732,-0.066629,0.016208,0.054439,0.000096
-0.050000,-0.050000,0.000000,0.000000,0.000000,0.000000,0.000000,0.000000,0.000000,0.100000,0.100000,-0.341781,-0.173227,-0.050000,-0.050000,0.382374,-0.310984,0.000000,0.000000,-0.488085,0.459434,1.099762,1.243869,-0.014422,-0.033874,-0.067729,0.013530,0.057770,-0.011125
-0.050000,-0.050000,0.000000,0.000000,0.000000,0.000000,0.000000,0.000000,0.000000,0.100000,0.100000,-0.349741,-0.192223,-0.050000,-0.050000,0.389054,-0.321427,0.000000,0.000000,-0.486340,0.457299,1.086145,1.220494,-0.024098,-0.016360,-0.069532,0.010066,0.061908,-0.023077
-0.050000,-0.050000,0.000000,0.000000,0.000000,0.000000,0.000000,0.000000,0.000000,0.100000,0.100000,-0.357863,-0.211581,-0.050000,-0.050000,0.395975,-0.331848,0.000000,0.000000,-0.483748,0.454493,1.071118,1.195688,-0.035519,0.002862,-0.071634,0.006256,0.066412,-0.035155
-0.050000,-0.050000,0.000000,0.000000,0.000000,0.000000,0.000000,0.000000,0.000000,0.100000,0.100000,-0.366312,-0.231663,-0.050000,-0.050000,0.403376,-0.342224,0.000000,0.000000,-0.479461,0.450344,1.053270,1.168020,-0.050429,0.025501,-0.074332,0.001756,0.071646,-0.047484
-0.050000,-0.050000,0.000000,0.000000,0.000000,0.000000,0.000000,0.000000,0.000000,0.100000,0.100000,-0.374758,-0.251887,-0.050000,-0.050000,0.410899,-0.352210,0.000000,0.000000,-0.472937,0.444651,1.032666,1.137625,-0.069630,0.051686,-0.077801,-0.003606,0.077736,-0.059903
-0.050000,-0.050000,0.000000,0.000000,0.000000,0.000000,0.000000,0.000000,0.000000,0.100000,0.100000,-0.383203,-0.272182,-0.050000,-0.050000,0.418484,-0.362001,0.000000,0.000000,-0.465295,0.438187,1.010683,1.105868,-0.090977,0.079643,-0.081654,-0.009400,0.084254,-0.072367
-0.050000,-0.050000,0.000000,0.000000,0.000000,0.000000,0.000000,0.000000,0.000000,0.100000,0.100000,-0.391074,-0.291833,-0.050000,-0.050000,0.425594,-0.370701,0.000000,0.000000,-0.453810,0.429278,0.985076,1.070597,-0.119207,0.112742,-0.086926,-0.016702,0.092022,-0.084722
-0.050000,-0.050000,0.000000,0.000000,0.000000,0.000000,0.000000,0.000000,0.000000,0.100000,0.100000,-0.398575,-0.311013,-0.050000,-0.050000,0.432319,-0.378885,0.000000,0.000000,-0.441026,0.419592,0.958575,1.034478,-0.149561,0.147340,-0.092723,-0.024539,0.100095,-0.096922
-0.050000,-0.050000,0.000000,0.000000,0.000000,0.000000,0.000000,0.000000,0.000000,0.100000,0.100000,-0.405338,-0.329253,-0.050000,-0.050000,0.438274,-0.386037,0.000000,0.000000,-0.425643,0.408353,0.930287,0.996665,-0.184161,0.184939,-0.099574,-0.033446,0.108781,-0.108814
-0.050000,-0.050000,0.000000,0.000000,0.000000,0.000000,0.000000,0.000000,0.000000,0.100000,0.100000,-0.411109,-0.346162,-0.050000,-0.050000,0.443077,-0.391937,0.000000,0.000000,-0.407924,0.395810,0.901067,0.958022,-0.222041,0.224789,-0.107440,-0.043359,0.117671,-0.120076
-0.050000,-0.050000,0.000000,0.000000,0.000000,0.000000,0.000000,0.000000,0.000000,0.100000,0.100000,-0.416383,-0.362406,-0.050000,-0.050000,0.447305,-0.397211,0.000000,0.000000,-0.389036,0.382616,0.871382,0.918966,-0.261562,0.265763,-0.115813,-0.053774,0.126662,-0.131024
-0.050000,-0.050000,0.000000,0.000000,0.000000,0.000000,0.000000,0.000000,0.000000,0.100000,0.100000,-0.420009,-0.376305,-0.050000,-0.050000,0.449495,-0.400496,0.000000,0.000000,-0.367416,0.368055,0.841733,0.880156,-0.303880,0.308571,-0.125349,-0.065360,0.135180,-0.140521
-0.050000,-0.050000,0.000000,0.000000,0.000000,0.000000,0.000000,0.000000,0.000000,0.100000,0.100000,-0.423103,-0.389385,-0.050000,-0.050000,0.451025,-0.403178,0.000000,0.000000,-0.345216,0.353267,0.812548,0.841927,-0.346331,0.351389,-0.135060,-0.077152,0.143291,-0.149413
-0.050000,-0.050000,0.000000,0.000000,0.000000,0.000000,0.000000,0.000000,0.000000,0.100000,0.100000,-0.425134,-0.400825,-0.050000,-0.050000,0.451234,-0.404653,0.000000,0.000000,-0.321858,0.338024,0.784290,0.804862,-0.389049,0.394228,-0.145120,-0.089356,0.150584,-0.157097
-0.050000,-0.050000,0.000000,0.000000,0.000000,0.000000,0.000000,0.000000,0.000000,0.100000,0.100000,-0.426231,-0.410666,-0.050000,-0.050000,0.450422,-0.405229,0.000000,0.000000,-0.298039,0.322749,0.757688,0.769852,-0.430521,0.435853,-0.155002,-0.101529,0.156708,-0.163530
-0.050000,-0.050000,0.000000,0.000000,0.000000,0.000000,0.000000,0.000000,0.000000,0.100000,0.100000,-0.426859,-0.419707,-0.050000,-0.050000,0.449099,-0.405356,0.000000,0.000000,-0.273988,0.307457,0.731914,0.735870,-0.471371,0.476872,-0.164796,-0.113688,0.162246,-0.169339
-0.050000,-0.050000,0.000000,0.000000,0.000000,0.000000,0.000000,0.000000,0.000000,0.100000,0.100000,-0.426301,-0.426500,-0.050000,-0.050000,0.447013,-0.404803,0.000000,0.000000,-0.250177,0.292577,0.709353,0.706011,-0.508523,0.514402,-0.173588,-0.125177,0.165839,-0.173574
-0.050000,-0.050000,0.000000,0.000000,0.000000,0.000000,0.000000,0.000000,0.000000,0.100000,0.100000,-0.425396,-0.432600,-0.050000,-0.050000,0.444986,-0.404267,0.000000,0.000000,-0.226686,0.277915,0.687987,0.677748,-0.544028,0.550341,-0.181877,-0.136289,0.168840,-0.177482
-0.050000,-0.050000,0.000000,0.000000,0.000000,0.000000,0.000000,0.000000,0.000000,0.100000,0.100000,-0.423797,-0.437314,-0.050000,-0.050000,0.443076,-0.403767,0.000000,0.000000,-0.203832,0.263690,0.669008,0.652678,-0.576242,0.583099,-0.189160,-0.146647,0.170659,-0.180736
-0.050000,-0.050000,0.000000,0.000000,0.000000,0.000000,0.000000,0.000000,0.000000,0.100000,0.100000,-0.421518,-0.440736,-0.050000,-0.050000,0.441898,-0.403743,0.000000,0.000000,-0.181930,0.249936,0.652481,0.630978,-0.604743,0.612177,-0.195313,-0.156092,0.171603,-0.183813
-0.050000,-0.050000,0.000000,0.000000,0.000000,0.000000,0.000000,0.000000,0.000000,0.100000,0.100000,-0.418898,-0.443513,-0.050000,-0.050000,0.441087,-0.403957,0.000000,0.000000,-0.160504,0.236418,0.637180,0.610963,-0.631388,0.639415,-0.200900,-0.165080,0.172110,-0.186803
-0.050000,-0.050000,0.000000,0.000000,0.000000,0.000000,0.000000,0.000000,0.000000,0.100000,0.100000,-0.415155,-0.444466,-0.050000,-0.050000,0.442116,-0.405364,0.000000,0.000000,-0.140757,0.223557,0.625512,0.595906,-0.652339,0.660955,-0.204888,-0.172658,0.171946,-0.190183
-0.050000,-0.050000,0.000000,0.000000,0.000000,0.000000,0.000000,0.000000,0.000000,0.100000,0.100000,-0.410976,-0.444843,-0.050000,-0.050000,0.443906,-0.407254,0.000000,0.000000,-0.121603,0.210895,0.615037,0.582375,-0.671463,0.680702,-0.208430,-0.179796,0.171790,-0.193842
-0.050000,-0.050000,0.000000,0.000000,0.000000,0.000000,0.000000,0.000000,0.000000,0.100000,0.100000,-0.405927,-0.444070,-0.050000,-0.050000,0.447216,-0.410109,0.000000,0.000000,-0.103638,0.198630,0.606949,0.571895,-0.686933,0.696860,-0.211083,-0.186051,0.171650,-0.198059
-0.050000,-0.050000,0.000000,0.000000,0.000000,0.000000,0.000000,0.000000,0.000000,0.100000,0.100000,-0.399876,-0.442218,-0.050000,-0.050000,0.452108,-0.413958,0.000000,0.000000,-0.086884,0.186766,0.601273,0.564103,-0.698995,0.709854,-0.213031,-0.191516,0.171950,-0.202949
-0.050000,-0.050000,0.000000,0.000000,0.000000,0.000000,0.000000,0.000000,0.000000,0.100000,0.100000,-0.393325,-0.439826,-0.050000,-0.050000,0.457789,-0.418302,0.000000,0.000000,-0.070736,0.175101,0.596804,0.557655,-0.709353,0.721265,-0.214626,-0.196586,0.172469,-0.208175
-0.050000,-0.050000,0.000000,0.000000,0.000000,0.000000,0.000000,0.000000,0.000000,0.100000,0.100000,-0.385136,-0.435939,-0.050000,-0.050000,0.465591,-0.424003,0.000000,0.000000,-0.056453,0.164137,0.596113,0.554652,-0.714967,0.728675,-0.215312,-0.200581,0.174107,-0.214307
-0.050000,-0.050000,0.000000,0.000000,0.000000,0.000000,0.000000,0.000000,0.000000,0.100000,0.100000,-0.376391,-0.431603,-0.050000,-0.050000,0.473922,-0.430071,0.000000,0.000000,-0.042828,0.153467,0.596764,0.552624,-0.719097,0.734984,-0.215676,-0.204232,0.176182,-0.220634
-0.050000,-0.050000,0.000000,0.000000,0.000000,0.000000,0.000000,0.000000,0.000000,0.100000,0.100000,-0.366534,-0.426366,-0.050000,-0.050000,0.483312,-0.436871,0.000000,0.000000,-0.030517,0.143389,0.600099,0.552546,-0.720257,0.739088,-0.215395,-0.207196,0.179133,-0.227350
-0.050000,-0.050000,0.000000,0.000000,0.000000,0.000000,0.000000,0.000000,0.000000,0.100000,0.100000,-0.355626,-0.420333,-0.050000,-0.050000,0.493273,-0.444174,0.000000,0.000000,-0.019630,0.134053,0.606286,0.554158,-0.718588,0.741369,-0.214293,-0.209443,0.182864,-0.234137
-0.050000,-0.050000,0.000000,0.000000,0.000000,0.000000,0.000000,0.000000,0.000000,0.100000,0.100000,-0.344191,-0.413902,-0.050000,-0.050000,0.503518,-0.451729,0.000000,0.000000,-0.009457,0.125087,0.613897,0.556615,-0.715506,0.742737,-0.212779,-0.211332,0.186985,-0.240959
-0.050000,-0.050000,0.000000,0.000000,0.000000,0.000000,0.000000,0.000000,0.000000,0.100000,0.100000,-0.331359,-0.406443,-0.050000,-0.050000,0.513770,-0.459630,0.000000,0.000000,-0.001612,0.117434,0.625915,0.561352,-0.708379,0.741829,-0.209651,-0.212040,0.191781,-0.247324
-0.050000,-0.050000,0.000000,0.000000,0.000000,0.000000,0.000000,0.000000,0.000000,0.100000,0.100000,-0.318134,-0.398701,-0.050000,-0.050000,0.523730,-0.467496,0.000000,0.000000,0.005405,0.110252,0.639367,0.566792,-0.699990,0.740303,-0.205869,-0.212319,0.196537,-0.253346
-0.050000,-0.050000,0.000000,0.000000,0.000000,0.000000,0.000000,0.000000,0.000000,0.100000,0.100000,-0.304123,-0.390393,-0.050000,-0.050000,0.533105,-0.475292,0.000000,0.000000,0.010765,0.104013,0.655687,0.573638,-0.689080,0.737543,-0.200778,-0.211737,0.201215,-0.258681
-0.050000,-0.050000,0.000000,0.000000,0.000000,0.000000,0.000000,0.000000,0.000000,0.100000,0.100000,-0.289461,-0.381662,-0.050000,-0.050000,0.541337,-0.482702,0.000000,0.000000,0.014424,0.098685,0.674591,0.581760,-0.675903,0.733863,-0.194278,-0.210278,0.205174,-0.262995
-0.050000,-0.050000,0.000000,0.000000,0.000000,0.000000,0.000000,0.000000,0.000000,0.100000,0.100000,-0.274474,-0.372720,-0.050000,-0.050000,0.548999,-0.489921,0.000000,0.000000,0.017234,0.093813,0.694788,0.590520,-0.661591,0.729723,-0.187073,-0.208380,0.208775,-0.266799
-0.050000,-0.050000,0.000000,0.000000,0.000000,0.000000,0.000000,0.000000,0.000000,0.100000,0.100000,-0.258672,-0.363412,-0.050000,-0.050000,0.554250,-0.496119,0.000000,0.000000,0.017544,0.090092,0.718081,0.600862,-0.644380,0.724779,-0.177910,-0.205299,0.210367,-0.268738
-0.050000,-0.050000,0.000000,0.000000,0.000000,0.000000,0.000000,0.000000,0.000000,0.100000,0.100000,-0.242647,-0.354096,-0.050000,-0.050000,0.558546,-0.501858,0.000000,0.000000,0.017074,0.086637,0.742038,0.611541,-0.626401,0.719800,-0.168249,-0.201933,0.211053,-0.270025
-0.050000,-0.050000,0.000000,0.000000,0.000000,0.000000,0.000000,0.000000,0.000000,0.100000,0.100000,-0.226177,-0.344763,-0.050000,-0.050000,0.560929,-0.506677,0.000000,0.000000,0.015043,0.083716,0.767324,0.622891,-0.606883,0.714746,-0.157595,-0.197995,0.209926,-0.270011
-0.050000,-0.050000,0.000000,0.000000,0.000000,0.000000,0.000000,0.000000,0.000000,0.100000,0.100000,-0.209394,-0.335694,-0.050000,-0.050000,0.561316,-0.510432,0.000000,0.000000,0.011602,0.081052,0.793048,0.634343,-0.586257,0.710137,-0.146409,-0.193810,0.206757,-0.268830
-0.050000,-0.050000,0.000000,0.000000,0.000000,0.000000,0.000000,0.000000,0.000000,0.100000,0.100000,-0.192455,-0.326755,-0.050000,-0.050000,0.560704,-0.513656,0.000000,0.000000,0.007455,0.078517,0.818991,0.645846,-0.565078,0.705748,-0.134957,-0.189500,0.202568,-0.267066
-0.050000,-0.050000,0.000000,0.000000,0.000000,0.000000,0.000000,0.000000,0.000000,0.100000,0.100000,-0.175384,-0.318689,-0.050000,-0.050000,0.557353,-0.515259,0.000000,0.000000,0.001450,0.075988,0.844161,0.656395,-0.542927,0.702796,-0.123470,-0.185371,0.195384,-0.264013
-0.050000,-0.050000,0.000000,0.000000,0.000000,0.000000,0.000000,0.000000,0.000000,0.100000,0.100000,-0.158447,-0.311079,-0.050000,-0.050000,0.553298,-0.516380,0.000000,0.000000,-0.005082,0.073384,0.868619,0.666217,-0.520708,0.700533,-0.112200,-0.181471,0.187348,-0.260736
-0.050000,-0.050000,0.000000,0.000000,0.000000,0.000000,0.000000,0.000000,0.000000,0.100000,0.100000,-0.141777,-0.304383,-0.050000,-0.050000,0.547836,-0.516536,0.000000,0.000000,-0.012672,0.070626,0.891653,0.674582,-0.498349,0.699647,-0.101366,-0.178030,0.177606,-0.257010
-0.050000,-0.050000,0.000000,0.000000,0.000000,0.000000,0.000000,0.000000,0.000000,0.100000,0.100000,-0.125864,-0.298911,-0.050000,-0.050000,0.541571,-0.515955,0.000000,0.000000,-0.021110,0.067706,0.912498,0.680709,-0.476429,0.700354,-0.091319,-0.175295,0.166620,-0.253247
-0.050000,-0.050000,0.000000,0.000000,0.000000,0.000000,0.000000,0.000000,0.000000,0.100000,0.100000,-0.110330,-0.294050,-0.050000,-0.050000,0.534903,-0.515006,0.000000,0.000000,-0.029973,0.064704,0.932249,0.685717,-0.454727,0.701856,-0.081664,-0.172912,0.155014,-0.249466
-0.050000,-0.050000,0.000000,0.000000,0.000000,0.000000,0.000000,0.000000,0.000000,0.100000,0.100000,-0.096804,-0.291392,-0.050000,-0.050000,0.528046,-0.513388,0.000000,0.000000,-0.039724,0.061689,0.947910,0.686457,-0.434652,0.705608,-0.073527,-0.171771,0.142382,-0.246112
-0.050000,-0.050000,0.000000,0.000000,0.000000,0.000000,0.000000,0.000000,0.000000,0.100000,0.100000,-0.084247,-0.289542,-0.050000,-0.050000,0.521435,-0.511695,0.000000,0.000000,-0.049611,0.058813,0.962073,0.685618,-0.415460,0.709888,-0.065950,-0.171038,0.129702,-0.242986
-0.050000,-0.050000,0.000000,0.000000,0.000000,0.000000,0.000000,0.000000,0.000000,0.100000,0.100000,-0.073626,-0.289307,-0.050000,-0.050000,0.515319,-0.509853,0.000000,0.000000,-0.059769,0.056215,0.973240,0.681621,-0.398034,0.715226,-0.059495,-0.171124,0.116926,-0.240320
-0.050000,-0.050000,0.000000,0.000000,0.000000,0.000000,0.000000,0.000000,0.000000,0.100000,0.100000,-0.065467,-0.290716,-0.050000,-0.050000,0.510146,-0.508110,0.000000,0.000000,-0.069820,0.054244,0.981420,0.674519,-0.383024,0.720887,-0.054183,-0.171903,0.104614,-0.238136
-0.050000,-0.050000,0.000000,0.000000,0.000000,0.000000,0.000000,0.000000,0.000000,0.100000,0.100000,-0.058538,-0.292946,-0.050000,-0.050000,0.505445,-0.506417,0.000000,0.000000,-0.079819,0.052587,0.988108,0.665865,-0.369222,0.726710,-0.049442,-0.173029,0.092535,-0.236193
-0.050000,-0.050000,0.000000,0.000000,0.000000,0.000000,0.000000,0.000000,0.000000,0.100000,0.100000,-0.055842,-0.297515,-0.050000,-0.050000,0.502488,-0.505128,0.000000,0.000000,-0.089078,0.052340,0.990708,0.653180,-0.359825,0.731718,-0.046353,-0.174874,0.081891,-0.234855
-0.050000,-0.050000,0.000000,0.000000,0.000000,0.000000,0.000000,0.000000,0.000000,0.100000,0.100000,-0.054622,-0.302775,-0.050000,-0.050000,0.500112,-0.504015,0.000000,0.000000,-0.097921,0.052660,0.992168,0.639505,-0.352046,0.736063,-0.043775,-0.176831,0.071924,-0.233659
-0.050000,-0.050000,0.000000,0.000000,0.000000,0.000000,0.000000,0.000000,0.000000,0.100000,0.100000,-0.056356,-0.309418,-0.050000,-0.050000,0.498897,-0.503254,0.000000,0.000000,-0.105933,0.054114,0.991349,0.623849,-0.347500,0.739082,-0.042219,-0.179013,0.063307,-0.232748
-0.050000,-0.050000,0.000000,0.000000,0.000000,0.000000,0.000000,0.000000,0.000000,0.100000,0.100000,-0.060919,-0.317214,-0.050000,-0.050000,0.498693,-0.502849,0.000000,0.000000,-0.112890,0.056732,0.988789,0.607077,-0.346188,0.740277,-0.041592,-0.181183,0.056316,-0.232024
-0.050000,-0.050000,0.000000,0.000000,0.000000,0.000000,0.000000,0.000000,0.000000,0.100000,0.100000,-0.066896,-0.325587,-0.050000,-0.050000,0.498994,-0.502623,0.000000,0.000000,-0.119318,0.059931,0.985359,0.589747,-0.346492,0.740561,-0.041430,-0.183346,0.050136,-0.231392
-0.050000,-0.050000,0.000000,0.000000,0.000000,0.000000,0.000000,0.000000,0.000000,0.100000,0.100000,-0.076581,-0.335320,-0.050000,-0.050000,0.500516,-0.502856,0.000000,0.000000,-0.124060,0.064680,0.980093,0.572044,-0.351155,0.737977,-0.042530,-0.185254,0.046610,-0.230965
-0.050000,-0.050000,0.000000,0.000000,0.000000,0.000000,0.000000,0.000000,0.000000,0.100000,0.100000,-0.087240,-0.345392,-0.050000,-0.050000,0.502370,-0.503201,0.000000,0.000000,-0.128291,0.069829,0.974417,0.554585,-0.356960,0.734597,-0.044013,-0.187055,0.043974,-0.230605
-0.050000,-0.050000,0.000000,0.000000,0.000000,0.000000,0.000000,0.000000,0.000000,0.100000,0.100000,-0.099844,-0.356141,-0.050000,-0.050000,0.504888,-0.503769,0.000000,0.000000,-0.131499,0.075778,0.967917,0.537610,-0.365048,0.729625,-0.046262,-0.188642,0.043120,-0.230381
-0.050000,-0.050000,0.000000,0.000000,0.000000,0.000000,0.000000,0.000000,0.000000,0.100000,0.100000,-0.113796,-0.367378,-0.050000,-0.050000,0.508009,-0.504465,0.000000,0.000000,-0.133944,0.082266,0.960814,0.521632,-0.374581,0.723674,-0.049209,-0.190086,0.043929,-0.230317
-0.050000,-0.050000,0.000000,0.000000,0.000000,0.000000,0.000000,0.000000,0.000000,0.100000,0.100000,-0.128421,-0.378858,-0.050000,-0.050000,0.511432,-0.505225,0.000000,0.000000,-0.136007,0.089024,0.953411,0.506153,-0.384836,0.717233,-0.052504,-0.191456,0.045570,-0.230334
-0.050000,-0.050000,0.000000,0.000000,0.000000,0.000000,0.000000,0.000000,0.000000,0.100000,0.100000,-0.144200,-0.390863,-0.050000,-0.050000,0.515781,-0.506031,0.000000,0.000000,-0.137493,0.096267,0.945165,0.492565,-0.395855,0.710405,-0.056724,-0.192815,0.049343,-0.230633
-0.050000,-0.050000,0.000000,0.000000,0.000000,0.000000,0.000000,0.000000,0.000000,0.100000,0.100000,-0.160122,-0.403003,-0.050000,-0.050000,0.520450,-0.506805,0.000000,0.000000,-0.139011,0.103606,0.936601,0.479632,-0.406677,0.703770,-0.061196,-0.194241,0.053649,-0.231032
-0.050000,-0.050000,0.000000,0.000000,0.000000,0.000000,0.000000,0.000000,0.000000,0.100000,0.100000,-0.176331,-0.415414,-0.050000,-0.050000,0.525758,-0.507517,0.000000,0.000000,-0.140595,0.111141,0.927400,0.468010,-0.417105,0.697518,-0.066169,-0.195802,0.059022,-0.231631
-0.050000,-0.050000,0.000000,0.000000,0.000000,0.000000,0.000000,0.000000,0.000000,0.100000,0.100000,-0.192476,-0.428065,-0.050000,-0.050000,0.531652,-0.508076,0.000000,0.000000,-0.142708,0.118840,0.917471,0.457595,-0.426381,0.692074,-0.071483,-0.197594,0.065020,-0.232422
-0.050000,-0.050000,0.000000,0.000000,0.000000,0.000000,0.000000,0.000000,0.000000,0.100000,0.100000,-0.208589,-0.440838,-0.050000,-0.050000,0.537839,-0.508560,0.000000,0.000000,-0.145086,0.126620,0.907178,0.447785,-0.435082,0.687035,-0.076967,-0.199502,0.071331,-0.233309
-0.050000,-0.050000,0.000000,0.000000,0.000000,0.000000,0.000000,0.000000,0.000000,0.100000,0.100000,-0.224280,-0.453971,-0.050000,-0.050000,0.544612,-0.508690,0.000000,0.000000,-0.148879,0.134707,0.895802,0.439513,-0.441268,0.683445,-0.082642,-0.201792,0.077854,-0.234458
-0.050000,-0.050000,0.000000,0.000000,0.000000,0.000000,0.000000,0.000000,0.000000,0.100000,0.100000,-0.239772,-0.467223,-0.050000,-0.050000,0.551400,-0.508666,0.000000,0.000000,-0.153296,0.142931,0.884156,0.431650,-0.446494,0.680300,-0.088257,-0.204188,0.084213,-0.235689
-0.050000,-0.050000,0.000000,0.000000,0.000000,0.000000,0.000000,0.000000,0.000000,0.100000,0.100000,-0.254867,-0.480712,-0.050000,-0.050000,0.558221,-0.508334,0.000000,0.000000,-0.158958,0.151425,0.871967,0.424605,-0.449798,0.678042,-0.093753,-0.206797,0.090249,-0.237084
-0.050000,-0.050000,0.000000,0.000000,0.000000,0.000000,0.000000,0.000000,0.000000,0.100000,0.100000,-0.269502,-0.494394,-0.050000,-0.050000,0.564578,-0.507644,0.000000,0.000000,-0.165998,0.160231,0.859611,0.418179,-0.451221,0.676443,-0.098887,-0.209544,0.095586,-0.238651
-0.050000,-0.050000,0.000000,0.000000,0.000000,0.000000,0.000000,0.000000,0.000000,0.100000,0.100000,-0.283907,-0.508172,-0.050000,-0.050000,0.570704,-0.506775,0.000000,0.000000,-0.173726,0.169193,0.847172,0.412063,-0.451704,0.675174,-0.103840,-0.212359,0.100573,-0.240304
-0.050000,-0.050000,0.000000,0.000000,0.000000,0.000000,0.000000,0.000000,0.000000,0.100000,0.100000,-0.297535,-0.522063,-0.050000,-0.050000,0.575287,-0.505335,0.000000,0.000000,-0.183401,0.178579,0.835269,0.406598,-0.449796,0.674473,-0.107957,-0.215271,0.104187,-0.242262
-0.050000,-0.050000,0.000000,0.000000,0.000000,0.000000,0.000000,0.000000,0.000000,0.100000,0.100000,-0.310856,-0.535888,-0.050000,-0.050000,0.579084,-0.503712,0.000000,0.000000,-0.193579,0.188051,0.823838,0.401264,-0.447319,0.673841,-0.111744,-0.218192,0.107334,-0.244345
-0.050000,-0.050000,0.000000,0.000000,0.000000,0.000000,0.000000,0.000000,0.000000,0.100000,0.100000,-0.323564,-0.549580,-0.050000,-0.050000,0.581310,-0.501720,0.000000,0.000000,-0.204763,0.197695,0.813350,0.396193,-0.443703,0.673346,-0.114872,-0.221131,0.109547,-0.246678
-0.050000,-0.050000,0.000000,0.000000,0.000000,0.000000,0.000000,0.000000,0.000000,0.100000,0.100000,-0.335509,-0.562850,-0.050000,-0.050000,0.581536,-0.499403,0.000000,0.000000,-0.216487,0.207336,0.804332,0.391229,-0.439462,0.672832,-0.117353,-0.224074,0.110999,-0.249299
-0.050000,-0.050000,0.000000,0.000000,0.000000,0.000000,0.000000,0.000000,0.000000,0.100000,0.100000,-0.347072,-0.575908,-0.050000,-0.050000,0.580761,-0.496922,0.000000,0.000000,-0.228483,0.216975,0.796049,0.386318,-0.434910,0.672308,-0.119512,-0.227020,0.112071,-0.252065
-0.050000,-0.050000,0.000000,0.000000,0.000000,0.000000,0.000000,0.000000,0.000000,0.100000,0.100000,-0.357198,-0.587823,-0.050000,-0.050000,0.576623,-0.494040,0.000000,0.000000,-0.240477,0.226316,0.790523,0.381373,-0.430090,0.671665,-0.120884,-0.229970,0.112465,-0.255277
-0.050000,-0.050000,0.000000,0.000000,0.000000,0.000000,0.000000,0.000000,0.000000,0.100000,0.100000,-0.366741,-0.599191,-0.050000,-0.050000,0.571359,-0.491054,0.000000,0.000000,-0.252225,0.235480,0.785988,0.376376,-0.425312,0.670985,-0.122091,-0.232914,0.112801,-0.258612
-0.050000,-0.050000,0.000000,0.000000,0.000000,0.000000,0.000000,0.000000,0.000000,0.100000,0.100000,-0.375119,-0.609464,-0.050000,-0.050000,0.563844,-0.487857,0.000000,0.000000,-0.263481,0.244292,0.783435,0.371276,-0.420615,0.670231,-0.122967,-0.235844,0.113024,-0.262197
-0.050000,-0.050000,0.000000,0.000000,0.000000,0.000000,0.000000,0.000000,0.000000,0.100000,0.100000,-0.382161,-0.618379,-0.050000,-0.050000,0.554308,-0.484490,0.000000,0.000000,-0.273931,0.252690,0.782775,0.366064,-0.415986,0.669429,-0.123714,-0.238701,0.113386,-0.265913
-0.050000,-0.050000,0.000000,0.000000,0.000000,0.000000,0.000000,0.000000,0.000000,0.100000,0.100000,-0.388533,-0.626614,-0.050000,-0.050000,0.543763,-0.481038,0.000000,0.000000,-0.283977,0.260881,0.783060,0.360795,-0.411391,0.668602,-0.124397,-0.241522,0.113819,-0.269694
-0.050000,-0.050000,0.000000,0.000000,0.000000,0.000000,0.000000,0.000000,0.000000,0.100000,0.100000,-0.392762,-0.632599,-0.050000,-0.050000,0.530841,-0.477346,0.000000,0.000000,-0.292743,0.268536,0.785771,0.355471,-0.406423,0.667701,-0.125115,-0.244065,0.114578,-0.273394
-0.050000,-0.050000,0.000000,0.000000,0.000000,0.000000,0.000000,0.000000,0.000000,0.100000,0.100000,-0.396282,-0.637839,-0.050000,-0.050000,0.517417,-0.473565,0.000000,0.000000,-0.301194,0.276094,0.789103,0.350205,-0.401047,0.666749,-0.125871,-0.246439,0.115381,-0.276947
-0.050000,-0.050000,0.000000,0.000000,0.000000,0.000000,0.000000,0.000000,0.000000,0.100000,0.100000,-0.398385,-0.641587,-0.050000,-0.050000,0.502989,-0.469606,0.000000,0.000000,-0.309016,0.283456,0.793678,0.345056,-0.394855,0.665693,-0.126705,-0.248475,0.116270,-0.280209
-0.050000,-0.050000,0.000000,0.000000,0.000000,0.000000,0.000000,0.000000,0.000000,0.100000,0.100000,-0.399183,-0.644005,-0.050000,-0.050000,0.488192,-0.465439,0.000000,0.000000,-0.316637,0.290845,0.799135,0.340234,-0.387164,0.664423,-0.127560,-0.250006,0.116947,-0.282924
-0.050000,-0.050000,0.000000,0.000000,0.000000,0.000000,0.000000,0.000000,0.000000,0.100000,0.100000,-0.399328,-0.645756,-0.050000,-0.050000,0.473210,-0.461168,0.000000,0.000000,-0.324158,0.298249,0.805033,0.335576,-0.378723,0.663045,-0.128424,-0.251283,0.117517,-0.285364
-0.050000,-0.050000,0.000000,0.000000,0.000000,0.000000,0.000000,0.000000,0.000000,0.100000,0.100000,-0.397804,-0.645926,-0.050000,-0.050000,0.458586,-0.456560,0.000000,0.000000,-0.332113,0.306022,0.811883,0.331757,-0.367112,0.661115,-0.129096,-0.251576,0.117201,-0.286626
-0.050000,-0.050000,0.000000,0.000000,0.000000,0.000000,0.000000,0.000000,0.000000,0.100000,0.100000,-0.395841,-0.645743,-0.050000,-0.050000,0.444329,-0.451855,0.000000,0.000000,-0.340416,0.313994,0.819021,0.328322,-0.354270,0.658919,-0.129606,-0.251491,0.116418,-0.287404
-0.050000,-0.050000,0.000000,0.000000,0.000000,0.000000,0.000000,0.000000,0.000000,0.100000,0.100000,-0.392998,-0.644852,-0.050000,-0.050000,0.430809,-0.446955,0.000000,0.000000,-0.349415,0.322365,0.826735,0.325652,-0.338964,0.656190,-0.129792,-0.250650,0.114698,-0.287213
-0.050000,-0.050000,0.000000,0.000000,0.000000,0.000000,0.000000,0.000000,0.000000,0.100000,0.100000,-0.389515,-0.643611,-0.050000,-0.050000,0.418360,-0.441960,0.000000,0.000000,-0.359304,0.331167,0.835179,0.323875,-0.321241,0.652786,-0.129463,-0.249025,0.111825,-0.285954
-0.050000,-0.050000,0.000000,0.000000,0.000000,0.000000,0.000000,0.000000,0.000000,0.100000,0.100000,-0.385712,-0.642196,-0.050000,-0.050000,0.406445,-0.436917,0.000000,0.000000,-0.369639,0.340186,0.843987,0.322546,-0.302307,0.649045,-0.128876,-0.247008,0.108376,-0.284162
-0.050000,-0.050000,0.000000,0.000000,0.000000,0.000000,0.000000,0.000000,0.000000,0.100000,0.100000,-0.381258,-0.640737,-0.050000,-0.050000,0.396357,-0.431998,0.000000,0.000000,-0.381205,0.349690,0.854395,0.322558,-0.280437,0.644171,-0.127296,-0.243911,0.103152,-0.280779
-0.050000,-0.050000,0.000000,0.000000,0.000000,0.000000,0.000000,0.000000,0.000000,0.100000,0.100000,-0.376660,-0.639384,-0.050000,-0.050000,0.386863,-0.427245,0.000000,0.000000,-0.393019,0.359231,0.865549,0.322938,-0.257979,0.638930,-0.125340,-0.240536,0.097420,-0.276927
-0.050000,-0.050000,0.000000,0.000000,0.000000,0.000000,0.000000,0.000000,0.000000,0.100000,0.100000,-0.371772,-0.638245,-0.050000,-0.050000,0.378557,-0.422822,0.000000,0.000000,-0.405328,0.368848,0.878194,0.324054,-0.234346,0.632957,-0.122635,-0.236604,0.090674,-0.272139
-0.050000,-0.050000,0.000000,0.000000,0.000000,0.000000,0.000000,0.000000,0.000000,0.100000,0.100000,-0.366656,-0.637468,-0.050000,-0.050000,0.371281,-0.419016,0.000000,0.000000,-0.417622,0.378184,0.892720,0.325592,-0.210471,0.626409,-0.119157,-0.232371,0.083249,-0.266658
-0.050000,-0.050000,0.000000,0.000000,0.000000,0.000000,0.000000,0.000000,0.000000,0.100000,0.100000,-0.361427,-0.636872,-0.050000,-0.050000,0.364519,-0.415518,0.000000,0.000000,-0.429908,0.387381,0.908186,0.327341,-0.186475,0.619575,-0.115293,-0.227988,0.075485,-0.260830
-0.050000,-0.050000,0.000000,0.000000,0.000000,0.000000,0.000000,0.000000,0.000000,0.100000,0.100000,-0.355818,-0.636899,-0.050000,-0.050000,0.358966,-0.413359,0.000000,0.000000,-0.441273,0.395548,0.926791,0.329094,-0.163459,0.612346,-0.110329,-0.223628,0.067359,-0.254488
-0.050000,-0.050000,0.000000,0.000000,0.000000,0.000000,0.000000,0.000000,0.000000,0.100000,0.100000,-0.350036,-0.637121,-0.050000,-0.050000,0.353706,-0.411754,0.000000,0.000000,-0.452041,0.403177,0.946411,0.330630,-0.141128,0.605203,-0.105048,-0.219438,0.059334,-0.248183
-0.050000,-0.050000,0.000000,0.000000,0.000000,0.000000,0.000000,0.000000,0.000000,0.100000,0.100000,-0.343905,-0.637732,-0.050000,-0.050000,0.349032,-0.411257,0.000000,0.000000,-0.461614,0.409728,0.968059,0.331733,-0.120165,0.598233,-0.099135,-0.215585,0.051515,-0.241953
-0.050000,-0.050000,0.000000,0.000000,0.000000,0.000000,0.000000,0.000000,0.000000,0.100000,0.100000,-0.337285,-0.638650,-0.050000,-0.050000,0.344785,-0.411970,0.000000,0.000000,-0.469513,0.414900,0.991347,0.332067,-0.101029,0.591930,-0.092754,-0.212329,0.044269,-0.236229
-0.050000,-0.050000,0.000000,0.000000,0.000000,0.000000,0.000000,0.000000,0.000000,0.100000,0.100000,-0.330421,-0.639721,-0.050000,-0.050000,0.340751,-0.413288,0.000000,0.000000,-0.476575,0.419382,1.015457,0.332016,-0.082808,0.585960,-0.086140,-0.209370,0.037309,-0.230758
-0.050000,-0.050000,0.000000,0.000000,0.000000,0.000000,0.000000,0.000000,0.000000,0.100000,0.100000,-0.322597,-0.641093,-0.050000,-0.050000,0.337245,-0.416354,0.000000,0.000000,-0.480659,0.421548,1.041017,0.330601,-0.067635,0.581666,-0.079150,-0.207510,0.031534,-0.226600
-0.050000,-0.050000,0.000000,0.000000,0.000000,0.000000,0.000000,0.000000,0.000000,0.100000,0.100000,-0.314388,-0.642513,-0.050000,-0.050000,0.333917,-0.419905,0.000000,0.000000,-0.483693,0.422945,1.066627,0.328785,-0.053471,0.578087,-0.072159,-0.206008,0.026169,-0.223002
-0.050000,-0.050000,0.000000,0.000000,0.000000,0.000000,0.000000,0.000000,0.000000,0.100000,0.100000,-0.305408,-0.644032,-0.050000,-0.050000,0.330948,-0.424424,0.000000,0.000000,-0.484631,0.422801,1.092341,0.326168,-0.041324,0.575935,-0.065165,-0.205225,0.021624,-0.220524
-0.050000,-0.050000,0.000000,0.000000,0.000000,0.000000,0.000000,0.000000,0.000000,0.100000,0.100000,-0.295569,-0.645576,-0.050000,-0.050000,0.328397,-0.429592,0.000000,0.000000,-0.483563,0.421277,1.117237,0.323094,-0.031017,0.575317,-0.058417,-0.205011,0.017749,-0.219254
-0.050000,-0.050000,0.000000,0.000000,0.000000,0.000000,0.000000,0.000000,0.000000,0.100000,0.100000,-0.285299,-0.647132,-0.050000,-0.050000,0.326055,-0.435084,0.000000,0.000000,-0.481493,0.419064,1.141724,0.319790,-0.021630,0.575466,-0.051793,-0.205082,0.014208,-0.218589
-0.050000,-0.050000,0.000000,0.000000,0.000000,0.000000,0.000000,0.000000,0.000000,0.100000,0.100000,-0.273699,-0.648666,-0.050000,-0.050000,0.324454,-0.440979,0.000000,0.000000,-0.476824,0.415196,1.163733,0.316546,-0.014570,0.577745,-0.045870,-0.205658,0.011244,-0.219632
-0.050000,-0.050000,0.000000,0.000000,0.000000,0.000000,0.000000,0.000000,0.000000,0.100000,0.100000,-0.261680,-0.650185,-0.050000,-0.050000,0.323126,-0.446829,0.000000,0.000000,-0.471489,0.410940,1.184596,0.313586,-0.008110,0.580590,-0.040271,-0.206278,0.008299,-0.221152
-0.050000,-0.050000,0.000000,0.000000,0.000000,0.000000,0.000000,0.000000,0.000000,0.100000,0.100000,-0.248823,-0.651672,-0.050000,-0.050000,0.322344,-0.452589,0.000000,0.000000,-0.464821,0.405905,1.203168,0.311196,-0.002850,0.584564,-0.035317,-0.206985,0.005396,-0.223624
-0.050000,-0.050000,0.000000,0.000000,0.000000,0.000000,0.000000,0.000000,0.000000,0.100000,0.100000,-0.235266,-0.653109,-0.050000,-0.050000,0.322114,-0.457996,0.000000,0.000000,-0.457287,0.400396,1.219075,0.309816,0.001573,0.589278,-0.031133,-0.207580,0.002217,-0.226799
-0.050000,-0.050000,0.000000,0.000000,0.000000,0.000000,0.000000,0.000000,0.000000,0.100000,0.100000,-0.221359,-0.654521,-0.050000,-0.050000,0.322160,-0.463226,0.000000,0.000000,-0.449318,0.394649,1.233649,0.308941,0.005579,0.594361,-0.027332,-0.208118,-0.001098,-0.230324
-0.050000,-0.050000,0.000000,0.000000,0.000000,0.000000,0.000000,0.000000,0.000000,0.100000,0.100000,-0.206753,-0.655779,-0.050000,-0.050000,0.322951,-0.467747,0.000000,0.000000,-0.440743,0.388519,1.244076,0.309969,0.008828,0.599940,-0.024779,-0.208319,-0.005138,-0.234509
-0.050000,-0.050000,0.000000,0.000000,0.000000,0.000000,0.000000,0.000000,0.000000,0.100000,0.100000,-0.192075,-0.656935,-0.050000,-0.050000,0.323938,-0.472043,0.000000,0.000000,-0.432168,0.382315,1.253191,0.311651,0.011952,0.605509,-0.022641,-0.208402,-0.009445,-0.238801
-0.050000,-0.050000,0.000000,0.000000,0.000000,0.000000,0.000000,0.000000,0.000000,0.100000,0.100000,-0.177252,-0.657886,-0.050000,-0.050000,0.325316,-0.475892,0.000000,0.000000,-0.423595,0.375960,1.259682,0.314638,0.014828,0.611059,-0.021335,-0.208252,-0.014288,-0.243303
-0.050000,-0.050000,0.000000,0.000000,0.000000,0.000000,0.000000,0.000000,0.000000,0.100000,0.100000,-0.162667,-0.658485,-0.050000,-0.050000,0.326945,-0.479427,0.000000,0.000000,-0.415347,0.369448,1.263861,0.318759,0.017616,0.616341,-0.020795,-0.207948,-0.019557,-0.247848
-0.050000,-0.050000,0.000000,0.000000,0.000000,0.000000,0.000000,0.000000,0.000000,0.100000,0.100000,-0.148202,-0.658907,-0.050000,-0.050000,0.328698,-0.482806,0.000000,0.000000,-0.407263,0.362857,1.266882,0.323446,0.020360,0.621488,-0.020639,-0.207565,-0.025039,-0.252414
-0.050000,-0.050000,0.000000,0.000000,0.000000,0.000000,0.000000,0.000000,0.000000,0.100000,0.100000,-0.134705,-0.658542,-0.050000,-0.050000,0.330603,-0.485989,0.000000,0.000000,-0.400020,0.355897,1.267023,0.329327,0.023073,0.626026,-0.021454,-0.207154,-0.030805,-0.256892
-0.050000,-0.050000,0.000000,0.000000,0.000000,0.000000,0.000000,0.000000,0.000000,0.100000,0.100000,-0.121723,-0.657835,-0.050000,-0.050000,0.332492,-0.489187,0.000000,0.000000,-0.393138,0.348754,1.266403,0.335388,0.025778,0.630332,-0.022514,-0.206808,-0.036517,-0.261323
-0.050000,-0.050000,0.000000,0.000000,0.000000,0.000000,0.000000,0.000000,0.000000,0.100000,0.100000,-0.109770,-0.656442,-0.050000,-0.050000,0.334349,-0.492416,0.000000,0.000000,-0.386980,0.341245,1.264262,0.341809,0.028467,0.634177,-0.024063,-0.206596,-0.042120,-0.265660
-0.050000,-0.050000,0.000000,0.000000,0.000000,0.000000,0.000000,0.000000,0.000000,0.100000,0.100000,-0.099162,-0.654248,-0.050000,-0.050000,0.336081,-0.495766,0.000000,0.000000,-0.381654,0.333274,1.260951,0.348125,0.031114,0.637545,-0.025930,-0.206649,-0.047325,-0.269921
-0.050000,-0.050000,0.000000,0.000000,0.000000,0.000000,0.000000,0.000000,0.000000,0.100000,0.100000,-0.089227,-0.651653,-0.050000,-0.050000,0.337751,-0.499177,0.000000,0.000000,-0.376744,0.325071,1.257056,0.354389,0.033740,0.640674,-0.027955,-0.206833,-0.052330,-0.274144
-0.050000,-0.050000,0.000000,0.000000,0.000000,0.000000,0.000000,0.000000,0.000000,0.100000,0.100000,-0.081635,-0.647788,-0.050000,-0.050000,0.339171,-0.502762,0.000000,0.000000,-0.373183,0.316137,1.251827,0.359869,0.036258,0.643057,-0.030217,-0.207527,-0.056395,-0.278339
-0.050000,-0.050000,0.000000,0.000000,0.000000,0.000000,0.000000,0.000000,0.000000,0.100000,0.100000,-0.074875,-0.643519,-0.050000,-0.050000,0.340514,-0.506358,0.000000,0.000000,-0.370088,0.307002,1.246259,0.364936,0.038723,0.645168,-0.032494,-0.208386,-0.060077,-0.282563
-0.050000,-0.050000,0.000000,0.000000,0.000000,0.000000,0.000000,0.000000,0.000000,0.100000,0.100000,-0.069779,-0.638445,-0.050000,-0.050000,0.341701,-0.509976,0.000000,0.000000,-0.367924,0.297462,1.240012,0.369178,0.041081,0.646735,-0.034801,-0.209575,-0.062990,-0.286847
-0.050000,-0.050000,0.000000,0.000000,0.000000,0.000000,0.000000,0.000000,0.000000,0.100000,0.100000,-0.066340,-0.632699,-0.050000,-0.050000,0.342783,-0.513463,0.000000,0.000000,-0.366690,0.287720,1.233245,0.372472,0.043274,0.647700,-0.037051,-0.210987,-0.065073,-0.291269
-0.050000,-0.050000,0.000000,0.000000,0.000000,0.000000,0.000000,0.000000,0.000000,0.100000,0.100000,-0.063730,-0.626616,-0.050000,-0.050000,0.343813,-0.516884,0.000000,0.000000,-0.365921,0.277878,1.226219,0.375291,0.045384,0.648363,-0.039274,-0.212509,-0.066740,-0.295759
-0.050000,-0.050000,0.000000,0.000000,0.000000,0.000000,0.000000,0.000000,0.000000,0.100000,0.100000,-0.063457,-0.619856,-0.050000,-0.050000,0.344793,-0.519847,0.000000,0.000000,-0.366495,0.268201,1.218606,0.376821,0.047091,0.648077,-0.041341,-0.214065,-0.067158,-0.300528
-0.050000,-0.050000,0.000000,0.000000,0.000000,0.000000,0.000000,0.000000,0.000000,0.100000,0.100000,-0.063882,-0.613015,-0.050000,-0.050000,0.345792,-0.522583,0.000000,0.000000,-0.367488,0.258772,1.210856,0.378070,0.048584,0.647501,-0.043349,-0.215500,-0.067179,-0.305382
-0.050000,-0.050000,0.000000,0.000000,0.000000,0.000000,0.000000,0.000000,0.000000,0.100000,0.100000,-0.065704,-0.606014,-0.050000,-0.050000,0.346829,-0.524862,0.000000,0.000000,-0.369319,0.249837,1.202832,0.378754,0.049651,0.646342,-0.045238,-0.216696,-0.066408,-0.310408
-0.050000,-0.050000,0.000000,0.000000,0.000000,0.000000,0.000000,0.000000,0.000000,0.100000,0.100000,-0.068723,-0.599190,-0.050000,-0.050000,0.347955,-0.526588,0.000000,0.000000,-0.371920,0.241802,1.194645,0.379320,0.050107,0.644759,-0.047020,-0.217378,-0.064923,-0.315497
-0.050000,-0.050000,0.000000,0.000000,0.000000,0.000000,0.000000,0.000000,0.000000,0.100000,0.100000,-0.072341,-0.592454,-0.050000,-0.050000,0.349127,-0.528038,0.000000,0.000000,-0.374907,0.234217,1.186377,0.379826,0.050256,0.642963,-0.048747,-0.217804,-0.063082,-0.320616
-0.050000,-0.050000,0.000000,0.000000,0.000000,0.000000,0.000000,0.000000,0.000000,0.100000,0.100000,-0.077431,-0.586499,-0.050000,-0.050000,0.350468,-0.528629,0.000000,0.000000,-0.378945,0.228523,1.178037,0.380908,0.049239,0.640885,-0.050350,-0.217120,-0.060366,-0.325490
-0.050000,-0.050000,0.000000,0.000000,0.000000,0.000000,0.000000,0.000000,0.000000,0.100000,0.100000,-0.082901,-0.580958,-0.050000,-0.050000,0.351863,-0.528962,0.000000,0.000000,-0.383297,0.223594,1.169732,0.382408,0.047794,0.638832,-0.051928,-0.215998,-0.057453,-0.330116
-0.050000,-0.050000,0.000000,0.000000,0.000000,0.000000,0.000000,0.000000,0.000000,0.100000,0.100000,-0.089130,-0.576248,-0.050000,-0.050000,0.353365,-0.528780,0.000000,0.000000,-0.388279,0.220191,1.161496,0.384741,0.045491,0.636832,-0.053457,-0.213999,-0.054148,-0.334247
-0.050000,-0.050000,0.000000,0.000000,0.000000,0.000000,0.000000,0.000000,0.000000,0.100000,0.100000,-0.095894,-0.572602,-0.050000,-0.050000,0.354945,-0.528206,0.000000,0.000000,-0.393803,0.218445,1.153457,0.388210,0.042390,0.635014,-0.054969,-0.211099,-0.050701,-0.337492
-0.050000,-0.050000,0.000000,0.000000,0.000000,0.000000,0.000000,0.000000,0.000000,0.100000,0.100000,-0.102925,-0.569488,-0.050000,-0.050000,0.356563,-0.527438,0.000000,0.000000,-0.399598,0.217526,1.145516,0.392247,0.038890,0.633288,-0.056471,-0.207749,-0.047183,-0.340295
-0.050000,-0.050000,0.000000,0.000000,0.000000,0.000000,0.000000,0.000000,0.000000,0.100000,0.100000,-0.110417,-0.568166,-0.050000,-0.050000,0.358235,-0.526333,0.000000,0.000000,-0.406037,0.219066,1.138072,0.398130,0.034520,0.631741,-0.057980,-0.203171,-0.043879,-0.341222
-0.050000,-0.050000,0.000000,0.000000,0.000000,0.000000,0.000000,0.000000,0.000000,0.100000,0.100000,-0.117950,-0.567448,-0.050000,-0.050000,0.359904,-0.525207,0.000000,0.000000,-0.412616,0.221347,1.130867,0.404568,0.030038,0.630113,-0.059494,-0.198269,-0.040786,-0.341399
-0.050000,-0.050000,0.000000,0.000000,0.000000,0.000000,0.000000,0.000000,0.000000,0.100000,0.100000,-0.125564,-0.567939,-0.050000,-0.050000,0.361568,-0.524036,0.000000,0.000000,-0.419475,0.225114,1.124137,0.412116,0.025332,0.628324,-0.061019,-0.192719,-0.038113,-0.340078
-0.050000,-0.050000,0.000000,0.000000,0.000000,0.000000,0.000000,0.000000,0.000000,0.100000,0.100000,-0.133043,-0.569540,-0.050000,-0.050000,0.363191,-0.522985,0.000000,0.000000,-0.426439,0.230109,1.118026,0.420473,0.020824,0.625956,-0.062546,-0.186760,-0.036077,-0.337205
-0.050000,-0.050000,0.000000,0.000000,0.000000,0.000000,0.000000,0.000000,0.000000,0.100000,0.100000,-0.140455,-0.571696,-0.050000,-0.050000,0.364793,-0.521994,0.000000,0.000000,-0.433455,0.235719,1.112223,0.429235,0.016417,0.623299,-0.064075,-0.180596,-0.034360,-0.333555
-0.050000,-0.050000,0.000000,0.000000,0.000000,0.000000,0.000000,0.000000,0.000000,0.100000,0.100000,-0.147382,-0.575232,-0.050000,-0.050000,0.366293,-0.521367,0.000000,0.000000,-0.440353,0.242689,1.107528,0.438596,0.012909,0.619160,-0.065583,-0.174242,-0.033770,-0.327830
-0.050000,-0.050000,0.000000,0.000000,0.000000,0.000000,0.000000,0.000000,0.000000,0.100000,0.100000,-0.154075,-0.579101,-0.050000,-0.050000,0.367748,-0.520897,0.000000,0.000000,-0.447127,0.249936,1.103242,0.447937,0.009844,0.614410,-0.067078,-0.167973,-0.033550,-0.321596
-0.050000,-0.050000,0.000000,0.000000,0.000000,0.000000,0.000000,0.000000,0.000000,0.100000,0.100000,-0.160299,-0.583636,-0.050000,-0.050000,0.369110,-0.520739,0.000000,0.000000,-0.453654,0.257736,1.099771,0.457240,0.007665,0.608440,-0.068544,-0.161875,-0.034070,-0.314343
-0.050000,-0.050000,0.000000,0.000000,0.000000,0.000000,0.000000,0.000000,0.000000,0.100000,0.100000,-0.165962,-0.588551,-0.050000,-0.050000,0.370359,-0.520904,0.000000,0.000000,-0.459802,0.265732,1.097129,0.466114,0.006486,0.601304,-0.069973,-0.156219,-0.035204,-0.306557
-0.050000,-0.050000,0.000000,0.000000,0.000000,0.000000,0.000000,0.000000,0.000000,0.100000,0.100000,-0.171345,-0.593656,-0.050000,-0.050000,0.371551,-0.521229,0.000000,0.000000,-0.465760,0.273826,1.094900,0.474772,0.005806,0.593584,-0.071382,-0.150783,-0.036646,-0.298505
-0.050000,-0.050000,0.000000,0.000000,0.000000,0.000000,0.000000,0.000000,0.000000,0.100000,0.100000,-0.175835,-0.598902,-0.050000,-0.050000,0.372540,-0.521973,0.000000,0.000000,-0.471013,0.281713,1.093822,0.482354,0.006517,0.584638,-0.072726,-0.146306,-0.038703,-0.290417
-0.050000,-0.050000,0.000000,0.000000,0.000000,0.000000,0.000000,0.000000,0.000000,0.100000,0.100000,-0.180035,-0.604068,-0.050000,-0.050000,0.373453,-0.522816,0.000000,0.000000,-0.476007,0.289388,1.093062,0.489498,0.007580,0.575557,-0.074044,-0.142192,-0.040847,-0.282534
-0.050000,-0.050000,0.000000,0.000000,0.000000,0.000000,0.000000,0.000000,0.000000,0.100000,0.100000,-0.183656,-0.609075,-0.050000,-0.050000,0.374216,-0.523856,0.000000,0.000000,-0.480482,0.296640,1.092938,0.495765,0.009347,0.566203,-0.075310,-0.138804,-0.043168,-0.275065
-0.050000,-0.050000,0.000000,0.000000,0.000000,0.000000,0.000000,0.000000,0.000000,0.100000,0.100000,-0.186748,-0.613725,-0.050000,-0.050000,0.374826,-0.524993,0.000000,0.000000,-0.484425,0.303254,1.093275,0.501124,0.011518,0.557161,-0.076513,-0.136118,-0.045452,-0.268310
-0.050000,-0.050000,0.000000,0.000000,0.000000,0.000000,0.000000,0.000000,0.000000,0.100000,0.100000,-0.189576,-0.618197,-0.050000,-0.050000,0.375358,-0.526179,0.000000,0.000000,-0.488102,0.309551,1.093841,0.506029,0.013890,0.548274,-0.077683,-0.133783,-0.047718,-0.261913
