RRGGZZ/g1_deploy_sonic/data/example_scalelab/qwen_50fps/case_test15/joint_pos.csv
joint_0,joint_1,joint_2,joint_3,joint_4,joint_5,joint_6,joint_7,joint_8,joint_9,joint_10,joint_11,joint_12,joint_13,joint_14,joint_15,joint_16,joint_17,joint_18,joint_19,joint_20,joint_21,joint_22,joint_23,joint_24,joint_25,joint_26,joint_27,joint_28
-0.050000,-0.050000,0.000000,0.000000,0.000000,0.000000,0.000000,0.000000,0.000000,0.100000,0.100000,-0.139718,-0.490554,-0.050000,-0.050000,0.383748,-0.746147,0.000000,0.000000,-0.476727,0.231836,1.105859,-0.172707,0.176592,-0.395720,-0.084398,-0.062052,0.016562,-0.500460
-0.050000,-0.050000,0.000000,0.000000,0.000000,0.000000,0.000000,0.000000,0.000000,0.100000,0.100000,-0.150339,-0.496395,-0.050000,-0.050000,0.371298,-0.752227,0.000000,0.000000,-0.475707,0.233070,1.130156,-0.165563,0.178546,-0.391148,-0.095764,-0.064221,0.020021,-0.503937
-0.050000,-0.050000,0.000000,0.000000,0.000000,0.000000,0.000000,0.000000,0.000000,0.100000,0.100000,-0.154273,-0.497282,-0.050000,-0.050000,0.364624,-0.755194,0.000000,0.000000,-0.473170,0.231261,1.144419,-0.162003,0.180585,-0.386063,-0.100500,-0.065566,0.020587,-0.504609
-0.050000,-0.050000,0.000000,0.000000,0.000000,0.000000,0.000000,0.000000,0.000000,0.100000,0.100000,-0.154504,-0.494939,-0.050000,-0.050000,0.360805,-0.756527,0.000000,0.000000,-0.470014,0.227602,1.154062,-0.160051,0.182440,-0.380933,-0.101945,-0.066115,0.019899,-0.504493
-0.050000,-0.050000,0.000000,0.000000,0.000000,0.000000,0.000000,0.000000,0.000000,0.100000,0.100000,-0.152859,-0.490689,-0.050000,-0.050000,0.358400,-0.757020,0.000000,0.000000,-0.466748,0.222884,1.161486,-0.158985,0.184164,-0.375856,-0.101819,-0.066222,0.018658,-0.504130
-0.050000,-0.050000,0.000000,0.000000,0.000000,0.000000,0.000000,0.000000,0.000000,0.100000,0.100000,-0.149714,-0.484706,-0.050000,-0.050000,0.356793,-0.757168,0.000000,0.000000,-0.462991,0.216869,1.168190,-0.157582,0.185541,-0.370863,-0.100746,-0.065851,0.017438,-0.504600
-0.050000,-0.050000,0.000000,0.000000,0.000000,0.000000,0.000000,0.000000,0.000000,0.100000,0.100000,-0.145940,-0.477797,-0.050000,-0.050000,0.355587,-0.757172,0.000000,0.000000,-0.459241,0.210245,1.174417,-0.156109,0.186756,-0.366037,-0.099300,-0.065396,0.016283,-0.505638
-0.050000,-0.050000,0.000000,0.000000,0.000000,0.000000,0.000000,0.000000,0.000000,0.100000,0.100000,-0.141552,-0.469991,-0.050000,-0.050000,0.354647,-0.757194,0.000000,0.000000,-0.455265,0.202883,1.180539,-0.154069,0.187682,-0.361460,-0.097610,-0.064818,0.015368,-0.507683
-0.050000,-0.050000,0.000000,0.000000,0.000000,0.000000,0.000000,0.000000,0.000000,0.100000,0.100000,-0.136747,-0.461395,-0.050000,-0.050000,0.353892,-0.757345,0.000000,0.000000,-0.451162,0.194909,1.186520,-0.151335,0.188326,-0.357258,-0.095864,-0.064245,0.014756,-0.510973
-0.050000,-0.050000,0.000000,0.000000,0.000000,0.000000,0.000000,0.000000,0.000000,0.100000,0.100000,-0.131715,-0.452329,-0.050000,-0.050000,0.353234,-0.757551,0.000000,0.000000,-0.447071,0.186601,1.192401,-0.148154,0.188801,-0.353295,-0.094104,-0.063787,0.014333,-0.515095
-0.050000,-0.050000,0.000000,0.000000,0.000000,0.000000,0.000000,0.000000,0.000000,0.100000,0.100000,-0.126409,-0.442349,-0.050000,-0.050000,0.352714,-0.758021,0.000000,0.000000,-0.442903,0.177701,1.197916,-0.143845,0.188972,-0.349827,-0.092523,-0.063398,0.014296,-0.520936
-0.050000,-0.050000,0.000000,0.000000,0.000000,0.000000,0.000000,0.000000,0.000000,0.100000,0.100000,-0.121058,-0.431930,-0.050000,-0.050000,0.352249,-0.758553,0.000000,0.000000,-0.438944,0.168661,1.203091,-0.138920,0.189052,-0.346513,-0.091073,-0.063258,0.014414,-0.527672
-0.050000,-0.050000,0.000000,0.000000,0.000000,0.000000,0.000000,0.000000,0.000000,0.100000,0.100000,-0.115697,-0.420877,-0.050000,-0.050000,0.351851,-0.759205,0.000000,0.000000,-0.435176,0.159418,1.207728,-0.133043,0.189023,-0.343342,-0.089855,-0.063294,0.014735,-0.535520
-0.050000,-0.050000,0.000000,0.000000,0.000000,0.000000,0.000000,0.000000,0.000000,0.100000,0.100000,-0.110542,-0.409190,-0.050000,-0.050000,0.351505,-0.759892,0.000000,0.000000,-0.431835,0.150241,1.211540,-0.125992,0.188995,-0.339975,-0.088944,-0.063513,0.015213,-0.544226
-0.050000,-0.050000,0.000000,0.000000,0.000000,0.000000,0.000000,0.000000,0.000000,0.100000,0.100000,-0.105452,-0.397202,-0.050000,-0.050000,0.351215,-0.760603,0.000000,0.000000,-0.428795,0.141106,1.214831,-0.118127,0.188949,-0.336432,-0.088170,-0.063967,0.015766,-0.553498
-0.050000,-0.050000,0.000000,0.000000,0.000000,0.000000,0.000000,0.000000,0.000000,0.100000,0.100000,-0.101098,-0.384419,-0.050000,-0.050000,0.350981,-0.761196,0.000000,0.000000,-0.426624,0.132620,1.216594,-0.108163,0.189050,-0.331889,-0.087874,-0.064408,0.016502,-0.563059
-0.050000,-0.050000,0.000000,0.000000,0.000000,0.000000,0.000000,0.000000,0.000000,0.100000,0.100000,-0.097056,-0.371566,-0.050000,-0.050000,0.350854,-0.761762,0.000000,0.000000,-0.425008,0.124617,1.217531,-0.096785,0.189169,-0.326548,-0.087667,-0.065027,0.017299,-0.572609
-0.050000,-0.050000,0.000000,0.000000,0.000000,0.000000,0.000000,0.000000,0.000000,0.100000,0.100000,-0.093781,-0.358461,-0.050000,-0.050000,0.350820,-0.762184,0.000000,0.000000,-0.424227,0.117554,1.217138,-0.083258,0.189378,-0.319905,-0.087700,-0.065615,0.018237,-0.581723
-0.050000,-0.050000,0.000000,0.000000,0.000000,0.000000,0.000000,0.000000,0.000000,0.100000,0.100000,-0.091550,-0.345371,-0.050000,-0.050000,0.350949,-0.762462,0.000000,0.000000,-0.424468,0.111913,1.215260,-0.066952,0.189621,-0.311503,-0.087893,-0.066049,0.019375,-0.589699
-0.050000,-0.050000,0.000000,0.000000,0.000000,0.000000,0.000000,0.000000,0.000000,0.100000,0.100000,-0.089834,-0.332708,-0.050000,-0.050000,0.351203,-0.762711,0.000000,0.000000,-0.425296,0.107193,1.212462,-0.048671,0.189809,-0.301872,-0.088062,-0.066582,0.020600,-0.596976
-0.050000,-0.050000,0.000000,0.000000,0.000000,0.000000,0.000000,0.000000,0.000000,0.100000,0.100000,-0.090188,-0.320275,-0.050000,-0.050000,0.351731,-0.762704,0.000000,0.000000,-0.427714,0.105285,1.207485,-0.025794,0.189947,-0.289468,-0.088451,-0.066499,0.022263,-0.601290
-0.050000,-0.050000,0.000000,0.000000,0.000000,0.000000,0.000000,0.000000,0.000000,0.100000,0.100000,-0.091332,-0.308964,-0.050000,-0.050000,0.352458,-0.762739,0.000000,0.000000,-0.430833,0.104960,1.201487,0.000013,0.189851,-0.275448,-0.088693,-0.066452,0.024089,-0.603884
-0.050000,-0.050000,0.000000,0.000000,0.000000,0.000000,0.000000,0.000000,0.000000,0.100000,0.100000,-0.094147,-0.298571,-0.050000,-0.050000,0.353420,-0.762617,0.000000,0.000000,-0.435075,0.107264,1.193886,0.029944,0.189534,-0.259286,-0.088978,-0.066033,0.026277,-0.603448
-0.050000,-0.050000,0.000000,0.000000,0.000000,0.000000,0.000000,0.000000,0.000000,0.100000,0.100000,-0.098750,-0.289480,-0.050000,-0.050000,0.354658,-0.762338,0.000000,0.000000,-0.440471,0.112608,1.184695,0.064460,0.188880,-0.241117,-0.089302,-0.065236,0.028881,-0.599216
-0.050000,-0.050000,0.000000,0.000000,0.000000,0.000000,0.000000,0.000000,0.000000,0.100000,0.100000,-0.104302,-0.281893,-0.050000,-0.050000,0.356023,-0.761889,0.000000,0.000000,-0.446405,0.119918,1.174555,0.102186,0.187920,-0.221655,-0.089539,-0.064404,0.031689,-0.592519
-0.050000,-0.050000,0.000000,0.000000,0.000000,0.000000,0.000000,0.000000,0.000000,0.100000,0.100000,-0.112601,-0.275589,-0.050000,-0.050000,0.357714,-0.760869,0.000000,0.000000,-0.453903,0.131821,1.162293,0.145945,0.186560,-0.200514,-0.090157,-0.062788,0.035195,-0.579677
-0.050000,-0.050000,0.000000,0.000000,0.000000,0.000000,0.000000,0.000000,0.000000,0.100000,0.100000,-0.121770,-0.271140,-0.050000,-0.050000,0.359485,-0.759329,0.000000,0.000000,-0.461809,0.145955,1.149169,0.193148,0.184840,-0.178833,-0.090804,-0.061176,0.038951,-0.563678
-0.050000,-0.050000,0.000000,0.000000,0.000000,0.000000,0.000000,0.000000,0.000000,0.100000,0.100000,-0.132681,-0.267960,-0.050000,-0.050000,0.361378,-0.756815,0.000000,0.000000,-0.470501,0.163491,1.134651,0.244657,0.182842,-0.156985,-0.091837,-0.059117,0.043206,-0.542913
-0.050000,-0.050000,0.000000,0.000000,0.000000,0.000000,0.000000,0.000000,0.000000,0.100000,0.100000,-0.144963,-0.265958,-0.050000,-0.050000,0.363323,-0.752943,0.000000,0.000000,-0.479778,0.184165,1.118938,0.300037,0.180638,-0.135935,-0.093349,-0.056723,0.047953,-0.517574
-0.050000,-0.050000,0.000000,0.000000,0.000000,0.000000,0.000000,0.000000,0.000000,0.100000,0.100000,-0.157917,-0.264991,-0.050000,-0.050000,0.365261,-0.747708,0.000000,0.000000,-0.489153,0.206608,1.102549,0.357927,0.178297,-0.115812,-0.095141,-0.054109,0.052977,-0.489286
-0.050000,-0.050000,0.000000,0.000000,0.000000,0.000000,0.000000,0.000000,0.000000,0.100000,0.100000,-0.172253,-0.264092,-0.050000,-0.050000,0.367151,-0.740020,0.000000,0.000000,-0.499062,0.232395,1.084899,0.419247,0.176036,-0.098528,-0.097809,-0.050992,0.058634,-0.456122
-0.050000,-0.050000,0.000000,0.000000,0.000000,0.000000,0.000000,0.000000,0.000000,0.100000,0.100000,-0.186632,-0.263477,-0.050000,-0.050000,0.368989,-0.730284,0.000000,0.000000,-0.508724,0.258939,1.066957,0.481964,0.173845,-0.083514,-0.100805,-0.047747,0.064492,-0.421109
-0.050000,-0.050000,0.000000,0.000000,0.000000,0.000000,0.000000,0.000000,0.000000,0.100000,0.100000,-0.201308,-0.262196,-0.050000,-0.050000,0.370726,-0.717932,0.000000,0.000000,-0.518266,0.286579,1.048560,0.545890,0.171914,-0.071829,-0.104371,-0.044241,0.070638,-0.383979
-0.050000,-0.050000,0.000000,0.000000,0.000000,0.000000,0.000000,0.000000,0.000000,0.100000,0.100000,-0.215607,-0.259881,-0.050000,-0.050000,0.372332,-0.702796,0.000000,0.000000,-0.527358,0.314078,1.030249,0.609922,0.170322,-0.063757,-0.108278,-0.040625,0.076832,-0.346265
-0.050000,-0.050000,0.000000,0.000000,0.000000,0.000000,0.000000,0.000000,0.000000,0.100000,0.100000,-0.229625,-0.256375,-0.050000,-0.050000,0.373908,-0.685430,0.000000,0.000000,-0.536099,0.340953,1.012012,0.673707,0.169010,-0.058555,-0.112445,-0.036887,0.083033,-0.308337
-0.050000,-0.050000,0.000000,0.000000,0.000000,0.000000,0.000000,0.000000,0.000000,0.100000,0.100000,-0.242321,-0.251077,-0.050000,-0.050000,0.375227,-0.664993,0.000000,0.000000,-0.543924,0.365951,0.994861,0.735668,0.168137,-0.057298,-0.116499,-0.033241,0.088752,-0.272288
-0.050000,-0.050000,0.000000,0.000000,0.000000,0.000000,0.000000,0.000000,0.000000,0.100000,0.100000,-0.254195,-0.244210,-0.050000,-0.050000,0.376522,-0.642681,0.000000,0.000000,-0.551199,0.389020,0.978510,0.795930,0.167517,-0.058373,-0.120438,-0.029519,0.094070,-0.237813
-0.050000,-0.050000,0.000000,0.000000,0.000000,0.000000,0.000000,0.000000,0.000000,0.100000,0.100000,-0.264642,-0.235844,-0.050000,-0.050000,0.377643,-0.618447,0.000000,0.000000,-0.557614,0.409402,0.963660,0.853518,0.167094,-0.061678,-0.123898,-0.025849,0.098606,-0.206136
-0.050000,-0.050000,0.000000,0.000000,0.000000,0.000000,0.000000,0.000000,0.000000,0.100000,0.100000,-0.273367,-0.226427,-0.050000,-0.050000,0.378574,-0.592918,0.000000,0.000000,-0.563000,0.426558,0.950930,0.907562,0.166672,-0.066226,-0.126530,-0.022208,0.102024,-0.178002
-0.050000,-0.050000,0.000000,0.000000,0.000000,0.000000,0.000000,0.000000,0.000000,0.100000,0.100000,-0.281222,-0.215883,-0.050000,-0.050000,0.379381,-0.566559,0.000000,0.000000,-0.567877,0.441639,0.939489,0.959089,0.166274,-0.071771,-0.128747,-0.018381,0.104749,-0.152109
-0.050000,-0.050000,0.000000,0.000000,0.000000,0.000000,0.000000,0.000000,0.000000,0.100000,0.100000,-0.286262,-0.205836,-0.050000,-0.050000,0.379828,-0.540092,0.000000,0.000000,-0.571076,0.452403,0.931894,1.004885,0.165366,-0.076804,-0.129240,-0.014804,0.105544,-0.131370
-0.050000,-0.050000,0.000000,0.000000,0.000000,0.000000,0.000000,0.000000,0.000000,0.100000,0.100000,-0.290491,-0.195475,-0.050000,-0.050000,0.380029,-0.513903,0.000000,0.000000,-0.573647,0.461457,0.926122,1.047293,0.164220,-0.081732,-0.129147,-0.010929,0.105469,-0.112892
-0.050000,-0.050000,0.000000,0.000000,0.000000,0.000000,0.000000,0.000000,0.000000,0.100000,0.100000,-0.292828,-0.186119,-0.050000,-0.050000,0.379867,-0.488641,0.000000,0.000000,-0.574985,0.467865,0.923474,1.084803,0.162478,-0.085672,-0.127787,-0.007173,0.103996,-0.097772
-0.050000,-0.050000,0.000000,0.000000,0.000000,0.000000,0.000000,0.000000,0.000000,0.100000,0.100000,-0.293572,-0.178220,-0.050000,-0.050000,0.379300,-0.465055,0.000000,0.000000,-0.575091,0.472405,0.923939,1.117062,0.160052,-0.088507,-0.125323,-0.003660,0.101332,-0.085496
-0.050000,-0.050000,0.000000,0.000000,0.000000,0.000000,0.000000,0.000000,0.000000,0.100000,0.100000,-0.293584,-0.170980,-0.050000,-0.050000,0.378321,-0.442706,0.000000,0.000000,-0.574416,0.475983,0.926338,1.145874,0.157239,-0.090634,-0.122312,-0.000009,0.097987,-0.074805
-0.050000,-0.050000,0.000000,0.000000,0.000000,0.000000,0.000000,0.000000,0.000000,0.100000,0.100000,-0.291402,-0.166996,-0.050000,-0.050000,0.376898,-0.423655,0.000000,0.000000,-0.572023,0.478078,0.932733,1.167532,0.153389,-0.091327,-0.118010,0.002525,0.093576,-0.067223
-0.050000,-0.050000,0.000000,0.000000,0.000000,0.000000,0.000000,0.000000,0.000000,0.100000,0.100000,-0.288894,-0.163929,-0.050000,-0.050000,0.374969,-0.406579,0.000000,0.000000,-0.568788,0.480115,0.940739,1.185587,0.149199,-0.091485,-0.113559,0.005032,0.088967,-0.060646
-0.050000,-0.050000,0.000000,0.000000,0.000000,0.000000,0.000000,0.000000,0.000000,0.100000,0.100000,-0.285242,-0.163213,-0.050000,-0.050000,0.372643,-0.392436,0.000000,0.000000,-0.564361,0.481891,0.951119,1.198483,0.144398,-0.090962,-0.108664,0.006674,0.084151,-0.055779
-0.050000,-0.050000,0.000000,0.000000,0.000000,0.000000,0.000000,0.000000,0.000000,0.100000,0.100000,-0.280899,-0.164577,-0.050000,-0.050000,0.369983,-0.381344,0.000000,0.000000,-0.558887,0.483906,0.963155,1.206598,0.139162,-0.090025,-0.103771,0.007464,0.079605,-0.052335
-0.050000,-0.050000,0.000000,0.000000,0.000000,0.000000,0.000000,0.000000,0.000000,0.100000,0.100000,-0.276259,-0.167027,-0.050000,-0.050000,0.366942,-0.372292,0.000000,0.000000,-0.552657,0.486148,0.976202,1.211653,0.133702,-0.088779,-0.098976,0.007931,0.075269,-0.049632
-0.050000,-0.050000,0.000000,0.000000,0.000000,0.000000,0.000000,0.000000,0.000000,0.100000,0.100000,-0.270875,-0.172320,-0.050000,-0.050000,0.363962,-0.367080,0.000000,0.000000,-0.545468,0.488857,0.990215,1.211225,0.127891,-0.087172,-0.094599,0.006915,0.071898,-0.048856
-0.050000,-0.050000,0.000000,0.000000,0.000000,0.000000,0.000000,0.000000,0.000000,0.100000,0.100000,-0.265530,-0.178324,-0.050000,-0.050000,0.360783,-0.363748,0.000000,0.000000,-0.537736,0.491863,1.004301,1.208342,0.122047,-0.085174,-0.090649,0.005708,0.069100,-0.048686
-0.050000,-0.050000,0.000000,0.000000,0.000000,0.000000,0.000000,0.000000,0.000000,0.100000,0.100000,-0.260019,-0.185896,-0.050000,-0.050000,0.357806,-0.362929,0.000000,0.000000,-0.529545,0.495133,1.018165,1.202154,0.116156,-0.082672,-0.087272,0.003737,0.067251,-0.049736
-0.050000,-0.050000,0.000000,0.000000,0.000000,0.000000,0.000000,0.000000,0.000000,0.100000,0.100000,-0.254689,-0.194527,-0.050000,-0.050000,0.355213,-0.364192,0.000000,0.000000,-0.521104,0.498427,1.031039,1.193357,0.110344,-0.079278,-0.084578,0.001328,0.066429,-0.051789
-0.050000,-0.050000,0.000000,0.000000,0.000000,0.000000,0.000000,0.000000,0.000000,0.100000,0.100000,-0.249467,-0.203730,-0.050000,-0.050000,0.352829,-0.366753,0.000000,0.000000,-0.512499,0.501746,1.043187,1.182905,0.104573,-0.075267,-0.082246,-0.001242,0.066205,-0.054396
-0.050000,-0.050000,0.000000,0.000000,0.000000,0.000000,0.000000,0.000000,0.000000,0.100000,0.100000,-0.244934,-0.213955,-0.050000,-0.050000,0.351535,-0.371241,0.000000,0.000000,-0.503994,0.504494,1.052823,1.170040,0.098986,-0.069349,-0.080843,-0.004198,0.067417,-0.058115
-0.050000,-0.050000,0.000000,0.000000,0.000000,0.000000,0.000000,0.000000,0.000000,0.100000,0.100000,-0.240804,-0.224354,-0.050000,-0.050000,0.350774,-0.376451,0.000000,0.000000,-0.495541,0.506861,1.060859,1.156122,0.093402,-0.062238,-0.079664,-0.007042,0.069182,-0.062089
-0.050000,-0.050000,0.000000,0.000000,0.000000,0.000000,0.000000,0.000000,0.000000,0.100000,0.100000,-0.237489,-0.235074,-0.050000,-0.050000,0.351055,-0.382481,0.000000,0.000000,-0.487280,0.508423,1.066291,1.140951,0.087834,-0.053187,-0.078989,-0.009886,0.071897,-0.066501
-0.050000,-0.050000,0.000000,0.000000,0.000000,0.000000,0.000000,0.000000,0.000000,0.100000,0.100000,-0.235224,-0.245786,-0.050000,-0.050000,0.352487,-0.388877,0.000000,0.000000,-0.479160,0.508868,1.068607,1.124813,0.082022,-0.041787,-0.078687,-0.012594,0.075486,-0.071045
-0.050000,-0.050000,0.000000,0.000000,0.000000,0.000000,0.000000,0.000000,0.000000,0.100000,0.100000,-0.233518,-0.256494,-0.050000,-0.050000,0.354756,-0.395427,0.000000,0.000000,-0.471205,0.508597,1.068802,1.108033,0.075996,-0.028902,-0.078423,-0.015192,0.079537,-0.075643
-0.050000,-0.050000,0.000000,0.000000,0.000000,0.000000,0.000000,0.000000,0.000000,0.100000,0.100000,-0.233714,-0.266754,-0.050000,-0.050000,0.358655,-0.401795,0.000000,0.000000,-0.463104,0.506220,1.064034,1.090221,0.068969,-0.012201,-0.078796,-0.017702,0.084829,-0.080154
-0.050000,-0.050000,0.000000,0.000000,0.000000,0.000000,0.000000,0.000000,0.000000,0.100000,0.100000,-0.234570,-0.276748,-0.050000,-0.050000,0.363527,-0.407916,0.000000,0.000000,-0.454980,0.502743,1.056516,1.071749,0.061096,0.006401,-0.079070,-0.020172,0.090510,-0.084576
-0.050000,-0.050000,0.000000,0.000000,0.000000,0.000000,0.000000,0.000000,0.000000,0.100000,0.100000,-0.236815,-0.286133,-0.050000,-0.050000,0.369597,-0.413522,0.000000,0.000000,-0.446444,0.497374,1.044816,1.052383,0.051754,0.028081,-0.079727,-0.022737,0.097006,-0.088899
-0.050000,-0.050000,0.000000,0.000000,0.000000,0.000000,0.000000,0.000000,0.000000,0.100000,0.100000,-0.240286,-0.294775,-0.050000,-0.050000,0.376709,-0.418482,0.000000,0.000000,-0.437174,0.489913,1.028771,1.031897,0.040229,0.052954,-0.080778,-0.025594,0.104196,-0.093218
-0.050000,-0.050000,0.000000,0.000000,0.000000,0.000000,0.000000,0.000000,0.000000,0.100000,0.100000,-0.244334,-0.302879,-0.050000,-0.050000,0.384607,-0.422970,0.000000,0.000000,-0.427539,0.481141,1.009833,1.010619,0.027282,0.079759,-0.081924,-0.028707,0.111739,-0.097571
-0.050000,-0.050000,0.000000,0.000000,0.000000,0.000000,0.000000,0.000000,0.000000,0.100000,0.100000,-0.249940,-0.309699,-0.050000,-0.050000,0.393169,-0.426446,0.000000,0.000000,-0.416003,0.469127,0.985064,0.987473,0.010119,0.111056,-0.084212,-0.032718,0.120134,-0.102234
-0.050000,-0.050000,0.000000,0.000000,0.000000,0.000000,0.000000,0.000000,0.000000,0.100000,0.100000,-0.255722,-0.315820,-0.050000,-0.050000,0.402196,-0.429467,0.000000,0.000000,-0.403743,0.455684,0.957473,0.963191,-0.009306,0.144228,-0.086739,-0.037324,0.128647,-0.107156
-0.050000,-0.050000,0.000000,0.000000,0.000000,0.000000,0.000000,0.000000,0.000000,0.100000,0.100000,-0.262113,-0.320851,-0.050000,-0.050000,0.411235,-0.431713,0.000000,0.000000,-0.389718,0.439807,0.925891,0.937261,-0.032504,0.180392,-0.090284,-0.043013,0.137471,-0.112543
-0.050000,-0.050000,0.000000,0.000000,0.000000,0.000000,0.000000,0.000000,0.000000,0.100000,0.100000,-0.268640,-0.324887,-0.050000,-0.050000,0.419948,-0.433376,0.000000,0.000000,-0.373877,0.421728,0.891066,0.909666,-0.059750,0.219067,-0.094808,-0.049921,0.146247,-0.118501
-0.050000,-0.050000,0.000000,0.000000,0.000000,0.000000,0.000000,0.000000,0.000000,0.100000,0.100000,-0.275037,-0.328148,-0.050000,-0.050000,0.428364,-0.434557,0.000000,0.000000,-0.356925,0.402334,0.854182,0.880929,-0.089430,0.259079,-0.100077,-0.057856,0.154909,-0.124789
-0.050000,-0.050000,0.000000,0.000000,0.000000,0.000000,0.000000,0.000000,0.000000,0.100000,0.100000,-0.281275,-0.330414,-0.050000,-0.050000,0.435376,-0.435200,0.000000,0.000000,-0.337176,0.380242,0.814631,0.850352,-0.124813,0.301632,-0.106844,-0.067530,0.163003,-0.131886
-0.050000,-0.050000,0.000000,0.000000,0.000000,0.000000,0.000000,0.000000,0.000000,0.100000,0.100000,-0.287022,-0.332120,-0.050000,-0.050000,0.441649,-0.435597,0.000000,0.000000,-0.316429,0.357322,0.774295,0.818937,-0.162493,0.344649,-0.114337,-0.078287,0.170522,-0.139228
-0.050000,-0.050000,0.000000,0.000000,0.000000,0.000000,0.000000,0.000000,0.000000,0.100000,0.100000,-0.292264,-0.333320,-0.050000,-0.050000,0.446398,-0.435702,0.000000,0.000000,-0.293844,0.332964,0.733412,0.786627,-0.203814,0.388371,-0.122893,-0.090427,0.177179,-0.146989
-0.050000,-0.050000,0.000000,0.000000,0.000000,0.000000,0.000000,0.000000,0.000000,0.100000,0.100000,-0.296854,-0.334298,-0.050000,-0.050000,0.449687,-0.435817,0.000000,0.000000,-0.269911,0.307816,0.693208,0.754003,-0.247985,0.431841,-0.132136,-0.103625,0.182787,-0.155051
-0.050000,-0.050000,0.000000,0.000000,0.000000,0.000000,0.000000,0.000000,0.000000,0.100000,0.100000,-0.301052,-0.335124,-0.050000,-0.050000,0.451761,-0.435721,0.000000,0.000000,-0.245163,0.282290,0.653571,0.721180,-0.293715,0.474790,-0.142164,-0.117843,0.187531,-0.163094
-0.050000,-0.050000,0.000000,0.000000,0.000000,0.000000,0.000000,0.000000,0.000000,0.100000,0.100000,-0.304409,-0.336213,-0.050000,-0.050000,0.452143,-0.436218,0.000000,0.000000,-0.219223,0.256428,0.616761,0.689094,-0.341983,0.516102,-0.152249,-0.132564,0.191009,-0.171575
-0.050000,-0.050000,0.000000,0.000000,0.000000,0.000000,0.000000,0.000000,0.000000,0.100000,0.100000,-0.307553,-0.337502,-0.050000,-0.050000,0.451559,-0.436789,0.000000,0.000000,-0.193010,0.230849,0.581726,0.657563,-0.390719,0.555848,-0.162778,-0.147829,0.193637,-0.179973
-0.050000,-0.050000,0.000000,0.000000,0.000000,0.000000,0.000000,0.000000,0.000000,0.100000,0.100000,-0.310223,-0.339192,-0.050000,-0.050000,0.449976,-0.437947,0.000000,0.000000,-0.166478,0.205640,0.549751,0.627219,-0.439955,0.593245,-0.173194,-0.163199,0.195472,-0.188583
-0.050000,-0.050000,0.000000,0.000000,0.000000,0.000000,0.000000,0.000000,0.000000,0.100000,0.100000,-0.312580,-0.341308,-0.050000,-0.050000,0.447886,-0.439834,0.000000,0.000000,-0.140026,0.181216,0.521105,0.598400,-0.488626,0.627706,-0.183369,-0.178358,0.196872,-0.197447
-0.050000,-0.050000,0.000000,0.000000,0.000000,0.000000,0.000000,0.000000,0.000000,0.100000,0.100000,-0.314936,-0.343791,-0.050000,-0.050000,0.445247,-0.441962,0.000000,0.000000,-0.113676,0.157361,0.494695,0.570589,-0.536723,0.660020,-0.193710,-0.193605,0.197801,-0.206329
-0.050000,-0.050000,0.000000,0.000000,0.000000,0.000000,0.000000,0.000000,0.000000,0.100000,0.100000,-0.316753,-0.346568,-0.050000,-0.050000,0.443112,-0.445618,0.000000,0.000000,-0.087893,0.134903,0.472764,0.545184,-0.582506,0.687856,-0.203193,-0.207802,0.199221,-0.215915
-0.050000,-0.050000,0.000000,0.000000,0.000000,0.000000,0.000000,0.000000,0.000000,0.100000,0.100000,-0.318717,-0.349597,-0.050000,-0.050000,0.440934,-0.449529,0.000000,0.000000,-0.062481,0.113241,0.452910,0.520924,-0.626611,0.713110,-0.212869,-0.221798,0.200716,-0.225682
-0.050000,-0.050000,0.000000,0.000000,0.000000,0.000000,0.000000,0.000000,0.000000,0.100000,0.100000,-0.320394,-0.352613,-0.050000,-0.050000,0.439517,-0.454455,0.000000,0.000000,-0.037705,0.092765,0.435962,0.498386,-0.667926,0.734662,-0.222238,-0.235015,0.202948,-0.235970
-0.050000,-0.050000,0.000000,0.000000,0.000000,0.000000,0.000000,0.000000,0.000000,0.100000,0.100000,-0.321850,-0.355408,-0.050000,-0.050000,0.439024,-0.460151,0.000000,0.000000,-0.013643,0.073458,0.421235,0.477333,-0.705893,0.752584,-0.231557,-0.247510,0.206113,-0.246723
-0.050000,-0.050000,0.000000,0.000000,0.000000,0.000000,0.000000,0.000000,0.000000,0.100000,0.100000,-0.323232,-0.358064,-0.050000,-0.050000,0.438950,-0.466125,0.000000,0.000000,0.009927,0.054873,0.407875,0.457178,-0.741478,0.767968,-0.241049,-0.259622,0.209871,-0.257794
-0.050000,-0.050000,0.000000,0.000000,0.000000,0.000000,0.000000,0.000000,0.000000,0.100000,0.100000,-0.323924,-0.359827,-0.050000,-0.050000,0.440814,-0.473248,0.000000,0.000000,0.032431,0.037774,0.396372,0.438637,-0.771878,0.778863,-0.250454,-0.270656,0.215228,-0.269396
-0.050000,-0.050000,0.000000,0.000000,0.000000,0.000000,0.000000,0.000000,0.000000,0.100000,0.100000,-0.324398,-0.361159,-0.050000,-0.050000,0.443131,-0.480324,0.000000,0.000000,0.054345,0.021264,0.385435,0.420689,-0.799289,0.787344,-0.260138,-0.281322,0.221397,-0.281282
-0.050000,-0.050000,0.000000,0.000000,0.000000,0.000000,0.000000,0.000000,0.000000,0.100000,0.100000,-0.324228,-0.361575,-0.050000,-0.050000,0.446797,-0.487880,0.000000,0.000000,0.075372,0.005707,0.375118,0.403614,-0.822370,0.792611,-0.269940,-0.291287,0.228726,-0.293450
-0.050000,-0.050000,0.000000,0.000000,0.000000,0.000000,0.000000,0.000000,0.000000,0.100000,0.100000,-0.323398,-0.361049,-0.050000,-0.050000,0.451524,-0.495550,0.000000,0.000000,0.095457,-0.009056,0.364996,0.387220,-0.841151,0.795014,-0.279828,-0.300633,0.237056,-0.305789
-0.050000,-0.050000,0.000000,0.000000,0.000000,0.000000,0.000000,0.000000,0.000000,0.100000,0.100000,-0.322059,-0.359820,-0.050000,-0.050000,0.456761,-0.503097,0.000000,0.000000,0.114924,-0.023390,0.354842,0.371179,-0.856860,0.795394,-0.289804,-0.309560,0.246192,-0.318303
-0.050000,-0.050000,0.000000,0.000000,0.000000,0.000000,0.000000,0.000000,0.000000,0.100000,0.100000,-0.319697,-0.357281,-0.050000,-0.050000,0.463421,-0.510768,0.000000,0.000000,0.132990,-0.036699,0.344675,0.356003,-0.867267,0.792671,-0.299478,-0.317592,0.256194,-0.330770
-0.050000,-0.050000,0.000000,0.000000,0.000000,0.000000,0.000000,0.000000,0.000000,0.100000,0.100000,-0.322601,-0.358867,-0.050000,-0.050000,0.471086,-0.517568,0.000000,0.000000,0.151717,-0.051107,0.333167,0.338518,-0.875408,0.786501,-0.309077,-0.325130,0.268648,-0.346346
-0.050000,-0.050000,0.000000,0.000000,0.000000,0.000000,0.000000,0.000000,0.000000,0.100000,0.100000,-0.321104,-0.356430,-0.050000,-0.050000,0.478779,-0.524088,0.000000,0.000000,0.168256,-0.063833,0.322881,0.323645,-0.878448,0.778829,-0.317670,-0.331348,0.280721,-0.360105
-0.050000,-0.050000,0.000000,0.000000,0.000000,0.000000,0.000000,0.000000,0.000000,0.100000,0.100000,-0.317599,-0.352003,-0.050000,-0.050000,0.486375,-0.530154,0.000000,0.000000,0.183359,-0.075649,0.312503,0.309702,-0.878324,0.770062,-0.325571,-0.337012,0.292889,-0.372983
-0.050000,-0.050000,0.000000,0.000000,0.000000,0.000000,0.000000,0.000000,0.000000,0.100000,0.100000,-0.313193,-0.346620,-0.050000,-0.050000,0.493868,-0.535878,0.000000,0.000000,0.197694,-0.087032,0.301931,0.296144,-0.876183,0.760459,-0.332924,-0.342244,0.305337,-0.385532
-0.050000,-0.050000,0.000000,0.000000,0.000000,0.000000,0.000000,0.000000,0.000000,0.100000,0.100000,-0.308166,-0.340335,-0.050000,-0.050000,0.501108,-0.540802,0.000000,0.000000,0.210267,-0.097299,0.291785,0.283474,-0.871302,0.749736,-0.338765,-0.346387,0.317656,-0.397460
-0.050000,-0.050000,0.000000,0.000000,0.000000,0.000000,0.000000,0.000000,0.000000,0.100000,0.100000,-0.302950,-0.333667,-0.050000,-0.050000,0.507970,-0.545215,0.000000,0.000000,0.222136,-0.107126,0.281804,0.271090,-0.865323,0.738627,-0.343808,-0.349984,0.330012,-0.409095
-0.050000,-0.050000,0.000000,0.000000,0.000000,0.000000,0.000000,0.000000,0.000000,0.100000,0.100000,-0.297658,-0.326612,-0.050000,-0.050000,0.514293,-0.548836,0.000000,0.000000,0.232669,-0.116054,0.272319,0.259234,-0.858186,0.727225,-0.347539,-0.352725,0.342009,-0.420145
-0.050000,-0.050000,0.000000,0.000000,0.000000,0.000000,0.000000,0.000000,0.000000,0.100000,0.100000,-0.292555,-0.319386,-0.050000,-0.050000,0.519931,-0.551615,0.000000,0.000000,0.241939,-0.124080,0.263323,0.247703,-0.850553,0.715990,-0.350003,-0.354721,0.353450,-0.430501
-0.050000,-0.050000,0.000000,0.000000,0.000000,0.000000,0.000000,0.000000,0.000000,0.100000,0.100000,-0.287617,-0.312059,-0.050000,-0.050000,0.525143,-0.553888,0.000000,0.000000,0.250444,-0.131565,0.254700,0.236381,-0.842685,0.704934,-0.351627,-0.356215,0.364470,-0.440350
-0.050000,-0.050000,0.000000,0.000000,0.000000,0.000000,0.000000,0.000000,0.000000,0.100000,0.100000,-0.283306,-0.304865,-0.050000,-0.050000,0.529411,-0.554928,0.000000,0.000000,0.256970,-0.137567,0.246602,0.225205,-0.834941,0.694799,-0.351547,-0.356869,0.374213,-0.448975
-0.050000,-0.050000,0.000000,0.000000,0.000000,0.000000,0.000000,0.000000,0.000000,0.100000,0.100000,-0.279417,-0.297806,-0.050000,-0.050000,0.533430,-0.555570,0.000000,0.000000,0.262721,-0.143013,0.238791,0.214036,-0.827376,0.685274,-0.350689,-0.357158,0.383205,-0.456891
-0.050000,-0.050000,0.000000,0.000000,0.000000,0.000000,0.000000,0.000000,0.000000,0.100000,0.100000,-0.276220,-0.291097,-0.050000,-0.050000,0.537025,-0.555430,0.000000,0.000000,0.266923,-0.147310,0.231206,0.202771,-0.820111,0.676776,-0.348604,-0.356933,0.390930,-0.463692
-0.050000,-0.050000,0.000000,0.000000,0.000000,0.000000,0.000000,0.000000,0.000000,0.100000,0.100000,-0.273799,-0.284906,-0.050000,-0.050000,0.540687,-0.554845,0.000000,0.000000,0.269674,-0.150563,0.223670,0.191290,-0.812981,0.669306,-0.345433,-0.356311,0.397323,-0.469375
-0.050000,-0.050000,0.000000,0.000000,0.000000,0.000000,0.000000,0.000000,0.000000,0.100000,0.100000,-0.271966,-0.279097,-0.050000,-0.050000,0.544475,-0.554002,0.000000,0.000000,0.271518,-0.153207,0.216245,0.179734,-0.805991,0.662589,-0.341546,-0.355435,0.402788,-0.474250
-0.050000,-0.050000,0.000000,0.000000,0.000000,0.000000,0.000000,0.000000,0.000000,0.100000,0.100000,-0.271306,-0.274383,-0.050000,-0.050000,0.549271,-0.553100,0.000000,0.000000,0.271126,-0.154272,0.208462,0.167705,-0.798462,0.656995,-0.336333,-0.354145,0.406424,-0.477697
-0.050000,-0.050000,0.000000,0.000000,0.000000,0.000000,0.000000,0.000000,0.000000,0.100000,0.100000,-0.271407,-0.270339,-0.050000,-0.050000,0.554944,-0.552419,0.000000,0.000000,0.269845,-0.154831,0.200703,0.155662,-0.790518,0.651923,-0.330556,-0.352691,0.409248,-0.480432
-0.050000,-0.050000,0.000000,0.000000,0.000000,0.000000,0.000000,0.000000,0.000000,0.100000,0.100000,-0.272604,-0.267463,-0.050000,-0.050000,0.562246,-0.552300,0.000000,0.000000,0.266860,-0.154284,0.192640,0.143381,-0.781485,0.647359,-0.323979,-0.351015,0.410861,-0.482213
-0.050000,-0.050000,0.000000,0.000000,0.000000,0.000000,0.000000,0.000000,0.000000,0.100000,0.100000,-0.275000,-0.265941,-0.050000,-0.050000,0.571716,-0.553242,0.000000,0.000000,0.262364,-0.152833,0.184399,0.131077,-0.770831,0.642906,-0.316898,-0.349211,0.411681,-0.483323
-0.050000,-0.050000,0.000000,0.000000,0.000000,0.000000,0.000000,0.000000,0.000000,0.100000,0.100000,-0.278410,-0.265478,-0.050000,-0.050000,0.582659,-0.554854,0.000000,0.000000,0.256846,-0.150817,0.176176,0.118948,-0.759048,0.638543,-0.309519,-0.347357,0.412046,-0.483992
-0.050000,-0.050000,0.000000,0.000000,0.000000,0.000000,0.000000,0.000000,0.000000,0.100000,0.100000,-0.283608,-0.267270,-0.050000,-0.050000,0.597472,-0.558936,0.000000,0.000000,0.249238,-0.147517,0.167771,0.106975,-0.744035,0.633586,-0.302005,-0.345499,0.412008,-0.484259
-0.050000,-0.050000,0.000000,0.000000,0.000000,0.000000,0.000000,0.000000,0.000000,0.100000,0.100000,-0.290233,-0.270587,-0.050000,-0.050000,0.614106,-0.564152,0.000000,0.000000,0.240645,-0.143697,0.159770,0.095691,-0.727357,0.628379,-0.294622,-0.343755,0.412169,-0.484475
-0.050000,-0.050000,0.000000,0.000000,0.000000,0.000000,0.000000,0.000000,0.000000,0.100000,0.100000,-0.298740,-0.276144,-0.050000,-0.050000,0.633950,-0.571736,0.000000,0.000000,0.230468,-0.138922,0.152101,0.085122,-0.707853,0.622490,-0.287591,-0.342192,0.412649,-0.484716
-0.050000,-0.050000,0.000000,0.000000,0.000000,0.000000,0.000000,0.000000,0.000000,0.100000,0.100000,-0.309380,-0.284143,-0.050000,-0.050000,0.656590,-0.581639,0.000000,0.000000,0.218855,-0.133245,0.145261,0.075820,-0.685819,0.616055,-0.281164,-0.340890,0.413920,-0.485211
-0.050000,-0.050000,0.000000,0.000000,0.000000,0.000000,0.000000,0.000000,0.000000,0.100000,0.100000,-0.321931,-0.294152,-0.050000,-0.050000,0.680992,-0.593074,0.000000,0.000000,0.206068,-0.126852,0.139211,0.067728,-0.662107,0.609354,-0.275246,-0.339885,0.415765,-0.485860
-0.050000,-0.050000,0.000000,0.000000,0.000000,0.000000,0.000000,0.000000,0.000000,0.100000,0.100000,-0.337449,-0.307599,-0.050000,-0.050000,0.708608,-0.607848,0.000000,0.000000,0.191411,-0.119086,0.134812,0.061910,-0.635832,0.602341,-0.270334,-0.339178,0.419036,-0.486991
-0.050000,-0.050000,0.000000,0.000000,0.000000,0.000000,0.000000,0.000000,0.000000,0.100000,0.100000,-0.355407,-0.323513,-0.050000,-0.050000,0.737134,-0.623947,0.000000,0.000000,0.175398,-0.110355,0.131952,0.058217,-0.608845,0.595709,-0.266064,-0.338829,0.423061,-0.488251
-0.050000,-0.050000,0.000000,0.000000,0.000000,0.000000,0.000000,0.000000,0.000000,0.100000,0.100000,-0.376321,-0.342567,-0.050000,-0.050000,0.767024,-0.642208,0.000000,0.000000,0.157641,-0.100238,0.131154,0.057274,-0.581240,0.589711,-0.262580,-0.338724,0.428115,-0.489686
-0.050000,-0.050000,0.000000,0.000000,0.000000,0.000000,0.000000,0.000000,0.000000,0.100000,0.100000,-0.400281,-0.364742,-0.050000,-0.050000,0.797072,-0.661877,0.000000,0.000000,0.138076,-0.088590,0.132889,0.059641,-0.554471,0.585133,-0.259712,-0.338743,0.433855,-0.491031
-0.050000,-0.050000,0.000000,0.000000,0.000000,0.000000,0.000000,0.000000,0.000000,0.100000,0.100000,-0.426985,-0.389576,-0.050000,-0.050000,0.826996,-0.682500,0.000000,0.000000,0.116806,-0.075572,0.136642,0.064679,-0.528509,0.581791,-0.257381,-0.339027,0.439872,-0.492093
-0.050000,-0.050000,0.000000,0.000000,0.000000,0.000000,0.000000,0.000000,0.000000,0.100000,0.100000,-0.457069,-0.417886,-0.050000,-0.050000,0.855264,-0.703729,0.000000,0.000000,0.093350,-0.060412,0.144153,0.074425,-0.506298,0.581472,-0.255360,-0.338878,0.445983,-0.492575
-0.050000,-0.050000,0.000000,0.000000,0.000000,0.000000,0.000000,0.000000,0.000000,0.100000,0.100000,-0.489899,-0.448808,-0.050000,-0.050000,0.882075,-0.725067,0.000000,0.000000,0.068026,-0.043612,0.154184,0.087344,-0.486790,0.583310,-0.253745,-0.338815,0.451536,-0.492204
-0.050000,-0.050000,0.000000,0.000000,0.000000,0.000000,0.000000,0.000000,0.000000,0.100000,0.100000,-0.525491,-0.482441,-0.050000,-0.050000,0.906059,-0.745786,0.000000,0.000000,0.040724,-0.024823,0.167624,0.104381,-0.472063,0.588332,-0.252268,-0.338254,0.456216,-0.490759
-0.050000,-0.050000,0.000000,0.000000,0.000000,0.000000,0.000000,0.000000,0.000000,0.100000,0.100000,-0.563422,-0.518352,-0.050000,-0.050000,0.926582,-0.765249,0.000000,0.000000,0.011640,-0.004169,0.184409,0.125298,-0.462815,0.596626,-0.250896,-0.337138,0.459447,-0.487969
-0.050000,-0.050000,0.000000,0.000000,0.000000,0.000000,0.000000,0.000000,0.000000,0.100000,0.100000,-0.603386,-0.556200,-0.050000,-0.050000,0.944444,-0.783701,0.000000,0.000000,-0.019017,0.018075,0.203688,0.149028,-0.457534,0.607314,-0.249748,-0.335688,0.461349,-0.483942
-0.050000,-0.050000,0.000000,0.000000,0.000000,0.000000,0.000000,0.000000,0.000000,0.100000,0.100000,-0.644569,-0.595391,-0.050000,-0.050000,0.956503,-0.798995,0.000000,0.000000,-0.050774,0.041933,0.226990,0.176951,-0.460396,0.621963,-0.248337,-0.332986,0.460935,-0.478278
-0.050000,-0.050000,0.000000,0.000000,0.000000,0.000000,0.000000,0.000000,0.000000,0.100000,0.100000,-0.686757,-0.635631,-0.050000,-0.050000,0.965530,-0.812662,0.000000,0.000000,-0.083366,0.066905,0.252470,0.206919,-0.467365,0.638550,-0.247108,-0.329811,0.458745,-0.471318
-0.050000,-0.050000,0.000000,0.000000,0.000000,0.000000,0.000000,0.000000,0.000000,0.100000,0.100000,-0.728996,-0.676168,-0.050000,-0.050000,0.969590,-0.823136,0.000000,0.000000,-0.116089,0.092648,0.280749,0.239327,-0.480377,0.657550,-0.245646,-0.325606,0.454469,-0.463113
-0.050000,-0.050000,0.000000,0.000000,0.000000,0.000000,0.000000,0.000000,0.000000,0.100000,0.100000,-0.770623,-0.716388,-0.050000,-0.050000,0.969270,-0.830566,0.000000,0.000000,-0.148346,0.118664,0.311118,0.273117,-0.498177,0.678015,-0.244010,-0.320605,0.448280,-0.453969
-0.050000,-0.050000,0.000000,0.000000,0.000000,0.000000,0.000000,0.000000,0.000000,0.100000,0.100000,-0.811432,-0.756181,-0.050000,-0.050000,0.965763,-0.835657,0.000000,0.000000,-0.179938,0.144757,0.342823,0.307607,-0.519147,0.699251,-0.242145,-0.314868,0.440602,-0.444152
-0.050000,-0.050000,0.000000,0.000000,0.000000,0.000000,0.000000,0.000000,0.000000,0.100000,0.100000,-0.849872,-0.794092,-0.050000,-0.050000,0.956921,-0.836514,0.000000,0.000000,-0.209411,0.169917,0.376047,0.342196,-0.544479,0.720889,-0.239842,-0.308485,0.431346,-0.434142
-0.050000,-0.050000,0.000000,0.000000,0.000000,0.000000,0.000000,0.000000,0.000000,0.100000,0.100000,-0.886372,-0.830525,-0.050000,-0.050000,0.945588,-0.835239,0.000000,0.000000,-0.237176,0.194352,0.409451,0.375941,-0.571232,0.742018,-0.237235,-0.301665,0.421143,-0.424178
-0.050000,-0.050000,0.000000,0.000000,0.000000,0.000000,0.000000,0.000000,0.000000,0.100000,0.100000,-0.920033,-0.864601,-0.050000,-0.050000,0.930637,-0.830775,0.000000,0.000000,-0.262245,0.217308,0.442849,0.408221,-0.599554,0.762242,-0.234243,-0.294692,0.410280,-0.414717
-0.050000,-0.050000,0.000000,0.000000,0.000000,0.000000,0.000000,0.000000,0.000000,0.100000,0.100000,-0.950724,-0.896034,-0.050000,-0.050000,0.912899,-0.823705,0.000000,0.000000,-0.284377,0.238530,0.475258,0.438003,-0.628031,0.780888,-0.231077,-0.287980,0.399255,-0.406128
-0.050000,-0.050000,0.000000,0.000000,0.000000,0.000000,0.000000,0.000000,0.000000,0.100000,0.100000,-0.978668,-0.925092,-0.050000,-0.050000,0.893230,-0.814750,0.000000,0.000000,-0.303973,0.258270,0.506584,0.465576,-0.656285,0.798120,-0.227569,-0.281313,0.388243,-0.398410
-0.050000,-0.050000,0.000000,0.000000,0.000000,0.000000,0.000000,0.000000,0.000000,0.100000,0.100000,-1.003169,-0.950631,-0.050000,-0.050000,0.870690,-0.803002,0.000000,0.000000,-0.319561,0.275306,0.535246,0.488586,-0.683192,0.812855,-0.224614,-0.276149,0.378020,-0.392243
-0.050000,-0.050000,0.000000,0.000000,0.000000,0.000000,0.000000,0.000000,0.000000,0.100000,0.100000,-1.017053,-0.966652,-0.050000,-0.050000,0.847675,-0.789144,0.000000,0.000000,-0.330678,0.288858,0.556507,0.504691,-0.705909,0.824705,-0.220776,-0.271089,0.370093,-0.387857
-0.050000,-0.050000,0.000000,0.000000,0.000000,0.000000,0.000000,0.000000,0.000000,0.100000,0.100000,-1.031944,-0.983175,-0.050000,-0.050000,0.822263,-0.773654,0.000000,0.000000,-0.339395,0.301196,0.576838,0.518161,-0.728599,0.835117,-0.218010,-0.267736,0.362670,-0.384614
-0.050000,-0.050000,0.000000,0.000000,0.000000,0.000000,0.000000,0.000000,0.000000,0.100000,0.100000,-1.046763,-0.998958,-0.050000,-0.050000,0.795677,-0.757356,0.000000,0.000000,-0.345658,0.311805,0.595172,0.528204,-0.750080,0.843969,-0.216711,-0.266321,0.355999,-0.382510
-0.050000,-0.050000,0.000000,0.000000,0.000000,0.000000,0.000000,0.000000,0.000000,0.100000,0.100000,-1.060516,-1.013183,-0.050000,-0.050000,0.768352,-0.740431,0.000000,0.000000,-0.349848,0.320820,0.611360,0.535123,-0.770242,0.851465,-0.216402,-0.266256,0.350133,-0.381451
-0.050000,-0.050000,0.000000,0.000000,0.000000,0.000000,0.000000,0.000000,0.000000,0.100000,0.100000,-1.072695,-1.025041,-0.050000,-0.050000,0.740240,-0.722626,0.000000,0.000000,-0.350738,0.327111,0.622823,0.536444,-0.788221,0.857345,-0.218598,-0.269137,0.345616,-0.381422
-0.050000,-0.050000,0.000000,0.000000,0.000000,0.000000,0.000000,0.000000,0.000000,0.100000,0.100000,-1.082998,-1.034575,-0.050000,-0.050000,0.711913,-0.704525,0.000000,0.000000,-0.349583,0.331651,0.630916,0.533968,-0.804536,0.861967,-0.221955,-0.273443,0.342216,-0.382386
-0.050000,-0.050000,0.000000,0.000000,0.000000,0.000000,0.000000,0.000000,0.000000,0.100000,0.100000,-1.091563,-1.041801,-0.050000,-0.050000,0.683468,-0.686088,0.000000,0.000000,-0.345944,0.333961,0.634495,0.526745,-0.818962,0.865464,-0.227324,-0.279982,0.339981,-0.384102
-0.050000,-0.050000,0.000000,0.000000,0.000000,0.000000,0.000000,0.000000,0.000000,0.100000,0.100000,-1.098295,-1.046773,-0.050000,-0.050000,0.655298,-0.667645,0.000000,0.000000,-0.340344,0.334316,0.633859,0.515381,-0.831558,0.868083,-0.234383,-0.288381,0.338741,-0.386390
-0.050000,-0.050000,0.000000,0.000000,0.000000,0.000000,0.000000,0.000000,0.000000,0.100000,0.100000,-1.103430,-1.049831,-0.050000,-0.050000,0.627325,-0.649188,0.000000,0.000000,-0.333318,0.333231,0.629919,0.500858,-0.842694,0.869959,-0.242554,-0.298006,0.338298,-0.389104
-0.050000,-0.050000,0.000000,0.000000,0.000000,0.000000,0.000000,0.000000,0.000000,0.100000,0.100000,-1.106817,-1.050889,-0.050000,-0.050000,0.600310,-0.631164,0.000000,0.000000,-0.324812,0.330139,0.621712,0.482690,-0.851834,0.871491,-0.252502,-0.309561,0.338385,-0.391826
-0.050000,-0.050000,0.000000,0.000000,0.000000,0.000000,0.000000,0.000000,0.000000,0.100000,0.100000,-1.108638,-1.050299,-0.050000,-0.050000,0.573805,-0.613379,0.000000,0.000000,-0.315629,0.326001,0.610997,0.462544,-0.859597,0.872687,-0.262997,-0.321813,0.338877,-0.394525
-0.050000,-0.050000,0.000000,0.000000,0.000000,0.000000,0.000000,0.000000,0.000000,0.100000,0.100000,-1.111764,-1.048950,-0.050000,-0.050000,0.547739,-0.597259,0.000000,0.000000,-0.304378,0.319585,0.595131,0.435601,-0.864552,0.871235,-0.275680,-0.336547,0.340541,-0.399184
-0.050000,-0.050000,0.000000,0.000000,0.000000,0.000000,0.000000,0.000000,0.000000,0.100000,0.100000,-1.111233,-1.045413,-0.050000,-0.050000,0.523074,-0.581161,0.000000,0.000000,-0.294461,0.313043,0.579506,0.411281,-0.868595,0.871542,-0.286615,-0.349614,0.341649,-0.402325
-0.050000,-0.050000,0.000000,0.000000,0.000000,0.000000,0.000000,0.000000,0.000000,0.100000,0.100000,-1.108822,-1.040772,-0.050000,-0.050000,0.499176,-0.565066,0.000000,0.000000,-0.284991,0.306186,0.563254,0.387980,-0.871990,0.872829,-0.297192,-0.362649,0.342265,-0.404062
-0.050000,-0.050000,0.000000,0.000000,0.000000,0.000000,0.000000,0.000000,0.000000,0.100000,0.100000,-1.104313,-1.035007,-0.050000,-0.050000,0.476831,-0.549990,0.000000,0.000000,-0.276687,0.299018,0.547562,0.367134,-0.874341,0.875492,-0.306519,-0.375012,0.342153,-0.404604
-0.050000,-0.050000,0.000000,0.000000,0.000000,0.000000,0.000000,0.000000,0.000000,0.100000,0.100000,-1.098853,-1.028886,-0.050000,-0.050000,0.455078,-0.535306,0.000000,0.000000,-0.269082,0.291865,0.532515,0.348171,-0.876371,0.879131,-0.314942,-0.386848,0.341553,-0.404108
-0.050000,-0.050000,0.000000,0.000000,0.000000,0.000000,0.000000,0.000000,0.000000,0.100000,0.100000,-1.092033,-1.022289,-0.050000,-0.050000,0.434424,-0.521562,0.000000,0.000000,-0.262836,0.284907,0.519419,0.332688,-0.878080,0.884176,-0.321626,-0.397413,0.340288,-0.402694
-0.050000,-0.050000,0.000000,0.000000,0.000000,0.000000,0.000000,0.000000,0.000000,0.100000,0.100000,-1.084159,-1.015532,-0.050000,-0.050000,0.414641,-0.508664,0.000000,0.000000,-0.257992,0.278385,0.509033,0.321396,-0.879938,0.890761,-0.326384,-0.406418,0.338368,-0.400345
-0.050000,-0.050000,0.000000,0.000000,0.000000,0.000000,0.000000,0.000000,0.000000,0.100000,0.100000,-1.075763,-1.008956,-0.050000,-0.050000,0.395466,-0.496369,0.000000,0.000000,-0.254203,0.272229,0.500817,0.313458,-0.882106,0.898720,-0.329817,-0.414384,0.335825,-0.397042
-0.050000,-0.050000,0.000000,0.000000,0.000000,0.000000,0.000000,0.000000,0.000000,0.100000,0.100000,-1.066093,-1.002266,-0.050000,-0.050000,0.377502,-0.485416,0.000000,0.000000,-0.252468,0.267044,0.497689,0.312289,-0.884932,0.908596,-0.330226,-0.419526,0.332666,-0.393047
-0.050000,-0.050000,0.000000,0.000000,0.000000,0.000000,0.000000,0.000000,0.000000,0.100000,0.100000,-1.056344,-0.996205,-0.050000,-0.050000,0.360099,-0.475080,0.000000,0.000000,-0.251751,0.262409,0.497545,0.315195,-0.888508,0.919972,-0.329359,-0.423440,0.328849,-0.387994
-0.050000,-0.050000,0.000000,0.000000,0.000000,0.000000,0.000000,0.000000,0.000000,0.100000,0.100000,-1.046025,-0.990465,-0.050000,-0.050000,0.343714,-0.465878,0.000000,0.000000,-0.252598,0.258748,0.502156,0.324061,-0.892904,0.932877,-0.326209,-0.424959,0.324565,-0.382243
-0.050000,-0.050000,0.000000,0.000000,0.000000,0.000000,0.000000,0.000000,0.000000,0.100000,0.100000,-1.035554,-0.985321,-0.050000,-0.050000,0.328317,-0.457698,0.000000,0.000000,-0.254661,0.256027,0.511192,0.338259,-0.898096,0.947012,-0.321307,-0.424385,0.319875,-0.375691
-0.050000,-0.050000,0.000000,0.000000,0.000000,0.000000,0.000000,0.000000,0.000000,0.100000,0.100000,-1.025202,-0.980873,-0.050000,-0.050000,0.313608,-0.450236,0.000000,0.000000,-0.257584,0.253973,0.523564,0.356477,-0.903937,0.962141,-0.315273,-0.422320,0.314757,-0.368331
-0.050000,-0.050000,0.000000,0.000000,0.000000,0.000000,0.000000,0.000000,0.000000,0.100000,0.100000,-1.014541,-0.976817,-0.050000,-0.050000,0.300564,-0.444292,0.000000,0.000000,-0.261677,0.253288,0.541327,0.380503,-0.910213,0.977610,-0.307294,-0.417432,0.309740,-0.360536
-0.050000,-0.050000,0.000000,0.000000,0.000000,0.000000,0.000000,0.000000,0.000000,0.100000,0.100000,-1.004212,-0.973528,-0.050000,-0.050000,0.288288,-0.438982,0.000000,0.000000,-0.266194,0.253219,0.561836,0.407489,-0.916802,0.993322,-0.298761,-0.411293,0.304473,-0.352033
-0.050000,-0.050000,0.000000,0.000000,0.000000,0.000000,0.000000,0.000000,0.000000,0.100000,0.100000,-0.993806,-0.970620,-0.050000,-0.050000,0.277512,-0.434875,0.000000,0.000000,-0.271178,0.254202,0.585937,0.437929,-0.923326,1.008460,-0.289328,-0.403216,0.299469,-0.343225
-0.050000,-0.050000,0.000000,0.000000,0.000000,0.000000,0.000000,0.000000,0.000000,0.100000,0.100000,-0.983410,-0.968101,-0.050000,-0.050000,0.268121,-0.431757,0.000000,0.000000,-0.276198,0.256003,0.612498,0.470411,-0.929556,1.022514,-0.279636,-0.393800,0.294776,-0.334188
-0.050000,-0.050000,0.000000,0.000000,0.000000,0.000000,0.000000,0.000000,0.000000,0.100000,0.100000,-0.973014,-0.965846,-0.050000,-0.050000,0.259638,-0.429228,0.000000,0.000000,-0.281170,0.258386,0.640696,0.504140,-0.935454,1.035509,-0.269787,-0.383361,0.290285,-0.325067
-0.050000,-0.050000,0.000000,0.000000,0.000000,0.000000,0.000000,0.000000,0.000000,0.100000,0.100000,-0.962192,-0.963553,-0.050000,-0.050000,0.253291,-0.428139,0.000000,0.000000,-0.285547,0.261623,0.670401,0.538253,-0.940460,1.045890,-0.260333,-0.371997,0.286684,-0.316215
-0.050000,-0.050000,0.000000,0.000000,0.000000,0.000000,0.000000,0.000000,0.000000,0.100000,0.100000,-0.951128,-0.961212,-0.050000,-0.050000,0.247741,-0.427414,0.000000,0.000000,-0.289439,0.265174,0.700386,0.571931,-0.944889,1.054504,-0.251206,-0.360236,0.283425,-0.307707
-0.050000,-0.050000,0.000000,0.000000,0.000000,0.000000,0.000000,0.000000,0.000000,0.100000,0.100000,-0.939494,-0.958587,-0.050000,-0.050000,0.243802,-0.427669,0.000000,0.000000,-0.292422,0.269085,0.730237,0.604305,-0.948424,1.060393,-0.242849,-0.348375,0.280933,-0.299759
-0.050000,-0.050000,0.000000,0.000000,0.000000,0.000000,0.000000,0.000000,0.000000,0.100000,0.100000,-0.927244,-0.955585,-0.050000,-0.050000,0.241095,-0.428600,0.000000,0.000000,-0.294400,0.273029,0.759105,0.634599,-0.951159,1.063700,-0.235366,-0.336819,0.279049,-0.292532
-0.050000,-0.050000,0.000000,0.000000,0.000000,0.000000,0.000000,0.000000,0.000000,0.100000,0.100000,-0.914401,-0.952117,-0.050000,-0.050000,0.239189,-0.429891,0.000000,0.000000,-0.295604,0.276973,0.787029,0.663049,-0.953218,1.064909,-0.228449,-0.325505,0.277653,-0.286040
-0.050000,-0.050000,0.000000,0.000000,0.000000,0.000000,0.000000,0.000000,0.000000,0.100000,0.100000,-0.900772,-0.948174,-0.050000,-0.050000,0.238866,-0.432223,0.000000,0.000000,-0.295352,0.280440,0.812542,0.687811,-0.954454,1.063225,-0.222936,-0.315354,0.276866,-0.280467
-0.050000,-0.050000,0.000000,0.000000,0.000000,0.000000,0.000000,0.000000,0.000000,0.100000,0.100000,-0.886542,-0.943650,-0.050000,-0.050000,0.239046,-0.434738,0.000000,0.000000,-0.294391,0.283604,0.836414,0.710173,-0.955131,1.059860,-0.217897,-0.305745,0.276406,-0.275792
-0.050000,-0.050000,0.000000,0.000000,0.000000,0.000000,0.000000,0.000000,0.000000,0.100000,0.100000,-0.871771,-0.938691,-0.050000,-0.050000,0.240183,-0.437919,0.000000,0.000000,-0.292386,0.286087,0.857737,0.729111,-0.955231,1.054646,-0.213816,-0.297291,0.276197,-0.271981
-0.050000,-0.050000,0.000000,0.000000,0.000000,0.000000,0.000000,0.000000,0.000000,0.100000,0.100000,-0.856701,-0.933321,-0.050000,-0.050000,0.241911,-0.441507,0.000000,0.000000,-0.289698,0.287878,0.876558,0.744913,-0.954839,1.048238,-0.210342,-0.289850,0.276020,-0.269024
-0.050000,-0.050000,0.000000,0.000000,0.000000,0.000000,0.000000,0.000000,0.000000,0.100000,0.100000,-0.841373,-0.927557,-0.050000,-0.050000,0.244004,-0.445354,0.000000,0.000000,-0.286535,0.289133,0.893504,0.758350,-0.954066,1.040985,-0.207230,-0.283120,0.275894,-0.266759
-0.050000,-0.050000,0.000000,0.000000,0.000000,0.000000,0.000000,0.000000,0.000000,0.100000,0.100000,-0.823416,-0.919153,-0.050000,-0.050000,0.246260,-0.449015,0.000000,0.000000,-0.284098,0.289920,0.906603,0.767993,-0.952857,1.034348,-0.204611,-0.277962,0.276140,-0.265721
-0.050000,-0.050000,0.000000,0.000000,0.000000,0.000000,0.000000,0.000000,0.000000,0.100000,0.100000,-0.807090,-0.911614,-0.050000,-0.050000,0.248976,-0.453181,0.000000,0.000000,-0.281106,0.289888,0.918035,0.775704,-0.951301,1.027043,-0.202315,-0.273351,0.275659,-0.264682
-0.050000,-0.050000,0.000000,0.000000,0.000000,0.000000,0.000000,0.000000,0.000000,0.100000,0.100000,-0.792676,-0.904954,-0.050000,-0.050000,0.252139,-0.457822,0.000000,0.000000,-0.277978,0.289080,0.927272,0.780916,-0.949412,1.020036,-0.200334,-0.269629,0.274302,-0.263927
-0.050000,-0.050000,0.000000,0.000000,0.000000,0.000000,0.000000,0.000000,0.000000,0.100000,0.100000,-0.779935,-0.898707,-0.050000,-0.050000,0.255659,-0.462686,0.000000,0.000000,-0.275146,0.287806,0.934530,0.783953,-0.947228,1.013852,-0.198504,-0.266661,0.272189,-0.263497
-0.050000,-0.050000,0.000000,0.000000,0.000000,0.000000,0.000000,0.000000,0.000000,0.100000,0.100000,-0.768372,-0.892633,-0.050000,-0.050000,0.259465,-0.467701,0.000000,0.000000,-0.272618,0.286169,0.940341,0.785349,-0.944846,1.008402,-0.196746,-0.264240,0.269559,-0.263340
-0.050000,-0.050000,0.000000,0.000000,0.000000,0.000000,0.000000,0.000000,0.000000,0.100000,0.100000,-0.759447,-0.886942,-0.050000,-0.050000,0.263860,-0.472799,0.000000,0.000000,-0.271061,0.284254,0.943438,0.784113,-0.942122,1.004722,-0.195347,-0.262862,0.265793,-0.263327
-0.050000,-0.050000,0.000000,0.000000,0.000000,0.000000,0.000000,0.000000,0.000000,0.100000,0.100000,-0.751999,-0.881368,-0.050000,-0.050000,0.268735,-0.478001,0.000000,0.000000,-0.270047,0.282110,0.945245,0.781409,-0.939295,1.002106,-0.194068,-0.262020,0.261564,-0.263481
-0.050000,-0.050000,0.000000,0.000000,0.000000,0.000000,0.000000,0.000000,0.000000,0.100000,0.100000,-0.747111,-0.876141,-0.050000,-0.050000,0.274342,-0.483248,0.000000,0.000000,-0.269974,0.279870,0.944919,0.776645,-0.936292,1.001115,-0.193207,-0.262039,0.256491,-0.263686
-0.050000,-0.050000,0.000000,0.000000,0.000000,0.000000,0.000000,0.000000,0.000000,0.100000,0.100000,-0.744648,-0.871284,-0.050000,-0.050000,0.280830,-0.488590,0.000000,0.000000,-0.270684,0.277570,0.942802,0.770106,-0.933244,1.001536,-0.192833,-0.262861,0.250844,-0.263958
-0.050000,-0.050000,0.000000,0.000000,0.000000,0.000000,0.000000,0.000000,0.000000,0.100000,0.100000,-0.744047,-0.866742,-0.050000,-0.050000,0.288028,-0.493997,0.000000,0.000000,-0.271993,0.275194,0.939437,0.762262,-0.930213,1.003000,-0.192817,-0.264281,0.244816,-0.264296
-0.050000,-0.050000,0.000000,0.000000,0.000000,0.000000,0.000000,0.000000,0.000000,0.100000,0.100000,-0.746763,-0.862958,-0.050000,-0.050000,0.296612,-0.499562,0.000000,0.000000,-0.274102,0.272941,0.933645,0.752332,-0.927227,1.005865,-0.193837,-0.266815,0.238322,-0.264692
-0.050000,-0.050000,0.000000,0.000000,0.000000,0.000000,0.000000,0.000000,0.000000,0.100000,0.100000,-0.751196,-0.859688,-0.050000,-0.050000,0.306041,-0.505228,0.000000,0.000000,-0.276567,0.270623,0.926821,0.741373,-0.924393,1.009365,-0.195362,-0.269937,0.231814,-0.265235
-0.050000,-0.050000,0.000000,0.000000,0.000000,0.000000,0.000000,0.000000,0.000000,0.100000,0.100000,-0.758156,-0.857270,-0.050000,-0.050000,0.316702,-0.511067,0.000000,0.000000,-0.279400,0.268389,0.918198,0.729000,-0.921718,1.013485,-0.197902,-0.273933,0.225331,-0.265929
-0.050000,-0.050000,0.000000,0.000000,0.000000,0.000000,0.000000,0.000000,0.000000,0.100000,0.100000,-0.767033,-0.855765,-0.050000,-0.050000,0.328428,-0.517071,0.000000,0.000000,-0.282325,0.266161,0.908232,0.715665,-0.919263,1.017772,-0.201370,-0.278629,0.219203,-0.266875
-0.050000,-0.050000,0.000000,0.000000,0.000000,0.000000,0.000000,0.000000,0.000000,0.100000,0.100000,-0.777339,-0.855045,-0.050000,-0.050000,0.340911,-0.523149,0.000000,0.000000,-0.285325,0.263947,0.897288,0.701688,-0.916963,1.022056,-0.205517,-0.283822,0.213418,-0.268036
-0.050000,-0.050000,0.000000,0.000000,0.000000,0.000000,0.000000,0.000000,0.000000,0.100000,0.100000,-0.789362,-0.855636,-0.050000,-0.050000,0.354486,-0.529462,0.000000,0.000000,-0.288001,0.261735,0.884930,0.687091,-0.914917,1.025846,-0.210937,-0.289668,0.208478,-0.269584
-0.050000,-0.050000,0.000000,0.000000,0.000000,0.000000,0.000000,0.000000,0.000000,0.100000,0.100000,-0.802123,-0.857131,-0.050000,-0.050000,0.368474,-0.535759,0.000000,0.000000,-0.290521,0.259525,0.872006,0.672414,-0.912959,1.029144,-0.216904,-0.295752,0.204176,-0.271430
-0.050000,-0.050000,0.000000,0.000000,0.000000,0.000000,0.000000,0.000000,0.000000,0.100000,0.100000,-0.815547,-0.859786,-0.050000,-0.050000,0.382936,-0.542136,0.000000,0.000000,-0.292584,0.257287,0.858430,0.657844,-0.911091,1.031577,-0.223688,-0.302053,0.200809,-0.273644
-0.050000,-0.050000,0.000000,0.000000,0.000000,0.000000,0.000000,0.000000,0.000000,0.100000,0.100000,-0.828966,-0.863469,-0.050000,-0.050000,0.397442,-0.548453,0.000000,0.000000,-0.294222,0.255028,0.844715,0.643799,-0.909141,1.033028,-0.230909,-0.308286,0.198347,-0.276194
-0.050000,-0.050000,0.000000,0.000000,0.000000,0.000000,0.000000,0.000000,0.000000,0.100000,0.100000,-0.842305,-0.867982,-0.050000,-0.050000,0.411880,-0.554683,0.000000,0.000000,-0.295538,0.252810,0.830909,0.630269,-0.907029,1.033654,-0.238413,-0.314404,0.196592,-0.278990
-0.050000,-0.050000,0.000000,0.000000,0.000000,0.000000,0.000000,0.000000,0.000000,0.100000,0.100000,-0.854407,-0.873423,-0.050000,-0.050000,0.425723,-0.560743,0.000000,0.000000,-0.296298,0.250518,0.817891,0.618034,-0.904436,1.032879,-0.245838,-0.319975,0.195869,-0.282086
-0.050000,-0.050000,0.000000,0.000000,0.000000,0.000000,0.000000,0.000000,0.000000,0.100000,0.100000,-0.865620,-0.879428,-0.050000,-0.050000,0.438993,-0.566600,0.000000,0.000000,-0.296822,0.248341,0.805360,0.606723,-0.901263,1.031201,-0.253039,-0.325103,0.195692,-0.285310
-0.050000,-0.050000,0.000000,0.000000,0.000000,0.000000,0.000000,0.000000,0.000000,0.100000,0.100000,-0.874918,-0.885884,-0.050000,-0.050000,0.451242,-0.572194,0.000000,0.000000,-0.297061,0.246185,0.794169,0.596847,-0.897153,1.028300,-0.259529,-0.329456,0.196169,-0.288650
-0.050000,-0.050000,0.000000,0.000000,0.000000,0.000000,0.000000,0.000000,0.000000,0.100000,0.100000,-0.881985,-0.892488,-0.050000,-0.050000,0.462268,-0.577494,0.000000,0.000000,-0.297238,0.244138,0.784554,0.588368,-0.891726,1.024245,-0.264948,-0.332960,0.197033,-0.291992
-0.050000,-0.050000,0.000000,0.000000,0.000000,0.000000,0.000000,0.000000,0.000000,0.100000,0.100000,-0.887237,-0.899094,-0.050000,-0.050000,0.472277,-0.582571,0.000000,0.000000,-0.297318,0.242211,0.776129,0.580970,-0.885134,1.019294,-0.269485,-0.335780,0.198163,-0.295305
-0.050000,-0.050000,0.000000,0.000000,0.000000,0.000000,0.000000,0.000000,0.000000,0.100000,0.100000,-0.888541,-0.905235,-0.050000,-0.050000,0.480358,-0.587317,0.000000,0.000000,-0.297791,0.240374,0.770731,0.575286,-0.876100,1.012816,-0.271737,-0.337375,0.199374,-0.298497
-0.050000,-0.050000,0.000000,0.000000,0.000000,0.000000,0.000000,0.000000,0.000000,0.100000,0.100000,-0.887557,-0.910834,-0.050000,-0.050000,0.487198,-0.591894,0.000000,0.000000,-0.298361,0.238670,0.766832,0.570480,-0.865267,1.005361,-0.272671,-0.338260,0.200527,-0.301582
-0.050000,-0.050000,0.000000,0.000000,0.000000,0.000000,0.000000,0.000000,0.000000,0.100000,0.100000,-0.882731,-0.915508,-0.050000,-0.050000,0.492244,-0.596311,0.000000,0.000000,-0.299513,0.237042,0.765787,0.566825,-0.851698,0.996483,-0.271234,-0.338150,0.201418,-0.304533
-0.050000,-0.050000,0.000000,0.000000,0.000000,0.000000,0.000000,0.000000,0.000000,0.100000,0.100000,-0.874372,-0.918998,-0.050000,-0.050000,0.495642,-0.600693,0.000000,0.000000,-0.301251,0.235457,0.767290,0.563949,-0.835266,0.986199,-0.267571,-0.337222,0.201842,-0.307385
-0.050000,-0.050000,0.000000,0.000000,0.000000,0.000000,0.000000,0.000000,0.000000,0.100000,0.100000,-0.863247,-0.921347,-0.050000,-0.050000,0.497639,-0.605054,0.000000,0.000000,-0.303397,0.233876,0.770653,0.561512,-0.816483,0.974774,-0.262229,-0.335675,0.201818,-0.310197
-0.050000,-0.050000,0.000000,0.000000,0.000000,0.000000,0.000000,0.000000,0.000000,0.100000,0.100000,-0.847383,-0.921897,-0.050000,-0.050000,0.497721,-0.609670,0.000000,0.000000,-0.306753,0.232183,0.777665,0.559696,-0.793778,0.961476,-0.253833,-0.333282,0.200743,-0.312991
-0.050000,-0.050000,0.000000,0.000000,0.000000,0.000000,0.000000,0.000000,0.000000,0.100000,0.100000,-0.829076,-0.920947,-0.050000,-0.050000,0.496450,-0.614393,0.000000,0.000000,-0.310548,0.230364,0.786320,0.557916,-0.768648,0.947028,-0.244046,-0.330429,0.198866,-0.315851
-0.050000,-0.050000,0.000000,0.000000,0.000000,0.000000,0.000000,0.000000,0.000000,0.100000,0.100000,-0.810544,-0.920426,-0.050000,-0.050000,0.493056,-0.619461,0.000000,0.000000,-0.313575,0.226880,0.797434,0.554671,-0.736001,0.927961,-0.231272,-0.326570,0.196041,-0.320423
-0.050000,-0.050000,0.000000,0.000000,0.000000,0.000000,0.000000,0.000000,0.000000,0.100000,0.100000,-0.787103,-0.916356,-0.050000,-0.050000,0.488536,-0.624967,0.000000,0.000000,-0.318621,0.224138,0.811256,0.552204,-0.703683,0.909700,-0.217538,-0.322204,0.191704,-0.324447
-0.050000,-0.050000,0.000000,0.000000,0.000000,0.000000,0.000000,0.000000,0.000000,0.100000,0.100000,-0.760765,-0.910017,-0.050000,-0.050000,0.482955,-0.630692,0.000000,0.000000,-0.324795,0.221385,0.826759,0.549978,-0.670374,0.891405,-0.203405,-0.317703,0.185841,-0.327975
-0.050000,-0.050000,0.000000,0.000000,0.000000,0.000000,0.000000,0.000000,0.000000,0.100000,0.100000,-0.731752,-0.901488,-0.050000,-0.050000,0.476363,-0.636896,0.000000,0.000000,-0.331973,0.218298,0.844875,0.548076,-0.635218,0.872678,-0.188448,-0.312750,0.178042,-0.331228
-0.050000,-0.050000,0.000000,0.000000,0.000000,0.000000,0.000000,0.000000,0.000000,0.100000,0.100000,-0.701832,-0.891713,-0.050000,-0.050000,0.469004,-0.643249,0.000000,0.000000,-0.339638,0.214989,0.864096,0.546190,-0.599344,0.853919,-0.173791,-0.307525,0.169001,-0.334242
-0.050000,-0.050000,0.000000,0.000000,0.000000,0.000000,0.000000,0.000000,0.000000,0.100000,0.100000,-0.671008,-0.880590,-0.050000,-0.050000,0.461117,-0.649845,0.000000,0.000000,-0.347757,0.211490,0.884944,0.544669,-0.563069,0.835416,-0.159419,-0.301813,0.158530,-0.336881
-0.050000,-0.050000,0.000000,0.000000,0.000000,0.000000,0.000000,0.000000,0.000000,0.100000,0.100000,-0.640236,-0.868534,-0.050000,-0.050000,0.452977,-0.656455,0.000000,0.000000,-0.355989,0.207981,0.906694,0.543547,-0.527364,0.817573,-0.145978,-0.295639,0.147070,-0.338936
-0.050000,-0.050000,0.000000,0.000000,0.000000,0.000000,0.000000,0.000000,0.000000,0.100000,0.100000,-0.609629,-0.855883,-0.050000,-0.050000,0.444613,-0.663030,0.000000,0.000000,-0.364326,0.204472,0.929114,0.542810,-0.492190,0.800355,-0.133521,-0.289139,0.134808,-0.340424
-0.050000,-0.050000,0.000000,0.000000,0.000000,0.000000,0.000000,0.000000,0.000000,0.100000,0.100000,-0.580412,-0.842612,-0.050000,-0.050000,0.436724,-0.669277,0.000000,0.000000,-0.372108,0.201416,0.951666,0.542838,-0.459477,0.784481,-0.122670,-0.281952,0.122323,-0.340792
-0.050000,-0.050000,0.000000,0.000000,0.000000,0.000000,0.000000,0.000000,0.000000,0.100000,0.100000,-0.552167,-0.829273,-0.050000,-0.050000,0.429042,-0.675231,0.000000,0.000000,-0.379665,0.198651,0.974117,0.543347,-0.428213,0.769414,-0.113101,-0.274502,0.109687,-0.340312
-0.050000,-0.050000,0.000000,0.000000,0.000000,0.000000,0.000000,0.000000,0.000000,0.100000,0.100000,-0.525950,-0.815861,-0.050000,-0.050000,0.422147,-0.680603,0.000000,0.000000,-0.386435,0.196603,0.995747,0.544504,-0.399845,0.755482,-0.105203,-0.266557,0.097551,-0.338594
-0.050000,-0.050000,0.000000,0.000000,0.000000,0.000000,0.000000,0.000000,0.000000,0.100000,0.100000,-0.498743,-0.801877,-0.050000,-0.050000,0.416820,-0.685075,0.000000,0.000000,-0.393500,0.196783,1.014553,0.547092,-0.376875,0.744038,-0.098321,-0.258989,0.087165,-0.335480
-0.050000,-0.050000,0.000000,0.000000,0.000000,0.000000,0.000000,0.000000,0.000000,0.100000,0.100000,-0.474637,-0.788413,-0.050000,-0.050000,0.411741,-0.689007,0.000000,0.000000,-0.399334,0.196735,1.032782,0.549507,-0.353855,0.731990,-0.092753,-0.251032,0.076708,-0.331458
-0.050000,-0.050000,0.000000,0.000000,0.000000,0.000000,0.000000,0.000000,0.000000,0.100000,0.100000,-0.454925,-0.775552,-0.050000,-0.050000,0.407872,-0.692017,0.000000,0.000000,-0.403966,0.197492,1.048695,0.551623,-0.333351,0.719762,-0.089147,-0.242731,0.067523,-0.326142
-0.050000,-0.050000,0.000000,0.000000,0.000000,0.000000,0.000000,0.000000,0.000000,0.100000,0.100000,-0.437282,-0.763367,-0.050000,-0.050000,0.404818,-0.694458,0.000000,0.000000,-0.408230,0.198685,1.063229,0.553644,-0.314448,0.707461,-0.086461,-0.234450,0.059065,-0.320103
-0.050000,-0.050000,0.000000,0.000000,0.000000,0.000000,0.000000,0.000000,0.000000,0.100000,0.100000,-0.422799,-0.751803,-0.050000,-0.050000,0.403061,-0.695977,0.000000,0.000000,-0.412032,0.200793,1.074901,0.555335,-0.297698,0.694915,-0.085145,-0.226434,0.051915,-0.313034
-0.050000,-0.050000,0.000000,0.000000,0.000000,0.000000,0.000000,0.000000,0.000000,0.100000,0.100000,-0.410757,-0.740951,-0.050000,-0.050000,0.402423,-0.696690,0.000000,0.000000,-0.415756,0.203453,1.083896,0.556561,-0.282289,0.681988,-0.084751,-0.218986,0.045769,-0.305284
-0.050000,-0.050000,0.000000,0.000000,0.000000,0.000000,0.000000,0.000000,0.000000,0.100000,0.100000,-0.400530,-0.730658,-0.050000,-0.050000,0.402689,-0.696754,0.000000,0.000000,-0.419442,0.206481,1.090731,0.557398,-0.267799,0.668693,-0.084948,-0.212069,0.040395,-0.297071
-0.050000,-0.050000,0.000000,0.000000,0.000000,0.000000,0.000000,0.000000,0.000000,0.100000,0.100000,-0.393233,-0.721124,-0.050000,-0.050000,0.404087,-0.695888,0.000000,0.000000,-0.423529,0.209761,1.093971,0.557175,-0.253764,0.654867,-0.086162,-0.206371,0.035979,-0.288559
-0.050000,-0.050000,0.000000,0.000000,0.000000,0.000000,0.000000,0.000000,0.000000,0.100000,0.100000,-0.387207,-0.712045,-0.050000,-0.050000,0.406118,-0.694535,0.000000,0.000000,-0.427886,0.212860,1.095368,0.556372,-0.239797,0.640762,-0.087590,-0.201467,0.032002,-0.280130
-0.050000,-0.050000,0.000000,0.000000,0.000000,0.000000,0.000000,0.000000,0.000000,0.100000,0.100000,-0.383135,-0.703515,-0.050000,-0.050000,0.408772,-0.692548,0.000000,0.000000,-0.432872,0.215564,1.094137,0.554534,-0.225410,0.626507,-0.089565,-0.197855,0.028487,-0.272065
-0.050000,-0.050000,0.000000,0.000000,0.000000,0.000000,0.000000,0.000000,0.000000,0.100000,0.100000,-0.380299,-0.695360,-0.050000,-0.050000,0.411739,-0.690148,0.000000,0.000000,-0.438431,0.217488,1.091096,0.551861,-0.210385,0.612467,-0.091743,-0.195415,0.025213,-0.264770
-0.050000,-0.050000,0.000000,0.000000,0.000000,0.000000,0.000000,0.000000,0.000000,0.100000,0.100000,-0.378401,-0.687412,-0.050000,-0.050000,0.414911,-0.687473,0.000000,0.000000,-0.444473,0.218726,1.086731,0.548509,-0.194791,0.598664,-0.094041,-0.193877,0.022101,-0.258167
-0.050000,-0.050000,0.000000,0.000000,0.000000,0.000000,0.000000,0.000000,0.000000,0.100000,0.100000,-0.377443,-0.679773,-0.050000,-0.050000,0.417902,-0.684484,0.000000,0.000000,-0.451162,0.218487,1.080924,0.544373,-0.178211,0.586060,-0.096499,-0.193753,0.019141,-0.253271
-0.050000,-0.050000,0.000000,0.000000,0.000000,0.000000,0.000000,0.000000,0.000000,0.100000,0.100000,-0.376919,-0.672123,-0.050000,-0.050000,0.420773,-0.681443,0.000000,0.000000,-0.458144,0.217364,1.074542,0.539880,-0.161199,0.574261,-0.098904,-0.194298,0.016333,-0.249464
-0.050000,-0.050000,0.000000,0.000000,0.000000,0.000000,0.000000,0.000000,0.000000,0.100000,0.100000,-0.376677,-0.664541,-0.050000,-0.050000,0.423169,-0.678304,0.000000,0.000000,-0.465350,0.214861,1.067641,0.535179,-0.143770,0.564129,-0.101289,-0.195746,0.013765,-0.247494
-0.050000,-0.050000,0.000000,0.000000,0.000000,0.000000,0.000000,0.000000,0.000000,0.100000,0.100000,-0.376462,-0.656879,-0.050000,-0.050000,0.425046,-0.675186,0.000000,0.000000,-0.472453,0.211326,1.060637,0.530685,-0.126504,0.555734,-0.103581,-0.197710,0.011602,-0.247177
-0.050000,-0.050000,0.000000,0.000000,0.000000,0.000000,0.000000,0.000000,0.000000,0.100000,0.100000,-0.376239,-0.649173,-0.050000,-0.050000,0.426484,-0.672119,0.000000,0.000000,-0.479468,0.207075,1.053625,0.526443,-0.109485,0.548783,-0.105809,-0.200030,0.009795,-0.248134
-0.050000,-0.050000,0.000000,0.000000,0.000000,0.000000,0.000000,0.000000,0.000000,0.100000,0.100000,-0.375610,-0.641308,-0.050000,-0.050000,0.427029,-0.669055,0.000000,0.000000,-0.485572,0.202002,1.046903,0.523417,-0.093995,0.544465,-0.107912,-0.202495,0.008893,-0.251044
-0.050000,-0.050000,0.000000,0.000000,0.000000,0.000000,0.000000,0.000000,0.000000,0.100000,0.100000,-0.374827,-0.633446,-0.050000,-0.050000,0.427115,-0.666086,0.000000,0.000000,-0.491216,0.196886,1.040367,0.521278,-0.079681,0.541635,-0.109982,-0.204967,0.008604,-0.254779
-0.050000,-0.050000,0.000000,0.000000,0.000000,0.000000,0.000000,0.000000,0.000000,0.100000,0.100000,-0.373638,-0.625475,-0.050000,-0.050000,0.426427,-0.663102,0.000000,0.000000,-0.495588,0.191840,1.034180,0.520930,-0.067818,0.540973,-0.111999,-0.207158,0.009364,-0.259563
-0.050000,-0.050000,0.000000,0.000000,0.000000,0.000000,0.000000,0.000000,0.000000,0.100000,0.100000,-0.372202,-0.617502,-0.050000,-0.050000,0.425132,-0.660100,0.000000,0.000000,-0.498709,0.187489,1.028257,0.522539,-0.058746,0.541955,-0.114054,-0.208906,0.011127,-0.264631
-0.050000,-0.050000,0.000000,0.000000,0.000000,0.000000,0.000000,0.000000,0.000000,0.100000,0.100000,-0.370541,-0.609698,-0.050000,-0.050000,0.423371,-0.657091,0.000000,0.000000,-0.500805,0.183881,1.022539,0.525885,-0.052044,0.544228,-0.116158,-0.210319,0.013676,-0.269735
-0.050000,-0.050000,0.000000,0.000000,0.000000,0.000000,0.000000,0.000000,0.000000,0.100000,0.100000,-0.368812,-0.601726,-0.050000,-0.050000,0.420865,-0.653831,0.000000,0.000000,-0.500666,0.181915,1.017069,0.532340,-0.050102,0.547855,-0.118431,-0.210671,0.017530,-0.274077
-0.050000,-0.050000,0.000000,0.000000,0.000000,0.000000,0.000000,0.000000,0.000000,0.100000,0.100000,-0.367029,-0.594127,-0.050000,-0.050000,0.418020,-0.650491,0.000000,0.000000,-0.499433,0.181265,1.011728,0.540787,-0.051040,0.552199,-0.120855,-0.210572,0.021992,-0.277536
-0.050000,-0.050000,0.000000,0.000000,0.000000,0.000000,0.000000,0.000000,0.000000,0.100000,0.100000,-0.365457,-0.586487,-0.050000,-0.050000,0.414612,-0.646809,0.000000,0.000000,-0.496103,0.182539,1.006540,0.552104,-0.056597,0.557049,-0.123521,-0.209435,0.027344,-0.279372
-0.050000,-0.050000,0.000000,0.000000,0.000000,0.000000,0.000000,0.000000,0.000000,0.100000,0.100000,-0.364177,-0.578996,-0.050000,-0.050000,0.410794,-0.642791,0.000000,0.000000,-0.491035,0.185612,1.001506,0.565797,-0.066291,0.562036,-0.126396,-0.207494,0.033212,-0.279317
-0.050000,-0.050000,0.000000,0.000000,0.000000,0.000000,0.000000,0.000000,0.000000,0.100000,0.100000,-0.363146,-0.571727,-0.050000,-0.050000,0.406670,-0.638483,0.000000,0.000000,-0.484557,0.190157,0.996603,0.581405,-0.079302,0.567041,-0.129476,-0.204946,0.039388,-0.277626
-0.050000,-0.050000,0.000000,0.000000,0.000000,0.000000,0.000000,0.000000,0.000000,0.100000,0.100000,-0.362855,-0.564132,-0.050000,-0.050000,0.402032,-0.633525,0.000000,0.000000,-0.475627,0.196583,0.991962,0.599205,-0.097608,0.571651,-0.132675,-0.201380,0.045886,-0.273213
-0.050000,-0.050000,0.000000,0.000000,0.000000,0.000000,0.000000,0.000000,0.000000,0.100000,0.100000,-0.362897,-0.556705,-0.050000,-0.050000,0.397210,-0.628250,0.000000,0.000000,-0.465469,0.204007,0.987525,0.618093,-0.118845,0.576075,-0.135950,-0.197466,0.052307,-0.267186
-0.050000,-0.050000,0.000000,0.000000,0.000000,0.000000,0.000000,0.000000,0.000000,0.100000,0.100000,-0.363646,-0.548884,-0.050000,-0.050000,0.392056,-0.622382,0.000000,0.000000,-0.453289,0.212410,0.983386,0.637865,-0.144217,0.580152,-0.139153,-0.193024,0.058657,-0.259031
-0.050000,-0.050000,0.000000,0.000000,0.000000,0.000000,0.000000,0.000000,0.000000,0.100000,0.100000,-0.364917,-0.540776,-0.050000,-0.050000,0.386767,-0.616100,0.000000,0.000000,-0.439584,0.221131,0.979518,0.657601,-0.172700,0.584157,-0.142157,-0.188456,0.064720,-0.249413
-0.050000,-0.050000,0.000000,0.000000,0.000000,0.000000,0.000000,0.000000,0.000000,0.100000,0.100000,-0.366629,-0.532328,-0.050000,-0.050000,0.381413,-0.609486,0.000000,0.000000,-0.424703,0.229965,0.975835,0.677044,-0.203533,0.588095,-0.145023,-0.183792,0.070479,-0.238767
-0.050000,-0.050000,0.000000,0.000000,0.000000,0.000000,0.000000,0.000000,0.000000,0.100000,0.100000,-0.368882,-0.523246,-0.050000,-0.050000,0.376104,-0.602508,0.000000,0.000000,-0.408152,0.238038,0.972331,0.694746,-0.237208,0.592623,-0.147358,-0.179510,0.075781,-0.227302
-0.050000,-0.050000,0.000000,0.000000,0.000000,0.000000,0.000000,0.000000,0.000000,0.100000,0.100000,-0.371422,-0.513719,-0.050000,-0.050000,0.370992,-0.595435,0.000000,0.000000,-0.390908,0.245511,0.968782,0.710942,-0.272153,0.597549,-0.149457,-0.175436,0.080640,-0.215682
-0.050000,-0.050000,0.000000,0.000000,0.000000,0.000000,0.000000,0.000000,0.000000,0.100000,0.100000,-0.374236,-0.503686,-0.050000,-0.050000,0.366221,-0.588307,0.000000,0.000000,-0.372753,0.251601,0.965032,0.724363,-0.308359,0.603576,-0.151102,-0.172058,0.084963,-0.204268
-0.050000,-0.050000,0.000000,0.000000,0.000000,0.000000,0.000000,0.000000,0.000000,0.100000,0.100000,-0.377212,-0.493307,-0.050000,-0.050000,0.361975,-0.581324,0.000000,0.000000,-0.354267,0.256283,0.960764,0.734736,-0.344861,0.610811,-0.152467,-0.169396,0.088694,-0.193512
-0.050000,-0.050000,0.000000,0.000000,0.000000,0.000000,0.000000,0.000000,0.000000,0.100000,0.100000,-0.380290,-0.482567,-0.050000,-0.050000,0.358184,-0.574481,0.000000,0.000000,-0.335606,0.259759,0.955970,0.742466,-0.381404,0.619067,-0.153653,-0.167238,0.091942,-0.183448
-0.050000,-0.050000,0.000000,0.000000,0.000000,0.000000,0.000000,0.000000,0.000000,0.100000,0.100000,-0.383456,-0.472119,-0.050000,-0.050000,0.355350,-0.568096,0.000000,0.000000,-0.317282,0.261172,0.949846,0.745632,-0.416948,0.629393,-0.154779,-0.166459,0.094326,-0.174763
-0.050000,-0.050000,0.000000,0.000000,0.000000,0.000000,0.000000,0.000000,0.000000,0.100000,0.100000,-0.386721,-0.461615,-0.050000,-0.050000,0.353128,-0.561989,0.000000,0.000000,-0.299294,0.261483,0.942720,0.746002,-0.451691,0.640810,-0.155973,-0.166171,0.096173,-0.167059
-0.050000,-0.050000,0.000000,0.000000,0.000000,0.000000,0.000000,0.000000,0.000000,0.100000,0.100000,-0.390149,-0.451888,-0.050000,-0.050000,0.351901,-0.556414,0.000000,0.000000,-0.282166,0.260159,0.933866,0.742308,-0.484791,0.654009,-0.157486,-0.167094,0.097149,-0.160724
-0.050000,-0.050000,0.000000,0.000000,0.000000,0.000000,0.000000,0.000000,0.000000,0.100000,0.100000,-0.393883,-0.443037,-0.050000,-0.050000,0.351578,-0.551322,0.000000,0.000000,-0.265958,0.257668,0.923233,0.735326,-0.516276,0.668529,-0.159483,-0.168876,0.097366,-0.155589
-0.050000,-0.050000,0.000000,0.000000,0.000000,0.000000,0.000000,0.000000,0.000000,0.100000,0.100000,-0.397873,-0.434967,-0.050000,-0.050000,0.351958,-0.546582,0.000000,0.000000,-0.250515,0.254266,0.911115,0.725779,-0.546405,0.684044,-0.161917,-0.171315,0.096980,-0.151402
-0.050000,-0.050000,0.000000,0.000000,0.000000,0.000000,0.000000,0.000000,0.000000,0.100000,0.100000,-0.402630,-0.429076,-0.050000,-0.050000,0.353566,-0.542593,0.000000,0.000000,-0.236543,0.249786,0.896373,0.712761,-0.574372,0.700811,-0.165399,-0.174961,0.095647,-0.148498
-0.050000,-0.050000,0.000000,0.000000,0.000000,0.000000,0.000000,0.000000,0.000000,0.100000,0.100000,-0.407878,-0.424354,-0.050000,-0.050000,0.355796,-0.538901,0.000000,0.000000,-0.223242,0.244757,0.880150,0.698055,-0.601178,0.718069,-0.169471,-0.179064,0.093907,-0.146364
-0.050000,-0.050000,0.000000,0.000000,0.000000,0.000000,0.000000,0.000000,0.000000,0.100000,0.100000,-0.414065,-0.421987,-0.050000,-0.050000,0.359046,-0.535860,0.000000,0.000000,-0.211105,0.239117,0.861656,0.681162,-0.626353,0.735822,-0.174631,-0.184043,0.091583,-0.145201
-0.050000,-0.050000,0.000000,0.000000,0.000000,0.000000,0.000000,0.000000,0.000000,0.100000,0.100000,-0.421133,-0.421712,-0.050000,-0.050000,0.363097,-0.533316,0.000000,0.000000,-0.199722,0.233093,0.841422,0.663004,-0.650330,0.753621,-0.180709,-0.189593,0.089057,-0.144881
-0.050000,-0.050000,0.000000,0.000000,0.000000,0.000000,0.000000,0.000000,0.000000,0.100000,0.100000,-0.428948,-0.423222,-0.050000,-0.050000,0.367722,-0.531109,0.000000,0.000000,-0.188907,0.226807,0.819827,0.643997,-0.673346,0.771319,-0.187538,-0.195623,0.086402,-0.145186
-0.050000,-0.050000,0.000000,0.000000,0.000000,0.000000,0.000000,0.000000,0.000000,0.100000,0.100000,-0.437884,-0.427574,-0.050000,-0.050000,0.373399,-0.529710,0.000000,0.000000,-0.178847,0.220265,0.796488,0.624188,-0.695040,0.788462,-0.195524,-0.202343,0.083990,-0.146561
-0.050000,-0.050000,0.000000,0.000000,0.000000,0.000000,0.000000,0.000000,0.000000,0.100000,0.100000,-0.447430,-0.433547,-0.050000,-0.050000,0.379473,-0.528540,0.000000,0.000000,-0.169082,0.213612,0.772345,0.604266,-0.715886,0.805084,-0.204084,-0.209428,0.081869,-0.148548
-0.050000,-0.050000,0.000000,0.000000,0.000000,0.000000,0.000000,0.000000,0.000000,0.100000,0.100000,-0.457686,-0.441727,-0.050000,-0.050000,0.386330,-0.528020,0.000000,0.000000,-0.159763,0.206848,0.747306,0.584257,-0.735481,0.820775,-0.213442,-0.217062,0.080380,-0.151479
-0.050000,-0.050000,0.000000,0.000000,0.000000,0.000000,0.000000,0.000000,0.000000,0.100000,0.100000,-0.468272,-0.451479,-0.050000,-0.050000,0.393670,-0.527902,0.000000,0.000000,-0.150752,0.200036,0.721954,0.564528,-0.753795,0.835458,-0.223272,-0.225116,0.079653,-0.155203
-0.050000,-0.050000,0.000000,0.000000,0.000000,0.000000,0.000000,0.000000,0.000000,0.100000,0.100000,-0.479068,-0.462427,-0.050000,-0.050000,0.401301,-0.528043,0.000000,0.000000,-0.141986,0.193225,0.696422,0.545084,-0.770949,0.849224,-0.233461,-0.233547,0.079565,-0.159529
-0.050000,-0.050000,0.000000,0.000000,0.000000,0.000000,0.000000,0.000000,0.000000,0.100000,0.100000,-0.489501,-0.474449,-0.050000,-0.050000,0.409502,-0.528788,0.000000,0.000000,-0.133674,0.186391,0.671414,0.526310,-0.786046,0.861476,-0.243806,-0.242391,0.080658,-0.164739
-0.050000,-0.050000,0.000000,0.000000,0.000000,0.000000,0.000000,0.000000,0.000000,0.100000,0.100000,-0.499625,-0.486901,-0.050000,-0.050000,0.417692,-0.529606,0.000000,0.000000,-0.125653,0.179624,0.646805,0.508076,-0.799670,0.872694,-0.254179,-0.251492,0.082436,-0.170353
-0.050000,-0.050000,0.000000,0.000000,0.000000,0.000000,0.000000,0.000000,0.000000,0.100000,0.100000,-0.508773,-0.499430,-0.050000,-0.050000,0.426080,-0.530792,0.000000,0.000000,-0.118145,0.172901,0.623351,0.490742,-0.811056,0.882425,-0.264287,-0.260789,0.085204,-0.176467
-0.050000,-0.050000,0.000000,0.000000,0.000000,0.000000,0.000000,0.000000,0.000000,0.100000,0.100000,-0.516764,-0.511491,-0.050000,-0.050000,0.434304,-0.532073,0.000000,0.000000,-0.111177,0.166292,0.601233,0.474449,-0.820288,0.890806,-0.273943,-0.270090,0.088700,-0.182790
-0.050000,-0.050000,0.000000,0.000000,0.000000,0.000000,0.000000,0.000000,0.000000,0.100000,0.100000,-0.523692,-0.522978,-0.050000,-0.050000,0.442307,-0.533403,0.000000,0.000000,-0.104671,0.159780,0.580280,0.459038,-0.827673,0.898051,-0.283188,-0.279374,0.092749,-0.189190
-0.050000,-0.050000,0.000000,0.000000,0.000000,0.000000,0.000000,0.000000,0.000000,0.100000,0.100000,-0.528430,-0.532858,-0.050000,-0.050000,0.449892,-0.534811,0.000000,0.000000,-0.099064,0.153489,0.561979,0.445664,-0.832253,0.903643,-0.291262,-0.288093,0.097390,-0.195521
-0.050000,-0.050000,0.000000,0.000000,0.000000,0.000000,0.000000,0.000000,0.000000,0.100000,0.100000,-0.531835,-0.541518,-0.050000,-0.050000,0.456927,-0.536097,0.000000,0.000000,-0.094020,0.147372,0.545263,0.433646,-0.835061,0.908225,-0.298655,-0.296431,0.102269,-0.201618
-0.050000,-0.050000,0.000000,0.000000,0.000000,0.000000,0.000000,0.000000,0.000000,0.100000,0.100000,-0.532989,-0.548067,-0.050000,-0.050000,0.463243,-0.537282,0.000000,0.000000,-0.089924,0.141578,0.531493,0.424214,-0.835487,0.911452,-0.304632,-0.303751,0.107340,-0.207388
-0.050000,-0.050000,0.000000,0.000000,0.000000,0.000000,0.000000,0.000000,0.000000,0.100000,0.100000,-0.532208,-0.552495,-0.050000,-0.050000,0.468683,-0.538236,0.000000,0.000000,-0.086712,0.136173,0.520525,0.417548,-0.834005,0.913600,-0.309242,-0.309881,0.112359,-0.212713
-0.050000,-0.050000,0.000000,0.000000,0.000000,0.000000,0.000000,0.000000,0.000000,0.100000,0.100000,-0.529813,-0.555108,-0.050000,-0.050000,0.473351,-0.539011,0.000000,0.000000,-0.084263,0.131095,0.511973,0.413333,-0.831031,0.914936,-0.312705,-0.314969,0.117243,-0.217566
-0.050000,-0.050000,0.000000,0.000000,0.000000,0.000000,0.000000,0.000000,0.000000,0.100000,0.100000,-0.524957,-0.554622,-0.050000,-0.050000,0.476769,-0.539368,0.000000,0.000000,-0.083076,0.126801,0.507739,0.413981,-0.826182,0.915051,-0.313873,-0.317659,0.121771,-0.221891
-0.050000,-0.050000,0.000000,0.000000,0.000000,0.000000,0.000000,0.000000,0.000000,0.100000,0.100000,-0.518770,-0.552348,-0.050000,-0.050000,0.479314,-0.539473,0.000000,0.000000,-0.082675,0.122996,0.506126,0.417740,-0.820358,0.914536,-0.313799,-0.318923,0.125872,-0.225575
-0.050000,-0.050000,0.000000,0.000000,0.000000,0.000000,0.000000,0.000000,0.000000,0.100000,0.100000,-0.510644,-0.547252,-0.050000,-0.050000,0.480638,-0.539103,0.000000,0.000000,-0.083421,0.120126,0.508620,0.426695,-0.813394,0.912965,-0.311500,-0.317517,0.129396,-0.228648
-0.050000,-0.050000,0.000000,0.000000,0.000000,0.000000,0.000000,0.000000,0.000000,0.100000,0.100000,-0.501102,-0.539904,-0.050000,-0.050000,0.480892,-0.538296,0.000000,0.000000,-0.085092,0.118158,0.514543,0.440331,-0.805778,0.910394,-0.307366,-0.313662,0.132233,-0.230960
-0.050000,-0.050000,0.000000,0.000000,0.000000,0.000000,0.000000,0.000000,0.000000,0.100000,0.100000,-0.490461,-0.530801,-0.050000,-0.050000,0.480244,-0.537079,0.000000,0.000000,-0.087524,0.116980,0.523304,0.457938,-0.797751,0.906960,-0.301754,-0.307748,0.134382,-0.232499
-0.050000,-0.050000,0.000000,0.000000,0.000000,0.000000,0.000000,0.000000,0.000000,0.100000,0.100000,-0.482826,-0.523198,-0.050000,-0.050000,0.478134,-0.535403,0.000000,0.000000,-0.090532,0.116329,0.537382,0.484042,-0.788370,0.900978,-0.293251,-0.297937,0.135827,-0.232342
-0.050000,-0.050000,0.000000,0.000000,0.000000,0.000000,0.000000,0.000000,0.000000,0.100000,0.100000,-0.471861,-0.512112,-0.050000,-0.050000,0.475443,-0.533268,0.000000,0.000000,-0.094105,0.117036,0.552966,0.512477,-0.779916,0.894283,-0.284085,-0.286473,0.136116,-0.231259
-0.050000,-0.050000,0.000000,0.000000,0.000000,0.000000,0.000000,0.000000,0.000000,0.100000,0.100000,-0.458256,-0.497483,-0.050000,-0.050000,0.471793,-0.530230,0.000000,0.000000,-0.098041,0.119165,0.570286,0.544578,-0.771966,0.885148,-0.273437,-0.272081,0.135290,-0.229154
-0.050000,-0.050000,0.000000,0.000000,0.000000,0.000000,0.000000,0.000000,0.000000,0.100000,0.100000,-0.443258,-0.480870,-0.050000,-0.050000,0.467439,-0.526431,0.000000,0.000000,-0.101859,0.122105,0.588083,0.578668,-0.764465,0.873521,-0.262013,-0.255798,0.133651,-0.226032
-0.050000,-0.050000,0.000000,0.000000,0.000000,0.000000,0.000000,0.000000,0.000000,0.100000,0.100000,-0.427285,-0.462820,-0.050000,-0.050000,0.462494,-0.521855,0.000000,0.000000,-0.105476,0.125687,0.606025,0.614081,-0.757290,0.859560,-0.250008,-0.238102,0.131403,-0.222015
-0.050000,-0.050000,0.000000,0.000000,0.000000,0.000000,0.000000,0.000000,0.000000,0.100000,0.100000,-0.410135,-0.442870,-0.050000,-0.050000,0.456899,-0.516557,0.000000,0.000000,-0.108176,0.129734,0.622611,0.649602,-0.751111,0.842129,-0.237953,-0.219152,0.128522,-0.216794
-0.050000,-0.050000,0.000000,0.000000,0.000000,0.000000,0.000000,0.000000,0.000000,0.100000,0.100000,-0.392180,-0.421908,-0.050000,-0.050000,0.450926,-0.510573,0.000000,0.000000,-0.110282,0.133928,0.637813,0.684169,-0.745463,0.822577,-0.226076,-0.200042,0.125356,-0.210876
-0.050000,-0.050000,0.000000,0.000000,0.000000,0.000000,0.000000,0.000000,0.000000,0.100000,0.100000,-0.373318,-0.399580,-0.050000,-0.050000,0.444530,-0.504103,0.000000,0.000000,-0.111162,0.137963,0.650087,0.716139,-0.741046,0.800436,-0.215085,-0.181357,0.121999,-0.204127
-0.050000,-0.050000,0.000000,0.000000,0.000000,0.000000,0.000000,0.000000,0.000000,0.100000,0.100000,-0.353745,-0.376328,-0.050000,-0.050000,0.437852,-0.497296,0.000000,0.000000,-0.110981,0.141531,0.659191,0.744462,-0.737756,0.776831,-0.205196,-0.163911,0.118748,-0.196979
-0.050000,-0.050000,0.000000,0.000000,0.000000,0.000000,0.000000,0.000000,0.000000,0.100000,0.100000,-0.331794,-0.349963,-0.050000,-0.050000,0.431057,-0.490357,0.000000,0.000000,-0.110588,0.145741,0.665442,0.768091,-0.735776,0.754610,-0.196978,-0.148355,0.115949,-0.190484
-0.050000,-0.050000,0.000000,0.000000,0.000000,0.000000,0.000000,0.000000,0.000000,0.100000,0.100000,-0.310571,-0.324587,-0.050000,-0.050000,0.423877,-0.483589,0.000000,0.000000,-0.108561,0.148195,0.667391,0.786406,-0.735348,0.731156,-0.190429,-0.135161,0.113358,-0.183365
-0.050000,-0.050000,0.000000,0.000000,0.000000,0.000000,0.000000,0.000000,0.000000,0.100000,0.100000,-0.289794,-0.299712,-0.050000,-0.050000,0.416544,-0.476822,0.000000,0.000000,-0.105784,0.149672,0.666747,0.801171,-0.735796,0.707573,-0.184677,-0.123531,0.111195,-0.176247
-0.050000,-0.050000,0.000000,0.000000,0.000000,0.000000,0.000000,0.000000,0.000000,0.100000,0.100000,-0.269503,-0.275563,-0.050000,-0.050000,0.409184,-0.470599,0.000000,0.000000,-0.102099,0.149788,0.662491,0.809969,-0.737867,0.685964,-0.180659,-0.114906,0.109764,-0.169605
-0.050000,-0.050000,0.000000,0.000000,0.000000,0.000000,0.000000,0.000000,0.000000,0.100000,0.100000,-0.249721,-0.252100,-0.050000,-0.050000,0.401903,-0.464881,0.000000,0.000000,-0.098067,0.148913,0.655690,0.813858,-0.741170,0.666926,-0.177761,-0.108636,0.109135,-0.163697
-0.050000,-0.050000,0.000000,0.000000,0.000000,0.000000,0.000000,0.000000,0.000000,0.100000,0.100000,-0.230497,-0.229288,-0.050000,-0.050000,0.394695,-0.459634,0.000000,0.000000,-0.093873,0.147260,0.646979,0.813750,-0.745485,0.650345,-0.175723,-0.104231,0.109211,-0.158496
-0.050000,-0.050000,0.000000,0.000000,0.000000,0.000000,0.000000,0.000000,0.000000,0.100000,0.100000,-0.212508,-0.208438,-0.050000,-0.050000,0.387973,-0.455297,0.000000,0.000000,-0.089746,0.144461,0.636521,0.808536,-0.751087,0.638355,-0.174617,-0.102490,0.110339,-0.154379
-0.050000,-0.050000,0.000000,0.000000,0.000000,0.000000,0.000000,0.000000,0.000000,0.100000,0.100000,-0.195520,-0.188722,-0.050000,-0.050000,0.381580,-0.451455,0.000000,0.000000,-0.085865,0.141246,0.625435,0.800796,-0.757351,0.629192,-0.173793,-0.101900,0.112160,-0.151001
-0.050000,-0.050000,0.000000,0.000000,0.000000,0.000000,0.000000,0.000000,0.000000,0.100000,0.100000,-0.180084,-0.171408,-0.050000,-0.050000,0.376015,-0.448410,0.000000,0.000000,-0.082443,0.137368,0.614083,0.789987,-0.764371,0.624333,-0.173191,-0.103010,0.114932,-0.148584
-0.050000,-0.050000,0.000000,0.000000,0.000000,0.000000,0.000000,0.000000,0.000000,0.100000,0.100000,-0.166241,-0.156277,-0.050000,-0.050000,0.371387,-0.445963,0.000000,0.000000,-0.079545,0.133250,0.603115,0.777573,-0.771793,0.622857,-0.172476,-0.105060,0.118488,-0.146948
-0.050000,-0.050000,0.000000,0.000000,0.000000,0.000000,0.000000,0.000000,0.000000,0.100000,0.100000,-0.153854,-0.143149,-0.050000,-0.050000,0.367618,-0.443979,0.000000,0.000000,-0.077071,0.128990,0.592698,0.764145,-0.779496,0.624117,-0.171620,-0.107817,0.122663,-0.145912
-0.050000,-0.050000,0.000000,0.000000,0.000000,0.000000,0.000000,0.000000,0.000000,0.100000,0.100000,-0.143516,-0.133124,-0.050000,-0.050000,0.365682,-0.442633,0.000000,0.000000,-0.075305,0.124672,0.583375,0.749979,-0.787171,0.628816,-0.170326,-0.111320,0.127710,-0.145742
-0.050000,-0.050000,0.000000,0.000000,0.000000,0.000000,0.000000,0.000000,0.000000,0.100000,0.100000,-0.134722,-0.125050,-0.050000,-0.050000,0.364875,-0.441556,0.000000,0.000000,-0.073828,0.120458,0.574892,0.735839,-0.794823,0.635356,-0.168798,-0.115139,0.133199,-0.146038
-0.050000,-0.050000,0.000000,0.000000,0.000000,0.000000,0.000000,0.000000,0.000000,0.100000,0.100000,-0.127840,-0.119663,-0.050000,-0.050000,0.366130,-0.440885,0.000000,0.000000,-0.072826,0.116351,0.567433,0.721817,-0.802087,0.644058,-0.166898,-0.119354,0.139289,-0.147056
-0.050000,-0.050000,0.000000,0.000000,0.000000,0.000000,0.000000,0.000000,0.000000,0.100000,0.100000,-0.122695,-0.116359,-0.050000,-0.050000,0.369229,-0.440414,0.000000,0.000000,-0.072031,0.112384,0.560690,0.708208,-0.808906,0.654080,-0.164819,-0.123817,0.145727,-0.148664
-0.050000,-0.050000,0.000000,0.000000,0.000000,0.000000,0.000000,0.000000,0.000000,0.100000,0.100000,-0.118997,-0.114770,-0.050000,-0.050000,0.373922,-0.440039,0.000000,0.000000,-0.071357,0.108531,0.554501,0.695000,-0.815307,0.665018,-0.162627,-0.128506,0.152403,-0.150752
-0.050000,-0.050000,0.000000,0.000000,0.000000,0.000000,0.000000,0.000000,0.000000,0.100000,0.100000,-0.117235,-0.115053,-0.050000,-0.050000,0.381292,-0.439869,0.000000,0.000000,-0.070799,0.104725,0.548411,0.682228,-0.820751,0.676674,-0.160529,-0.133488,0.159213,-0.153653
-0.050000,-0.050000,0.000000,0.000000,0.000000,0.000000,0.000000,0.000000,0.000000,0.100000,0.100000,-0.116743,-0.116437,-0.050000,-0.050000,0.390165,-0.439620,0.000000,0.000000,-0.070204,0.100957,0.542373,0.669789,-0.825676,0.688564,-0.158542,-0.138685,0.166000,-0.157006
-0.050000,-0.050000,0.000000,0.000000,0.000000,0.000000,0.000000,0.000000,0.000000,0.100000,0.100000,-0.117918,-0.118869,-0.050000,-0.050000,0.401474,-0.439471,0.000000,0.000000,-0.069610,0.097139,0.535778,0.657571,-0.829580,0.700432,-0.156937,-0.144181,0.172582,-0.161082
-0.050000,-0.050000,0.000000,0.000000,0.000000,0.000000,0.000000,0.000000,0.000000,0.100000,0.100000,-0.120456,-0.121875,-0.050000,-0.050000,0.414677,-0.439298,0.000000,0.000000,-0.069013,0.093273,0.528469,0.645412,-0.832625,0.711947,-0.155748,-0.149929,0.178797,-0.165712
-0.050000,-0.050000,0.000000,0.000000,0.000000,0.000000,0.000000,0.000000,0.000000,0.100000,0.100000,-0.124095,-0.125224,-0.050000,-0.050000,0.429452,-0.439067,0.000000,0.000000,-0.068455,0.089336,0.520456,0.633208,-0.834924,0.723022,-0.154938,-0.155897,0.184649,-0.170798
-0.050000,-0.050000,0.000000,0.000000,0.000000,0.000000,0.000000,0.000000,0.000000,0.100000,0.100000,-0.129274,-0.128570,-0.050000,-0.050000,0.446519,-0.439057,0.000000,0.000000,-0.068108,0.085427,0.510806,0.620664,-0.835931,0.733039,-0.154862,-0.162087,0.189624,-0.176417
-0.050000,-0.050000,0.000000,0.000000,0.000000,0.000000,0.000000,0.000000,0.000000,0.100000,0.100000,-0.135264,-0.131813,-0.050000,-0.050000,0.464767,-0.438981,0.000000,0.000000,-0.067989,0.081498,0.500232,0.607759,-0.836195,0.742222,-0.155148,-0.168381,0.194028,-0.182318
-0.050000,-0.050000,0.000000,0.000000,0.000000,0.000000,0.000000,0.000000,0.000000,0.100000,0.100000,-0.142443,-0.134669,-0.050000,-0.050000,0.484792,-0.439216,0.000000,0.000000,-0.068358,0.077794,0.487882,0.594181,-0.835179,0.749960,-0.156078,-0.174722,0.197326,-0.188435
-0.050000,-0.050000,0.000000,0.000000,0.000000,0.000000,0.000000,0.000000,0.000000,0.100000,0.100000,-0.150383,-0.137082,-0.050000,-0.050000,0.505997,-0.439666,0.000000,0.000000,-0.069328,0.074379,0.474084,0.579793,-0.833054,0.756255,-0.157420,-0.180982,0.199575,-0.194558
-0.050000,-0.050000,0.000000,0.000000,0.000000,0.000000,0.000000,0.000000,0.000000,0.100000,0.100000,-0.158920,-0.139027,-0.050000,-0.050000,0.528121,-0.440314,0.000000,0.000000,-0.070886,0.071225,0.459031,0.564619,-0.829958,0.761229,-0.159082,-0.187114,0.200893,-0.200639
-0.050000,-0.050000,0.000000,0.000000,0.000000,0.000000,0.000000,0.000000,0.000000,0.100000,0.100000,-0.168096,-0.140394,-0.050000,-0.050000,0.551319,-0.441590,0.000000,0.000000,-0.073538,0.068961,0.442114,0.548107,-0.825262,0.764128,-0.161108,-0.192909,0.200558,-0.206212
-0.050000,-0.050000,0.000000,0.000000,0.000000,0.000000,0.000000,0.000000,0.000000,0.100000,0.100000,-0.177456,-0.141280,-0.050000,-0.050000,0.574873,-0.443090,0.000000,0.000000,-0.076882,0.067093,0.424247,0.530634,-0.819620,0.765699,-0.163238,-0.198397,0.199251,-0.211484
-0.050000,-0.050000,0.000000,0.000000,0.000000,0.000000,0.000000,0.000000,0.000000,0.100000,0.100000,-0.186974,-0.141734,-0.050000,-0.050000,0.598793,-0.445237,0.000000,0.000000,-0.081382,0.066309,0.405057,0.511748,-0.812511,0.765366,-0.165461,-0.203393,0.196327,-0.215933
-0.050000,-0.050000,0.000000,0.000000,0.000000,0.000000,0.000000,0.000000,0.000000,0.100000,0.100000,-0.196296,-0.141859,-0.050000,-0.050000,0.622483,-0.447815,0.000000,0.000000,-0.086777,0.066386,0.385210,0.491696,-0.804292,0.763551,-0.167605,-0.207885,0.192104,-0.219609
-0.050000,-0.050000,0.000000,0.000000,0.000000,0.000000,0.000000,0.000000,0.000000,0.100000,0.100000,-0.205400,-0.141725,-0.050000,-0.050000,0.645835,-0.450810,0.000000,0.000000,-0.092926,0.067239,0.364916,0.470674,-0.795163,0.760520,-0.169662,-0.211900,0.186754,-0.222563
-0.050000,-0.050000,0.000000,0.000000,0.000000,0.000000,0.000000,0.000000,0.000000,0.100000,0.100000,-0.213746,-0.141657,-0.050000,-0.050000,0.667887,-0.454303,0.000000,0.000000,-0.100050,0.069446,0.344830,0.448645,-0.785024,0.756035,-0.171361,-0.215236,0.179880,-0.224260
-0.050000,-0.050000,0.000000,0.000000,0.000000,0.000000,0.000000,0.000000,0.000000,0.100000,0.100000,-0.221537,-0.141564,-0.050000,-0.050000,0.688813,-0.458094,0.000000,0.000000,-0.107576,0.072335,0.325197,0.426233,-0.774404,0.750776,-0.172853,-0.218080,0.172113,-0.225243
-0.050000,-0.050000,0.000000,0.000000,0.000000,0.000000,0.000000,0.000000,0.000000,0.100000,0.100000,-0.228209,-0.141859,-0.050000,-0.050000,0.707451,-0.462105,0.000000,0.000000,-0.115628,0.076381,0.306971,0.403742,-0.763434,0.744610,-0.173811,-0.220243,0.163241,-0.225120
-0.050000,-0.050000,0.000000,0.000000,0.000000,0.000000,0.000000,0.000000,0.000000,0.100000,0.100000,-0.233784,-0.142603,-0.050000,-0.050000,0.723533,-0.466158,0.000000,0.000000,-0.123801,0.081242,0.290675,0.381938,-0.752512,0.737887,-0.174249,-0.221776,0.153648,-0.224236
-0.050000,-0.050000,0.000000,0.000000,0.000000,0.000000,0.000000,0.000000,0.000000,0.100000,0.100000,-0.238396,-0.143887,-0.050000,-0.050000,0.737244,-0.470280,0.000000,0.000000,-0.131987,0.086830,0.276284,0.361024,-0.741742,0.730783,-0.174266,-0.222792,0.143461,-0.222691
-0.050000,-0.050000,0.000000,0.000000,0.000000,0.000000,0.000000,0.000000,0.000000,0.100000,0.100000,-0.241210,-0.146146,-0.050000,-0.050000,0.746412,-0.473800,0.000000,0.000000,-0.139917,0.093217,0.265871,0.342614,-0.731740,0.723176,-0.173207,-0.222872,0.132983,-0.220633
-0.050000,-0.050000,0.000000,0.000000,0.000000,0.000000,0.000000,0.000000,0.000000,0.100000,0.100000,-0.243071,-0.149248,-0.050000,-0.050000,0.752733,-0.477195,0.000000,0.000000,-0.147521,0.100181,0.258082,0.326302,-0.722171,0.715301,-0.171681,-0.222448,0.122254,-0.218253
-0.050000,-0.050000,0.000000,0.000000,0.000000,0.000000,0.000000,0.000000,0.000000,0.100000,0.100000,-0.243153,-0.153509,-0.050000,-0.050000,0.754120,-0.479628,0.000000,0.000000,-0.154547,0.107664,0.254855,0.313789,-0.713587,0.706928,-0.168979,-0.221028,0.111694,-0.215848
-0.050000,-0.050000,0.000000,0.000000,0.000000,0.000000,0.000000,0.000000,0.000000,0.100000,0.100000,-0.241900,-0.158920,-0.050000,-0.050000,0.751361,-0.481273,0.000000,0.000000,-0.160958,0.115579,0.255530,0.305182,-0.705689,0.698012,-0.165401,-0.218775,0.101375,-0.213583
-0.050000,-0.050000,0.000000,0.000000,0.000000,0.000000,0.000000,0.000000,0.000000,0.100000,0.100000,-0.239524,-0.165447,-0.050000,-0.050000,0.744985,-0.482181,0.000000,0.000000,-0.166810,0.123870,0.259598,0.300191,-0.698323,0.688597,-0.161090,-0.215849,0.091321,-0.211477
-0.050000,-0.050000,0.000000,0.000000,0.000000,0.000000,0.000000,0.000000,0.000000,0.100000,0.100000,-0.235357,-0.173059,-0.050000,-0.050000,0.733315,-0.481426,0.000000,0.000000,-0.171806,0.132278,0.268437,0.300877,-0.691642,0.678147,-0.155515,-0.211572,0.082099,-0.210048
-0.050000,-0.050000,0.000000,0.000000,0.000000,0.000000,0.000000,0.000000,0.000000,0.100000,0.100000,-0.230400,-0.181693,-0.050000,-0.050000,0.718747,-0.479920,0.000000,0.000000,-0.176320,0.140986,0.279837,0.305195,-0.685007,0.666984,-0.149491,-0.206720,0.073279,-0.208868
-0.050000,-0.050000,0.000000,0.000000,0.000000,0.000000,0.000000,0.000000,0.000000,0.100000,0.100000,-0.224045,-0.190994,-0.050000,-0.050000,0.700059,-0.476795,0.000000,0.000000,-0.180122,0.149642,0.294637,0.314707,-0.678456,0.654645,-0.142653,-0.200642,0.065385,-0.208348
-0.050000,-0.050000,0.000000,0.000000,0.000000,0.000000,0.000000,0.000000,0.000000,0.100000,0.100000,-0.216880,-0.200779,-0.050000,-0.050000,0.678773,-0.472562,0.000000,0.000000,-0.183485,0.158346,0.311360,0.328167,-0.671497,0.641238,-0.135568,-0.193756,0.058214,-0.208164
-0.050000,-0.050000,0.000000,0.000000,0.000000,0.000000,0.000000,0.000000,0.000000,0.100000,0.100000,-0.209067,-0.210836,-0.050000,-0.050000,0.655456,-0.467326,0.000000,0.000000,-0.186554,0.167027,0.329447,0.344854,-0.664072,0.626894,-0.128353,-0.186210,0.051701,-0.208192
-0.050000,-0.050000,0.000000,0.000000,0.000000,0.000000,0.000000,0.000000,0.000000,0.100000,0.100000,-0.200610,-0.220400,-0.050000,-0.050000,0.630510,-0.460885,0.000000,0.000000,-0.189345,0.175539,0.348345,0.365316,-0.655656,0.611182,-0.121355,-0.177638,0.046145,-0.208381
-0.050000,-0.050000,0.000000,0.000000,0.000000,0.000000,0.000000,0.000000,0.000000,0.100000,0.100000,-0.191949,-0.229710,-0.050000,-0.050000,0.604979,-0.453801,0.000000,0.000000,-0.192212,0.184019,0.367328,0.387753,-0.646378,0.594573,-0.114680,-0.168670,0.041156,-0.208376
-0.050000,-0.050000,0.000000,0.000000,0.000000,0.000000,0.000000,0.000000,0.000000,0.100000,0.100000,-0.183262,-0.237916,-0.050000,-0.050000,0.579594,-0.446074,0.000000,0.000000,-0.195230,0.192438,0.385857,0.412522,-0.635724,0.576681,-0.108695,-0.158973,0.036940,-0.208000
-0.050000,-0.050000,0.000000,0.000000,0.000000,0.000000,0.000000,0.000000,0.000000,0.100000,0.100000,-0.174866,-0.245050,-0.050000,-0.050000,0.555153,-0.438069,0.000000,0.000000,-0.198699,0.200933,0.403642,0.438667,-0.623683,0.557649,-0.103430,-0.148854,0.033304,-0.206955
-0.050000,-0.050000,0.000000,0.000000,0.000000,0.000000,0.000000,0.000000,0.000000,0.100000,0.100000,-0.166826,-0.251107,-0.050000,-0.050000,0.531776,-0.429842,0.000000,0.000000,-0.202668,0.209481,0.420700,0.465792,-0.610415,0.537589,-0.098834,-0.138429,0.030142,-0.205196
-0.050000,-0.050000,0.000000,0.000000,0.000000,0.000000,0.000000,0.000000,0.000000,0.100000,0.100000,-0.159867,-0.255393,-0.050000,-0.050000,0.511215,-0.421932,0.000000,0.000000,-0.207552,0.218570,0.436732,0.494113,-0.595061,0.515908,-0.095231,-0.127465,0.027552,-0.202162
-0.050000,-0.050000,0.000000,0.000000,0.000000,0.000000,0.000000,0.000000,0.000000,0.100000,0.100000,-0.153585,-0.258616,-0.050000,-0.050000,0.492362,-0.414009,0.000000,0.000000,-0.213191,0.227883,0.452335,0.523027,-0.578458,0.493117,-0.092201,-0.116362,0.025314,-0.198132
-0.050000,-0.050000,0.000000,0.000000,0.000000,0.000000,0.000000,0.000000,0.000000,0.100000,0.100000,-0.148775,-0.260237,-0.050000,-0.050000,0.476901,-0.406637,0.000000,0.000000,-0.219969,0.238056,0.467585,0.553040,-0.559742,0.468562,-0.089951,-0.104853,0.023546,-0.192586
-0.050000,-0.050000,0.000000,0.000000,0.000000,0.000000,0.000000,0.000000,0.000000,0.100000,0.100000,-0.145256,-0.260724,-0.050000,-0.050000,0.464176,-0.399567,0.000000,0.000000,-0.227782,0.248939,0.483139,0.584079,-0.539350,0.442464,-0.088204,-0.093163,0.022173,-0.185665
-0.050000,-0.050000,0.000000,0.000000,0.000000,0.000000,0.000000,0.000000,0.000000,0.100000,0.100000,-0.142960,-0.260297,-0.050000,-0.050000,0.453828,-0.392694,0.000000,0.000000,-0.236504,0.260496,0.499187,0.616090,-0.517507,0.414925,-0.086909,-0.081463,0.021124,-0.177488
-0.050000,-0.050000,0.000000,0.000000,0.000000,0.000000,0.000000,0.000000,0.000000,0.100000,0.100000,-0.142530,-0.258767,-0.050000,-0.050000,0.447030,-0.386383,0.000000,0.000000,-0.246443,0.273314,0.516720,0.649949,-0.493576,0.385491,-0.085937,-0.069542,0.020657,-0.167688
-0.050000,-0.050000,0.000000,0.000000,0.000000,0.000000,0.000000,0.000000,0.000000,0.100000,0.100000,-0.143241,-0.256768,-0.050000,-0.050000,0.441916,-0.379986,0.000000,0.000000,-0.257072,0.286695,0.535543,0.684962,-0.468576,0.354849,-0.085256,-0.057943,0.020507,-0.156827
-0.050000,-0.050000,0.000000,0.000000,0.000000,0.000000,0.000000,0.000000,0.000000,0.100000,0.100000,-0.145568,-0.254071,-0.050000,-0.050000,0.439428,-0.373856,0.000000,0.000000,-0.268579,0.301130,0.556639,0.721910,-0.442023,0.322772,-0.084680,-0.046500,0.020964,-0.144713
-0.050000,-0.050000,0.000000,0.000000,0.000000,0.000000,0.000000,0.000000,0.000000,0.100000,0.100000,-0.149048,-0.251024,-0.050000,-0.050000,0.438370,-0.367616,0.000000,0.000000,-0.280567,0.316124,0.579979,0.760317,-0.414615,0.289861,-0.084187,-0.035607,0.021888,-0.131774
-0.050000,-0.050000,0.000000,0.000000,0.000000,0.000000,0.000000,0.000000,0.000000,0.100000,0.100000,-0.153494,-0.247685,-0.050000,-0.050000,0.438354,-0.361198,0.000000,0.000000,-0.292899,0.331570,0.605376,0.799952,-0.386553,0.256273,-0.083770,-0.025383,0.023220,-0.118225
-0.050000,-0.050000,0.000000,0.000000,0.000000,0.000000,0.000000,0.000000,0.000000,0.100000,0.100000,-0.158752,-0.243939,-0.050000,-0.050000,0.439314,-0.354765,0.000000,0.000000,-0.305272,0.347256,0.633768,0.840799,-0.358200,0.222796,-0.083102,-0.015974,0.025133,-0.104388
-0.050000,-0.050000,0.000000,0.000000,0.000000,0.000000,0.000000,0.000000,0.000000,0.100000,0.100000,-0.164499,-0.239998,-0.050000,-0.050000,0.440405,-0.348070,0.000000,0.000000,-0.317558,0.362947,0.664007,0.882117,-0.329880,0.189442,-0.082449,-0.007525,0.027304,-0.090521
-0.050000,-0.050000,0.000000,0.000000,0.000000,0.000000,0.000000,0.000000,0.000000,0.100000,0.100000,-0.170376,-0.235696,-0.050000,-0.050000,0.441554,-0.341392,0.000000,0.000000,-0.329329,0.378255,0.696721,0.923488,-0.302139,0.157228,-0.081443,-0.000173,0.029821,-0.077078
-0.050000,-0.050000,0.000000,0.000000,0.000000,0.000000,0.000000,0.000000,0.000000,0.100000,0.100000,-0.176118,-0.231117,-0.050000,-0.050000,0.442315,-0.334738,0.000000,0.000000,-0.340420,0.392988,0.731036,0.964128,-0.275329,0.126409,-0.080237,0.006020,0.032433,-0.064334
-0.050000,-0.050000,0.000000,0.000000,0.000000,0.000000,0.000000,0.000000,0.000000,0.100000,0.100000,-0.181583,-0.226212,-0.050000,-0.050000,0.442638,-0.328165,0.000000,0.000000,-0.350796,0.407126,0.766548,1.003823,-0.249479,0.096985,-0.078817,0.011211,0.035066,-0.052371
-0.050000,-0.050000,0.000000,0.000000,0.000000,0.000000,0.000000,0.000000,0.000000,0.100000,0.100000,-0.186131,-0.221060,-0.050000,-0.050000,0.442199,-0.322086,0.000000,0.000000,-0.359719,0.419869,0.802827,1.040968,-0.225779,0.070530,-0.077053,0.014995,0.037497,-0.041957
-0.050000,-0.050000,0.000000,0.000000,0.000000,0.000000,0.000000,0.000000,0.000000,0.100000,0.100000,-0.190091,-0.215576,-0.050000,-0.050000,0.441239,-0.316366,0.000000,0.000000,-0.367707,0.431878,0.839166,1.076143,-0.203490,0.045926,-0.075139,0.017960,0.039695,-0.032628
-0.050000,-0.050000,0.000000,0.000000,0.000000,0.000000,0.000000,0.000000,0.000000,0.100000,0.100000,-0.192850,-0.209982,-0.050000,-0.050000,0.439517,-0.311407,0.000000,0.000000,-0.373997,0.442258,0.874861,1.107672,-0.183858,0.024700,-0.073039,0.019668,0.041440,-0.025122
-0.050000,-0.050000,0.000000,0.000000,0.000000,0.000000,0.000000,0.000000,0.000000,0.100000,0.100000,-0.194635,-0.204245,-0.050000,-0.050000,0.437273,-0.307206,0.000000,0.000000,-0.378868,0.451394,0.909223,1.135722,-0.166591,0.006319,-0.070873,0.020517,0.042722,-0.019176
-0.050000,-0.050000,0.000000,0.000000,0.000000,0.000000,0.000000,0.000000,0.000000,0.100000,0.100000,-0.195498,-0.198396,-0.050000,-0.050000,0.434631,-0.303730,0.000000,0.000000,-0.382449,0.459413,0.942109,1.160537,-0.151478,-0.009510,-0.068625,0.020718,0.043565,-0.014608
