RRGGZZ/g1_deploy_sonic/data/example_scalelab/qwen_audio/g1_ref_en/case_test1/joint_pos.csv
joint_0,joint_1,joint_2,joint_3,joint_4,joint_5,joint_6,joint_7,joint_8,joint_9,joint_10,joint_11,joint_12,joint_13,joint_14,joint_15,joint_16,joint_17,joint_18,joint_19,joint_20,joint_21,joint_22,joint_23,joint_24,joint_25,joint_26,joint_27,joint_28
-0.050000,-0.050000,0.000000,0.000000,0.000000,0.000000,0.000000,0.000000,0.000000,0.100000,0.100000,-0.227471,-0.529039,-0.050000,-0.050000,0.390025,-0.716789,0.000000,0.000000,-0.529795,0.209632,1.115732,-0.048403,0.167122,-0.406694,-0.068451,-0.015549,0.022472,-0.635021
-0.050000,-0.050000,0.000000,0.000000,0.000000,0.000000,0.000000,0.000000,0.000000,0.100000,0.100000,-0.227512,-0.533188,-0.050000,-0.050000,0.380340,-0.719419,0.000000,0.000000,-0.528478,0.208113,1.135532,-0.035912,0.169588,-0.405323,-0.075102,-0.013748,0.024550,-0.641512
-0.050000,-0.050000,0.000000,0.000000,0.000000,0.000000,0.000000,0.000000,0.000000,0.100000,0.100000,-0.225981,-0.536291,-0.050000,-0.050000,0.371873,-0.721473,0.000000,0.000000,-0.526703,0.206006,1.153311,-0.023848,0.172377,-0.403842,-0.080372,-0.011381,0.026012,-0.647340
-0.050000,-0.050000,0.000000,0.000000,0.000000,0.000000,0.000000,0.000000,0.000000,0.100000,0.100000,-0.221303,-0.537300,-0.050000,-0.050000,0.365841,-0.722374,0.000000,0.000000,-0.524011,0.202722,1.167044,-0.012635,0.175815,-0.402144,-0.082880,-0.007879,0.026241,-0.651842
-0.050000,-0.050000,0.000000,0.000000,0.000000,0.000000,0.000000,0.000000,0.000000,0.100000,0.100000,-0.214805,-0.537118,-0.050000,-0.050000,0.361047,-0.722971,0.000000,0.000000,-0.520929,0.198982,1.178663,-0.001640,0.179394,-0.400158,-0.083894,-0.003696,0.025818,-0.655497
-0.050000,-0.050000,0.000000,0.000000,0.000000,0.000000,0.000000,0.000000,0.000000,0.100000,0.100000,-0.207396,-0.536340,-0.050000,-0.050000,0.356872,-0.723416,0.000000,0.000000,-0.517651,0.195012,1.189224,0.009248,0.183042,-0.398027,-0.084163,0.000829,0.025069,-0.658730
-0.050000,-0.050000,0.000000,0.000000,0.000000,0.000000,0.000000,0.000000,0.000000,0.100000,0.100000,-0.198582,-0.534511,-0.050000,-0.050000,0.353842,-0.724204,0.000000,0.000000,-0.514091,0.190909,1.197661,0.019882,0.186543,-0.395475,-0.083316,0.005608,0.023948,-0.661282
-0.050000,-0.050000,0.000000,0.000000,0.000000,0.000000,0.000000,0.000000,0.000000,0.100000,0.100000,-0.189627,-0.532485,-0.050000,-0.050000,0.351106,-0.725267,0.000000,0.000000,-0.510489,0.186850,1.205474,0.030295,0.189911,-0.392851,-0.082336,0.010228,0.022852,-0.663827
-0.050000,-0.050000,0.000000,0.000000,0.000000,0.000000,0.000000,0.000000,0.000000,0.100000,0.100000,-0.180390,-0.530064,-0.050000,-0.050000,0.348961,-0.726882,0.000000,0.000000,-0.506802,0.182880,1.212041,0.040267,0.193013,-0.390082,-0.081089,0.014526,0.021807,-0.666356
-0.050000,-0.050000,0.000000,0.000000,0.000000,0.000000,0.000000,0.000000,0.000000,0.100000,0.100000,-0.171370,-0.527433,-0.050000,-0.050000,0.347348,-0.729184,0.000000,0.000000,-0.503100,0.179053,1.217340,0.049421,0.195710,-0.387385,-0.079903,0.018119,0.021047,-0.669356
-0.050000,-0.050000,0.000000,0.000000,0.000000,0.000000,0.000000,0.000000,0.000000,0.100000,0.100000,-0.162459,-0.524696,-0.050000,-0.050000,0.346001,-0.731830,0.000000,0.000000,-0.499390,0.175298,1.222005,0.058166,0.198207,-0.384725,-0.078747,0.021358,0.020431,-0.672593
-0.050000,-0.050000,0.000000,0.000000,0.000000,0.000000,0.000000,0.000000,0.000000,0.100000,0.100000,-0.154464,-0.521805,-0.050000,-0.050000,0.345419,-0.735448,0.000000,0.000000,-0.495747,0.171695,1.224697,0.065212,0.199950,-0.382521,-0.078011,0.023222,0.020518,-0.677242
-0.050000,-0.050000,0.000000,0.000000,0.000000,0.000000,0.000000,0.000000,0.000000,0.100000,0.100000,-0.146929,-0.518893,-0.050000,-0.050000,0.345080,-0.739300,0.000000,0.000000,-0.492155,0.168091,1.226730,0.071620,0.201416,-0.380564,-0.077475,0.024627,0.020902,-0.682542
-0.050000,-0.050000,0.000000,0.000000,0.000000,0.000000,0.000000,0.000000,0.000000,0.100000,0.100000,-0.140313,-0.515942,-0.050000,-0.050000,0.345224,-0.743618,0.000000,0.000000,-0.488663,0.164487,1.227447,0.076753,0.202327,-0.379102,-0.077339,0.025113,0.021880,-0.689146
-0.050000,-0.050000,0.000000,0.000000,0.000000,0.000000,0.000000,0.000000,0.000000,0.100000,0.100000,-0.134851,-0.512990,-0.050000,-0.050000,0.345811,-0.748120,0.000000,0.000000,-0.485323,0.160759,1.226911,0.080688,0.202678,-0.378237,-0.077624,0.024870,0.023514,-0.697232
-0.050000,-0.050000,0.000000,0.000000,0.000000,0.000000,0.000000,0.000000,0.000000,0.100000,0.100000,-0.129966,-0.510038,-0.050000,-0.050000,0.346618,-0.752714,0.000000,0.000000,-0.482059,0.156968,1.225749,0.084026,0.202750,-0.377671,-0.078119,0.024263,0.025476,-0.706059
-0.050000,-0.050000,0.000000,0.000000,0.000000,0.000000,0.000000,0.000000,0.000000,0.100000,0.100000,-0.127046,-0.507115,-0.050000,-0.050000,0.347994,-0.757088,0.000000,0.000000,-0.479093,0.152824,1.222878,0.085986,0.202042,-0.377981,-0.079165,0.023026,0.028430,-0.717045
-0.050000,-0.050000,0.000000,0.000000,0.000000,0.000000,0.000000,0.000000,0.000000,0.100000,0.100000,-0.124818,-0.504203,-0.050000,-0.050000,0.349522,-0.761229,0.000000,0.000000,-0.476248,0.148527,1.219499,0.087697,0.201111,-0.378507,-0.080345,0.021749,0.031703,-0.728615
-0.050000,-0.050000,0.000000,0.000000,0.000000,0.000000,0.000000,0.000000,0.000000,0.100000,0.100000,-0.123972,-0.501314,-0.050000,-0.050000,0.351355,-0.764903,0.000000,0.000000,-0.473644,0.143923,1.215106,0.088905,0.199732,-0.379463,-0.081797,0.020390,0.035611,-0.741356
-0.050000,-0.050000,0.000000,0.000000,0.000000,0.000000,0.000000,0.000000,0.000000,0.100000,0.100000,-0.124482,-0.498433,-0.050000,-0.050000,0.353421,-0.767849,0.000000,0.000000,-0.471319,0.138995,1.209793,0.090078,0.197996,-0.380554,-0.083437,0.019218,0.040136,-0.754804
-0.050000,-0.050000,0.000000,0.000000,0.000000,0.000000,0.000000,0.000000,0.000000,0.100000,0.100000,-0.125671,-0.495556,-0.050000,-0.050000,0.355603,-0.770432,0.000000,0.000000,-0.469133,0.133906,1.204020,0.091233,0.196081,-0.381712,-0.085170,0.018138,0.044970,-0.768607
-0.050000,-0.050000,0.000000,0.000000,0.000000,0.000000,0.000000,0.000000,0.000000,0.100000,0.100000,-0.128700,-0.492640,-0.050000,-0.050000,0.358057,-0.771677,0.000000,0.000000,-0.467404,0.128407,1.196903,0.092973,0.193766,-0.382465,-0.087150,0.017530,0.050789,-0.782588
-0.050000,-0.050000,0.000000,0.000000,0.000000,0.000000,0.000000,0.000000,0.000000,0.100000,0.100000,-0.132233,-0.489686,-0.050000,-0.050000,0.360597,-0.772452,0.000000,0.000000,-0.465837,0.122832,1.189300,0.095073,0.191362,-0.382863,-0.089247,0.017056,0.057009,-0.796310
-0.050000,-0.050000,0.000000,0.000000,0.000000,0.000000,0.000000,0.000000,0.000000,0.100000,0.100000,-0.136772,-0.486653,-0.050000,-0.050000,0.363308,-0.772286,0.000000,0.000000,-0.464589,0.117107,1.180729,0.097890,0.188781,-0.382551,-0.091577,0.016851,0.064031,-0.809517
-0.050000,-0.050000,0.000000,0.000000,0.000000,0.000000,0.000000,0.000000,0.000000,0.100000,0.100000,-0.142038,-0.483467,-0.050000,-0.050000,0.366235,-0.771241,0.000000,0.000000,-0.463664,0.111434,1.171021,0.101629,0.186119,-0.381149,-0.094300,0.016710,0.072119,-0.821612
-0.050000,-0.050000,0.000000,0.000000,0.000000,0.000000,0.000000,0.000000,0.000000,0.100000,0.100000,-0.147666,-0.480204,-0.050000,-0.050000,0.369269,-0.769757,0.000000,0.000000,-0.462900,0.105788,1.160745,0.105827,0.183418,-0.379203,-0.097220,0.016602,0.080740,-0.833152
-0.050000,-0.050000,0.000000,0.000000,0.000000,0.000000,0.000000,0.000000,0.000000,0.100000,0.100000,-0.153941,-0.476561,-0.050000,-0.050000,0.372773,-0.767157,0.000000,0.000000,-0.462608,0.100657,1.148430,0.111566,0.180784,-0.375286,-0.101041,0.016136,0.091463,-0.842279
-0.050000,-0.050000,0.000000,0.000000,0.000000,0.000000,0.000000,0.000000,0.000000,0.100000,0.100000,-0.160303,-0.472729,-0.050000,-0.050000,0.376497,-0.764264,0.000000,0.000000,-0.462470,0.095889,1.135335,0.117859,0.178259,-0.370691,-0.105251,0.015394,0.103030,-0.850407
-0.050000,-0.050000,0.000000,0.000000,0.000000,0.000000,0.000000,0.000000,0.000000,0.100000,0.100000,-0.166841,-0.468522,-0.050000,-0.050000,0.380659,-0.760782,0.000000,0.000000,-0.462641,0.091847,1.120682,0.125257,0.175952,-0.364744,-0.110237,0.014098,0.116287,-0.856535
-0.050000,-0.050000,0.000000,0.000000,0.000000,0.000000,0.000000,0.000000,0.000000,0.100000,0.100000,-0.173383,-0.463820,-0.050000,-0.050000,0.385372,-0.756820,0.000000,0.000000,-0.463128,0.088999,1.104399,0.133915,0.174080,-0.357553,-0.116039,0.012013,0.131301,-0.860331
-0.050000,-0.050000,0.000000,0.000000,0.000000,0.000000,0.000000,0.000000,0.000000,0.100000,0.100000,-0.179925,-0.458870,-0.050000,-0.050000,0.390360,-0.752618,0.000000,0.000000,-0.463774,0.086747,1.087302,0.143201,0.172424,-0.349740,-0.122248,0.009533,0.147192,-0.862961
-0.050000,-0.050000,0.000000,0.000000,0.000000,0.000000,0.000000,0.000000,0.000000,0.100000,0.100000,-0.186367,-0.453066,-0.050000,-0.050000,0.396239,-0.747706,0.000000,0.000000,-0.464936,0.087088,1.068025,0.154852,0.171735,-0.340284,-0.129390,0.005735,0.165225,-0.861553
-0.050000,-0.050000,0.000000,0.000000,0.000000,0.000000,0.000000,0.000000,0.000000,0.100000,0.100000,-0.192785,-0.446993,-0.050000,-0.050000,0.402376,-0.742496,0.000000,0.000000,-0.466290,0.088574,1.048273,0.167556,0.171418,-0.330309,-0.136606,0.001544,0.183559,-0.858558
-0.050000,-0.050000,0.000000,0.000000,0.000000,0.000000,0.000000,0.000000,0.000000,0.100000,0.100000,-0.199158,-0.440381,-0.050000,-0.050000,0.409031,-0.736689,0.000000,0.000000,-0.468029,0.092350,1.027569,0.182365,0.171848,-0.319293,-0.143972,-0.003435,0.202496,-0.852394
-0.050000,-0.050000,0.000000,0.000000,0.000000,0.000000,0.000000,0.000000,0.000000,0.100000,0.100000,-0.205560,-0.433415,-0.050000,-0.050000,0.415974,-0.730038,0.000000,0.000000,-0.470177,0.098938,1.006760,0.199980,0.172896,-0.307101,-0.150776,-0.008939,0.220753,-0.842427
-0.050000,-0.050000,0.000000,0.000000,0.000000,0.000000,0.000000,0.000000,0.000000,0.100000,0.100000,-0.211976,-0.426272,-0.050000,-0.050000,0.423062,-0.722965,0.000000,0.000000,-0.472529,0.106933,0.985897,0.218999,0.174253,-0.294323,-0.157298,-0.014705,0.238670,-0.830559
-0.050000,-0.050000,0.000000,0.000000,0.000000,0.000000,0.000000,0.000000,0.000000,0.100000,0.100000,-0.218545,-0.419127,-0.050000,-0.050000,0.430018,-0.714125,0.000000,0.000000,-0.475437,0.119731,0.966528,0.243316,0.175857,-0.279302,-0.161755,-0.020664,0.253274,-0.811900
-0.050000,-0.050000,0.000000,0.000000,0.000000,0.000000,0.000000,0.000000,0.000000,0.100000,0.100000,-0.225174,-0.412209,-0.050000,-0.050000,0.436693,-0.704516,0.000000,0.000000,-0.478454,0.134198,0.948243,0.269653,0.177166,-0.263342,-0.165166,-0.026448,0.266063,-0.790666
-0.050000,-0.050000,0.000000,0.000000,0.000000,0.000000,0.000000,0.000000,0.000000,0.100000,0.100000,-0.231922,-0.405746,-0.050000,-0.050000,0.442806,-0.693372,0.000000,0.000000,-0.481689,0.152001,0.932126,0.300028,0.177882,-0.245505,-0.166484,-0.031885,0.275222,-0.764278
-0.050000,-0.050000,0.000000,0.000000,0.000000,0.000000,0.000000,0.000000,0.000000,0.100000,0.100000,-0.240389,-0.405072,-0.050000,-0.050000,0.449129,-0.680355,0.000000,0.000000,-0.484378,0.173754,0.918357,0.339139,0.176491,-0.223319,-0.164201,-0.038401,0.279429,-0.730341
-0.050000,-0.050000,0.000000,0.000000,0.000000,0.000000,0.000000,0.000000,0.000000,0.100000,0.100000,-0.249715,-0.407293,-0.050000,-0.050000,0.455556,-0.666402,0.000000,0.000000,-0.486793,0.197482,0.905762,0.382618,0.174045,-0.198958,-0.160116,-0.045457,0.281161,-0.692631
-0.050000,-0.050000,0.000000,0.000000,0.000000,0.000000,0.000000,0.000000,0.000000,0.100000,0.100000,-0.257085,-0.406936,-0.050000,-0.050000,0.458271,-0.649214,0.000000,0.000000,-0.488184,0.224860,0.900223,0.426897,0.168357,-0.173927,-0.153308,-0.048800,0.275508,-0.649792
-0.050000,-0.050000,0.000000,0.000000,0.000000,0.000000,0.000000,0.000000,0.000000,0.100000,0.100000,-0.264128,-0.406442,-0.050000,-0.050000,0.460085,-0.631080,0.000000,0.000000,-0.489195,0.252612,0.896538,0.471452,0.161368,-0.148329,-0.145639,-0.051162,0.268127,-0.605316
-0.050000,-0.050000,0.000000,0.000000,0.000000,0.000000,0.000000,0.000000,0.000000,0.100000,0.100000,-0.270516,-0.405677,-0.050000,-0.050000,0.460098,-0.611055,0.000000,0.000000,-0.489443,0.281112,0.896561,0.516562,0.151775,-0.121594,-0.136249,-0.051564,0.257290,-0.557567
-0.050000,-0.050000,0.000000,0.000000,0.000000,0.000000,0.000000,0.000000,0.000000,0.100000,0.100000,-0.276169,-0.404647,-0.050000,-0.050000,0.458481,-0.589737,0.000000,0.000000,-0.488626,0.308926,0.899375,0.560490,0.139571,-0.094291,-0.125859,-0.050461,0.244591,-0.508765
-0.050000,-0.050000,0.000000,0.000000,0.000000,0.000000,0.000000,0.000000,0.000000,0.100000,0.100000,-0.281455,-0.403486,-0.050000,-0.050000,0.456049,-0.567772,0.000000,0.000000,-0.487277,0.336396,0.903584,0.603827,0.126061,-0.066703,-0.114968,-0.048606,0.230962,-0.459437
-0.050000,-0.050000,0.000000,0.000000,0.000000,0.000000,0.000000,0.000000,0.000000,0.100000,0.100000,-0.285390,-0.401324,-0.050000,-0.050000,0.451592,-0.545200,0.000000,0.000000,-0.484219,0.360911,0.910123,0.642077,0.109250,-0.039169,-0.104076,-0.045464,0.217084,-0.412580
-0.050000,-0.050000,0.000000,0.000000,0.000000,0.000000,0.000000,0.000000,0.000000,0.100000,0.100000,-0.287959,-0.396888,-0.050000,-0.050000,0.446313,-0.523030,0.000000,0.000000,-0.481032,0.383532,0.916463,0.676269,0.092400,-0.012800,-0.094032,-0.041962,0.204298,-0.368949
-0.050000,-0.050000,0.000000,0.000000,0.000000,0.000000,0.000000,0.000000,0.000000,0.100000,0.100000,-0.287793,-0.387905,-0.050000,-0.050000,0.439389,-0.501661,0.000000,0.000000,-0.477584,0.402368,0.922409,0.702345,0.075472,0.011240,-0.085680,-0.037741,0.193695,-0.331770
-0.050000,-0.050000,0.000000,0.000000,0.000000,0.000000,0.000000,0.000000,0.000000,0.100000,0.100000,-0.288018,-0.380689,-0.050000,-0.050000,0.432533,-0.481553,0.000000,0.000000,-0.473393,0.418659,0.927972,0.724694,0.056856,0.036643,-0.078053,-0.034584,0.183699,-0.297675
-0.050000,-0.050000,0.000000,0.000000,0.000000,0.000000,0.000000,0.000000,0.000000,0.100000,0.100000,-0.288439,-0.374356,-0.050000,-0.050000,0.425711,-0.462074,0.000000,0.000000,-0.468829,0.433678,0.933345,0.745179,0.037396,0.062728,-0.070789,-0.031958,0.174007,-0.265122
-0.050000,-0.050000,0.000000,0.000000,0.000000,0.000000,0.000000,0.000000,0.000000,0.100000,0.100000,-0.288694,-0.368556,-0.050000,-0.050000,0.419018,-0.445593,0.000000,0.000000,-0.464203,0.444155,0.936454,0.757698,0.018362,0.088980,-0.065827,-0.031266,0.166075,-0.240715
-0.050000,-0.050000,0.000000,0.000000,0.000000,0.000000,0.000000,0.000000,0.000000,0.100000,0.100000,-0.288943,-0.362795,-0.050000,-0.050000,0.412461,-0.430268,0.000000,0.000000,-0.459978,0.453227,0.938611,0.767725,0.000142,0.115077,-0.061557,-0.031089,0.158483,-0.218865
-0.050000,-0.050000,0.000000,0.000000,0.000000,0.000000,0.000000,0.000000,0.000000,0.100000,0.100000,-0.289178,-0.357111,-0.050000,-0.050000,0.406173,-0.417252,0.000000,0.000000,-0.456556,0.459490,0.938863,0.772767,-0.016449,0.140866,-0.058673,-0.031944,0.151574,-0.202132
-0.050000,-0.050000,0.000000,0.000000,0.000000,0.000000,0.000000,0.000000,0.000000,0.100000,0.100000,-0.289681,-0.351817,-0.050000,-0.050000,0.400325,-0.406555,0.000000,0.000000,-0.454580,0.463534,0.937164,0.774129,-0.030412,0.165861,-0.056661,-0.033307,0.144599,-0.189190
-0.050000,-0.050000,0.000000,0.000000,0.000000,0.000000,0.000000,0.000000,0.000000,0.100000,0.100000,-0.290316,-0.346716,-0.050000,-0.050000,0.394695,-0.397015,0.000000,0.000000,-0.453327,0.466469,0.934489,0.773650,-0.043062,0.190459,-0.055085,-0.034924,0.137590,-0.178144
-0.050000,-0.050000,0.000000,0.000000,0.000000,0.000000,0.000000,0.000000,0.000000,0.100000,0.100000,-0.291732,-0.342951,-0.050000,-0.050000,0.389883,-0.390621,0.000000,0.000000,-0.454705,0.467229,0.929020,0.769994,-0.050901,0.212882,-0.054014,-0.036390,0.129632,-0.170358
-0.050000,-0.050000,0.000000,0.000000,0.000000,0.000000,0.000000,0.000000,0.000000,0.100000,0.100000,-0.293467,-0.339853,-0.050000,-0.050000,0.385372,-0.385105,0.000000,0.000000,-0.456918,0.467641,0.922643,0.765896,-0.057108,0.234243,-0.052951,-0.037567,0.121260,-0.162944
-0.050000,-0.050000,0.000000,0.000000,0.000000,0.000000,0.000000,0.000000,0.000000,0.100000,0.100000,-0.295839,-0.338089,-0.050000,-0.050000,0.381462,-0.381346,0.000000,0.000000,-0.460801,0.467358,0.914447,0.760916,-0.060052,0.253481,-0.051902,-0.038166,0.112063,-0.156271
-0.050000,-0.050000,0.000000,0.000000,0.000000,0.000000,0.000000,0.000000,0.000000,0.100000,0.100000,-0.298787,-0.337887,-0.050000,-0.050000,0.378188,-0.378968,0.000000,0.000000,-0.465902,0.466960,0.904325,0.755609,-0.060219,0.270127,-0.050847,-0.038022,0.102211,-0.149374
-0.050000,-0.050000,0.000000,0.000000,0.000000,0.000000,0.000000,0.000000,0.000000,0.100000,0.100000,-0.302024,-0.338466,-0.050000,-0.050000,0.375232,-0.377280,0.000000,0.000000,-0.471611,0.466503,0.893240,0.750138,-0.058998,0.285477,-0.049788,-0.037506,0.092030,-0.142364
-0.050000,-0.050000,0.000000,0.000000,0.000000,0.000000,0.000000,0.000000,0.000000,0.100000,0.100000,-0.305788,-0.341279,-0.050000,-0.050000,0.373281,-0.377118,0.000000,0.000000,-0.478056,0.466315,0.878864,0.743882,-0.055012,0.296834,-0.049046,-0.036204,0.081461,-0.134385
-0.050000,-0.050000,0.000000,0.000000,0.000000,0.000000,0.000000,0.000000,0.000000,0.100000,0.100000,-0.309558,-0.344657,-0.050000,-0.050000,0.371687,-0.377301,0.000000,0.000000,-0.484317,0.466203,0.863224,0.736986,-0.050697,0.307071,-0.048567,-0.034900,0.070994,-0.126111
-0.050000,-0.050000,0.000000,0.000000,0.000000,0.000000,0.000000,0.000000,0.000000,0.100000,0.100000,-0.313342,-0.349165,-0.050000,-0.050000,0.370805,-0.378175,0.000000,0.000000,-0.490211,0.466244,0.845055,0.728810,-0.045724,0.315070,-0.048615,-0.033594,0.060732,-0.117250
-0.050000,-0.050000,0.000000,0.000000,0.000000,0.000000,0.000000,0.000000,0.000000,0.100000,0.100000,-0.316762,-0.354252,-0.050000,-0.050000,0.370662,-0.379462,0.000000,0.000000,-0.494916,0.466142,0.824107,0.718402,-0.041297,0.321716,-0.049456,-0.032922,0.051096,-0.108194
-0.050000,-0.050000,0.000000,0.000000,0.000000,0.000000,0.000000,0.000000,0.000000,0.100000,0.100000,-0.319999,-0.359629,-0.050000,-0.050000,0.370889,-0.380955,0.000000,0.000000,-0.499027,0.465970,0.801769,0.706880,-0.037141,0.327685,-0.050693,-0.032568,0.041772,-0.099039
-0.050000,-0.050000,0.000000,0.000000,0.000000,0.000000,0.000000,0.000000,0.000000,0.100000,0.100000,-0.322176,-0.364973,-0.050000,-0.050000,0.372173,-0.382722,0.000000,0.000000,-0.500384,0.464913,0.775240,0.690891,-0.035303,0.333368,-0.053293,-0.033970,0.033891,-0.090444
-0.050000,-0.050000,0.000000,0.000000,0.000000,0.000000,0.000000,0.000000,0.000000,0.100000,0.100000,-0.323879,-0.370054,-0.050000,-0.050000,0.373745,-0.384488,0.000000,0.000000,-0.500636,0.463334,0.747482,0.673293,-0.034563,0.339537,-0.056311,-0.036098,0.026621,-0.082343
-0.050000,-0.050000,0.000000,0.000000,0.000000,0.000000,0.000000,0.000000,0.000000,0.100000,0.100000,-0.324632,-0.374609,-0.050000,-0.050000,0.375892,-0.386249,0.000000,0.000000,-0.498679,0.460710,0.717266,0.652477,-0.036020,0.346677,-0.060166,-0.039678,0.020574,-0.075232
-0.050000,-0.050000,0.000000,0.000000,0.000000,0.000000,0.000000,0.000000,0.000000,0.100000,0.100000,-0.324338,-0.378333,-0.050000,-0.050000,0.378378,-0.387860,0.000000,0.000000,-0.494448,0.456713,0.685316,0.628825,-0.039930,0.355666,-0.064613,-0.044702,0.015966,-0.069692
-0.050000,-0.050000,0.000000,0.000000,0.000000,0.000000,0.000000,0.000000,0.000000,0.100000,0.100000,-0.323520,-0.381641,-0.050000,-0.050000,0.381034,-0.389396,0.000000,0.000000,-0.489081,0.452029,0.652498,0.603755,-0.045066,0.365578,-0.069357,-0.050448,0.012077,-0.064938
-0.050000,-0.050000,0.000000,0.000000,0.000000,0.000000,0.000000,0.000000,0.000000,0.100000,0.100000,-0.321228,-0.383604,-0.050000,-0.050000,0.383755,-0.390565,0.000000,0.000000,-0.480650,0.445089,0.618672,0.575822,-0.053731,0.378865,-0.074450,-0.058000,0.010620,-0.063296
-0.050000,-0.050000,0.000000,0.000000,0.000000,0.000000,0.000000,0.000000,0.000000,0.100000,0.100000,-0.318555,-0.385196,-0.050000,-0.050000,0.386356,-0.391602,0.000000,0.000000,-0.471433,0.437434,0.585149,0.547563,-0.063393,0.393211,-0.079456,-0.065976,0.010034,-0.062885
-0.050000,-0.050000,0.000000,0.000000,0.000000,0.000000,0.000000,0.000000,0.000000,0.100000,0.100000,-0.315119,-0.386044,-0.050000,-0.050000,0.388718,-0.392379,0.000000,0.000000,-0.460640,0.428350,0.552232,0.518648,-0.075050,0.409672,-0.084288,-0.074800,0.011192,-0.064934
-0.050000,-0.050000,0.000000,0.000000,0.000000,0.000000,0.000000,0.000000,0.000000,0.100000,0.100000,-0.311254,-0.386450,-0.050000,-0.050000,0.390664,-0.392981,0.000000,0.000000,-0.448886,0.418067,0.521238,0.490375,-0.088203,0.427648,-0.088573,-0.084101,0.014105,-0.069653
-0.050000,-0.050000,0.000000,0.000000,0.000000,0.000000,0.000000,0.000000,0.000000,0.100000,0.100000,-0.307173,-0.386634,-0.050000,-0.050000,0.392403,-0.393497,0.000000,0.000000,-0.436651,0.407184,0.491204,0.462422,-0.102104,0.446380,-0.092583,-0.093640,0.017894,-0.075708
-0.050000,-0.050000,0.000000,0.000000,0.000000,0.000000,0.000000,0.000000,0.000000,0.100000,0.100000,-0.303016,-0.386689,-0.050000,-0.050000,0.393501,-0.394056,0.000000,0.000000,-0.423951,0.394965,0.465777,0.437044,-0.117442,0.465991,-0.095352,-0.103394,0.024079,-0.085712
-0.050000,-0.050000,0.000000,0.000000,0.000000,0.000000,0.000000,0.000000,0.000000,0.100000,0.100000,-0.299001,-0.386857,-0.050000,-0.050000,0.394470,-0.394781,0.000000,0.000000,-0.411389,0.382459,0.442284,0.412859,-0.133002,0.485351,-0.097641,-0.113072,0.030883,-0.096861
-0.050000,-0.050000,0.000000,0.000000,0.000000,0.000000,0.000000,0.000000,0.000000,0.100000,0.100000,-0.295272,-0.387254,-0.050000,-0.050000,0.395179,-0.395839,0.000000,0.000000,-0.399101,0.369381,0.422659,0.391059,-0.149006,0.504210,-0.098967,-0.122598,0.038924,-0.110297
-0.050000,-0.050000,0.000000,0.000000,0.000000,0.000000,0.000000,0.000000,0.000000,0.100000,0.100000,-0.292043,-0.388081,-0.050000,-0.050000,0.395925,-0.397591,0.000000,0.000000,-0.387527,0.356017,0.407219,0.371829,-0.164978,0.521478,-0.099368,-0.131700,0.047665,-0.125371
-0.050000,-0.050000,0.000000,0.000000,0.000000,0.000000,0.000000,0.000000,0.000000,0.100000,0.100000,-0.289065,-0.389123,-0.050000,-0.050000,0.396690,-0.399690,0.000000,0.000000,-0.376309,0.342509,0.393872,0.353884,-0.180933,0.537952,-0.099305,-0.140590,0.056754,-0.141265
-0.050000,-0.050000,0.000000,0.000000,0.000000,0.000000,0.000000,0.000000,0.000000,0.100000,0.100000,-0.286898,-0.390884,-0.050000,-0.050000,0.398018,-0.403358,0.000000,0.000000,-0.366544,0.328934,0.386513,0.339388,-0.196150,0.550603,-0.098163,-0.148473,0.065927,-0.158313
-0.050000,-0.050000,0.000000,0.000000,0.000000,0.000000,0.000000,0.000000,0.000000,0.100000,0.100000,-0.284935,-0.392832,-0.050000,-0.050000,0.399671,-0.407680,0.000000,0.000000,-0.357307,0.315434,0.380839,0.325737,-0.210881,0.561618,-0.096832,-0.155928,0.074812,-0.175280
-0.050000,-0.050000,0.000000,0.000000,0.000000,0.000000,0.000000,0.000000,0.000000,0.100000,0.100000,-0.283380,-0.395152,-0.050000,-0.050000,0.401978,-0.413310,0.000000,0.000000,-0.349125,0.302083,0.378533,0.313775,-0.224641,0.569362,-0.095122,-0.162528,0.083123,-0.192086
-0.050000,-0.050000,0.000000,0.000000,0.000000,0.000000,0.000000,0.000000,0.000000,0.100000,0.100000,-0.281974,-0.397609,-0.050000,-0.050000,0.405082,-0.420342,0.000000,0.000000,-0.341971,0.289029,0.378714,0.302724,-0.236917,0.573429,-0.093432,-0.168210,0.090356,-0.207927
-0.050000,-0.050000,0.000000,0.000000,0.000000,0.000000,0.000000,0.000000,0.000000,0.100000,0.100000,-0.280643,-0.400135,-0.050000,-0.050000,0.408584,-0.428075,0.000000,0.000000,-0.335329,0.276123,0.380138,0.292130,-0.248451,0.575658,-0.091753,-0.173432,0.097051,-0.223284
-0.050000,-0.050000,0.000000,0.000000,0.000000,0.000000,0.000000,0.000000,0.000000,0.100000,0.100000,-0.279083,-0.402396,-0.050000,-0.050000,0.413248,-0.437727,0.000000,0.000000,-0.330116,0.263801,0.383902,0.281776,-0.256967,0.572335,-0.090643,-0.177409,0.101693,-0.236414
-0.050000,-0.050000,0.000000,0.000000,0.000000,0.000000,0.000000,0.000000,0.000000,0.100000,0.100000,-0.277323,-0.404407,-0.050000,-0.050000,0.418210,-0.447845,0.000000,0.000000,-0.325350,0.251688,0.388066,0.271231,-0.264237,0.567355,-0.089831,-0.181080,0.105617,-0.248729
-0.050000,-0.050000,0.000000,0.000000,0.000000,0.000000,0.000000,0.000000,0.000000,0.100000,0.100000,-0.275160,-0.405915,-0.050000,-0.050000,0.423768,-0.458893,0.000000,0.000000,-0.321475,0.239991,0.393026,0.260304,-0.269016,0.559063,-0.089614,-0.184139,0.108108,-0.259416
-0.050000,-0.050000,0.000000,0.000000,0.000000,0.000000,0.000000,0.000000,0.000000,0.100000,0.100000,-0.272469,-0.406652,-0.050000,-0.050000,0.429629,-0.470345,0.000000,0.000000,-0.318479,0.228671,0.398322,0.248804,-0.270966,0.548244,-0.089995,-0.186855,0.109282,-0.268687
-0.050000,-0.050000,0.000000,0.000000,0.000000,0.000000,0.000000,0.000000,0.000000,0.100000,0.100000,-0.269512,-0.407002,-0.050000,-0.050000,0.435642,-0.481997,0.000000,0.000000,-0.315922,0.217540,0.403787,0.237017,-0.271501,0.536162,-0.090676,-0.189399,0.109798,-0.277251
-0.050000,-0.050000,0.000000,0.000000,0.000000,0.000000,0.000000,0.000000,0.000000,0.100000,0.100000,-0.265805,-0.405945,-0.050000,-0.050000,0.441592,-0.493331,0.000000,0.000000,-0.314736,0.206837,0.409591,0.224711,-0.267621,0.521953,-0.091941,-0.191748,0.108652,-0.284378
-0.050000,-0.050000,0.000000,0.000000,0.000000,0.000000,0.000000,0.000000,0.000000,0.100000,0.100000,-0.261928,-0.404400,-0.050000,-0.050000,0.447348,-0.504265,0.000000,0.000000,-0.314034,0.196222,0.415604,0.212541,-0.262351,0.507680,-0.093220,-0.194075,0.107049,-0.291287
-0.050000,-0.050000,0.000000,0.000000,0.000000,0.000000,0.000000,0.000000,0.000000,0.100000,0.100000,-0.257711,-0.401878,-0.050000,-0.050000,0.452718,-0.514400,0.000000,0.000000,-0.314302,0.185783,0.422034,0.200642,-0.254301,0.493281,-0.094526,-0.196355,0.104533,-0.297757
-0.050000,-0.050000,0.000000,0.000000,0.000000,0.000000,0.000000,0.000000,0.000000,0.100000,0.100000,-0.253380,-0.398450,-0.050000,-0.050000,0.457398,-0.523278,0.000000,0.000000,-0.315576,0.175429,0.429247,0.189888,-0.243911,0.480048,-0.095458,-0.198527,0.101195,-0.304182
-0.050000,-0.050000,0.000000,0.000000,0.000000,0.000000,0.000000,0.000000,0.000000,0.100000,0.100000,-0.248990,-0.394569,-0.050000,-0.050000,0.461733,-0.531529,0.000000,0.000000,-0.317353,0.165118,0.436852,0.179706,-0.232351,0.467397,-0.096202,-0.200646,0.097447,-0.310585
-0.050000,-0.050000,0.000000,0.000000,0.000000,0.000000,0.000000,0.000000,0.000000,0.100000,0.100000,-0.244731,-0.389536,-0.050000,-0.050000,0.464676,-0.537494,0.000000,0.000000,-0.320615,0.154875,0.446205,0.172610,-0.218246,0.458163,-0.095903,-0.202378,0.092402,-0.317117
-0.050000,-0.050000,0.000000,0.000000,0.000000,0.000000,0.000000,0.000000,0.000000,0.100000,0.100000,-0.240565,-0.384196,-0.050000,-0.050000,0.467075,-0.542663,0.000000,0.000000,-0.324326,0.144665,0.456261,0.166894,-0.203656,0.450452,-0.095179,-0.203906,0.086848,-0.323607
-0.050000,-0.050000,0.000000,0.000000,0.000000,0.000000,0.000000,0.000000,0.000000,0.100000,0.100000,-0.236590,-0.378243,-0.050000,-0.050000,0.468385,-0.546239,0.000000,0.000000,-0.328938,0.134522,0.467724,0.163938,-0.188091,0.445791,-0.093605,-0.205026,0.080276,-0.330014
-0.050000,-0.050000,0.000000,0.000000,0.000000,0.000000,0.000000,0.000000,0.000000,0.100000,0.100000,-0.232777,-0.371804,-0.050000,-0.050000,0.468542,-0.548313,0.000000,0.000000,-0.334293,0.124532,0.480592,0.164021,-0.172198,0.444500,-0.091224,-0.205660,0.072502,-0.335939
-0.050000,-0.050000,0.000000,0.000000,0.000000,0.000000,0.000000,0.000000,0.000000,0.100000,0.100000,-0.229047,-0.365122,-0.050000,-0.050000,0.468123,-0.549638,0.000000,0.000000,-0.340019,0.114620,0.494162,0.165625,-0.156141,0.444893,-0.088439,-0.206052,0.064128,-0.341623
-0.050000,-0.050000,0.000000,0.000000,0.000000,0.000000,0.000000,0.000000,0.000000,0.100000,0.100000,-0.225357,-0.357843,-0.050000,-0.050000,0.466053,-0.549015,0.000000,0.000000,-0.346561,0.105163,0.509405,0.171421,-0.140237,0.450055,-0.084753,-0.205749,0.053804,-0.345865
-0.050000,-0.050000,0.000000,0.000000,0.000000,0.000000,0.000000,0.000000,0.000000,0.100000,0.100000,-0.221591,-0.350396,-0.050000,-0.050000,0.463520,-0.547879,0.000000,0.000000,-0.353270,0.095965,0.524938,0.178247,-0.124461,0.456450,-0.080916,-0.205259,0.042869,-0.349434
-0.050000,-0.050000,0.000000,0.000000,0.000000,0.000000,0.000000,0.000000,0.000000,0.100000,0.100000,-0.217671,-0.342614,-0.050000,-0.050000,0.460061,-0.545717,0.000000,0.000000,-0.360316,0.087285,0.541048,0.187133,-0.108939,0.465311,-0.076776,-0.204397,0.030714,-0.351659
-0.050000,-0.050000,0.000000,0.000000,0.000000,0.000000,0.000000,0.000000,0.000000,0.100000,0.100000,-0.213445,-0.334572,-0.050000,-0.050000,0.455965,-0.542845,0.000000,0.000000,-0.367514,0.079401,0.557052,0.197027,-0.093573,0.475465,-0.072654,-0.203264,0.017655,-0.352397
-0.050000,-0.050000,0.000000,0.000000,0.000000,0.000000,0.000000,0.000000,0.000000,0.100000,0.100000,-0.209067,-0.326399,-0.050000,-0.050000,0.451549,-0.539618,0.000000,0.000000,-0.374788,0.071916,0.573003,0.207427,-0.078286,0.486265,-0.068540,-0.201995,0.004144,-0.352391
-0.050000,-0.050000,0.000000,0.000000,0.000000,0.000000,0.000000,0.000000,0.000000,0.100000,0.100000,-0.204138,-0.318029,-0.050000,-0.050000,0.446710,-0.535849,0.000000,0.000000,-0.382082,0.066113,0.587763,0.217670,-0.062888,0.496757,-0.064875,-0.200409,-0.009904,-0.350412
-0.050000,-0.050000,0.000000,0.000000,0.000000,0.000000,0.000000,0.000000,0.000000,0.100000,0.100000,-0.199052,-0.309699,-0.050000,-0.050000,0.441911,-0.532082,0.000000,0.000000,-0.389339,0.061041,0.601861,0.227406,-0.047350,0.506339,-0.061465,-0.198714,-0.023776,-0.348009
-0.050000,-0.050000,0.000000,0.000000,0.000000,0.000000,0.000000,0.000000,0.000000,0.100000,0.100000,-0.193653,-0.301449,-0.050000,-0.050000,0.437190,-0.528323,0.000000,0.000000,-0.396522,0.057432,0.614638,0.236128,-0.031534,0.514101,-0.058565,-0.196804,-0.037295,-0.344758
-0.050000,-0.050000,0.000000,0.000000,0.000000,0.000000,0.000000,0.000000,0.000000,0.100000,0.100000,-0.188093,-0.293581,-0.050000,-0.050000,0.432841,-0.524936,0.000000,0.000000,-0.403598,0.055593,0.625876,0.243332,-0.015398,0.518557,-0.056294,-0.194604,-0.049693,-0.341322
-0.050000,-0.050000,0.000000,0.000000,0.000000,0.000000,0.000000,0.000000,0.000000,0.100000,0.100000,-0.182453,-0.285904,-0.050000,-0.050000,0.428680,-0.521734,0.000000,0.000000,-0.410621,0.054641,0.636345,0.249779,0.000897,0.521361,-0.054338,-0.192260,-0.061530,-0.337792
-0.050000,-0.050000,0.000000,0.000000,0.000000,0.000000,0.000000,0.000000,0.000000,0.100000,0.100000,-0.176884,-0.279361,-0.050000,-0.050000,0.425330,-0.519571,0.000000,0.000000,-0.417509,0.056703,0.644803,0.253972,0.017389,0.517529,-0.053351,-0.189287,-0.070639,-0.335036
-0.050000,-0.050000,0.000000,0.000000,0.000000,0.000000,0.000000,0.000000,0.000000,0.100000,0.100000,-0.171443,-0.273403,-0.050000,-0.050000,0.422260,-0.517871,0.000000,0.000000,-0.424382,0.059843,0.652907,0.257672,0.033755,0.511196,-0.052644,-0.186010,-0.078586,-0.332817
-0.050000,-0.050000,0.000000,0.000000,0.000000,0.000000,0.000000,0.000000,0.000000,0.100000,0.100000,-0.166259,-0.268611,-0.050000,-0.050000,0.419745,-0.517095,0.000000,0.000000,-0.431227,0.065138,0.660304,0.260389,0.049866,0.499858,-0.052496,-0.182128,-0.084209,-0.331674
-0.050000,-0.050000,0.000000,0.000000,0.000000,0.000000,0.000000,0.000000,0.000000,0.100000,0.100000,-0.161500,-0.265387,-0.050000,-0.050000,0.417659,-0.517344,0.000000,0.000000,-0.438123,0.072645,0.667977,0.263027,0.065243,0.483540,-0.052736,-0.177416,-0.087283,-0.331869
-0.050000,-0.050000,0.000000,0.000000,0.000000,0.000000,0.000000,0.000000,0.000000,0.100000,0.100000,-0.156952,-0.262946,-0.050000,-0.050000,0.415788,-0.518105,0.000000,0.000000,-0.445045,0.081259,0.675789,0.265626,0.080253,0.464732,-0.053170,-0.172287,-0.089083,-0.332734
-0.050000,-0.050000,0.000000,0.000000,0.000000,0.000000,0.000000,0.000000,0.000000,0.100000,0.100000,-0.153196,-0.263366,-0.050000,-0.050000,0.414232,-0.520326,0.000000,0.000000,-0.452135,0.093163,0.685721,0.269743,0.093499,0.439328,-0.053856,-0.165572,-0.087196,-0.335401
-0.050000,-0.050000,0.000000,0.000000,0.000000,0.000000,0.000000,0.000000,0.000000,0.100000,0.100000,-0.149725,-0.264856,-0.050000,-0.050000,0.412669,-0.522937,0.000000,0.000000,-0.459274,0.106121,0.696869,0.274886,0.106006,0.412232,-0.054513,-0.158250,-0.084274,-0.338395
-0.050000,-0.050000,0.000000,0.000000,0.000000,0.000000,0.000000,0.000000,0.000000,0.100000,0.100000,-0.146822,-0.268487,-0.050000,-0.050000,0.411092,-0.526328,0.000000,0.000000,-0.466511,0.121184,0.710450,0.282078,0.117036,0.381751,-0.055116,-0.149716,-0.079281,-0.342041
-0.050000,-0.050000,0.000000,0.000000,0.000000,0.000000,0.000000,0.000000,0.000000,0.100000,0.100000,-0.144490,-0.274347,-0.050000,-0.050000,0.409360,-0.530203,0.000000,0.000000,-0.473716,0.138175,0.727075,0.292059,0.126477,0.349136,-0.055489,-0.139989,-0.072825,-0.345489
-0.050000,-0.050000,0.000000,0.000000,0.000000,0.000000,0.000000,0.000000,0.000000,0.100000,0.100000,-0.142444,-0.281322,-0.050000,-0.050000,0.407551,-0.534319,0.000000,0.000000,-0.480903,0.156129,0.745223,0.303434,0.135123,0.315455,-0.055747,-0.129665,-0.065637,-0.348838
-0.050000,-0.050000,0.000000,0.000000,0.000000,0.000000,0.000000,0.000000,0.000000,0.100000,0.100000,-0.141252,-0.291504,-0.050000,-0.050000,0.405535,-0.538648,0.000000,0.000000,-0.487658,0.176513,0.767923,0.319346,0.141486,0.280519,-0.055533,-0.117950,-0.057314,-0.350498
-0.050000,-0.050000,0.000000,0.000000,0.000000,0.000000,0.000000,0.000000,0.000000,0.100000,0.100000,-0.140361,-0.302609,-0.050000,-0.050000,0.403556,-0.542884,0.000000,0.000000,-0.494101,0.197471,0.791791,0.336580,0.147190,0.245753,-0.055173,-0.106033,-0.048946,-0.351242
-0.050000,-0.050000,0.000000,0.000000,0.000000,0.000000,0.000000,0.000000,0.000000,0.100000,0.100000,-0.140070,-0.315562,-0.050000,-0.050000,0.401648,-0.546936,0.000000,0.000000,-0.499923,0.219575,0.817994,0.356459,0.151575,0.211328,-0.054523,-0.093713,-0.040487,-0.350152
-0.050000,-0.050000,0.000000,0.000000,0.000000,0.000000,0.000000,0.000000,0.000000,0.100000,0.100000,-0.140470,-0.329872,-0.050000,-0.050000,0.400180,-0.550548,0.000000,0.000000,-0.504811,0.242173,0.845260,0.377996,0.154918,0.178206,-0.053715,-0.081693,-0.032429,-0.347012
-0.050000,-0.050000,0.000000,0.000000,0.000000,0.000000,0.000000,0.000000,0.000000,0.100000,0.100000,-0.141213,-0.344861,-0.050000,-0.050000,0.398933,-0.553942,0.000000,0.000000,-0.509231,0.265017,0.873056,0.400363,0.157741,0.145736,-0.052828,-0.069823,-0.024573,-0.342847
-0.050000,-0.050000,0.000000,0.000000,0.000000,0.000000,0.000000,0.000000,0.000000,0.100000,0.100000,-0.143210,-0.360908,-0.050000,-0.050000,0.399006,-0.556466,0.000000,0.000000,-0.511960,0.287399,0.900086,0.423072,0.159452,0.116336,-0.052012,-0.059497,-0.017667,-0.336220
-0.050000,-0.050000,0.000000,0.000000,0.000000,0.000000,0.000000,0.000000,0.000000,0.100000,0.100000,-0.145709,-0.376934,-0.050000,-0.050000,0.399706,-0.558691,0.000000,0.000000,-0.514120,0.309189,0.926095,0.445095,0.160929,0.088238,-0.051332,-0.049979,-0.011053,-0.329261
-0.050000,-0.050000,0.000000,0.000000,0.000000,0.000000,0.000000,0.000000,0.000000,0.100000,0.100000,-0.149213,-0.392921,-0.050000,-0.050000,0.401661,-0.560319,0.000000,0.000000,-0.515142,0.329794,0.950065,0.465744,0.161938,0.062744,-0.050925,-0.042074,-0.005025,-0.321640
-0.050000,-0.050000,0.000000,0.000000,0.000000,0.000000,0.000000,0.000000,0.000000,0.100000,0.100000,-0.153862,-0.408126,-0.050000,-0.050000,0.405050,-0.561428,0.000000,0.000000,-0.515189,0.348373,0.970811,0.483569,0.162677,0.040242,-0.050974,-0.036094,0.000693,-0.314668
-0.050000,-0.050000,0.000000,0.000000,0.000000,0.000000,0.000000,0.000000,0.000000,0.100000,0.100000,-0.159084,-0.422940,-0.050000,-0.050000,0.409155,-0.562277,0.000000,0.000000,-0.514749,0.365938,0.989946,0.499982,0.163283,0.019235,-0.051250,-0.031076,0.006255,-0.308021
-0.050000,-0.050000,0.000000,0.000000,0.000000,0.000000,0.000000,0.000000,0.000000,0.100000,0.100000,-0.166107,-0.435631,-0.050000,-0.050000,0.415267,-0.562525,0.000000,0.000000,-0.513243,0.379436,1.003249,0.510630,0.163630,0.003001,-0.052354,-0.028927,0.011943,-0.304316
-0.050000,-0.050000,0.000000,0.000000,0.000000,0.000000,0.000000,0.000000,0.000000,0.100000,0.100000,-0.173691,-0.447389,-0.050000,-0.050000,0.421861,-0.562619,0.000000,0.000000,-0.511519,0.391369,1.014539,0.519144,0.163885,-0.011676,-0.053731,-0.027591,0.017868,-0.302085
-0.050000,-0.050000,0.000000,0.000000,0.000000,0.000000,0.000000,0.000000,0.000000,0.100000,0.100000,-0.182400,-0.457285,-0.050000,-0.050000,0.429421,-0.562405,0.000000,0.000000,-0.509357,0.400169,1.021799,0.523390,0.163954,-0.023239,-0.055655,-0.027879,0.024268,-0.302801
-0.050000,-0.050000,0.000000,0.000000,0.000000,0.000000,0.000000,0.000000,0.000000,0.100000,0.100000,-0.192000,-0.465095,-0.050000,-0.050000,0.437385,-0.561912,0.000000,0.000000,-0.506968,0.405745,1.025281,0.523545,0.163742,-0.032031,-0.058036,-0.029328,0.031420,-0.306902
-0.050000,-0.050000,0.000000,0.000000,0.000000,0.000000,0.000000,0.000000,0.000000,0.100000,0.100000,-0.202045,-0.471861,-0.050000,-0.050000,0.445551,-0.561281,0.000000,0.000000,-0.504467,0.409709,1.026874,0.521656,0.163390,-0.039439,-0.060647,-0.031358,0.038948,-0.312695
-0.050000,-0.050000,0.000000,0.000000,0.000000,0.000000,0.000000,0.000000,0.000000,0.100000,0.100000,-0.212835,-0.475483,-0.050000,-0.050000,0.453379,-0.560174,0.000000,0.000000,-0.501818,0.409213,1.023484,0.514614,0.162432,-0.043527,-0.063757,-0.034347,0.047757,-0.323294
-0.050000,-0.050000,0.000000,0.000000,0.000000,0.000000,0.000000,0.000000,0.000000,0.100000,0.100000,-0.223611,-0.478131,-0.050000,-0.050000,0.460813,-0.558869,0.000000,0.000000,-0.499154,0.407508,1.018689,0.506320,0.161234,-0.046830,-0.066975,-0.037415,0.056951,-0.335130
-0.050000,-0.050000,0.000000,0.000000,0.000000,0.000000,0.000000,0.000000,0.000000,0.100000,0.100000,-0.234358,-0.478832,-0.050000,-0.050000,0.467458,-0.557171,0.000000,0.000000,-0.496461,0.403384,1.011079,0.495524,0.159556,-0.048561,-0.070408,-0.040641,0.066914,-0.349441
-0.050000,-0.050000,0.000000,0.000000,0.000000,0.000000,0.000000,0.000000,0.000000,0.100000,0.100000,-0.244487,-0.477827,-0.050000,-0.050000,0.472899,-0.554998,0.000000,0.000000,-0.493790,0.397619,1.001141,0.483237,0.157430,-0.049293,-0.073975,-0.043658,0.077398,-0.365123
-0.050000,-0.050000,0.000000,0.000000,0.000000,0.000000,0.000000,0.000000,0.000000,0.100000,0.100000,-0.254305,-0.475970,-0.050000,-0.050000,0.477738,-0.552588,0.000000,0.000000,-0.491130,0.391032,0.990039,0.470206,0.155080,-0.049526,-0.077607,-0.046571,0.088142,-0.381490
-0.050000,-0.050000,0.000000,0.000000,0.000000,0.000000,0.000000,0.000000,0.000000,0.100000,0.100000,-0.262336,-0.471952,-0.050000,-0.050000,0.480426,-0.549393,0.000000,0.000000,-0.488608,0.383316,0.976164,0.456347,0.152301,-0.048845,-0.081368,-0.048862,0.099122,-0.398015
-0.050000,-0.050000,0.000000,0.000000,0.000000,0.000000,0.000000,0.000000,0.000000,0.100000,0.100000,-0.269542,-0.467334,-0.050000,-0.050000,0.482365,-0.545932,0.000000,0.000000,-0.486186,0.375660,0.961640,0.442605,0.149509,-0.047939,-0.085150,-0.050931,0.109965,-0.413979
-0.050000,-0.050000,0.000000,0.000000,0.000000,0.000000,0.000000,0.000000,0.000000,0.100000,0.100000,-0.275096,-0.461516,-0.050000,-0.050000,0.482808,-0.541941,0.000000,0.000000,-0.483963,0.368124,0.945818,0.429096,0.146690,-0.046587,-0.088976,-0.052555,0.120531,-0.428820
-0.050000,-0.050000,0.000000,0.000000,0.000000,0.000000,0.000000,0.000000,0.000000,0.100000,0.100000,-0.278721,-0.454693,-0.050000,-0.050000,0.481811,-0.537457,0.000000,0.000000,-0.482070,0.361444,0.929404,0.416422,0.144126,-0.044734,-0.092777,-0.053856,0.130350,-0.441493
-0.050000,-0.050000,0.000000,0.000000,0.000000,0.000000,0.000000,0.000000,0.000000,0.100000,0.100000,-0.281381,-0.447368,-0.050000,-0.050000,0.480096,-0.532727,0.000000,0.000000,-0.480342,0.355192,0.912694,0.404166,0.141687,-0.042630,-0.096564,-0.054994,0.139795,-0.453082
-0.050000,-0.050000,0.000000,0.000000,0.000000,0.000000,0.000000,0.000000,0.000000,0.100000,0.100000,-0.281055,-0.438766,-0.050000,-0.050000,0.476421,-0.527374,0.000000,0.000000,-0.479320,0.350977,0.896456,0.393825,0.139930,-0.039444,-0.100119,-0.055954,0.147392,-0.460233
-0.050000,-0.050000,0.000000,0.000000,0.000000,0.000000,0.000000,0.000000,0.000000,0.100000,0.100000,-0.279808,-0.429807,-0.050000,-0.050000,0.472181,-0.521869,0.000000,0.000000,-0.478591,0.347544,0.880913,0.384274,0.138425,-0.035727,-0.103499,-0.056957,0.154135,-0.465645
-0.050000,-0.050000,0.000000,0.000000,0.000000,0.000000,0.000000,0.000000,0.000000,0.100000,0.100000,-0.276719,-0.420131,-0.050000,-0.050000,0.466811,-0.516058,0.000000,0.000000,-0.478451,0.345676,0.866765,0.376302,0.137425,-0.030951,-0.106526,-0.058048,0.159169,-0.467579
-0.050000,-0.050000,0.000000,0.000000,0.000000,0.000000,0.000000,0.000000,0.000000,0.100000,0.100000,-0.272103,-0.409884,-0.050000,-0.050000,0.460523,-0.510081,0.000000,0.000000,-0.478973,0.345270,0.855158,0.370077,0.136821,-0.024711,-0.108952,-0.059363,0.162057,-0.465783
-0.050000,-0.050000,0.000000,0.000000,0.000000,0.000000,0.000000,0.000000,0.000000,0.100000,0.100000,-0.266724,-0.399350,-0.050000,-0.050000,0.453775,-0.504020,0.000000,0.000000,-0.479826,0.345594,0.844822,0.364726,0.136415,-0.017738,-0.111078,-0.060789,0.163870,-0.462122
-0.050000,-0.050000,0.000000,0.000000,0.000000,0.000000,0.000000,0.000000,0.000000,0.100000,0.100000,-0.259676,-0.388210,-0.050000,-0.050000,0.446039,-0.497950,0.000000,0.000000,-0.481683,0.347523,0.839878,0.362001,0.136304,-0.007937,-0.111907,-0.062602,0.161945,-0.452898
-0.050000,-0.050000,0.000000,0.000000,0.000000,0.000000,0.000000,0.000000,0.000000,0.100000,0.100000,-0.252287,-0.376965,-0.050000,-0.050000,0.438133,-0.491964,0.000000,0.000000,-0.483835,0.349678,0.837117,0.360038,0.136199,0.003000,-0.112194,-0.064523,0.158683,-0.441984
-0.050000,-0.050000,0.000000,0.000000,0.000000,0.000000,0.000000,0.000000,0.000000,0.100000,0.100000,-0.244216,-0.365508,-0.050000,-0.050000,0.429886,-0.486149,0.000000,0.000000,-0.486575,0.352285,0.838721,0.359599,0.136110,0.016210,-0.111396,-0.066660,0.152747,-0.427689
-0.050000,-0.050000,0.000000,0.000000,0.000000,0.000000,0.000000,0.000000,0.000000,0.100000,0.100000,-0.235828,-0.354050,-0.050000,-0.050000,0.421675,-0.480676,0.000000,0.000000,-0.489727,0.354584,0.845022,0.360179,0.135981,0.031999,-0.109402,-0.068966,0.144199,-0.410680
-0.050000,-0.050000,0.000000,0.000000,0.000000,0.000000,0.000000,0.000000,0.000000,0.100000,0.100000,-0.227283,-0.342592,-0.050000,-0.050000,0.413482,-0.475375,0.000000,0.000000,-0.493084,0.356730,0.853672,0.361268,0.135833,0.049078,-0.106808,-0.071357,0.134344,-0.392313
-0.050000,-0.050000,0.000000,0.000000,0.000000,0.000000,0.000000,0.000000,0.000000,0.100000,0.100000,-0.218630,-0.331450,-0.050000,-0.050000,0.405959,-0.470810,0.000000,0.000000,-0.496650,0.357229,0.869086,0.362706,0.135803,0.070305,-0.102490,-0.074045,0.121095,-0.371379
-0.050000,-0.050000,0.000000,0.000000,0.000000,0.000000,0.000000,0.000000,0.000000,0.100000,0.100000,-0.209989,-0.320517,-0.050000,-0.050000,0.398858,-0.466536,0.000000,0.000000,-0.500118,0.356827,0.886410,0.363778,0.135936,0.092936,-0.097712,-0.076913,0.107027,-0.350216
-0.050000,-0.050000,0.000000,0.000000,0.000000,0.000000,0.000000,0.000000,0.000000,0.100000,0.100000,-0.201371,-0.310001,-0.050000,-0.050000,0.392599,-0.462844,0.000000,0.000000,-0.503391,0.354624,0.907554,0.364117,0.136391,0.118374,-0.092016,-0.080141,0.091322,-0.328595
-0.050000,-0.050000,0.000000,0.000000,0.000000,0.000000,0.000000,0.000000,0.000000,0.100000,0.100000,-0.192737,-0.300099,-0.050000,-0.050000,0.387504,-0.459742,0.000000,0.000000,-0.506115,0.350112,0.931435,0.362767,0.137416,0.146487,-0.085791,-0.084016,0.074795,-0.307855
-0.050000,-0.050000,0.000000,0.000000,0.000000,0.000000,0.000000,0.000000,0.000000,0.100000,0.100000,-0.184095,-0.290503,-0.050000,-0.050000,0.382991,-0.456935,0.000000,0.000000,-0.508566,0.344445,0.956685,0.360573,0.138725,0.175936,-0.079302,-0.088215,0.057857,-0.287556
-0.050000,-0.050000,0.000000,0.000000,0.000000,0.000000,0.000000,0.000000,0.000000,0.100000,0.100000,-0.175242,-0.282102,-0.050000,-0.050000,0.380509,-0.454866,0.000000,0.000000,-0.509726,0.334966,0.984089,0.354770,0.141047,0.208872,-0.072726,-0.093898,0.040985,-0.270402
-0.050000,-0.050000,0.000000,0.000000,0.000000,0.000000,0.000000,0.000000,0.000000,0.100000,0.100000,-0.166248,-0.274182,-0.050000,-0.050000,0.378713,-0.452949,0.000000,0.000000,-0.510345,0.324256,1.011546,0.347626,0.143648,0.242667,-0.066347,-0.100219,0.024516,-0.254754
-0.050000,-0.050000,0.000000,0.000000,0.000000,0.000000,0.000000,0.000000,0.000000,0.100000,0.100000,-0.156975,-0.267225,-0.050000,-0.050000,0.378293,-0.451332,0.000000,0.000000,-0.509881,0.311084,1.039111,0.337802,0.146803,0.278183,-0.060363,-0.107819,0.008855,-0.242113
-0.050000,-0.050000,0.000000,0.000000,0.000000,0.000000,0.000000,0.000000,0.000000,0.100000,0.100000,-0.147341,-0.261366,-0.050000,-0.050000,0.379092,-0.449770,0.000000,0.000000,-0.508239,0.295816,1.065601,0.325560,0.150170,0.314570,-0.055115,-0.116830,-0.005444,-0.232995
-0.050000,-0.050000,0.000000,0.000000,0.000000,0.000000,0.000000,0.000000,0.000000,0.100000,0.100000,-0.137527,-0.256056,-0.050000,-0.050000,0.380502,-0.448235,0.000000,0.000000,-0.506009,0.279500,1.091553,0.312109,0.153644,0.351392,-0.050235,-0.126547,-0.019062,-0.225637
-0.050000,-0.050000,0.000000,0.000000,0.000000,0.000000,0.000000,0.000000,0.000000,0.100000,0.100000,-0.127225,-0.252517,-0.050000,-0.050000,0.383283,-0.446423,0.000000,0.000000,-0.502082,0.260914,1.114539,0.296178,0.156725,0.387996,-0.046736,-0.138253,-0.030180,-0.223751
-0.050000,-0.050000,0.000000,0.000000,0.000000,0.000000,0.000000,0.000000,0.000000,0.100000,0.100000,-0.116848,-0.249566,-0.050000,-0.050000,0.386321,-0.444434,0.000000,0.000000,-0.497680,0.241915,1.136258,0.279973,0.159443,0.424009,-0.043709,-0.150470,-0.040423,-0.223602
-0.050000,-0.050000,0.000000,0.000000,0.000000,0.000000,0.000000,0.000000,0.000000,0.100000,0.100000,-0.106320,-0.247792,-0.050000,-0.050000,0.389869,-0.442094,0.000000,0.000000,-0.492328,0.222092,1.155443,0.263224,0.161434,0.458843,-0.041627,-0.163710,-0.048918,-0.226924
-0.050000,-0.050000,0.000000,0.000000,0.000000,0.000000,0.000000,0.000000,0.000000,0.100000,0.100000,-0.095940,-0.247078,-0.050000,-0.050000,0.393495,-0.439347,0.000000,0.000000,-0.486312,0.202131,1.171892,0.247166,0.162364,0.491623,-0.040385,-0.177501,-0.055742,-0.233334
-0.050000,-0.050000,0.000000,0.000000,0.000000,0.000000,0.000000,0.000000,0.000000,0.100000,0.100000,-0.085635,-0.246894,-0.050000,-0.050000,0.397160,-0.436395,0.000000,0.000000,-0.479965,0.182100,1.186974,0.231454,0.162764,0.523376,-0.039563,-0.191569,-0.061731,-0.241287
-0.050000,-0.050000,0.000000,0.000000,0.000000,0.000000,0.000000,0.000000,0.000000,0.100000,0.100000,-0.076121,-0.247945,-0.050000,-0.050000,0.400349,-0.432928,0.000000,0.000000,-0.473142,0.162752,1.198114,0.218494,0.161382,0.551185,-0.039714,-0.205627,-0.065467,-0.253076
-0.050000,-0.050000,0.000000,0.000000,0.000000,0.000000,0.000000,0.000000,0.000000,0.100000,0.100000,-0.067065,-0.249243,-0.050000,-0.050000,0.403230,-0.429369,0.000000,0.000000,-0.466341,0.143860,1.208102,0.206895,0.159450,0.577574,-0.040076,-0.219402,-0.068556,-0.265817
-0.050000,-0.050000,0.000000,0.000000,0.000000,0.000000,0.000000,0.000000,0.000000,0.100000,0.100000,-0.058927,-0.251037,-0.050000,-0.050000,0.405493,-0.425629,0.000000,0.000000,-0.459581,0.125879,1.215790,0.198017,0.156419,0.601125,-0.040857,-0.232610,-0.070348,-0.280464
-0.050000,-0.050000,0.000000,0.000000,0.000000,0.000000,0.000000,0.000000,0.000000,0.100000,0.100000,-0.052038,-0.252969,-0.050000,-0.050000,0.406971,-0.421935,0.000000,0.000000,-0.453185,0.109121,1.221618,0.192394,0.152547,0.621968,-0.041833,-0.244756,-0.071057,-0.296254
-0.050000,-0.050000,0.000000,0.000000,0.000000,0.000000,0.000000,0.000000,0.000000,0.100000,0.100000,-0.045774,-0.254970,-0.050000,-0.050000,0.408056,-0.418264,0.000000,0.000000,-0.446971,0.092975,1.226516,0.188398,0.148253,0.641456,-0.042907,-0.256370,-0.071224,-0.312615
-0.050000,-0.050000,0.000000,0.000000,0.000000,0.000000,0.000000,0.000000,0.000000,0.100000,0.100000,-0.041715,-0.256707,-0.050000,-0.050000,0.407921,-0.415050,0.000000,0.000000,-0.441676,0.078961,1.229306,0.189529,0.143212,0.657425,-0.043994,-0.265824,-0.070066,-0.329421
-0.050000,-0.050000,0.000000,0.000000,0.000000,0.000000,0.000000,0.000000,0.000000,0.100000,0.100000,-0.038432,-0.258258,-0.050000,-0.050000,0.407427,-0.412121,0.000000,0.000000,-0.436765,0.065717,1.231586,0.192281,0.138092,0.672443,-0.045025,-0.274442,-0.068557,-0.345941
-0.050000,-0.050000,0.000000,0.000000,0.000000,0.000000,0.000000,0.000000,0.000000,0.100000,0.100000,-0.036699,-0.259433,-0.050000,-0.050000,0.406217,-0.409760,0.000000,0.000000,-0.432624,0.054014,1.232848,0.198275,0.132815,0.685557,-0.045941,-0.281387,-0.066348,-0.361888
-0.050000,-0.050000,0.000000,0.000000,0.000000,0.000000,0.000000,0.000000,0.000000,0.100000,0.100000,-0.036458,-0.260183,-0.050000,-0.050000,0.404479,-0.408214,0.000000,0.000000,-0.429314,0.043926,1.233371,0.207065,0.127651,0.697119,-0.046693,-0.286577,-0.063599,-0.376459
-0.050000,-0.050000,0.000000,0.000000,0.000000,0.000000,0.000000,0.000000,0.000000,0.100000,0.100000,-0.036964,-0.260720,-0.050000,-0.050000,0.402477,-0.407075,0.000000,0.000000,-0.426420,0.034645,1.233523,0.217252,0.122543,0.707906,-0.047362,-0.290890,-0.060581,-0.390344
-0.050000,-0.050000,0.000000,0.000000,0.000000,0.000000,0.000000,0.000000,0.000000,0.100000,0.100000,-0.039446,-0.260760,-0.050000,-0.050000,0.400039,-0.407475,0.000000,0.000000,-0.424746,0.027866,1.232814,0.230684,0.117855,0.716549,-0.047812,-0.292641,-0.056977,-0.401215
-0.050000,-0.050000,0.000000,0.000000,0.000000,0.000000,0.000000,0.000000,0.000000,0.100000,0.100000,-0.042461,-0.260734,-0.050000,-0.050000,0.397575,-0.408466,0.000000,0.000000,-0.423442,0.021945,1.231857,0.244847,0.113337,0.724385,-0.048222,-0.293606,-0.053251,-0.410889
-0.050000,-0.050000,0.000000,0.000000,0.000000,0.000000,0.000000,0.000000,0.000000,0.100000,0.100000,-0.046542,-0.260577,-0.050000,-0.050000,0.395058,-0.410638,0.000000,0.000000,-0.422876,0.017741,1.230404,0.260471,0.109162,0.730607,-0.048554,-0.292996,-0.049278,-0.418170
-0.050000,-0.050000,0.000000,0.000000,0.000000,0.000000,0.000000,0.000000,0.000000,0.100000,0.100000,-0.051393,-0.260535,-0.050000,-0.050000,0.392691,-0.414067,0.000000,0.000000,-0.422941,0.015312,1.228482,0.276921,0.105316,0.734742,-0.048900,-0.290972,-0.045213,-0.422960
-0.050000,-0.050000,0.000000,0.000000,0.000000,0.000000,0.000000,0.000000,0.000000,0.100000,0.100000,-0.056629,-0.260552,-0.050000,-0.050000,0.390399,-0.418124,0.000000,0.000000,-0.423322,0.013770,1.226325,0.293784,0.101635,0.737832,-0.049253,-0.288242,-0.041101,-0.426503
-0.050000,-0.050000,0.000000,0.000000,0.000000,0.000000,0.000000,0.000000,0.000000,0.100000,0.100000,-0.062569,-0.261100,-0.050000,-0.050000,0.388541,-0.424009,0.000000,0.000000,-0.424477,0.015019,1.223491,0.311262,0.098369,0.736806,-0.049768,-0.283574,-0.037097,-0.426539
-0.050000,-0.050000,0.000000,0.000000,0.000000,0.000000,0.000000,0.000000,0.000000,0.100000,0.100000,-0.068604,-0.261922,-0.050000,-0.050000,0.386862,-0.430417,0.000000,0.000000,-0.425841,0.017265,1.220448,0.328913,0.095212,0.734075,-0.050372,-0.278270,-0.033210,-0.425559
-0.050000,-0.050000,0.000000,0.000000,0.000000,0.000000,0.000000,0.000000,0.000000,0.100000,0.100000,-0.074830,-0.263292,-0.050000,-0.050000,0.385543,-0.437871,0.000000,0.000000,-0.427623,0.021503,1.216988,0.346912,0.092276,0.727932,-0.051155,-0.271697,-0.029561,-0.422547
-0.050000,-0.050000,0.000000,0.000000,0.000000,0.000000,0.000000,0.000000,0.000000,0.100000,0.100000,-0.081020,-0.265344,-0.050000,-0.050000,0.384592,-0.446057,0.000000,0.000000,-0.429759,0.027924,1.213169,0.365627,0.089517,0.717865,-0.052149,-0.263737,-0.026298,-0.417816
-0.050000,-0.050000,0.000000,0.000000,0.000000,0.000000,0.000000,0.000000,0.000000,0.100000,0.100000,-0.087193,-0.267739,-0.050000,-0.050000,0.383823,-0.454609,0.000000,0.000000,-0.432072,0.035436,1.209172,0.384701,0.086847,0.705836,-0.053249,-0.255083,-0.023227,-0.412227
-0.050000,-0.050000,0.000000,0.000000,0.000000,0.000000,0.000000,0.000000,0.000000,0.100000,0.100000,-0.093093,-0.271277,-0.050000,-0.050000,0.383549,-0.463603,0.000000,0.000000,-0.434884,0.046592,1.204763,0.406014,0.084418,0.687537,-0.054655,-0.243985,-0.020895,-0.404326
-0.050000,-0.050000,0.000000,0.000000,0.000000,0.000000,0.000000,0.000000,0.000000,0.100000,0.100000,-0.098880,-0.275212,-0.050000,-0.050000,0.383408,-0.472479,0.000000,0.000000,-0.437872,0.059096,1.200264,0.428588,0.082070,0.667149,-0.056138,-0.231935,-0.018832,-0.395628
-0.050000,-0.050000,0.000000,0.000000,0.000000,0.000000,0.000000,0.000000,0.000000,0.100000,0.100000,-0.104444,-0.279940,-0.050000,-0.050000,0.383531,-0.481121,0.000000,0.000000,-0.441209,0.074295,1.195586,0.453687,0.079888,0.642584,-0.057777,-0.217981,-0.017307,-0.385335
-0.050000,-0.050000,0.000000,0.000000,0.000000,0.000000,0.000000,0.000000,0.000000,0.100000,0.100000,-0.109852,-0.285421,-0.050000,-0.050000,0.383838,-0.488941,0.000000,0.000000,-0.444931,0.092389,1.190822,0.482328,0.077889,0.614029,-0.059496,-0.201985,-0.016302,-0.373164
-0.050000,-0.050000,0.000000,0.000000,0.000000,0.000000,0.000000,0.000000,0.000000,0.100000,0.100000,-0.115183,-0.291279,-0.050000,-0.050000,0.384236,-0.496350,0.000000,0.000000,-0.448845,0.111931,1.186016,0.512739,0.075981,0.583478,-0.061256,-0.184969,-0.015555,-0.360056
-0.050000,-0.050000,0.000000,0.000000,0.000000,0.000000,0.000000,0.000000,0.000000,0.100000,0.100000,-0.120529,-0.298036,-0.050000,-0.050000,0.384771,-0.501616,0.000000,0.000000,-0.453357,0.135809,1.181207,0.549479,0.074383,0.547375,-0.063008,-0.165179,-0.015466,-0.343567
-0.050000,-0.050000,0.000000,0.000000,0.000000,0.000000,0.000000,0.000000,0.000000,0.100000,0.100000,-0.125993,-0.304924,-0.050000,-0.050000,0.385303,-0.505885,0.000000,0.000000,-0.458047,0.160950,1.176427,0.588352,0.072894,0.509612,-0.064717,-0.144787,-0.015536,-0.325832
-0.050000,-0.050000,0.000000,0.000000,0.000000,0.000000,0.000000,0.000000,0.000000,0.100000,0.100000,-0.131692,-0.312075,-0.050000,-0.050000,0.385829,-0.508159,0.000000,0.000000,-0.463094,0.188618,1.171708,0.631493,0.071624,0.468531,-0.066343,-0.123194,-0.015924,-0.305608
-0.050000,-0.050000,0.000000,0.000000,0.000000,0.000000,0.000000,0.000000,0.000000,0.100000,0.100000,-0.137855,-0.318938,-0.050000,-0.050000,0.386263,-0.508015,0.000000,0.000000,-0.468382,0.217979,1.167081,0.678174,0.070564,0.424745,-0.067828,-0.101466,-0.016488,-0.283056
-0.050000,-0.050000,0.000000,0.000000,0.000000,0.000000,0.000000,0.000000,0.000000,0.100000,0.100000,-0.144249,-0.325656,-0.050000,-0.050000,0.386651,-0.506663,0.000000,0.000000,-0.473791,0.248185,1.162499,0.726626,0.069610,0.379606,-0.069243,-0.079672,-0.017141,-0.259341
-0.050000,-0.050000,0.000000,0.000000,0.000000,0.000000,0.000000,0.000000,0.000000,0.100000,0.100000,-0.154523,-0.339665,-0.050000,-0.050000,0.387001,-0.499723,0.000000,0.000000,-0.477497,0.279486,1.158318,0.786736,0.068218,0.327307,-0.069845,-0.060662,-0.018531,-0.230211
-0.050000,-0.050000,0.000000,0.000000,0.000000,0.000000,0.000000,0.000000,0.000000,0.100000,0.100000,-0.163595,-0.348094,-0.050000,-0.050000,0.387249,-0.492562,0.000000,0.000000,-0.481995,0.310033,1.154047,0.842355,0.067309,0.277878,-0.070689,-0.042428,-0.019507,-0.202621
-0.050000,-0.050000,0.000000,0.000000,0.000000,0.000000,0.000000,0.000000,0.000000,0.100000,0.100000,-0.170261,-0.345361,-0.050000,-0.050000,0.387292,-0.484957,0.000000,0.000000,-0.488075,0.339071,1.149595,0.888990,0.067366,0.234190,-0.072017,-0.025744,-0.019656,-0.178115
-0.050000,-0.050000,0.000000,0.000000,0.000000,0.000000,0.000000,0.000000,0.000000,0.100000,0.100000,-0.178274,-0.342750,-0.050000,-0.050000,0.387270,-0.475311,0.000000,0.000000,-0.493733,0.365457,1.145038,0.936045,0.067095,0.190335,-0.073022,-0.011335,-0.019829,-0.153549
-0.050000,-0.050000,0.000000,0.000000,0.000000,0.000000,0.000000,0.000000,0.000000,0.100000,0.100000,-0.186962,-0.340200,-0.050000,-0.050000,0.387215,-0.464644,0.000000,0.000000,-0.499180,0.390517,1.140429,0.983310,0.066660,0.146398,-0.073865,0.001936,-0.020014,-0.128955
-0.050000,-0.050000,0.000000,0.000000,0.000000,0.000000,0.000000,0.000000,0.000000,0.100000,0.100000,-0.196941,-0.335706,-0.050000,-0.050000,0.387510,-0.452648,0.000000,0.000000,-0.503798,0.410172,1.135639,1.026364,0.066011,0.108092,-0.074471,0.010803,-0.019964,-0.107413
-0.050000,-0.050000,0.000000,0.000000,0.000000,0.000000,0.000000,0.000000,0.000000,0.100000,0.100000,-0.207197,-0.330522,-0.050000,-0.050000,0.388062,-0.440715,0.000000,0.000000,-0.508183,0.427853,1.130738,1.067137,0.065291,0.072594,-0.075048,0.018433,-0.019819,-0.087374
-0.050000,-0.050000,0.000000,0.000000,0.000000,0.000000,0.000000,0.000000,0.000000,0.100000,0.100000,-0.218007,-0.323961,-0.050000,-0.050000,0.389132,-0.428906,0.000000,0.000000,-0.512102,0.441588,1.125614,1.103347,0.064431,0.042711,-0.075567,0.023592,-0.019487,-0.070343
-0.050000,-0.050000,0.000000,0.000000,0.000000,0.000000,0.000000,0.000000,0.000000,0.100000,0.100000,-0.229216,-0.316570,-0.050000,-0.050000,0.391031,-0.418022,0.000000,0.000000,-0.515656,0.451665,1.120185,1.134161,0.063416,0.019120,-0.076089,0.026925,-0.019001,-0.056529
-0.050000,-0.050000,0.000000,0.000000,0.000000,0.000000,0.000000,0.000000,0.000000,0.100000,0.100000,-0.240624,-0.308763,-0.050000,-0.050000,0.393345,-0.407599,0.000000,0.000000,-0.519029,0.459912,1.114603,1.162276,0.062323,-0.001326,-0.076612,0.029345,-0.018438,-0.044323
-0.050000,-0.050000,0.000000,0.000000,0.000000,0.000000,0.000000,0.000000,0.000000,0.100000,0.100000,-0.252604,-0.300865,-0.050000,-0.050000,0.397386,-0.399369,0.000000,0.000000,-0.521994,0.463884,1.108471,1.182111,0.060984,-0.012898,-0.077201,0.029860,-0.017728,-0.036403
-0.050000,-0.050000,0.000000,0.000000,0.000000,0.000000,0.000000,0.000000,0.000000,0.100000,0.100000,-0.264831,-0.293309,-0.050000,-0.050000,0.402149,-0.392018,0.000000,0.000000,-0.524845,0.466968,1.102121,1.199366,0.059537,-0.022085,-0.077825,0.029942,-0.016984,-0.029578
-0.050000,-0.050000,0.000000,0.000000,0.000000,0.000000,0.000000,0.000000,0.000000,0.100000,0.100000,-0.277554,-0.286437,-0.050000,-0.050000,0.408356,-0.386425,0.000000,0.000000,-0.527470,0.468276,1.095334,1.211462,0.057873,-0.026501,-0.078520,0.029157,-0.016172,-0.024940
-0.050000,-0.050000,0.000000,0.000000,0.000000,0.000000,0.000000,0.000000,0.000000,0.100000,0.100000,-0.290990,-0.280829,-0.050000,-0.050000,0.416236,-0.382702,0.000000,0.000000,-0.529824,0.468862,1.087984,1.218994,0.055834,-0.027622,-0.079298,0.027783,-0.015237,-0.021773
-0.050000,-0.050000,0.000000,0.000000,0.000000,0.000000,0.000000,0.000000,0.000000,0.100000,0.100000,-0.304781,-0.275853,-0.050000,-0.050000,0.424952,-0.379915,0.000000,0.000000,-0.532044,0.469087,1.080352,1.224242,0.053609,-0.027095,-0.080118,0.026114,-0.014239,-0.019340
-0.050000,-0.050000,0.000000,0.000000,0.000000,0.000000,0.000000,0.000000,0.000000,0.100000,0.100000,-0.320040,-0.273319,-0.050000,-0.050000,0.436370,-0.379923,0.000000,0.000000,-0.533628,0.469432,1.071540,1.223546,0.050363,-0.023640,-0.081073,0.023843,-0.012780,-0.018276
-0.050000,-0.050000,0.000000,0.000000,0.000000,0.000000,0.000000,0.000000,0.000000,0.100000,0.100000,-0.335906,-0.271675,-0.050000,-0.050000,0.448687,-0.380824,0.000000,0.000000,-0.534874,0.470022,1.062161,1.221097,0.046558,-0.019657,-0.082078,0.021431,-0.011006,-0.017529
-0.050000,-0.050000,0.000000,0.000000,0.000000,0.000000,0.000000,0.000000,0.000000,0.100000,0.100000,-0.352990,-0.271809,-0.050000,-0.050000,0.462803,-0.383508,0.000000,0.000000,-0.535445,0.471099,1.051652,1.215141,0.041634,-0.014616,-0.083182,0.018736,-0.008603,-0.017415
-0.050000,-0.050000,0.000000,0.000000,0.000000,0.000000,0.000000,0.000000,0.000000,0.100000,0.100000,-0.371432,-0.273708,-0.050000,-0.050000,0.478564,-0.387843,0.000000,0.000000,-0.535044,0.472660,1.039558,1.205927,0.035103,-0.008850,-0.084419,0.015811,-0.005161,-0.017948
-0.050000,-0.050000,0.000000,0.000000,0.000000,0.000000,0.000000,0.000000,0.000000,0.100000,0.100000,-0.390553,-0.276489,-0.050000,-0.050000,0.495147,-0.393004,0.000000,0.000000,-0.534158,0.474463,1.026672,1.195084,0.027769,-0.002721,-0.085721,0.012770,-0.001199,-0.018804
-0.050000,-0.050000,0.000000,0.000000,0.000000,0.000000,0.000000,0.000000,0.000000,0.100000,0.100000,-0.411683,-0.281727,-0.050000,-0.050000,0.513723,-0.400364,0.000000,0.000000,-0.531412,0.476479,1.010637,1.179446,0.017441,0.004711,-0.087336,0.009376,0.004944,-0.020988
-0.050000,-0.050000,0.000000,0.000000,0.000000,0.000000,0.000000,0.000000,0.000000,0.100000,0.100000,-0.433378,-0.287690,-0.050000,-0.050000,0.532728,-0.408336,0.000000,0.000000,-0.527958,0.478295,0.993304,1.162186,0.006051,0.012779,-0.089127,0.005834,0.011971,-0.023790
-0.050000,-0.050000,0.000000,0.000000,0.000000,0.000000,0.000000,0.000000,0.000000,0.100000,0.100000,-0.456203,-0.295105,-0.050000,-0.050000,0.552591,-0.417528,0.000000,0.000000,-0.523084,0.479710,0.973377,1.141681,-0.007464,0.022119,-0.091269,0.001998,0.020765,-0.027824
-0.050000,-0.050000,0.000000,0.000000,0.000000,0.000000,0.000000,0.000000,0.000000,0.100000,0.100000,-0.479758,-0.303750,-0.050000,-0.050000,0.572713,-0.427615,0.000000,0.000000,-0.516732,0.480126,0.950475,1.117877,-0.022848,0.033157,-0.093963,-0.002235,0.031442,-0.033426
-0.050000,-0.050000,0.000000,0.000000,0.000000,0.000000,0.000000,0.000000,0.000000,0.100000,0.100000,-0.503679,-0.313009,-0.050000,-0.050000,0.592965,-0.438149,0.000000,0.000000,-0.509641,0.480042,0.926086,1.092425,-0.039167,0.045044,-0.096935,-0.006666,0.043063,-0.039812
-0.050000,-0.050000,0.000000,0.000000,0.000000,0.000000,0.000000,0.000000,0.000000,0.100000,0.100000,-0.527866,-0.323731,-0.050000,-0.050000,0.612591,-0.449393,0.000000,0.000000,-0.500408,0.477663,0.896987,1.062096,-0.057284,0.059854,-0.101068,-0.011901,0.057327,-0.048890
-0.050000,-0.050000,0.000000,0.000000,0.000000,0.000000,0.000000,0.000000,0.000000,0.100000,0.100000,-0.551823,-0.334791,-0.050000,-0.050000,0.631667,-0.460618,0.000000,0.000000,-0.490526,0.474332,0.866376,1.030258,-0.075503,0.075627,-0.105669,-0.017483,0.072299,-0.058897
-0.050000,-0.050000,0.000000,0.000000,0.000000,0.000000,0.000000,0.000000,0.000000,0.100000,0.100000,-0.575320,-0.346526,-0.050000,-0.050000,0.649645,-0.471804,0.000000,0.000000,-0.479346,0.469097,0.832742,0.995403,-0.093929,0.093323,-0.111207,-0.023759,0.088685,-0.070762
-0.050000,-0.050000,0.000000,0.000000,0.000000,0.000000,0.000000,0.000000,0.000000,0.100000,0.100000,-0.597723,-0.358580,-0.050000,-0.050000,0.665931,-0.482388,0.000000,0.000000,-0.467051,0.461806,0.796511,0.957998,-0.111444,0.112621,-0.117699,-0.030860,0.105982,-0.084371
-0.050000,-0.050000,0.000000,0.000000,0.000000,0.000000,0.000000,0.000000,0.000000,0.100000,0.100000,-0.619578,-0.370794,-0.050000,-0.050000,0.681371,-0.492672,0.000000,0.000000,-0.454197,0.453487,0.758981,0.919318,-0.128504,0.132722,-0.124669,-0.038375,0.123735,-0.098852
-0.050000,-0.050000,0.000000,0.000000,0.000000,0.000000,0.000000,0.000000,0.000000,0.100000,0.100000,-0.638993,-0.382884,-0.050000,-0.050000,0.693647,-0.501242,0.000000,0.000000,-0.440009,0.442251,0.718611,0.877876,-0.142700,0.154371,-0.132806,-0.047206,0.142027,-0.115525
-0.050000,-0.050000,0.000000,0.000000,0.000000,0.000000,0.000000,0.000000,0.000000,0.100000,0.100000,-0.657421,-0.394725,-0.050000,-0.050000,0.704785,-0.509034,0.000000,0.000000,-0.425518,0.430240,0.677750,0.835970,-0.155604,0.176167,-0.141155,-0.056432,0.160251,-0.132721
-0.050000,-0.050000,0.000000,0.000000,0.000000,0.000000,0.000000,0.000000,0.000000,0.100000,0.100000,-0.673873,-0.406071,-0.050000,-0.050000,0.713645,-0.515266,0.000000,0.000000,-0.410423,0.416680,0.635906,0.793133,-0.165923,0.198259,-0.149930,-0.066447,0.178338,-0.150962
-0.050000,-0.050000,0.000000,0.000000,0.000000,0.000000,0.000000,0.000000,0.000000,0.100000,0.100000,-0.688239,-0.416549,-0.050000,-0.050000,0.720339,-0.519741,0.000000,0.000000,-0.395090,0.402238,0.594095,0.750406,-0.173405,0.219844,-0.158675,-0.076981,0.195912,-0.169729
-0.050000,-0.050000,0.000000,0.000000,0.000000,0.000000,0.000000,0.000000,0.000000,0.100000,0.100000,-0.701561,-0.426594,-0.050000,-0.050000,0.725952,-0.523338,0.000000,0.000000,-0.379639,0.387355,0.552300,0.707734,-0.179467,0.241177,-0.167406,-0.087775,0.213228,-0.188761
-0.050000,-0.050000,0.000000,0.000000,0.000000,0.000000,0.000000,0.000000,0.000000,0.100000,0.100000,-0.711952,-0.434927,-0.050000,-0.050000,0.728880,-0.524405,0.000000,0.000000,-0.364524,0.372464,0.512097,0.666857,-0.181506,0.260630,-0.175408,-0.098677,0.229385,-0.207713
-0.050000,-0.050000,0.000000,0.000000,0.000000,0.000000,0.000000,0.000000,0.000000,0.100000,0.100000,-0.721535,-0.442622,-0.050000,-0.050000,0.731197,-0.524790,0.000000,0.000000,-0.349788,0.358056,0.472913,0.627106,-0.182441,0.279167,-0.182980,-0.109328,0.245064,-0.226330
-0.050000,-0.050000,0.000000,0.000000,0.000000,0.000000,0.000000,0.000000,0.000000,0.100000,0.100000,-0.729501,-0.449039,-0.050000,-0.050000,0.732292,-0.523809,0.000000,0.000000,-0.335810,0.344614,0.435770,0.589605,-0.181169,0.295875,-0.189689,-0.119476,0.259783,-0.244278
-0.050000,-0.050000,0.000000,0.000000,0.000000,0.000000,0.000000,0.000000,0.000000,0.100000,0.100000,-0.736329,-0.454193,-0.050000,-0.050000,0.732813,-0.521947,0.000000,0.000000,-0.323149,0.333066,0.401571,0.555316,-0.178385,0.310445,-0.195281,-0.128508,0.273363,-0.260930
-0.050000,-0.050000,0.000000,0.000000,0.000000,0.000000,0.000000,0.000000,0.000000,0.100000,0.100000,-0.742587,-0.458715,-0.050000,-0.050000,0.733047,-0.519643,0.000000,0.000000,-0.311146,0.322465,0.368844,0.522634,-0.174843,0.323948,-0.200315,-0.136983,0.286373,-0.276932
-0.050000,-0.050000,0.000000,0.000000,0.000000,0.000000,0.000000,0.000000,0.000000,0.100000,0.100000,-0.747943,-0.461583,-0.050000,-0.050000,0.733307,-0.516793,0.000000,0.000000,-0.301894,0.315822,0.341771,0.496019,-0.170278,0.334269,-0.203486,-0.142972,0.297325,-0.290070
-0.050000,-0.050000,0.000000,0.000000,0.000000,0.000000,0.000000,0.000000,0.000000,0.100000,0.100000,-0.753260,-0.464037,-0.050000,-0.050000,0.733781,-0.513974,0.000000,0.000000,-0.293762,0.310728,0.316957,0.471769,-0.165830,0.343689,-0.206033,-0.147944,0.307441,-0.301973
-0.050000,-0.050000,0.000000,0.000000,0.000000,0.000000,0.000000,0.000000,0.000000,0.100000,0.100000,-0.758502,-0.465667,-0.050000,-0.050000,0.734683,-0.511220,0.000000,0.000000,-0.287870,0.308734,0.296657,0.452246,-0.161616,0.351306,-0.207331,-0.150883,0.315882,-0.311408
-0.050000,-0.050000,0.000000,0.000000,0.000000,0.000000,0.000000,0.000000,0.000000,0.100000,0.100000,-0.764117,-0.466823,-0.050000,-0.050000,0.736164,-0.508798,0.000000,0.000000,-0.284459,0.309959,0.281503,0.437960,-0.158589,0.357634,-0.207471,-0.151636,0.322304,-0.317929
-0.050000,-0.050000,0.000000,0.000000,0.000000,0.000000,0.000000,0.000000,0.000000,0.100000,0.100000,-0.769919,-0.467742,-0.050000,-0.050000,0.737934,-0.506544,0.000000,0.000000,-0.282288,0.312794,0.268922,0.426293,-0.156156,0.363316,-0.207033,-0.151297,0.327718,-0.322993
-0.050000,-0.050000,0.000000,0.000000,0.000000,0.000000,0.000000,0.000000,0.000000,0.100000,0.100000,-0.776758,-0.468509,-0.050000,-0.050000,0.740395,-0.504948,0.000000,0.000000,-0.283890,0.320120,0.264727,0.422930,-0.156874,0.367886,-0.205118,-0.147805,0.329632,-0.323291
-0.050000,-0.050000,0.000000,0.000000,0.000000,0.000000,0.000000,0.000000,0.000000,0.100000,0.100000,-0.784012,-0.469390,-0.050000,-0.050000,0.742923,-0.503576,0.000000,0.000000,-0.286649,0.328675,0.263402,0.422348,-0.159025,0.372291,-0.202829,-0.143410,0.330286,-0.321993
-0.050000,-0.050000,0.000000,0.000000,0.000000,0.000000,0.000000,0.000000,0.000000,0.100000,0.100000,-0.792094,-0.470502,-0.050000,-0.050000,0.745589,-0.502651,0.000000,0.000000,-0.291722,0.339686,0.267816,0.427328,-0.164039,0.376368,-0.199789,-0.137208,0.328419,-0.317505
-0.050000,-0.050000,0.000000,0.000000,0.000000,0.000000,0.000000,0.000000,0.000000,0.100000,0.100000,-0.800915,-0.472088,-0.050000,-0.050000,0.747991,-0.502181,0.000000,0.000000,-0.298663,0.352367,0.277710,0.437556,-0.172412,0.380293,-0.196276,-0.129666,0.324058,-0.310101
-0.050000,-0.050000,0.000000,0.000000,0.000000,0.000000,0.000000,0.000000,0.000000,0.100000,0.100000,-0.810105,-0.473912,-0.050000,-0.050000,0.750261,-0.501939,0.000000,0.000000,-0.306539,0.365883,0.290343,0.450407,-0.182465,0.384141,-0.192526,-0.121454,0.318450,-0.301239
-0.050000,-0.050000,0.000000,0.000000,0.000000,0.000000,0.000000,0.000000,0.000000,0.100000,0.100000,-0.819907,-0.476651,-0.050000,-0.050000,0.751642,-0.502531,0.000000,0.000000,-0.316195,0.380485,0.310077,0.470065,-0.197771,0.387684,-0.188521,-0.112121,0.309545,-0.288839
-0.050000,-0.050000,0.000000,0.000000,0.000000,0.000000,0.000000,0.000000,0.000000,0.100000,0.100000,-0.829639,-0.479709,-0.050000,-0.050000,0.752666,-0.503526,0.000000,0.000000,-0.326013,0.394945,0.331569,0.491443,-0.214726,0.391051,-0.184586,-0.102749,0.299818,-0.275652
-0.050000,-0.050000,0.000000,0.000000,0.000000,0.000000,0.000000,0.000000,0.000000,0.100000,0.100000,-0.839235,-0.483407,-0.050000,-0.050000,0.752973,-0.505327,0.000000,0.000000,-0.336156,0.409121,0.356577,0.516258,-0.234978,0.394067,-0.180793,-0.093298,0.288449,-0.260890
-0.050000,-0.050000,0.000000,0.000000,0.000000,0.000000,0.000000,0.000000,0.000000,0.100000,0.100000,-0.848021,-0.487701,-0.050000,-0.050000,0.752715,-0.508329,0.000000,0.000000,-0.345685,0.422051,0.383540,0.543093,-0.258057,0.396674,-0.177442,-0.084448,0.276178,-0.245470
-0.050000,-0.050000,0.000000,0.000000,0.000000,0.000000,0.000000,0.000000,0.000000,0.100000,0.100000,-0.856403,-0.492294,-0.050000,-0.050000,0.752174,-0.511932,0.000000,0.000000,-0.354905,0.434358,0.411480,0.570939,-0.282551,0.399078,-0.174312,-0.075897,0.263457,-0.229722
-0.050000,-0.050000,0.000000,0.000000,0.000000,0.000000,0.000000,0.000000,0.000000,0.100000,0.100000,-0.862577,-0.497673,-0.050000,-0.050000,0.751401,-0.518057,0.000000,0.000000,-0.361884,0.443553,0.439829,0.599425,-0.310383,0.401171,-0.172233,-0.069145,0.250602,-0.214394
-0.050000,-0.050000,0.000000,0.000000,0.000000,0.000000,0.000000,0.000000,0.000000,0.100000,0.100000,-0.867760,-0.503282,-0.050000,-0.050000,0.750839,-0.525258,0.000000,0.000000,-0.367774,0.451397,0.467555,0.627327,-0.339020,0.403417,-0.170592,-0.063211,0.238082,-0.199632
-0.050000,-0.050000,0.000000,0.000000,0.000000,0.000000,0.000000,0.000000,0.000000,0.100000,0.100000,-0.870960,-0.509350,-0.050000,-0.050000,0.750698,-0.534611,0.000000,0.000000,-0.371488,0.456539,0.494033,0.654063,-0.369265,0.405970,-0.169826,-0.058916,0.226227,-0.186005
-0.050000,-0.050000,0.000000,0.000000,0.000000,0.000000,0.000000,0.000000,0.000000,0.100000,0.100000,-0.871929,-0.515836,-0.050000,-0.050000,0.751582,-0.546474,0.000000,0.000000,-0.372635,0.458580,0.518147,0.678218,-0.400541,0.409578,-0.169999,-0.056494,0.215638,-0.174202
-0.050000,-0.050000,0.000000,0.000000,0.000000,0.000000,0.000000,0.000000,0.000000,0.100000,0.100000,-0.871783,-0.522531,-0.050000,-0.050000,0.752980,-0.559590,0.000000,0.000000,-0.372497,0.459072,0.541079,0.701084,-0.432333,0.413714,-0.170641,-0.055010,0.205680,-0.163310
-0.050000,-0.050000,0.000000,0.000000,0.000000,0.000000,0.000000,0.000000,0.000000,0.100000,0.100000,-0.868353,-0.529818,-0.050000,-0.050000,0.756686,-0.576700,0.000000,0.000000,-0.368374,0.454669,0.559598,0.718447,-0.464863,0.420632,-0.172618,-0.056412,0.198202,-0.155881
-0.050000,-0.050000,0.000000,0.000000,0.000000,0.000000,0.000000,0.000000,0.000000,0.100000,0.100000,-0.863973,-0.537288,-0.050000,-0.050000,0.761333,-0.595091,0.000000,0.000000,-0.363004,0.448662,0.576618,0.733634,-0.497373,0.428794,-0.174976,-0.058742,0.191642,-0.149747
-0.050000,-0.050000,0.000000,0.000000,0.000000,0.000000,0.000000,0.000000,0.000000,0.100000,0.100000,-0.857694,-0.545124,-0.050000,-0.050000,0.767861,-0.616041,0.000000,0.000000,-0.355139,0.439447,0.590638,0.744473,-0.529841,0.439446,-0.178095,-0.062924,0.186916,-0.146202
-0.050000,-0.050000,0.000000,0.000000,0.000000,0.000000,0.000000,0.000000,0.000000,0.100000,0.100000,-0.849952,-0.553268,-0.050000,-0.050000,0.776411,-0.639182,0.000000,0.000000,-0.345101,0.427270,0.601977,0.750712,-0.561724,0.452875,-0.181823,-0.068835,0.184034,-0.145352
-0.050000,-0.050000,0.000000,0.000000,0.000000,0.000000,0.000000,0.000000,0.000000,0.100000,0.100000,-0.841478,-0.561566,-0.050000,-0.050000,0.785971,-0.663418,0.000000,0.000000,-0.333978,0.413613,0.611975,0.754653,-0.593315,0.467692,-0.185855,-0.075610,0.182075,-0.145851
-0.050000,-0.050000,0.000000,0.000000,0.000000,0.000000,0.000000,0.000000,0.000000,0.100000,0.100000,-0.831505,-0.570158,-0.050000,-0.050000,0.798467,-0.690023,0.000000,0.000000,-0.320193,0.396126,0.618683,0.751908,-0.623204,0.486441,-0.190606,-0.084780,0.182700,-0.150338
-0.050000,-0.050000,0.000000,0.000000,0.000000,0.000000,0.000000,0.000000,0.000000,0.100000,0.100000,-0.821228,-0.578767,-0.050000,-0.050000,0.811809,-0.717024,0.000000,0.000000,-0.305733,0.377633,0.624523,0.747160,-0.652263,0.506196,-0.195554,-0.094677,0.184079,-0.156074
-0.050000,-0.050000,0.000000,0.000000,0.000000,0.000000,0.000000,0.000000,0.000000,0.100000,0.100000,-0.810344,-0.587406,-0.050000,-0.050000,0.826844,-0.744818,0.000000,0.000000,-0.289922,0.357126,0.628632,0.738406,-0.679660,0.527966,-0.200897,-0.106028,0.186963,-0.164307
-0.050000,-0.050000,0.000000,0.000000,0.000000,0.000000,0.000000,0.000000,0.000000,0.100000,0.100000,-0.799117,-0.595866,-0.050000,-0.050000,0.843128,-0.772527,0.000000,0.000000,-0.273188,0.335242,0.631319,0.726293,-0.704909,0.550778,-0.206587,-0.118649,0.191065,-0.174754
-0.050000,-0.050000,0.000000,0.000000,0.000000,0.000000,0.000000,0.000000,0.000000,0.100000,0.100000,-0.787719,-0.604235,-0.050000,-0.050000,0.860035,-0.800195,0.000000,0.000000,-0.255993,0.312670,0.633294,0.712501,-0.729084,0.574112,-0.212450,-0.131904,0.195776,-0.186308
-0.050000,-0.050000,0.000000,0.000000,0.000000,0.000000,0.000000,0.000000,0.000000,0.100000,0.100000,-0.775996,-0.611974,-0.050000,-0.050000,0.877917,-0.826416,0.000000,0.000000,-0.238070,0.289072,0.633308,0.694776,-0.749401,0.597234,-0.218766,-0.146658,0.201817,-0.200588
-0.050000,-0.050000,0.000000,0.000000,0.000000,0.000000,0.000000,0.000000,0.000000,0.100000,0.100000,-0.764174,-0.619381,-0.050000,-0.050000,0.895767,-0.851748,0.000000,0.000000,-0.220128,0.265484,0.632641,0.676106,-0.768260,0.619679,-0.225193,-0.161717,0.208131,-0.215530
-0.050000,-0.050000,0.000000,0.000000,0.000000,0.000000,0.000000,0.000000,0.000000,0.100000,0.100000,-0.752152,-0.626122,-0.050000,-0.050000,0.913553,-0.875300,0.000000,0.000000,-0.202147,0.241918,0.630613,0.655546,-0.784203,0.640773,-0.231843,-0.177388,0.214990,-0.231796
-0.050000,-0.050000,0.000000,0.000000,0.000000,0.000000,0.000000,0.000000,0.000000,0.100000,0.100000,-0.739894,-0.631974,-0.050000,-0.050000,0.930497,-0.896361,0.000000,0.000000,-0.184574,0.219041,0.627071,0.633766,-0.797003,0.659466,-0.238571,-0.193174,0.222072,-0.248832
-0.050000,-0.050000,0.000000,0.000000,0.000000,0.000000,0.000000,0.000000,0.000000,0.100000,0.100000,-0.727518,-0.637383,-0.050000,-0.050000,0.947021,-0.916175,0.000000,0.000000,-0.167204,0.196509,0.622773,0.611375,-0.808231,0.676959,-0.245339,-0.209018,0.229266,-0.266253
-0.050000,-0.050000,0.000000,0.000000,0.000000,0.000000,0.000000,0.000000,0.000000,0.100000,0.100000,-0.714740,-0.641199,-0.050000,-0.050000,0.961095,-0.931358,0.000000,0.000000,-0.151087,0.175912,0.615963,0.588032,-0.814624,0.689742,-0.251891,-0.224176,0.236380,-0.283968
-0.050000,-0.050000,0.000000,0.000000,0.000000,0.000000,0.000000,0.000000,0.000000,0.100000,0.100000,-0.701840,-0.644437,-0.050000,-0.050000,0.973980,-0.944761,0.000000,0.000000,-0.135584,0.156219,0.608276,0.564625,-0.819449,0.700779,-0.258223,-0.238811,0.243355,-0.301501
-0.050000,-0.050000,0.000000,0.000000,0.000000,0.000000,0.000000,0.000000,0.000000,0.100000,0.100000,-0.688697,-0.646521,-0.050000,-0.050000,0.984487,-0.954606,0.000000,0.000000,-0.121310,0.138335,0.598836,0.541089,-0.821137,0.708322,-0.264114,-0.252399,0.250051,-0.318669
-0.050000,-0.050000,0.000000,0.000000,0.000000,0.000000,0.000000,0.000000,0.000000,0.100000,0.100000,-0.675430,-0.647450,-0.050000,-0.050000,0.991977,-0.960567,0.000000,0.000000,-0.108635,0.122710,0.587722,0.517882,-0.819926,0.712394,-0.269206,-0.264381,0.256282,-0.334946
-0.050000,-0.050000,0.000000,0.000000,0.000000,0.000000,0.000000,0.000000,0.000000,0.100000,0.100000,-0.662101,-0.647804,-0.050000,-0.050000,0.997959,-0.964588,0.000000,0.000000,-0.096758,0.108215,0.575772,0.494840,-0.817264,0.714731,-0.273899,-0.275562,0.262280,-0.350779
-0.050000,-0.050000,0.000000,0.000000,0.000000,0.000000,0.000000,0.000000,0.000000,0.100000,0.100000,-0.648928,-0.646574,-0.050000,-0.050000,0.998709,-0.962566,0.000000,0.000000,-0.087817,0.097714,0.561761,0.472958,-0.810737,0.712321,-0.276810,-0.283600,0.267328,-0.364549
-0.050000,-0.050000,0.000000,0.000000,0.000000,0.000000,0.000000,0.000000,0.000000,0.100000,0.100000,-0.635973,-0.644904,-0.050000,-0.050000,0.997592,-0.958567,0.000000,0.000000,-0.080040,0.088733,0.547333,0.451696,-0.803082,0.708553,-0.278940,-0.290389,0.271974,-0.377408
-0.050000,-0.050000,0.000000,0.000000,0.000000,0.000000,0.000000,0.000000,0.000000,0.100000,0.100000,-0.623455,-0.642354,-0.050000,-0.050000,0.992742,-0.950615,0.000000,0.000000,-0.074589,0.082790,0.532071,0.431670,-0.793174,0.702064,-0.279508,-0.294683,0.275813,-0.388445
-0.050000,-0.050000,0.000000,0.000000,0.000000,0.000000,0.000000,0.000000,0.000000,0.100000,0.100000,-0.611783,-0.639132,-0.050000,-0.050000,0.984171,-0.939026,0.000000,0.000000,-0.071838,0.080213,0.516728,0.413363,-0.781253,0.693285,-0.278217,-0.296186,0.278662,-0.397254
-0.050000,-0.050000,0.000000,0.000000,0.000000,0.000000,0.000000,0.000000,0.000000,0.100000,0.100000,-0.600535,-0.635574,-0.050000,-0.050000,0.973739,-0.925620,0.000000,0.000000,-0.070436,0.079320,0.501345,0.395916,-0.768327,0.683359,-0.275997,-0.296294,0.281016,-0.404950
-0.050000,-0.050000,0.000000,0.000000,0.000000,0.000000,0.000000,0.000000,0.000000,0.100000,0.100000,-0.591209,-0.631294,-0.050000,-0.050000,0.958136,-0.907579,0.000000,0.000000,-0.073574,0.083813,0.487165,0.381727,-0.752560,0.670435,-0.270766,-0.291996,0.281601,-0.408782
-0.050000,-0.050000,0.000000,0.000000,0.000000,0.000000,0.000000,0.000000,0.000000,0.100000,0.100000,-0.583040,-0.627191,-0.050000,-0.050000,0.940467,-0.887664,0.000000,0.000000,-0.077847,0.089903,0.473042,0.367878,-0.734310,0.655046,-0.263950,-0.285580,0.282343,-0.412079
-0.050000,-0.050000,0.000000,0.000000,0.000000,0.000000,0.000000,0.000000,0.000000,0.100000,0.100000,-0.577185,-0.623442,-0.050000,-0.050000,0.918664,-0.864001,0.000000,0.000000,-0.084387,0.099185,0.459031,0.354709,-0.711094,0.634727,-0.253966,-0.274929,0.283398,-0.414308
-0.050000,-0.050000,0.000000,0.000000,0.000000,0.000000,0.000000,0.000000,0.000000,0.100000,0.100000,-0.573069,-0.618925,-0.050000,-0.050000,0.895458,-0.839917,0.000000,0.000000,-0.095213,0.112395,0.449113,0.345910,-0.688210,0.614735,-0.243006,-0.262350,0.281757,-0.412083
-0.050000,-0.050000,0.000000,0.000000,0.000000,0.000000,0.000000,0.000000,0.000000,0.100000,0.100000,-0.569823,-0.614022,-0.050000,-0.050000,0.871551,-0.815623,0.000000,0.000000,-0.108182,0.127567,0.441243,0.339296,-0.665492,0.594906,-0.231559,-0.248808,0.278768,-0.407631
-0.050000,-0.050000,0.000000,0.000000,0.000000,0.000000,0.000000,0.000000,0.000000,0.100000,0.100000,-0.569890,-0.608350,-0.050000,-0.050000,0.845603,-0.790530,0.000000,0.000000,-0.125923,0.146902,0.438465,0.337203,-0.640874,0.573113,-0.219301,-0.233170,0.272790,-0.398003
-0.050000,-0.050000,0.000000,0.000000,0.000000,0.000000,0.000000,0.000000,0.000000,0.100000,0.100000,-0.570875,-0.602304,-0.050000,-0.050000,0.819320,-0.765451,0.000000,0.000000,-0.144784,0.167157,0.437107,0.336106,-0.615478,0.550462,-0.207021,-0.217151,0.266078,-0.387035
-0.050000,-0.050000,0.000000,0.000000,0.000000,0.000000,0.000000,0.000000,0.000000,0.100000,0.100000,-0.573697,-0.595510,-0.050000,-0.050000,0.792369,-0.740402,0.000000,0.000000,-0.165884,0.189252,0.438590,0.336998,-0.588522,0.526098,-0.194700,-0.200369,0.257899,-0.373387
-0.050000,-0.050000,0.000000,0.000000,0.000000,0.000000,0.000000,0.000000,0.000000,0.100000,0.100000,-0.577770,-0.587742,-0.050000,-0.050000,0.765557,-0.715938,0.000000,0.000000,-0.188247,0.212228,0.442124,0.338930,-0.560166,0.500238,-0.182904,-0.183636,0.248720,-0.357802
-0.050000,-0.050000,0.000000,0.000000,0.000000,0.000000,0.000000,0.000000,0.000000,0.100000,0.100000,-0.582468,-0.579486,-0.050000,-0.050000,0.738813,-0.691765,0.000000,0.000000,-0.211241,0.235645,0.446685,0.341382,-0.531111,0.473631,-0.171371,-0.166928,0.239042,-0.341249
-0.050000,-0.050000,0.000000,0.000000,0.000000,0.000000,0.000000,0.000000,0.000000,0.100000,0.100000,-0.588173,-0.569653,-0.050000,-0.050000,0.713524,-0.669207,0.000000,0.000000,-0.234716,0.258945,0.452891,0.344163,-0.500544,0.445803,-0.161303,-0.151431,0.228638,-0.323028
-0.050000,-0.050000,0.000000,0.000000,0.000000,0.000000,0.000000,0.000000,0.000000,0.100000,0.100000,-0.593994,-0.559354,-0.050000,-0.050000,0.689107,-0.647392,0.000000,0.000000,-0.257954,0.281765,0.459167,0.346749,-0.469736,0.418075,-0.151841,-0.136603,0.218270,-0.304702
-0.050000,-0.050000,0.000000,0.000000,0.000000,0.000000,0.000000,0.000000,0.000000,0.100000,0.100000,-0.600048,-0.548124,-0.050000,-0.050000,0.666436,-0.627064,0.000000,0.000000,-0.280717,0.303625,0.465581,0.348945,-0.438449,0.390547,-0.143592,-0.123109,0.207976,-0.286166
-0.050000,-0.050000,0.000000,0.000000,0.000000,0.000000,0.000000,0.000000,0.000000,0.100000,0.100000,-0.603791,-0.535454,-0.050000,-0.050000,0.647117,-0.609513,0.000000,0.000000,-0.302050,0.324665,0.469701,0.350201,-0.409741,0.366596,-0.136835,-0.111890,0.198141,-0.268720
-0.050000,-0.050000,0.000000,0.000000,0.000000,0.000000,0.000000,0.000000,0.000000,0.100000,0.100000,-0.606378,-0.522064,-0.050000,-0.050000,0.629475,-0.593349,0.000000,0.000000,-0.322667,0.345297,0.472675,0.350987,-0.382321,0.344433,-0.130824,-0.101808,0.188537,-0.251820
-0.050000,-0.050000,0.000000,0.000000,0.000000,0.000000,0.000000,0.000000,0.000000,0.100000,0.100000,-0.611155,-0.509305,-0.050000,-0.050000,0.614603,-0.578692,0.000000,0.000000,-0.341372,0.362072,0.475580,0.350768,-0.352761,0.322822,-0.125818,-0.093074,0.180672,-0.236673
-0.050000,-0.050000,0.000000,0.000000,0.000000,0.000000,0.000000,0.000000,0.000000,0.100000,0.100000,-0.616267,-0.496815,-0.050000,-0.050000,0.601066,-0.564955,0.000000,0.000000,-0.359310,0.377449,0.477954,0.350055,-0.323693,0.302597,-0.121247,-0.084960,0.173550,-0.222596
-0.050000,-0.050000,0.000000,0.000000,0.000000,0.000000,0.000000,0.000000,0.000000,0.100000,0.100000,-0.622052,-0.484863,-0.050000,-0.050000,0.590201,-0.553055,0.000000,0.000000,-0.375712,0.390030,0.479266,0.348357,-0.295607,0.285143,-0.117546,-0.078085,0.167915,-0.210662
-0.050000,-0.050000,0.000000,0.000000,0.000000,0.000000,0.000000,0.000000,0.000000,0.100000,0.100000,-0.628334,-0.473885,-0.050000,-0.050000,0.582033,-0.543030,0.000000,0.000000,-0.390460,0.399869,0.479165,0.345538,-0.269609,0.271358,-0.114474,-0.072358,0.163885,-0.201288
-0.050000,-0.050000,0.000000,0.000000,0.000000,0.000000,0.000000,0.000000,0.000000,0.100000,0.100000,-0.634865,-0.463395,-0.050000,-0.050000,0.575214,-0.533944,0.000000,0.000000,-0.404379,0.408336,0.478358,0.342159,-0.244655,0.259408,-0.111715,-0.067205,0.160657,-0.193194
-0.050000,-0.050000,0.000000,0.000000,0.000000,0.000000,0.000000,0.000000,0.000000,0.100000,0.100000,-0.642182,-0.455160,-0.050000,-0.050000,0.571974,-0.527399,0.000000,0.000000,-0.415763,0.413011,0.475415,0.336974,-0.224055,0.253344,-0.109475,-0.063569,0.159759,-0.189122
-0.050000,-0.050000,0.000000,0.000000,0.000000,0.000000,0.000000,0.000000,0.000000,0.100000,0.100000,-0.649782,-0.447915,-0.050000,-0.050000,0.569679,-0.521563,0.000000,0.000000,-0.426327,0.416607,0.471865,0.331177,-0.205236,0.249157,-0.107298,-0.060403,0.159512,-0.186307
-0.050000,-0.050000,0.000000,0.000000,0.000000,0.000000,0.000000,0.000000,0.000000,0.100000,0.100000,-0.657951,-0.442650,-0.050000,-0.050000,0.569274,-0.517146,0.000000,0.000000,-0.435254,0.418043,0.467099,0.324152,-0.189979,0.248725,-0.105251,-0.058175,0.160564,-0.186007
-0.050000,-0.050000,0.000000,0.000000,0.000000,0.000000,0.000000,0.000000,0.000000,0.100000,0.100000,-0.666683,-0.439709,-0.050000,-0.050000,0.570190,-0.513838,0.000000,0.000000,-0.442675,0.417796,0.461466,0.315986,-0.178705,0.251548,-0.103221,-0.056877,0.162496,-0.187832
-0.050000,-0.050000,0.000000,0.000000,0.000000,0.000000,0.000000,0.000000,0.000000,0.100000,0.100000,-0.675698,-0.437931,-0.050000,-0.050000,0.571767,-0.511086,0.000000,0.000000,-0.449344,0.416707,0.455399,0.307249,-0.169421,0.255998,-0.101200,-0.056044,0.164869,-0.190718
-0.050000,-0.050000,0.000000,0.000000,0.000000,0.000000,0.000000,0.000000,0.000000,0.100000,0.100000,-0.685464,-0.439876,-0.050000,-0.050000,0.574502,-0.509545,0.000000,0.000000,-0.454067,0.413879,0.448657,0.297141,-0.166204,0.264222,-0.099199,-0.056627,0.167829,-0.196017
-0.050000,-0.050000,0.000000,0.000000,0.000000,0.000000,0.000000,0.000000,0.000000,0.100000,0.100000,-0.695434,-0.443035,-0.050000,-0.050000,0.577394,-0.508276,0.000000,0.000000,-0.458275,0.410726,0.441895,0.286761,-0.164830,0.273269,-0.097242,-0.057675,0.170760,-0.201858
-0.050000,-0.050000,0.000000,0.000000,0.000000,0.000000,0.000000,0.000000,0.000000,0.100000,0.100000,-0.705810,-0.448619,-0.050000,-0.050000,0.580601,-0.507555,0.000000,0.000000,-0.461454,0.406924,0.435095,0.275835,-0.167144,0.283963,-0.095374,-0.059655,0.173632,-0.208783
-0.050000,-0.050000,0.000000,0.000000,0.000000,0.000000,0.000000,0.000000,0.000000,0.100000,0.100000,-0.716493,-0.456362,-0.050000,-0.050000,0.583800,-0.507184,0.000000,0.000000,-0.463907,0.402916,0.428588,0.264804,-0.172391,0.295418,-0.093710,-0.062490,0.176125,-0.216347
-0.050000,-0.050000,0.000000,0.000000,0.000000,0.000000,0.000000,0.000000,0.000000,0.100000,0.100000,-0.727329,-0.465183,-0.050000,-0.050000,0.586994,-0.506988,0.000000,0.000000,-0.465999,0.398806,0.422227,0.253721,-0.179106,0.307254,-0.092148,-0.065753,0.178430,-0.224229
-0.050000,-0.050000,0.000000,0.000000,0.000000,0.000000,0.000000,0.000000,0.000000,0.100000,0.100000,-0.738504,-0.476566,-0.050000,-0.050000,0.589904,-0.507144,0.000000,0.000000,-0.467468,0.394900,0.416596,0.243108,-0.188654,0.319015,-0.091067,-0.070083,0.179949,-0.232570
-0.050000,-0.050000,0.000000,0.000000,0.000000,0.000000,0.000000,0.000000,0.000000,0.100000,0.100000,-0.749764,-0.488515,-0.050000,-0.050000,0.592689,-0.507394,0.000000,0.000000,-0.468869,0.391173,0.411225,0.232797,-0.198559,0.330408,-0.090190,-0.074667,0.181218,-0.240950
-0.050000,-0.050000,0.000000,0.000000,0.000000,0.000000,0.000000,0.000000,0.000000,0.100000,0.100000,-0.761191,-0.501595,-0.050000,-0.050000,0.595224,-0.507836,0.000000,0.000000,-0.470135,0.387805,0.406374,0.223088,-0.209178,0.341065,-0.089724,-0.079759,0.181984,-0.249409
-0.050000,-0.050000,0.000000,0.000000,0.000000,0.000000,0.000000,0.000000,0.000000,0.100000,0.100000,-0.772736,-0.515172,-0.050000,-0.050000,0.597520,-0.508476,0.000000,0.000000,-0.471489,0.384905,0.401934,0.214080,-0.219384,0.350442,-0.089714,-0.085128,0.182387,-0.257796
-0.050000,-0.050000,0.000000,0.000000,0.000000,0.000000,0.000000,0.000000,0.000000,0.100000,0.100000,-0.784339,-0.528998,-0.050000,-0.050000,0.599696,-0.509215,0.000000,0.000000,-0.472887,0.382240,0.397699,0.205422,-0.229382,0.359180,-0.089932,-0.090634,0.182610,-0.266146
-0.050000,-0.050000,0.000000,0.000000,0.000000,0.000000,0.000000,0.000000,0.000000,0.100000,0.100000,-0.796012,-0.542623,-0.050000,-0.050000,0.601546,-0.510269,0.000000,0.000000,-0.474637,0.380291,0.393793,0.197669,-0.237398,0.365423,-0.090830,-0.096203,0.182580,-0.274230
-0.050000,-0.050000,0.000000,0.000000,0.000000,0.000000,0.000000,0.000000,0.000000,0.100000,0.100000,-0.807648,-0.555895,-0.050000,-0.050000,0.603275,-0.511411,0.000000,0.000000,-0.476536,0.378549,0.389903,0.190108,-0.244476,0.370734,-0.091925,-0.101687,0.182556,-0.282190
-0.050000,-0.050000,0.000000,0.000000,0.000000,0.000000,0.000000,0.000000,0.000000,0.100000,0.100000,-0.819210,-0.568460,-0.050000,-0.050000,0.604762,-0.512726,0.000000,0.000000,-0.478733,0.377220,0.386044,0.182927,-0.249675,0.374182,-0.093414,-0.107001,0.182545,-0.289899
-0.050000,-0.050000,0.000000,0.000000,0.000000,0.000000,0.000000,0.000000,0.000000,0.100000,0.100000,-0.830505,-0.579835,-0.050000,-0.050000,0.605896,-0.514091,0.000000,0.000000,-0.481218,0.376188,0.382114,0.175888,-0.252869,0.375790,-0.095179,-0.111972,0.182664,-0.297319
-0.050000,-0.050000,0.000000,0.000000,0.000000,0.000000,0.000000,0.000000,0.000000,0.100000,0.100000,-0.841668,-0.590616,-0.050000,-0.050000,0.606854,-0.515479,0.000000,0.000000,-0.483846,0.375304,0.378147,0.168919,-0.255060,0.376478,-0.097081,-0.116771,0.182849,-0.304594
-0.050000,-0.050000,0.000000,0.000000,0.000000,0.000000,0.000000,0.000000,0.000000,0.100000,0.100000,-0.852038,-0.599059,-0.050000,-0.050000,0.606968,-0.516593,0.000000,0.000000,-0.486802,0.374661,0.374121,0.161939,-0.254684,0.374819,-0.099140,-0.120860,0.183269,-0.311422
-0.050000,-0.050000,0.000000,0.000000,0.000000,0.000000,0.000000,0.000000,0.000000,0.100000,0.100000,-0.861985,-0.606602,-0.050000,-0.050000,0.606662,-0.517461,0.000000,0.000000,-0.489816,0.374029,0.370157,0.154963,-0.253768,0.372634,-0.101146,-0.124665,0.183731,-0.318109
-0.050000,-0.050000,0.000000,0.000000,0.000000,0.000000,0.000000,0.000000,0.000000,0.100000,0.100000,-0.871087,-0.612349,-0.050000,-0.050000,0.605512,-0.517838,0.000000,0.000000,-0.492945,0.373421,0.366317,0.147996,-0.251771,0.369397,-0.103047,-0.127902,0.184275,-0.324513
-0.050000,-0.050000,0.000000,0.000000,0.000000,0.000000,0.000000,0.000000,0.000000,0.100000,0.100000,-0.879015,-0.616204,-0.050000,-0.050000,0.603214,-0.517402,0.000000,0.000000,-0.496070,0.372725,0.362840,0.141221,-0.249511,0.365781,-0.104627,-0.130509,0.184743,-0.330655
-0.050000,-0.050000,0.000000,0.000000,0.000000,0.000000,0.000000,0.000000,0.000000,0.100000,0.100000,-0.886356,-0.619113,-0.050000,-0.050000,0.600343,-0.516558,0.000000,0.000000,-0.499193,0.371986,0.359543,0.134541,-0.247118,0.361975,-0.106047,-0.132800,0.185171,-0.336666
-0.050000,-0.050000,0.000000,0.000000,0.000000,0.000000,0.000000,0.000000,0.000000,0.100000,0.100000,-0.891493,-0.619279,-0.050000,-0.050000,0.595352,-0.514115,0.000000,0.000000,-0.502124,0.371001,0.357111,0.128587,-0.245570,0.358654,-0.106717,-0.134095,0.185166,-0.342290
-0.050000,-0.050000,0.000000,0.000000,0.000000,0.000000,0.000000,0.000000,0.000000,0.100000,0.100000,-0.895787,-0.618639,-0.050000,-0.050000,0.589572,-0.511084,0.000000,0.000000,-0.504930,0.369918,0.355011,0.123022,-0.244642,0.355786,-0.107085,-0.135061,0.184908,-0.347771
-0.050000,-0.050000,0.000000,0.000000,0.000000,0.000000,0.000000,0.000000,0.000000,0.100000,0.100000,-0.898397,-0.616389,-0.050000,-0.050000,0.582212,-0.506876,0.000000,0.000000,-0.507481,0.368638,0.353576,0.118234,-0.244956,0.353820,-0.106849,-0.135367,0.184145,-0.352967
-0.050000,-0.050000,0.000000,0.000000,0.000000,0.000000,0.000000,0.000000,0.000000,0.100000,0.100000,-0.899218,-0.612882,-0.050000,-0.050000,0.573239,-0.501570,0.000000,0.000000,-0.509653,0.367165,0.352696,0.114408,-0.246938,0.353083,-0.106007,-0.135064,0.182715,-0.357831
-0.050000,-0.050000,0.000000,0.000000,0.000000,0.000000,0.000000,0.000000,0.000000,0.100000,0.100000,-0.899145,-0.608747,-0.050000,-0.050000,0.563461,-0.495715,0.000000,0.000000,-0.511635,0.365596,0.352095,0.111063,-0.249755,0.352960,-0.104862,-0.134457,0.180951,-0.362527
-0.050000,-0.050000,0.000000,0.000000,0.000000,0.000000,0.000000,0.000000,0.000000,0.100000,0.100000,-0.896424,-0.603399,-0.050000,-0.050000,0.551445,-0.488605,0.000000,0.000000,-0.512876,0.363794,0.351859,0.109157,-0.255272,0.354676,-0.102964,-0.133092,0.178095,-0.366650
-0.050000,-0.050000,0.000000,0.000000,0.000000,0.000000,0.000000,0.000000,0.000000,0.100000,0.100000,-0.892893,-0.597890,-0.050000,-0.050000,0.538815,-0.481279,0.000000,0.000000,-0.513832,0.361949,0.351520,0.107629,-0.261618,0.356848,-0.100904,-0.131545,0.174910,-0.370570
-0.050000,-0.050000,0.000000,0.000000,0.000000,0.000000,0.000000,0.000000,0.000000,0.100000,0.100000,-0.887742,-0.592056,-0.050000,-0.050000,0.524955,-0.473520,0.000000,0.000000,-0.514218,0.360016,0.350972,0.106857,-0.269620,0.359930,-0.098522,-0.129637,0.171064,-0.374088
-0.050000,-0.050000,0.000000,0.000000,0.000000,0.000000,0.000000,0.000000,0.000000,0.100000,0.100000,-0.881221,-0.586354,-0.050000,-0.050000,0.510240,-0.465794,0.000000,0.000000,-0.514027,0.358091,0.349733,0.106492,-0.278912,0.363386,-0.096027,-0.127530,0.166739,-0.377233
-0.050000,-0.050000,0.000000,0.000000,0.000000,0.000000,0.000000,0.000000,0.000000,0.100000,0.100000,-0.874016,-0.580719,-0.050000,-0.050000,0.495096,-0.458084,0.000000,0.000000,-0.513548,0.356171,0.348148,0.106330,-0.288848,0.367029,-0.093477,-0.125323,0.162176,-0.380192
-0.050000,-0.050000,0.000000,0.000000,0.000000,0.000000,0.000000,0.000000,0.000000,0.100000,0.100000,-0.865260,-0.575846,-0.050000,-0.050000,0.479328,-0.451091,0.000000,0.000000,-0.512336,0.354439,0.344945,0.106187,-0.299942,0.370305,-0.091033,-0.123041,0.157270,-0.382709
-0.050000,-0.050000,0.000000,0.000000,0.000000,0.000000,0.000000,0.000000,0.000000,0.100000,0.100000,-0.856184,-0.571357,-0.050000,-0.050000,0.463580,-0.444512,0.000000,0.000000,-0.510969,0.352833,0.341101,0.105885,-0.311128,0.373187,-0.088682,-0.120792,0.152376,-0.385131
-0.050000,-0.050000,0.000000,0.000000,0.000000,0.000000,0.000000,0.000000,0.000000,0.100000,0.100000,-0.846470,-0.567636,-0.050000,-0.050000,0.447872,-0.438759,0.000000,0.000000,-0.509295,0.351477,0.335977,0.105267,-0.322499,0.375283,-0.086518,-0.118608,0.147502,-0.387361
-0.050000,-0.050000,0.000000,0.000000,0.000000,0.000000,0.000000,0.000000,0.000000,0.100000,0.100000,-0.836553,-0.564813,-0.050000,-0.050000,0.432632,-0.434047,0.000000,0.000000,-0.507562,0.350476,0.329600,0.104147,-0.333475,0.376243,-0.084569,-0.116556,0.142828,-0.389486
-0.050000,-0.050000,0.000000,0.000000,0.000000,0.000000,0.000000,0.000000,0.000000,0.100000,0.100000,-0.826534,-0.562438,-0.050000,-0.050000,0.417625,-0.429853,0.000000,0.000000,-0.505800,0.349653,0.322595,0.102775,-0.344252,0.376636,-0.082728,-0.114569,0.138253,-0.391558
-0.050000,-0.050000,0.000000,0.000000,0.000000,0.000000,0.000000,0.000000,0.000000,0.100000,0.100000,-0.816883,-0.561417,-0.050000,-0.050000,0.403859,-0.427329,0.000000,0.000000,-0.504357,0.349447,0.314064,0.100634,-0.353673,0.375178,-0.081136,-0.112825,0.134059,-0.393519
-0.050000,-0.050000,0.000000,0.000000,0.000000,0.000000,0.000000,0.000000,0.000000,0.100000,0.100000,-0.807573,-0.560802,-0.050000,-0.050000,0.390642,-0.425346,0.000000,0.000000,-0.503142,0.349441,0.305217,0.098302,-0.362445,0.373171,-0.079580,-0.111165,0.129949,-0.395421
-0.050000,-0.050000,0.000000,0.000000,0.000000,0.000000,0.000000,0.000000,0.000000,0.100000,0.100000,-0.798943,-0.560997,-0.050000,-0.050000,0.378525,-0.424442,0.000000,0.000000,-0.502385,0.349834,0.295738,0.095590,-0.369921,0.370064,-0.078098,-0.109676,0.126008,-0.397205
-0.050000,-0.050000,0.000000,0.000000,0.000000,0.000000,0.000000,0.000000,0.000000,0.100000,0.100000,-0.791378,-0.561845,-0.050000,-0.050000,0.367682,-0.424532,0.000000,0.000000,-0.502265,0.350532,0.286086,0.092705,-0.375847,0.366157,-0.076589,-0.108368,0.122025,-0.398753
-0.050000,-0.050000,0.000000,0.000000,0.000000,0.000000,0.000000,0.000000,0.000000,0.100000,0.100000,-0.784345,-0.563019,-0.050000,-0.050000,0.357476,-0.425120,0.000000,0.000000,-0.502462,0.351383,0.276347,0.089735,-0.380999,0.361849,-0.075067,-0.107149,0.118021,-0.400184
-0.050000,-0.050000,0.000000,0.000000,0.000000,0.000000,0.000000,0.000000,0.000000,0.100000,0.100000,-0.779356,-0.564901,-0.050000,-0.050000,0.349303,-0.427067,0.000000,0.000000,-0.503752,0.352449,0.267026,0.086805,-0.383657,0.356903,-0.073396,-0.106241,0.113524,-0.401009
-0.050000,-0.050000,0.000000,0.000000,0.000000,0.000000,0.000000,0.000000,0.000000,0.100000,0.100000,-0.775135,-0.566932,-0.050000,-0.050000,0.341804,-0.429438,0.000000,0.000000,-0.505409,0.353482,0.258036,0.083947,-0.385494,0.351929,-0.071665,-0.105457,0.108710,-0.401539
-0.050000,-0.050000,0.000000,0.000000,0.000000,0.000000,0.000000,0.000000,0.000000,0.100000,0.100000,-0.772449,-0.569261,-0.050000,-0.050000,0.335653,-0.432656,0.000000,0.000000,-0.507799,0.354449,0.249709,0.081233,-0.385688,0.346901,-0.069811,-0.104925,0.103263,-0.401480
-0.050000,-0.050000,0.000000,0.000000,0.000000,0.000000,0.000000,0.000000,0.000000,0.100000,0.100000,-0.771327,-0.571739,-0.050000,-0.050000,0.330765,-0.436695,0.000000,0.000000,-0.510845,0.355119,0.242317,0.078658,-0.384388,0.342144,-0.067870,-0.104707,0.096934,-0.400665
-0.050000,-0.050000,0.000000,0.000000,0.000000,0.000000,0.000000,0.000000,0.000000,0.100000,0.100000,-0.770987,-0.574291,-0.050000,-0.050000,0.326508,-0.441143,0.000000,0.000000,-0.514219,0.355642,0.235392,0.076152,-0.382343,0.337523,-0.065885,-0.104645,0.090164,-0.399472
-0.050000,-0.050000,0.000000,0.000000,0.000000,0.000000,0.000000,0.000000,0.000000,0.100000,0.100000,-0.772813,-0.576887,-0.050000,-0.050000,0.323903,-0.446784,0.000000,0.000000,-0.518367,0.355391,0.230081,0.073670,-0.378487,0.333710,-0.063898,-0.105167,0.081871,-0.396976
-0.050000,-0.050000,0.000000,0.000000,0.000000,0.000000,0.000000,0.000000,0.000000,0.100000,0.100000,-0.775236,-0.579445,-0.050000,-0.050000,0.321734,-0.452789,0.000000,0.000000,-0.522677,0.354789,0.225318,0.071097,-0.374242,0.330280,-0.061972,-0.105925,0.073087,-0.394030
-0.050000,-0.050000,0.000000,0.000000,0.000000,0.000000,0.000000,0.000000,0.000000,0.100000,0.100000,-0.778851,-0.581925,-0.050000,-0.050000,0.320437,-0.459520,0.000000,0.000000,-0.527313,0.353484,0.221647,0.068343,-0.369219,0.327613,-0.060168,-0.107157,0.063318,-0.390188
-0.050000,-0.050000,0.000000,0.000000,0.000000,0.000000,0.000000,0.000000,0.000000,0.100000,0.100000,-0.783310,-0.584215,-0.050000,-0.050000,0.319721,-0.466820,0.000000,0.000000,-0.532053,0.351337,0.218990,0.065211,-0.363970,0.325912,-0.058622,-0.108945,0.052782,-0.385534
-0.050000,-0.050000,0.000000,0.000000,0.000000,0.000000,0.000000,0.000000,0.000000,0.100000,0.100000,-0.788191,-0.586408,-0.050000,-0.050000,0.319294,-0.474405,0.000000,0.000000,-0.536845,0.348768,0.216839,0.061889,-0.358610,0.324693,-0.057205,-0.111013,0.041861,-0.380474
-0.050000,-0.050000,0.000000,0.000000,0.000000,0.000000,0.000000,0.000000,0.000000,0.100000,0.100000,-0.793729,-0.588108,-0.050000,-0.050000,0.319232,-0.482433,0.000000,0.000000,-0.541445,0.344813,0.216005,0.057822,-0.353861,0.325202,-0.056348,-0.114023,0.030363,-0.374526
-0.050000,-0.050000,0.000000,0.000000,0.000000,0.000000,0.000000,0.000000,0.000000,0.100000,0.100000,-0.799278,-0.589559,-0.050000,-0.050000,0.319114,-0.490417,0.000000,0.000000,-0.545873,0.340388,0.215540,0.053518,-0.349628,0.326368,-0.055711,-0.117367,0.018922,-0.368458
-0.050000,-0.050000,0.000000,0.000000,0.000000,0.000000,0.000000,0.000000,0.000000,0.100000,0.100000,-0.804849,-0.590513,-0.050000,-0.050000,0.318886,-0.498312,0.000000,0.000000,-0.549956,0.335021,0.215813,0.048743,-0.346424,0.328846,-0.055517,-0.121378,0.007598,-0.362152
-0.050000,-0.050000,0.000000,0.000000,0.000000,0.000000,0.000000,0.000000,0.000000,0.100000,0.100000,-0.810054,-0.590792,-0.050000,-0.050000,0.318215,-0.505665,0.000000,0.000000,-0.553523,0.328769,0.216721,0.043702,-0.344751,0.332741,-0.055765,-0.126039,-0.003078,-0.356067
