RRGGZZ/g1_deploy_sonic/data/example_scalelab/qwen_50fps/case_test10/joint_pos.csv
joint_0,joint_1,joint_2,joint_3,joint_4,joint_5,joint_6,joint_7,joint_8,joint_9,joint_10,joint_11,joint_12,joint_13,joint_14,joint_15,joint_16,joint_17,joint_18,joint_19,joint_20,joint_21,joint_22,joint_23,joint_24,joint_25,joint_26,joint_27,joint_28
-0.050000,-0.050000,0.000000,0.000000,0.000000,0.000000,0.000000,0.000000,0.000000,0.100000,0.100000,-0.105977,-0.605167,-0.050000,-0.050000,0.433160,-0.764838,0.000000,0.000000,-0.465013,0.242710,1.157099,0.077627,0.199231,-0.322968,-0.035458,0.006081,0.062413,-0.551902
-0.050000,-0.050000,0.000000,0.000000,0.000000,0.000000,0.000000,0.000000,0.000000,0.100000,0.100000,-0.126619,-0.629523,-0.050000,-0.050000,0.412491,-0.769053,0.000000,0.000000,-0.461818,0.257478,1.189571,0.100923,0.196401,-0.318000,-0.055035,-0.001934,0.072425,-0.564462
-0.050000,-0.050000,0.000000,0.000000,0.000000,0.000000,0.000000,0.000000,0.000000,0.100000,0.100000,-0.137642,-0.640397,-0.050000,-0.050000,0.401359,-0.769461,0.000000,0.000000,-0.457804,0.262953,1.204426,0.114028,0.194177,-0.313939,-0.064060,-0.007753,0.077879,-0.571433
-0.050000,-0.050000,0.000000,0.000000,0.000000,0.000000,0.000000,0.000000,0.000000,0.100000,0.100000,-0.143827,-0.643427,-0.050000,-0.050000,0.394958,-0.767989,0.000000,0.000000,-0.454130,0.263473,1.211255,0.122249,0.192139,-0.310408,-0.068034,-0.011683,0.081349,-0.575705
-0.050000,-0.050000,0.000000,0.000000,0.000000,0.000000,0.000000,0.000000,0.000000,0.100000,0.100000,-0.147641,-0.642082,-0.050000,-0.050000,0.390902,-0.765583,0.000000,0.000000,-0.451024,0.261210,1.214358,0.127881,0.190136,-0.307186,-0.069664,-0.014523,0.083962,-0.578665
-0.050000,-0.050000,0.000000,0.000000,0.000000,0.000000,0.000000,0.000000,0.000000,0.100000,0.100000,-0.150392,-0.637376,-0.050000,-0.050000,0.388527,-0.763309,0.000000,0.000000,-0.447955,0.257451,1.215227,0.132897,0.188658,-0.303573,-0.070108,-0.016449,0.086682,-0.580433
-0.050000,-0.050000,0.000000,0.000000,0.000000,0.000000,0.000000,0.000000,0.000000,0.100000,0.100000,-0.152597,-0.631005,-0.050000,-0.050000,0.387163,-0.761204,0.000000,0.000000,-0.445059,0.252863,1.214772,0.137368,0.187521,-0.299813,-0.070012,-0.018036,0.089544,-0.581617
-0.050000,-0.050000,0.000000,0.000000,0.000000,0.000000,0.000000,0.000000,0.000000,0.100000,0.100000,-0.154634,-0.623152,-0.050000,-0.050000,0.386899,-0.759710,0.000000,0.000000,-0.441994,0.247984,1.213050,0.141932,0.186954,-0.295742,-0.069665,-0.019293,0.092932,-0.582175
-0.050000,-0.050000,0.000000,0.000000,0.000000,0.000000,0.000000,0.000000,0.000000,0.100000,0.100000,-0.156800,-0.614162,-0.050000,-0.050000,0.388075,-0.759116,0.000000,0.000000,-0.438622,0.243209,1.209687,0.146675,0.187070,-0.291445,-0.069336,-0.020384,0.097192,-0.582236
-0.050000,-0.050000,0.000000,0.000000,0.000000,0.000000,0.000000,0.000000,0.000000,0.100000,0.100000,-0.158894,-0.604590,-0.050000,-0.050000,0.390118,-0.758966,0.000000,0.000000,-0.435060,0.238426,1.205208,0.151546,0.187613,-0.286967,-0.068934,-0.021436,0.101924,-0.582032
-0.050000,-0.050000,0.000000,0.000000,0.000000,0.000000,0.000000,0.000000,0.000000,0.100000,0.100000,-0.161868,-0.593908,-0.050000,-0.050000,0.394819,-0.760367,0.000000,0.000000,-0.430838,0.234387,1.197770,0.156810,0.189072,-0.282401,-0.069015,-0.022412,0.108478,-0.581439
-0.050000,-0.050000,0.000000,0.000000,0.000000,0.000000,0.000000,0.000000,0.000000,0.100000,0.100000,-0.165015,-0.582978,-0.050000,-0.050000,0.400961,-0.762237,0.000000,0.000000,-0.426299,0.230503,1.188419,0.162284,0.190933,-0.277683,-0.069142,-0.023477,0.115865,-0.580812
-0.050000,-0.050000,0.000000,0.000000,0.000000,0.000000,0.000000,0.000000,0.000000,0.100000,0.100000,-0.168996,-0.571545,-0.050000,-0.050000,0.409519,-0.765083,0.000000,0.000000,-0.421225,0.227169,1.176201,0.168087,0.193343,-0.272892,-0.069622,-0.024582,0.124832,-0.580139
-0.050000,-0.050000,0.000000,0.000000,0.000000,0.000000,0.000000,0.000000,0.000000,0.100000,0.100000,-0.174082,-0.559902,-0.050000,-0.050000,0.420870,-0.768744,0.000000,0.000000,-0.415580,0.224312,1.160551,0.174299,0.196138,-0.267896,-0.070463,-0.025743,0.135664,-0.579640
-0.050000,-0.050000,0.000000,0.000000,0.000000,0.000000,0.000000,0.000000,0.000000,0.100000,0.100000,-0.179534,-0.548271,-0.050000,-0.050000,0.433972,-0.772711,0.000000,0.000000,-0.409552,0.221627,1.142614,0.180852,0.199170,-0.262718,-0.071270,-0.026986,0.147486,-0.579287
-0.050000,-0.050000,0.000000,0.000000,0.000000,0.000000,0.000000,0.000000,0.000000,0.100000,0.100000,-0.187276,-0.536692,-0.050000,-0.050000,0.451241,-0.777634,0.000000,0.000000,-0.402691,0.219566,1.119601,0.188059,0.202364,-0.257048,-0.072665,-0.028168,0.162370,-0.579450
-0.050000,-0.050000,0.000000,0.000000,0.000000,0.000000,0.000000,0.000000,0.000000,0.100000,0.100000,-0.195508,-0.525584,-0.050000,-0.050000,0.470479,-0.782552,0.000000,0.000000,-0.395378,0.217483,1.093865,0.195759,0.205525,-0.250932,-0.073775,-0.029383,0.178400,-0.579993
-0.050000,-0.050000,0.000000,0.000000,0.000000,0.000000,0.000000,0.000000,0.000000,0.100000,0.100000,-0.205306,-0.514961,-0.050000,-0.050000,0.492686,-0.787759,0.000000,0.000000,-0.387370,0.215617,1.064279,0.204054,0.208579,-0.244225,-0.074930,-0.030514,0.196588,-0.581080
-0.050000,-0.050000,0.000000,0.000000,0.000000,0.000000,0.000000,0.000000,0.000000,0.100000,0.100000,-0.216548,-0.505203,-0.050000,-0.050000,0.517603,-0.792989,0.000000,0.000000,-0.378640,0.213743,1.030985,0.212886,0.211318,-0.236780,-0.075899,-0.031524,0.216816,-0.582823
-0.050000,-0.050000,0.000000,0.000000,0.000000,0.000000,0.000000,0.000000,0.000000,0.100000,0.100000,-0.228381,-0.496114,-0.050000,-0.050000,0.544142,-0.798092,0.000000,0.000000,-0.369386,0.211833,0.995284,0.222132,0.213946,-0.228853,-0.076483,-0.032477,0.238128,-0.584958
-0.050000,-0.050000,0.000000,0.000000,0.000000,0.000000,0.000000,0.000000,0.000000,0.100000,0.100000,-0.242333,-0.488490,-0.050000,-0.050000,0.573572,-0.803134,0.000000,0.000000,-0.359177,0.209818,0.955414,0.231614,0.215998,-0.220027,-0.076956,-0.033216,0.262039,-0.587983
-0.050000,-0.050000,0.000000,0.000000,0.000000,0.000000,0.000000,0.000000,0.000000,0.100000,0.100000,-0.256615,-0.481869,-0.050000,-0.050000,0.604019,-0.807904,0.000000,0.000000,-0.348455,0.207689,0.913646,0.241160,0.217941,-0.210832,-0.076921,-0.033887,0.286701,-0.591369
-0.050000,-0.050000,0.000000,0.000000,0.000000,0.000000,0.000000,0.000000,0.000000,0.100000,0.100000,-0.271942,-0.476582,-0.050000,-0.050000,0.635779,-0.812472,0.000000,0.000000,-0.337035,0.205466,0.869490,0.250458,0.219701,-0.201240,-0.076679,-0.034469,0.312703,-0.595282
-0.050000,-0.050000,0.000000,0.000000,0.000000,0.000000,0.000000,0.000000,0.000000,0.100000,0.100000,-0.287876,-0.472757,-0.050000,-0.050000,0.668227,-0.816822,0.000000,0.000000,-0.325113,0.203203,0.823607,0.259009,0.221554,-0.191627,-0.076271,-0.035067,0.339548,-0.599593
-0.050000,-0.050000,0.000000,0.000000,0.000000,0.000000,0.000000,0.000000,0.000000,0.100000,0.100000,-0.304052,-0.469821,-0.050000,-0.050000,0.700849,-0.820994,0.000000,0.000000,-0.312720,0.200939,0.776670,0.267100,0.223673,-0.182044,-0.075700,-0.035608,0.366804,-0.604102
-0.050000,-0.050000,0.000000,0.000000,0.000000,0.000000,0.000000,0.000000,0.000000,0.100000,0.100000,-0.320701,-0.468793,-0.050000,-0.050000,0.733506,-0.825049,0.000000,0.000000,-0.300193,0.198869,0.728594,0.273168,0.226548,-0.173271,-0.075409,-0.036471,0.394530,-0.608931
-0.050000,-0.050000,0.000000,0.000000,0.000000,0.000000,0.000000,0.000000,0.000000,0.100000,0.100000,-0.337238,-0.468487,-0.050000,-0.050000,0.765626,-0.829014,0.000000,0.000000,-0.287466,0.196974,0.680247,0.278149,0.230262,-0.165169,-0.075219,-0.037351,0.422154,-0.613795
-0.050000,-0.050000,0.000000,0.000000,0.000000,0.000000,0.000000,0.000000,0.000000,0.100000,0.100000,-0.353705,-0.469335,-0.050000,-0.050000,0.797031,-0.832965,0.000000,0.000000,-0.274875,0.195422,0.631744,0.281132,0.235234,-0.158273,-0.075420,-0.038558,0.449552,-0.618727
-0.050000,-0.050000,0.000000,0.000000,0.000000,0.000000,0.000000,0.000000,0.000000,0.100000,0.100000,-0.369817,-0.471028,-0.050000,-0.050000,0.827331,-0.836966,0.000000,0.000000,-0.262692,0.194351,0.583598,0.281870,0.241841,-0.153022,-0.076112,-0.040139,0.476340,-0.623631
-0.050000,-0.050000,0.000000,0.000000,0.000000,0.000000,0.000000,0.000000,0.000000,0.100000,0.100000,-0.385734,-0.473067,-0.050000,-0.050000,0.856618,-0.840969,0.000000,0.000000,-0.250604,0.193538,0.535774,0.281170,0.249698,-0.148879,-0.077140,-0.041822,0.502682,-0.628506
-0.050000,-0.050000,0.000000,0.000000,0.000000,0.000000,0.000000,0.000000,0.000000,0.100000,0.100000,-0.400848,-0.475870,-0.050000,-0.050000,0.884177,-0.845165,0.000000,0.000000,-0.239749,0.193547,0.489152,0.277190,0.259908,-0.147405,-0.078875,-0.044260,0.527632,-0.633270
-0.050000,-0.050000,0.000000,0.000000,0.000000,0.000000,0.000000,0.000000,0.000000,0.100000,0.100000,-0.415644,-0.478511,-0.050000,-0.050000,0.910354,-0.849373,0.000000,0.000000,-0.229236,0.193808,0.443494,0.271746,0.271457,-0.147315,-0.080973,-0.046735,0.551771,-0.637953
-0.050000,-0.050000,0.000000,0.000000,0.000000,0.000000,0.000000,0.000000,0.000000,0.100000,0.100000,-0.429763,-0.481204,-0.050000,-0.050000,0.934841,-0.853716,0.000000,0.000000,-0.219758,0.194570,0.399286,0.264047,0.284696,-0.149224,-0.083492,-0.049618,0.574507,-0.642495
-0.050000,-0.050000,0.000000,0.000000,0.000000,0.000000,0.000000,0.000000,0.000000,0.100000,0.100000,-0.443160,-0.483578,-0.050000,-0.050000,0.957466,-0.858124,0.000000,0.000000,-0.211298,0.195661,0.357050,0.254535,0.299230,-0.152884,-0.086254,-0.052712,0.595569,-0.646844
-0.050000,-0.050000,0.000000,0.000000,0.000000,0.000000,0.000000,0.000000,0.000000,0.100000,0.100000,-0.456305,-0.485573,-0.050000,-0.050000,0.978726,-0.862588,0.000000,0.000000,-0.203496,0.196889,0.316167,0.243822,0.314649,-0.157673,-0.089231,-0.055843,0.615548,-0.651040
-0.050000,-0.050000,0.000000,0.000000,0.000000,0.000000,0.000000,0.000000,0.000000,0.100000,0.100000,-0.468181,-0.487025,-0.050000,-0.050000,0.997638,-0.867090,0.000000,0.000000,-0.197200,0.198250,0.278729,0.231570,0.330686,-0.163999,-0.092024,-0.059099,0.632706,-0.654837
-0.050000,-0.050000,0.000000,0.000000,0.000000,0.000000,0.000000,0.000000,0.000000,0.100000,0.100000,-0.479901,-0.487875,-0.050000,-0.050000,1.015202,-0.871618,0.000000,0.000000,-0.191571,0.199503,0.243316,0.218753,0.346827,-0.170856,-0.094824,-0.062148,0.648425,-0.658345
-0.050000,-0.050000,0.000000,0.000000,0.000000,0.000000,0.000000,0.000000,0.000000,0.100000,0.100000,-0.490835,-0.488136,-0.050000,-0.050000,1.031024,-0.876155,0.000000,0.000000,-0.186998,0.200495,0.211055,0.205483,0.362655,-0.178136,-0.097253,-0.064970,0.661745,-0.661415
-0.050000,-0.050000,0.000000,0.000000,0.000000,0.000000,0.000000,0.000000,0.000000,0.100000,0.100000,-0.501064,-0.487774,-0.050000,-0.050000,1.045255,-0.880673,0.000000,0.000000,-0.183240,0.200982,0.182262,0.192384,0.377551,-0.185235,-0.099129,-0.067314,0.672530,-0.663961
-0.050000,-0.050000,0.000000,0.000000,0.000000,0.000000,0.000000,0.000000,0.000000,0.100000,0.100000,-0.511179,-0.486997,-0.050000,-0.050000,1.058485,-0.885268,0.000000,0.000000,-0.180159,0.201176,0.155712,0.179348,0.391751,-0.192146,-0.100797,-0.069356,0.681693,-0.666110
-0.050000,-0.050000,0.000000,0.000000,0.000000,0.000000,0.000000,0.000000,0.000000,0.100000,0.100000,-0.519854,-0.485593,-0.050000,-0.050000,1.069920,-0.889758,0.000000,0.000000,-0.177668,0.200192,0.134184,0.167619,0.403720,-0.197903,-0.101216,-0.070437,0.687268,-0.667563
-0.050000,-0.050000,0.000000,0.000000,0.000000,0.000000,0.000000,0.000000,0.000000,0.100000,0.100000,-0.528465,-0.483929,-0.050000,-0.050000,1.080633,-0.894400,0.000000,0.000000,-0.175561,0.198777,0.114928,0.156486,0.414329,-0.202924,-0.101362,-0.071080,0.691211,-0.668591
-0.050000,-0.050000,0.000000,0.000000,0.000000,0.000000,0.000000,0.000000,0.000000,0.100000,0.100000,-0.536127,-0.481925,-0.050000,-0.050000,1.090220,-0.899050,0.000000,0.000000,-0.173640,0.196307,0.099291,0.146732,0.422784,-0.206718,-0.100607,-0.070908,0.692679,-0.669155
-0.050000,-0.050000,0.000000,0.000000,0.000000,0.000000,0.000000,0.000000,0.000000,0.100000,0.100000,-0.542914,-0.479683,-0.050000,-0.050000,1.098845,-0.903795,0.000000,0.000000,-0.171632,0.192804,0.086783,0.138421,0.428908,-0.209280,-0.099118,-0.069985,0.692080,-0.669382
-0.050000,-0.050000,0.000000,0.000000,0.000000,0.000000,0.000000,0.000000,0.000000,0.100000,0.100000,-0.549282,-0.477349,-0.050000,-0.050000,1.106923,-0.908699,0.000000,0.000000,-0.169600,0.188750,0.076170,0.131003,0.433449,-0.211005,-0.097283,-0.068651,0.690177,-0.669373
-0.050000,-0.050000,0.000000,0.000000,0.000000,0.000000,0.000000,0.000000,0.000000,0.100000,0.100000,-0.553914,-0.474753,-0.050000,-0.050000,1.113665,-0.913641,0.000000,0.000000,-0.166896,0.183069,0.069179,0.125705,0.434822,-0.211397,-0.094468,-0.066383,0.686266,-0.669327
-0.050000,-0.050000,0.000000,0.000000,0.000000,0.000000,0.000000,0.000000,0.000000,0.100000,0.100000,-0.557964,-0.472138,-0.050000,-0.050000,1.119910,-0.918846,0.000000,0.000000,-0.163862,0.176988,0.063400,0.121184,0.434611,-0.211245,-0.091586,-0.063941,0.681636,-0.669273
-0.050000,-0.050000,0.000000,0.000000,0.000000,0.000000,0.000000,0.000000,0.000000,0.100000,0.100000,-0.560663,-0.469408,-0.050000,-0.050000,1.125165,-0.924170,0.000000,0.000000,-0.160162,0.169913,0.059654,0.118046,0.432184,-0.210487,-0.088317,-0.061088,0.676144,-0.669417
-0.050000,-0.050000,0.000000,0.000000,0.000000,0.000000,0.000000,0.000000,0.000000,0.100000,0.100000,-0.562142,-0.466626,-0.050000,-0.050000,1.129510,-0.929682,0.000000,0.000000,-0.155884,0.162198,0.057331,0.115969,0.427883,-0.209492,-0.085011,-0.058118,0.670261,-0.669847
-0.050000,-0.050000,0.000000,0.000000,0.000000,0.000000,0.000000,0.000000,0.000000,0.100000,0.100000,-0.562740,-0.463816,-0.050000,-0.050000,1.133268,-0.935383,0.000000,0.000000,-0.151132,0.154193,0.055856,0.114579,0.422389,-0.208376,-0.081773,-0.055160,0.664202,-0.670492
-0.050000,-0.050000,0.000000,0.000000,0.000000,0.000000,0.000000,0.000000,0.000000,0.100000,0.100000,-0.561824,-0.461043,-0.050000,-0.050000,1.135803,-0.941173,0.000000,0.000000,-0.146001,0.145639,0.055951,0.114362,0.415078,-0.207411,-0.078713,-0.052276,0.658101,-0.671602
-0.050000,-0.050000,0.000000,0.000000,0.000000,0.000000,0.000000,0.000000,0.000000,0.100000,0.100000,-0.560244,-0.458341,-0.050000,-0.050000,1.137863,-0.947150,0.000000,0.000000,-0.140749,0.137247,0.056652,0.114657,0.407090,-0.206564,-0.076008,-0.049652,0.652114,-0.672916
-0.050000,-0.050000,0.000000,0.000000,0.000000,0.000000,0.000000,0.000000,0.000000,0.100000,0.100000,-0.557828,-0.455838,-0.050000,-0.050000,1.139198,-0.953179,0.000000,0.000000,-0.135651,0.128957,0.058384,0.115707,0.398304,-0.205920,-0.073679,-0.047307,0.646239,-0.674494
-0.050000,-0.050000,0.000000,0.000000,0.000000,0.000000,0.000000,0.000000,0.000000,0.100000,0.100000,-0.554981,-0.453657,-0.050000,-0.050000,1.140128,-0.959231,0.000000,0.000000,-0.131155,0.121170,0.061049,0.117411,0.389191,-0.205381,-0.071831,-0.045340,0.640421,-0.676178
-0.050000,-0.050000,0.000000,0.000000,0.000000,0.000000,0.000000,0.000000,0.000000,0.100000,0.100000,-0.552016,-0.451771,-0.050000,-0.050000,1.140785,-0.965305,0.000000,0.000000,-0.127189,0.113838,0.064495,0.119673,0.379904,-0.204880,-0.070361,-0.043671,0.634708,-0.677954
-0.050000,-0.050000,0.000000,0.000000,0.000000,0.000000,0.000000,0.000000,0.000000,0.100000,0.100000,-0.549132,-0.450533,-0.050000,-0.050000,1.141467,-0.971188,0.000000,0.000000,-0.124829,0.107516,0.069117,0.122697,0.370827,-0.204181,-0.069446,-0.042493,0.628740,-0.679582
-0.050000,-0.050000,0.000000,0.000000,0.000000,0.000000,0.000000,0.000000,0.000000,0.100000,0.100000,-0.546793,-0.449770,-0.050000,-0.050000,1.142256,-0.976962,0.000000,0.000000,-0.123610,0.101945,0.074624,0.126348,0.361951,-0.203242,-0.068902,-0.041634,0.622740,-0.681156
-0.050000,-0.050000,0.000000,0.000000,0.000000,0.000000,0.000000,0.000000,0.000000,0.100000,0.100000,-0.545139,-0.449647,-0.050000,-0.050000,1.143435,-0.982465,0.000000,0.000000,-0.124116,0.097369,0.081091,0.130666,0.353529,-0.201858,-0.068763,-0.041177,0.616450,-0.682528
-0.050000,-0.050000,0.000000,0.000000,0.000000,0.000000,0.000000,0.000000,0.000000,0.100000,0.100000,-0.544430,-0.450105,-0.050000,-0.050000,1.145148,-0.987598,0.000000,0.000000,-0.126342,0.093753,0.088364,0.135619,0.345639,-0.199896,-0.068973,-0.041091,0.609904,-0.683715
-0.050000,-0.050000,0.000000,0.000000,0.000000,0.000000,0.000000,0.000000,0.000000,0.100000,0.100000,-0.544659,-0.451023,-0.050000,-0.050000,1.147233,-0.992447,0.000000,0.000000,-0.129971,0.090795,0.096368,0.141127,0.338095,-0.197508,-0.069418,-0.041284,0.603235,-0.684810
-0.050000,-0.050000,0.000000,0.000000,0.000000,0.000000,0.000000,0.000000,0.000000,0.100000,0.100000,-0.545925,-0.452331,-0.050000,-0.050000,1.150102,-0.996571,0.000000,0.000000,-0.135352,0.088758,0.104702,0.147105,0.331302,-0.194293,-0.070195,-0.041901,0.596341,-0.685751
-0.050000,-0.050000,0.000000,0.000000,0.000000,0.000000,0.000000,0.000000,0.000000,0.100000,0.100000,-0.548018,-0.453787,-0.050000,-0.050000,1.153233,-1.000230,0.000000,0.000000,-0.141718,0.087053,0.113374,0.153451,0.324795,-0.190670,-0.071113,-0.042750,0.589545,-0.686743
-0.050000,-0.050000,0.000000,0.000000,0.000000,0.000000,0.000000,0.000000,0.000000,0.100000,0.100000,-0.550746,-0.455165,-0.050000,-0.050000,1.156694,-1.003139,0.000000,0.000000,-0.148921,0.085652,0.121933,0.159977,0.318726,-0.186509,-0.072217,-0.043896,0.582936,-0.687823
-0.050000,-0.050000,0.000000,0.000000,0.000000,0.000000,0.000000,0.000000,0.000000,0.100000,0.100000,-0.553711,-0.456105,-0.050000,-0.050000,1.160045,-1.005162,0.000000,0.000000,-0.156294,0.084172,0.130105,0.166495,0.312905,-0.181970,-0.073433,-0.045266,0.576854,-0.689154
-0.050000,-0.050000,0.000000,0.000000,0.000000,0.000000,0.000000,0.000000,0.000000,0.100000,0.100000,-0.556644,-0.456586,-0.050000,-0.050000,1.163324,-1.006602,0.000000,0.000000,-0.163665,0.082504,0.137887,0.172883,0.307277,-0.177244,-0.074682,-0.046781,0.571147,-0.690665
-0.050000,-0.050000,0.000000,0.000000,0.000000,0.000000,0.000000,0.000000,0.000000,0.100000,0.100000,-0.558886,-0.455830,-0.050000,-0.050000,1.165537,-1.006519,0.000000,0.000000,-0.169901,0.080198,0.144556,0.178853,0.301681,-0.172256,-0.076002,-0.048442,0.566700,-0.692680
-0.050000,-0.050000,0.000000,0.000000,0.000000,0.000000,0.000000,0.000000,0.000000,0.100000,0.100000,-0.560115,-0.454066,-0.050000,-0.050000,1.167099,-1.005720,0.000000,0.000000,-0.175121,0.077290,0.150381,0.184285,0.296168,-0.167334,-0.077250,-0.050114,0.562947,-0.694938
-0.050000,-0.050000,0.000000,0.000000,0.000000,0.000000,0.000000,0.000000,0.000000,0.100000,0.100000,-0.559890,-0.450860,-0.050000,-0.050000,1.167203,-1.003575,0.000000,0.000000,-0.178549,0.073569,0.155005,0.189036,0.290573,-0.162440,-0.078442,-0.051747,0.560413,-0.697561
-0.050000,-0.050000,0.000000,0.000000,0.000000,0.000000,0.000000,0.000000,0.000000,0.100000,0.100000,-0.557773,-0.446104,-0.050000,-0.050000,1.165574,-1.000121,0.000000,0.000000,-0.179896,0.069039,0.158395,0.192949,0.284910,-0.157734,-0.079505,-0.053241,0.559070,-0.700404
-0.050000,-0.050000,0.000000,0.000000,0.000000,0.000000,0.000000,0.000000,0.000000,0.100000,0.100000,-0.553808,-0.440143,-0.050000,-0.050000,1.162781,-0.995848,0.000000,0.000000,-0.179404,0.063897,0.160635,0.196020,0.279323,-0.153263,-0.080439,-0.054577,0.558505,-0.703353
-0.050000,-0.050000,0.000000,0.000000,0.000000,0.000000,0.000000,0.000000,0.000000,0.100000,0.100000,-0.547433,-0.432375,-0.050000,-0.050000,1.157086,-0.989627,0.000000,0.000000,-0.176200,0.058153,0.161509,0.198081,0.273581,-0.149091,-0.081179,-0.055621,0.559435,-0.706251
-0.050000,-0.050000,0.000000,0.000000,0.000000,0.000000,0.000000,0.000000,0.000000,0.100000,0.100000,-0.539000,-0.423625,-0.050000,-0.050000,1.150191,-0.982738,0.000000,0.000000,-0.171144,0.052171,0.161189,0.199139,0.268136,-0.145321,-0.081740,-0.056423,0.560945,-0.708970
-0.050000,-0.050000,0.000000,0.000000,0.000000,0.000000,0.000000,0.000000,0.000000,0.100000,0.100000,-0.528564,-0.413803,-0.050000,-0.050000,1.141178,-0.974540,0.000000,0.000000,-0.164065,0.046253,0.159696,0.199210,0.262855,-0.141931,-0.082095,-0.056939,0.563288,-0.711310
-0.050000,-0.050000,0.000000,0.000000,0.000000,0.000000,0.000000,0.000000,0.000000,0.100000,0.100000,-0.516520,-0.403392,-0.050000,-0.050000,1.130760,-0.965505,0.000000,0.000000,-0.155528,0.040836,0.157080,0.198226,0.258052,-0.139016,-0.082237,-0.057243,0.566123,-0.713085
-0.050000,-0.050000,0.000000,0.000000,0.000000,0.000000,0.000000,0.000000,0.000000,0.100000,0.100000,-0.503249,-0.392763,-0.050000,-0.050000,1.119377,-0.955916,0.000000,0.000000,-0.145876,0.035915,0.153574,0.196477,0.253660,-0.136460,-0.082193,-0.057336,0.569240,-0.714443
-0.050000,-0.050000,0.000000,0.000000,0.000000,0.000000,0.000000,0.000000,0.000000,0.100000,0.100000,-0.489446,-0.382242,-0.050000,-0.050000,1.107402,-0.945809,0.000000,0.000000,-0.135801,0.032476,0.149008,0.193476,0.250193,-0.134475,-0.081927,-0.057479,0.572592,-0.714821
-0.050000,-0.050000,0.000000,0.000000,0.000000,0.000000,0.000000,0.000000,0.000000,0.100000,0.100000,-0.475474,-0.372255,-0.050000,-0.050000,1.095603,-0.935683,0.000000,0.000000,-0.125571,0.029944,0.143821,0.189823,0.247412,-0.132828,-0.081468,-0.057594,0.575962,-0.714721
-0.050000,-0.050000,0.000000,0.000000,0.000000,0.000000,0.000000,0.000000,0.000000,0.100000,0.100000,-0.462024,-0.363087,-0.050000,-0.050000,1.084702,-0.925807,0.000000,0.000000,-0.115828,0.028929,0.137923,0.185186,0.245665,-0.131596,-0.080844,-0.057965,0.579283,-0.713862
-0.050000,-0.050000,0.000000,0.000000,0.000000,0.000000,0.000000,0.000000,0.000000,0.100000,0.100000,-0.449673,-0.355136,-0.050000,-0.050000,1.075731,-0.916699,0.000000,0.000000,-0.106959,0.029263,0.131455,0.179633,0.245068,-0.130680,-0.080082,-0.058739,0.582509,-0.712430
-0.050000,-0.050000,0.000000,0.000000,0.000000,0.000000,0.000000,0.000000,0.000000,0.100000,0.100000,-0.438395,-0.348208,-0.050000,-0.050000,1.068147,-0.908012,0.000000,0.000000,-0.098878,0.030532,0.124811,0.173649,0.245177,-0.129903,-0.079193,-0.059785,0.585681,-0.710622
-0.050000,-0.050000,0.000000,0.000000,0.000000,0.000000,0.000000,0.000000,0.000000,0.100000,0.100000,-0.429341,-0.343178,-0.050000,-0.050000,1.064995,-0.901429,0.000000,0.000000,-0.092413,0.033156,0.117362,0.166201,0.247044,-0.129386,-0.078315,-0.061790,0.588795,-0.708359
-0.050000,-0.050000,0.000000,0.000000,0.000000,0.000000,0.000000,0.000000,0.000000,0.100000,0.100000,-0.421900,-0.339374,-0.050000,-0.050000,1.064017,-0.895593,0.000000,0.000000,-0.086886,0.036159,0.109967,0.158469,0.249505,-0.128759,-0.077374,-0.064217,0.591988,-0.705991
-0.050000,-0.050000,0.000000,0.000000,0.000000,0.000000,0.000000,0.000000,0.000000,0.100000,0.100000,-0.416590,-0.337229,-0.050000,-0.050000,1.067157,-0.891742,0.000000,0.000000,-0.082609,0.039585,0.102068,0.149710,0.253202,-0.128119,-0.076539,-0.067517,0.595342,-0.703583
-0.050000,-0.050000,0.000000,0.000000,0.000000,0.000000,0.000000,0.000000,0.000000,0.100000,0.100000,-0.413235,-0.336572,-0.050000,-0.050000,1.073867,-0.889616,0.000000,0.000000,-0.079176,0.042792,0.093834,0.140207,0.257728,-0.127278,-0.075839,-0.071580,0.599055,-0.701406
-0.050000,-0.050000,0.000000,0.000000,0.000000,0.000000,0.000000,0.000000,0.000000,0.100000,0.100000,-0.411408,-0.336922,-0.050000,-0.050000,1.082999,-0.888573,0.000000,0.000000,-0.076420,0.045746,0.085475,0.130272,0.262714,-0.126215,-0.075240,-0.076188,0.603050,-0.699384
-0.050000,-0.050000,0.000000,0.000000,0.000000,0.000000,0.000000,0.000000,0.000000,0.100000,0.100000,-0.411383,-0.338856,-0.050000,-0.050000,1.096255,-0.889989,0.000000,0.000000,-0.073870,0.047490,0.076329,0.119217,0.268509,-0.124938,-0.075007,-0.081769,0.607892,-0.698181
-0.050000,-0.050000,0.000000,0.000000,0.000000,0.000000,0.000000,0.000000,0.000000,0.100000,0.100000,-0.412272,-0.341330,-0.050000,-0.050000,1.110770,-0.892038,0.000000,0.000000,-0.071363,0.048368,0.067067,0.107878,0.274282,-0.123381,-0.074930,-0.087752,0.613243,-0.697420
-0.050000,-0.050000,0.000000,0.000000,0.000000,0.000000,0.000000,0.000000,0.000000,0.100000,0.100000,-0.413939,-0.344559,-0.050000,-0.050000,1.127102,-0.895421,0.000000,0.000000,-0.068418,0.047692,0.057307,0.095871,0.280164,-0.121684,-0.075194,-0.094337,0.619498,-0.697612
-0.050000,-0.050000,0.000000,0.000000,0.000000,0.000000,0.000000,0.000000,0.000000,0.100000,0.100000,-0.415661,-0.347971,-0.050000,-0.050000,1.143618,-0.899265,0.000000,0.000000,-0.064648,0.045320,0.047351,0.083502,0.285693,-0.119905,-0.075768,-0.101299,0.626670,-0.698852
-0.050000,-0.050000,0.000000,0.000000,0.000000,0.000000,0.000000,0.000000,0.000000,0.100000,0.100000,-0.417208,-0.351308,-0.050000,-0.050000,1.160125,-0.903441,0.000000,0.000000,-0.060184,0.041740,0.037141,0.070762,0.291001,-0.118157,-0.076588,-0.108530,0.634487,-0.700817
-0.050000,-0.050000,0.000000,0.000000,0.000000,0.000000,0.000000,0.000000,0.000000,0.100000,0.100000,-0.417492,-0.354217,-0.050000,-0.050000,1.174495,-0.907105,0.000000,0.000000,-0.053934,0.035628,0.027255,0.057939,0.295360,-0.116635,-0.077817,-0.115971,0.643531,-0.704521
-0.050000,-0.050000,0.000000,0.000000,0.000000,0.000000,0.000000,0.000000,0.000000,0.100000,0.100000,-0.416457,-0.356315,-0.050000,-0.050000,1.187239,-0.910353,0.000000,0.000000,-0.046519,0.028383,0.017411,0.044896,0.299307,-0.115452,-0.079343,-0.123489,0.653088,-0.709007
-0.050000,-0.050000,0.000000,0.000000,0.000000,0.000000,0.000000,0.000000,0.000000,0.100000,0.100000,-0.413276,-0.357369,-0.050000,-0.050000,1.196558,-0.912310,0.000000,0.000000,-0.037314,0.019264,0.008297,0.032010,0.302341,-0.114747,-0.081192,-0.130960,0.663369,-0.714854
-0.050000,-0.050000,0.000000,0.000000,0.000000,0.000000,0.000000,0.000000,0.000000,0.100000,0.100000,-0.407436,-0.357005,-0.050000,-0.050000,1.201823,-0.912611,0.000000,0.000000,-0.026413,0.008794,0.000161,0.019421,0.304582,-0.114672,-0.083357,-0.138249,0.673976,-0.721748
-0.050000,-0.050000,0.000000,0.000000,0.000000,0.000000,0.000000,0.000000,0.000000,0.100000,0.100000,-0.399254,-0.355477,-0.050000,-0.050000,1.204103,-0.911847,0.000000,0.000000,-0.013978,-0.002522,-0.007480,0.006855,0.306437,-0.115222,-0.085859,-0.145411,0.684770,-0.729367
-0.050000,-0.050000,0.000000,0.000000,0.000000,0.000000,0.000000,0.000000,0.000000,0.100000,0.100000,-0.387103,-0.351979,-0.050000,-0.050000,1.199354,-0.907722,0.000000,0.000000,0.000258,-0.015024,-0.012715,-0.004463,0.307062,-0.116499,-0.088534,-0.151965,0.695262,-0.737957
-0.050000,-0.050000,0.000000,0.000000,0.000000,0.000000,0.000000,0.000000,0.000000,0.100000,0.100000,-0.372227,-0.347244,-0.050000,-0.050000,1.191161,-0.902383,0.000000,0.000000,0.015855,-0.027585,-0.017309,-0.015561,0.307564,-0.118491,-0.091604,-0.158245,0.705394,-0.746828
-0.050000,-0.050000,0.000000,0.000000,0.000000,0.000000,0.000000,0.000000,0.000000,0.100000,0.100000,-0.353825,-0.340970,-0.050000,-0.050000,1.176801,-0.894146,0.000000,0.000000,0.032668,-0.040206,-0.019864,-0.025388,0.307302,-0.121005,-0.094785,-0.163824,0.714642,-0.755943
-0.050000,-0.050000,0.000000,0.000000,0.000000,0.000000,0.000000,0.000000,0.000000,0.100000,0.100000,-0.332366,-0.333447,-0.050000,-0.050000,1.157133,-0.883545,0.000000,0.000000,0.050256,-0.052148,-0.020768,-0.033967,0.306591,-0.123897,-0.098097,-0.168685,0.722672,-0.764824
-0.050000,-0.050000,0.000000,0.000000,0.000000,0.000000,0.000000,0.000000,0.000000,0.100000,0.100000,-0.308755,-0.325296,-0.050000,-0.050000,1.133545,-0.871392,0.000000,0.000000,0.068328,-0.063202,-0.020772,-0.041703,0.305671,-0.127076,-0.101592,-0.173033,0.729726,-0.773483
-0.050000,-0.050000,0.000000,0.000000,0.000000,0.000000,0.000000,0.000000,0.000000,0.100000,0.100000,-0.282426,-0.315976,-0.050000,-0.050000,1.103245,-0.855774,0.000000,0.000000,0.085932,-0.072526,-0.018090,-0.046870,0.303806,-0.129884,-0.104753,-0.176089,0.734478,-0.781076
-0.050000,-0.050000,0.000000,0.000000,0.000000,0.000000,0.000000,0.000000,0.000000,0.100000,0.100000,-0.255257,-0.306632,-0.050000,-0.050000,1.070117,-0.839152,0.000000,0.000000,0.102910,-0.080154,-0.014768,-0.050934,0.301785,-0.132533,-0.107978,-0.178593,0.737900,-0.787957
-0.050000,-0.050000,0.000000,0.000000,0.000000,0.000000,0.000000,0.000000,0.000000,0.100000,0.100000,-0.227310,-0.296949,-0.050000,-0.050000,1.032710,-0.820252,0.000000,0.000000,0.118308,-0.085538,-0.009591,-0.052648,0.298978,-0.134360,-0.110765,-0.179983,0.739140,-0.793514
-0.050000,-0.050000,0.000000,0.000000,0.000000,0.000000,0.000000,0.000000,0.000000,0.100000,0.100000,-0.199694,-0.287361,-0.050000,-0.050000,0.992941,-0.800065,0.000000,0.000000,0.131631,-0.088519,-0.003150,-0.052308,0.295569,-0.135223,-0.113127,-0.180441,0.738361,-0.797635
-0.050000,-0.050000,0.000000,0.000000,0.000000,0.000000,0.000000,0.000000,0.000000,0.100000,0.100000,-0.173082,-0.278127,-0.050000,-0.050000,0.951604,-0.779012,0.000000,0.000000,0.142770,-0.089598,0.004333,-0.050283,0.291647,-0.135251,-0.115108,-0.180249,0.736080,-0.800696
-0.050000,-0.050000,0.000000,0.000000,0.000000,0.000000,0.000000,0.000000,0.000000,0.100000,0.100000,-0.147912,-0.268956,-0.050000,-0.050000,0.909726,-0.756969,0.000000,0.000000,0.150646,-0.087684,0.013313,-0.045636,0.286889,-0.133671,-0.116228,-0.178808,0.731287,-0.801554
-0.050000,-0.050000,0.000000,0.000000,0.000000,0.000000,0.000000,0.000000,0.000000,0.100000,0.100000,-0.124733,-0.260422,-0.050000,-0.050000,0.868502,-0.734934,0.000000,0.000000,0.155989,-0.084164,0.023092,-0.039562,0.281721,-0.131192,-0.116868,-0.176897,0.725308,-0.801314
-0.050000,-0.050000,0.000000,0.000000,0.000000,0.000000,0.000000,0.000000,0.000000,0.100000,0.100000,-0.103687,-0.252255,-0.050000,-0.050000,0.829204,-0.713088,0.000000,0.000000,0.158319,-0.078414,0.033663,-0.031750,0.276141,-0.127564,-0.116791,-0.174193,0.717689,-0.799300
-0.050000,-0.050000,0.000000,0.000000,0.000000,0.000000,0.000000,0.000000,0.000000,0.100000,0.100000,-0.084976,-0.244721,-0.050000,-0.050000,0.793288,-0.692223,0.000000,0.000000,0.158024,-0.070967,0.044470,-0.022894,0.270550,-0.123305,-0.116177,-0.171021,0.709035,-0.795875
-0.050000,-0.050000,0.000000,0.000000,0.000000,0.000000,0.000000,0.000000,0.000000,0.100000,0.100000,-0.068261,-0.237729,-0.050000,-0.050000,0.760022,-0.671927,0.000000,0.000000,0.155649,-0.062458,0.055677,-0.013180,0.264857,-0.118569,-0.115103,-0.167524,0.699732,-0.791455
-0.050000,-0.050000,0.000000,0.000000,0.000000,0.000000,0.000000,0.000000,0.000000,0.100000,0.100000,-0.054094,-0.231518,-0.050000,-0.050000,0.733946,-0.654501,0.000000,0.000000,0.150906,-0.052130,0.065663,-0.003548,0.260302,-0.114352,-0.113781,-0.163788,0.689937,-0.785551
-0.050000,-0.050000,0.000000,0.000000,0.000000,0.000000,0.000000,0.000000,0.000000,0.100000,0.100000,-0.041750,-0.225980,-0.050000,-0.050000,0.711668,-0.638145,0.000000,0.000000,0.144819,-0.041379,0.075415,0.006133,0.256160,-0.110516,-0.112240,-0.160008,0.680215,-0.779148
-0.050000,-0.050000,0.000000,0.000000,0.000000,0.000000,0.000000,0.000000,0.000000,0.100000,0.100000,-0.031611,-0.221281,-0.050000,-0.050000,0.696613,-0.624914,0.000000,0.000000,0.137321,-0.029720,0.083453,0.014875,0.253658,-0.108184,-0.110824,-0.156380,0.670893,-0.772075
-0.050000,-0.050000,0.000000,0.000000,0.000000,0.000000,0.000000,0.000000,0.000000,0.100000,0.100000,-0.023561,-0.217490,-0.050000,-0.050000,0.688099,-0.614573,0.000000,0.000000,0.128931,-0.017788,0.089786,0.022410,0.252848,-0.107744,-0.109646,-0.153059,0.662438,-0.764883
-0.050000,-0.050000,0.000000,0.000000,0.000000,0.000000,0.000000,0.000000,0.000000,0.100000,0.100000,-0.017128,-0.214348,-0.050000,-0.050000,0.684338,-0.606100,0.000000,0.000000,0.119882,-0.005800,0.094947,0.029028,0.253265,-0.108816,-0.108643,-0.149971,0.654722,-0.757699
-0.050000,-0.050000,0.000000,0.000000,0.000000,0.000000,0.000000,0.000000,0.000000,0.100000,0.100000,-0.013517,-0.212618,-0.050000,-0.050000,0.690017,-0.602975,0.000000,0.000000,0.110381,0.006215,0.096839,0.033123,0.256816,-0.113462,-0.108394,-0.147621,0.648835,-0.750979
-0.050000,-0.050000,0.000000,0.000000,0.000000,0.000000,0.000000,0.000000,0.000000,0.100000,0.100000,-0.011578,-0.211624,-0.050000,-0.050000,0.699493,-0.601431,0.000000,0.000000,0.100580,0.017809,0.097664,0.036237,0.261529,-0.119787,-0.108319,-0.145537,0.643977,-0.744740
-0.050000,-0.050000,0.000000,0.000000,0.000000,0.000000,0.000000,0.000000,0.000000,0.100000,0.100000,-0.012301,-0.212004,-0.050000,-0.050000,0.716026,-0.604221,0.000000,0.000000,0.090617,0.029025,0.095990,0.037326,0.268717,-0.129118,-0.108837,-0.144061,0.640846,-0.739275
-0.050000,-0.050000,0.000000,0.000000,0.000000,0.000000,0.000000,0.000000,0.000000,0.100000,0.100000,-0.015509,-0.213694,-0.050000,-0.050000,0.737445,-0.610036,0.000000,0.000000,0.080530,0.039668,0.092706,0.037123,0.277570,-0.140611,-0.109633,-0.142930,0.639118,-0.734635
-0.050000,-0.050000,0.000000,0.000000,0.000000,0.000000,0.000000,0.000000,0.000000,0.100000,0.100000,-0.020825,-0.216471,-0.050000,-0.050000,0.762342,-0.618001,0.000000,0.000000,0.070187,0.049873,0.088333,0.036049,0.287590,-0.153648,-0.110600,-0.142059,0.638427,-0.730622
-0.050000,-0.050000,0.000000,0.000000,0.000000,0.000000,0.000000,0.000000,0.000000,0.100000,0.100000,-0.029584,-0.221310,-0.050000,-0.050000,0.792745,-0.630167,0.000000,0.000000,0.059783,0.059502,0.082229,0.033947,0.299375,-0.168702,-0.111765,-0.141381,0.639177,-0.727556
-0.050000,-0.050000,0.000000,0.000000,0.000000,0.000000,0.000000,0.000000,0.000000,0.100000,0.100000,-0.040514,-0.227411,-0.050000,-0.050000,0.824859,-0.643541,0.000000,0.000000,0.048906,0.068836,0.075837,0.031886,0.311559,-0.184249,-0.112794,-0.140688,0.640463,-0.724916
-0.050000,-0.050000,0.000000,0.000000,0.000000,0.000000,0.000000,0.000000,0.000000,0.100000,0.100000,-0.054493,-0.235450,-0.050000,-0.050000,0.859948,-0.659503,0.000000,0.000000,0.037655,0.077927,0.068820,0.029955,0.324449,-0.200378,-0.113722,-0.139875,0.642401,-0.722744
-0.050000,-0.050000,0.000000,0.000000,0.000000,0.000000,0.000000,0.000000,0.000000,0.100000,0.100000,-0.071074,-0.245235,-0.050000,-0.050000,0.896272,-0.676775,0.000000,0.000000,0.025827,0.086992,0.061906,0.028871,0.337336,-0.216189,-0.114381,-0.138793,0.644511,-0.720706
-0.050000,-0.050000,0.000000,0.000000,0.000000,0.000000,0.000000,0.000000,0.000000,0.100000,0.100000,-0.090002,-0.256613,-0.050000,-0.050000,0.933368,-0.695031,0.000000,0.000000,0.013233,0.096223,0.055134,0.028599,0.350157,-0.231613,-0.114852,-0.137567,0.646691,-0.718710
-0.050000,-0.050000,0.000000,0.000000,0.000000,0.000000,0.000000,0.000000,0.000000,0.100000,0.100000,-0.111559,-0.269961,-0.050000,-0.050000,0.970655,-0.714177,0.000000,0.000000,0.000109,0.105680,0.049129,0.030171,0.362326,-0.245670,-0.114956,-0.135796,0.648622,-0.716411
-0.050000,-0.050000,0.000000,0.000000,0.000000,0.000000,0.000000,0.000000,0.000000,0.100000,0.100000,-0.135045,-0.284824,-0.050000,-0.050000,1.007467,-0.733548,0.000000,0.000000,-0.013915,0.115595,0.043731,0.033023,0.373924,-0.258686,-0.114911,-0.133916,0.650336,-0.713885
-0.050000,-0.050000,0.000000,0.000000,0.000000,0.000000,0.000000,0.000000,0.000000,0.100000,0.100000,-0.160385,-0.301213,-0.050000,-0.050000,1.043162,-0.752891,0.000000,0.000000,-0.028505,0.125889,0.039482,0.037813,0.384465,-0.269998,-0.114626,-0.131674,0.651682,-0.710934
-0.050000,-0.050000,0.000000,0.000000,0.000000,0.000000,0.000000,0.000000,0.000000,0.100000,0.100000,-0.187047,-0.318838,-0.050000,-0.050000,1.077173,-0.771838,0.000000,0.000000,-0.043600,0.136522,0.036479,0.044277,0.393786,-0.279621,-0.114230,-0.129292,0.652750,-0.707694
-0.050000,-0.050000,0.000000,0.000000,0.000000,0.000000,0.000000,0.000000,0.000000,0.100000,0.100000,-0.214922,-0.337559,-0.050000,-0.050000,1.109774,-0.790507,0.000000,0.000000,-0.059318,0.147639,0.034380,0.052011,0.402179,-0.287939,-0.113837,-0.126883,0.653620,-0.704232
-0.050000,-0.050000,0.000000,0.000000,0.000000,0.000000,0.000000,0.000000,0.000000,0.100000,0.100000,-0.243030,-0.356817,-0.050000,-0.050000,1.139048,-0.807877,0.000000,0.000000,-0.074651,0.158362,0.034438,0.061455,0.408415,-0.293973,-0.113302,-0.124366,0.654424,-0.700889
-0.050000,-0.050000,0.000000,0.000000,0.000000,0.000000,0.000000,0.000000,0.000000,0.100000,0.100000,-0.271546,-0.376633,-0.050000,-0.050000,1.166517,-0.824823,0.000000,0.000000,-0.090140,0.169275,0.035347,0.071480,0.413578,-0.298881,-0.112950,-0.122032,0.655305,-0.697723
-0.050000,-0.050000,0.000000,0.000000,0.000000,0.000000,0.000000,0.000000,0.000000,0.100000,0.100000,-0.299557,-0.396385,-0.050000,-0.050000,1.190547,-0.840393,0.000000,0.000000,-0.104799,0.179381,0.038125,0.082200,0.416657,-0.302006,-0.112575,-0.119814,0.656490,-0.695260
-0.050000,-0.050000,0.000000,0.000000,0.000000,0.000000,0.000000,0.000000,0.000000,0.100000,0.100000,-0.326761,-0.415804,-0.050000,-0.050000,1.211440,-0.854830,0.000000,0.000000,-0.118435,0.188581,0.042203,0.092765,0.417927,-0.303825,-0.112339,-0.117890,0.658223,-0.693802
-0.050000,-0.050000,0.000000,0.000000,0.000000,0.000000,0.000000,0.000000,0.000000,0.100000,0.100000,-0.353118,-0.434790,-0.050000,-0.050000,1.229919,-0.868457,0.000000,0.000000,-0.131142,0.197103,0.047121,0.102970,0.417850,-0.304719,-0.112266,-0.116171,0.660407,-0.693142
-0.050000,-0.050000,0.000000,0.000000,0.000000,0.000000,0.000000,0.000000,0.000000,0.100000,0.100000,-0.377321,-0.452477,-0.050000,-0.050000,1.243404,-0.879891,0.000000,0.000000,-0.141314,0.203203,0.053629,0.111890,0.415108,-0.304174,-0.112230,-0.114958,0.663855,-0.694635
-0.050000,-0.050000,0.000000,0.000000,0.000000,0.000000,0.000000,0.000000,0.000000,0.100000,0.100000,-0.399839,-0.469052,-0.050000,-0.050000,1.254602,-0.890638,0.000000,0.000000,-0.149824,0.208267,0.060180,0.119396,0.411346,-0.303251,-0.112501,-0.114028,0.668036,-0.697141
-0.050000,-0.050000,0.000000,0.000000,0.000000,0.000000,0.000000,0.000000,0.000000,0.100000,0.100000,-0.419687,-0.483965,-0.050000,-0.050000,1.261264,-0.899331,0.000000,0.000000,-0.155392,0.210911,0.067228,0.124756,0.405607,-0.301617,-0.112934,-0.113635,0.673623,-0.701683
-0.050000,-0.050000,0.000000,0.000000,0.000000,0.000000,0.000000,0.000000,0.000000,0.100000,0.100000,-0.436636,-0.497009,-0.050000,-0.050000,1.264132,-0.906388,0.000000,0.000000,-0.158037,0.211569,0.073802,0.127584,0.398694,-0.299929,-0.113734,-0.113765,0.680555,-0.707794
-0.050000,-0.050000,0.000000,0.000000,0.000000,0.000000,0.000000,0.000000,0.000000,0.100000,0.100000,-0.450668,-0.508310,-0.050000,-0.050000,1.264119,-0.912226,0.000000,0.000000,-0.157839,0.210558,0.079711,0.128172,0.391039,-0.298362,-0.114839,-0.114224,0.688515,-0.715060
-0.050000,-0.050000,0.000000,0.000000,0.000000,0.000000,0.000000,0.000000,0.000000,0.100000,0.100000,-0.460575,-0.517148,-0.050000,-0.050000,1.258169,-0.914982,0.000000,0.000000,-0.153662,0.206936,0.084345,0.125179,0.382336,-0.297311,-0.116551,-0.115600,0.698474,-0.724174
-0.050000,-0.050000,0.000000,0.000000,0.000000,0.000000,0.000000,0.000000,0.000000,0.100000,0.100000,-0.466774,-0.523894,-0.050000,-0.050000,1.249630,-0.916633,0.000000,0.000000,-0.146308,0.201960,0.087438,0.119741,0.373829,-0.297127,-0.118725,-0.117249,0.709321,-0.733868
-0.050000,-0.050000,0.000000,0.000000,0.000000,0.000000,0.000000,0.000000,0.000000,0.100000,0.100000,-0.468470,-0.528271,-0.050000,-0.050000,1.235880,-0.915444,0.000000,0.000000,-0.135201,0.195216,0.088594,0.111117,0.365339,-0.298078,-0.121629,-0.119647,0.721642,-0.744462
-0.050000,-0.050000,0.000000,0.000000,0.000000,0.000000,0.000000,0.000000,0.000000,0.100000,0.100000,-0.465526,-0.530294,-0.050000,-0.050000,1.218050,-0.912086,0.000000,0.000000,-0.120766,0.187402,0.087646,0.099905,0.357658,-0.300490,-0.125231,-0.122520,0.734805,-0.755218
-0.050000,-0.050000,0.000000,0.000000,0.000000,0.000000,0.000000,0.000000,0.000000,0.100000,0.100000,-0.458408,-0.530467,-0.050000,-0.050000,1.196922,-0.907010,0.000000,0.000000,-0.103245,0.178869,0.084687,0.086538,0.350870,-0.304182,-0.129411,-0.125719,0.748532,-0.765974
-0.050000,-0.050000,0.000000,0.000000,0.000000,0.000000,0.000000,0.000000,0.000000,0.100000,0.100000,-0.445993,-0.528139,-0.050000,-0.050000,1.170175,-0.898582,0.000000,0.000000,-0.083206,0.170139,0.079528,0.071107,0.345503,-0.309668,-0.134467,-0.129517,0.762446,-0.776071
-0.050000,-0.050000,0.000000,0.000000,0.000000,0.000000,0.000000,0.000000,0.000000,0.100000,0.100000,-0.429732,-0.524276,-0.050000,-0.050000,1.140845,-0.888843,0.000000,0.000000,-0.061049,0.161590,0.072509,0.054451,0.341591,-0.316406,-0.139963,-0.133427,0.776074,-0.785481
-0.050000,-0.050000,0.000000,0.000000,0.000000,0.000000,0.000000,0.000000,0.000000,0.100000,0.100000,-0.409187,-0.518570,-0.050000,-0.050000,1.107354,-0.876527,0.000000,0.000000,-0.037892,0.153940,0.063889,0.037086,0.339289,-0.324391,-0.146001,-0.137583,0.788747,-0.793538
-0.050000,-0.050000,0.000000,0.000000,0.000000,0.000000,0.000000,0.000000,0.000000,0.100000,0.100000,-0.385344,-0.511482,-0.050000,-0.050000,1.071398,-0.862632,0.000000,0.000000,-0.014596,0.147646,0.054143,0.019860,0.338601,-0.333140,-0.152284,-0.141726,0.799863,-0.800007
-0.050000,-0.050000,0.000000,0.000000,0.000000,0.000000,0.000000,0.000000,0.000000,0.100000,0.100000,-0.359389,-0.503585,-0.050000,-0.050000,1.033422,-0.847441,0.000000,0.000000,0.008286,0.142758,0.043471,0.002932,0.339136,-0.342326,-0.158728,-0.145894,0.809574,-0.805160
-0.050000,-0.050000,0.000000,0.000000,0.000000,0.000000,0.000000,0.000000,0.000000,0.100000,0.100000,-0.331111,-0.494350,-0.050000,-0.050000,0.994587,-0.831003,0.000000,0.000000,0.028606,0.140537,0.033078,-0.011871,0.341246,-0.351234,-0.164951,-0.149729,0.815978,-0.807587
-0.050000,-0.050000,0.000000,0.000000,0.000000,0.000000,0.000000,0.000000,0.000000,0.100000,0.100000,-0.302672,-0.484965,-0.050000,-0.050000,0.955774,-0.814157,0.000000,0.000000,0.046828,0.140119,0.022801,-0.025210,0.344130,-0.359671,-0.171013,-0.153497,0.820462,-0.808562
-0.050000,-0.050000,0.000000,0.000000,0.000000,0.000000,0.000000,0.000000,0.000000,0.100000,0.100000,-0.274035,-0.475010,-0.050000,-0.050000,0.918811,-0.797353,0.000000,0.000000,0.061181,0.142456,0.013763,-0.035537,0.348036,-0.366901,-0.176504,-0.156827,0.821491,-0.806950
-0.050000,-0.050000,0.000000,0.000000,0.000000,0.000000,0.000000,0.000000,0.000000,0.100000,0.100000,-0.246550,-0.465160,-0.050000,-0.050000,0.885159,-0.781368,0.000000,0.000000,0.071654,0.147136,0.006176,-0.042888,0.352587,-0.372569,-0.181382,-0.159827,0.819604,-0.803225
-0.050000,-0.050000,0.000000,0.000000,0.000000,0.000000,0.000000,0.000000,0.000000,0.100000,0.100000,-0.220660,-0.455614,-0.050000,-0.050000,0.854493,-0.766036,0.000000,0.000000,0.078512,0.153622,0.000251,-0.047533,0.357381,-0.376717,-0.185747,-0.162635,0.815453,-0.797880
-0.050000,-0.050000,0.000000,0.000000,0.000000,0.000000,0.000000,0.000000,0.000000,0.100000,0.100000,-0.196934,-0.446502,-0.050000,-0.050000,0.832017,-0.753670,0.000000,0.000000,0.080533,0.162784,-0.003467,-0.048188,0.363213,-0.378411,-0.189042,-0.164777,0.807583,-0.789746
-0.050000,-0.050000,0.000000,0.000000,0.000000,0.000000,0.000000,0.000000,0.000000,0.100000,0.100000,-0.175861,-0.438332,-0.050000,-0.050000,0.814066,-0.742563,0.000000,0.000000,0.079388,0.172991,-0.005207,-0.046373,0.368890,-0.378235,-0.191838,-0.166832,0.798173,-0.780456
-0.050000,-0.050000,0.000000,0.000000,0.000000,0.000000,0.000000,0.000000,0.000000,0.100000,0.100000,-0.157720,-0.431190,-0.050000,-0.050000,0.805274,-0.735020,0.000000,0.000000,0.074598,0.184787,-0.005054,-0.041562,0.375421,-0.375803,-0.193744,-0.168401,0.786268,-0.769167
-0.050000,-0.050000,0.000000,0.000000,0.000000,0.000000,0.000000,0.000000,0.000000,0.100000,0.100000,-0.142874,-0.425443,-0.050000,-0.050000,0.804209,-0.730409,0.000000,0.000000,0.067263,0.197166,-0.003325,-0.034799,0.382264,-0.371386,-0.195006,-0.169731,0.773030,-0.756727
-0.050000,-0.050000,0.000000,0.000000,0.000000,0.000000,0.000000,0.000000,0.000000,0.100000,0.100000,-0.130929,-0.420868,-0.050000,-0.050000,0.809489,-0.728109,0.000000,0.000000,0.057944,0.209762,-0.000194,-0.026548,0.389273,-0.365342,-0.195813,-0.170845,0.758867,-0.743385
-0.050000,-0.050000,0.000000,0.000000,0.000000,0.000000,0.000000,0.000000,0.000000,0.100000,0.100000,-0.122908,-0.418211,-0.050000,-0.050000,0.825346,-0.730786,0.000000,0.000000,0.047352,0.222179,0.003325,-0.017710,0.397332,-0.357736,-0.195847,-0.171588,0.743979,-0.729276
-0.050000,-0.050000,0.000000,0.000000,0.000000,0.000000,0.000000,0.000000,0.000000,0.100000,0.100000,-0.117715,-0.416739,-0.050000,-0.050000,0.845701,-0.735171,0.000000,0.000000,0.036015,0.233815,0.007552,-0.008719,0.405182,-0.348978,-0.195552,-0.172120,0.729105,-0.714980
-0.050000,-0.050000,0.000000,0.000000,0.000000,0.000000,0.000000,0.000000,0.000000,0.100000,0.100000,-0.116024,-0.416994,-0.050000,-0.050000,0.873568,-0.743616,0.000000,0.000000,0.024815,0.244241,0.011382,-0.000591,0.413685,-0.339529,-0.194689,-0.172336,0.714641,-0.700850
-0.050000,-0.050000,0.000000,0.000000,0.000000,0.000000,0.000000,0.000000,0.000000,0.100000,0.100000,-0.117175,-0.418536,-0.050000,-0.050000,0.905366,-0.754470,0.000000,0.000000,0.014261,0.252956,0.014777,0.006212,0.422096,-0.329725,-0.193358,-0.172233,0.701101,-0.687401
-0.050000,-0.050000,0.000000,0.000000,0.000000,0.000000,0.000000,0.000000,0.000000,0.100000,0.100000,-0.120598,-0.421001,-0.050000,-0.050000,0.940126,-0.767340,0.000000,0.000000,0.004273,0.260212,0.017584,0.011666,0.430514,-0.319812,-0.191639,-0.171780,0.688344,-0.674535
-0.050000,-0.050000,0.000000,0.000000,0.000000,0.000000,0.000000,0.000000,0.000000,0.100000,0.100000,-0.126635,-0.424792,-0.050000,-0.050000,0.976860,-0.782927,0.000000,0.000000,-0.003420,0.264596,0.019067,0.014522,0.438592,-0.310584,-0.189223,-0.170943,0.677757,-0.663707
-0.050000,-0.050000,0.000000,0.000000,0.000000,0.000000,0.000000,0.000000,0.000000,0.100000,0.100000,-0.133856,-0.428863,-0.050000,-0.050000,1.013526,-0.799475,0.000000,0.000000,-0.010096,0.267344,0.019692,0.015726,0.446305,-0.301802,-0.186364,-0.169653,0.668203,-0.653941
-0.050000,-0.050000,0.000000,0.000000,0.000000,0.000000,0.000000,0.000000,0.000000,0.100000,0.100000,-0.142376,-0.433517,-0.050000,-0.050000,1.048809,-0.817324,0.000000,0.000000,-0.014281,0.267236,0.019113,0.014555,0.453250,-0.294208,-0.182829,-0.167931,0.660888,-0.646585
-0.050000,-0.050000,0.000000,0.000000,0.000000,0.000000,0.000000,0.000000,0.000000,0.100000,0.100000,-0.151134,-0.438076,-0.050000,-0.050000,1.081285,-0.835491,0.000000,0.000000,-0.016493,0.264822,0.017580,0.011587,0.459376,-0.287806,-0.178747,-0.165716,0.655247,-0.641323
-0.050000,-0.050000,0.000000,0.000000,0.000000,0.000000,0.000000,0.000000,0.000000,0.100000,0.100000,-0.159814,-0.442408,-0.050000,-0.050000,1.111259,-0.853947,0.000000,0.000000,-0.016976,0.260592,0.015156,0.007108,0.464924,-0.282525,-0.174206,-0.163097,0.650941,-0.637826
-0.050000,-0.050000,0.000000,0.000000,0.000000,0.000000,0.000000,0.000000,0.000000,0.100000,0.100000,-0.167558,-0.446227,-0.050000,-0.050000,1.135165,-0.871454,0.000000,0.000000,-0.014791,0.253262,0.012216,0.001319,0.468923,-0.278953,-0.169173,-0.159960,0.648740,-0.637481
-0.050000,-0.050000,0.000000,0.000000,0.000000,0.000000,0.000000,0.000000,0.000000,0.100000,0.100000,-0.174096,-0.449267,-0.050000,-0.050000,1.155976,-0.888702,0.000000,0.000000,-0.011177,0.244677,0.008588,-0.005330,0.472513,-0.276513,-0.163942,-0.156488,0.647298,-0.638644
-0.050000,-0.050000,0.000000,0.000000,0.000000,0.000000,0.000000,0.000000,0.000000,0.100000,0.100000,-0.178710,-0.451382,-0.050000,-0.050000,1.170612,-0.904340,0.000000,0.000000,-0.005595,0.233729,0.004850,-0.012346,0.474734,-0.275417,-0.158584,-0.152592,0.647073,-0.642376
-0.050000,-0.050000,0.000000,0.000000,0.000000,0.000000,0.000000,0.000000,0.000000,0.100000,0.100000,-0.181094,-0.452386,-0.050000,-0.050000,1.180594,-0.918683,0.000000,0.000000,0.001240,0.221409,0.000913,-0.019390,0.476168,-0.275300,-0.153391,-0.148418,0.647264,-0.647807
-0.050000,-0.050000,0.000000,0.000000,0.000000,0.000000,0.000000,0.000000,0.000000,0.100000,0.100000,-0.181422,-0.452450,-0.050000,-0.050000,1.186713,-0.931901,0.000000,0.000000,0.009234,0.208040,-0.003178,-0.026363,0.476969,-0.275933,-0.148407,-0.144061,0.647730,-0.654602
-0.050000,-0.050000,0.000000,0.000000,0.000000,0.000000,0.000000,0.000000,0.000000,0.100000,0.100000,-0.178579,-0.451144,-0.050000,-0.050000,1.186646,-0.942541,0.000000,0.000000,0.017695,0.193299,-0.006880,-0.032307,0.476407,-0.276906,-0.144086,-0.139485,0.647925,-0.662961
-0.050000,-0.050000,0.000000,0.000000,0.000000,0.000000,0.000000,0.000000,0.000000,0.100000,0.100000,-0.173698,-0.448938,-0.050000,-0.050000,1.183931,-0.952295,0.000000,0.000000,0.026689,0.178320,-0.010734,-0.037851,0.475485,-0.278116,-0.140309,-0.134975,0.647821,-0.671922
-0.050000,-0.050000,0.000000,0.000000,0.000000,0.000000,0.000000,0.000000,0.000000,0.100000,0.100000,-0.165938,-0.445539,-0.050000,-0.050000,1.176453,-0.959719,0.000000,0.000000,0.035312,0.162861,-0.014211,-0.042083,0.473366,-0.278937,-0.137449,-0.130495,0.646846,-0.681472
-0.050000,-0.050000,0.000000,0.000000,0.000000,0.000000,0.000000,0.000000,0.000000,0.100000,0.100000,-0.156017,-0.441170,-0.050000,-0.050000,1.165963,-0.965669,0.000000,0.000000,0.043401,0.147633,-0.017560,-0.045287,0.470432,-0.279214,-0.135523,-0.126293,0.644950,-0.690959
-0.050000,-0.050000,0.000000,0.000000,0.000000,0.000000,0.000000,0.000000,0.000000,0.100000,0.100000,-0.144413,-0.436097,-0.050000,-0.050000,1.152976,-0.970367,0.000000,0.000000,0.050894,0.132696,-0.020754,-0.047545,0.466758,-0.278904,-0.134402,-0.122383,0.642241,-0.700305
-0.050000,-0.050000,0.000000,0.000000,0.000000,0.000000,0.000000,0.000000,0.000000,0.100000,0.100000,-0.130712,-0.429875,-0.050000,-0.050000,1.136365,-0.972855,0.000000,0.000000,0.056444,0.118655,-0.023589,-0.048196,0.461539,-0.277191,-0.134591,-0.119029,0.637952,-0.708615
-0.050000,-0.050000,0.000000,0.000000,0.000000,0.000000,0.000000,0.000000,0.000000,0.100000,0.100000,-0.116276,-0.423214,-0.050000,-0.050000,1.118245,-0.974610,0.000000,0.000000,0.060972,0.105398,-0.026228,-0.048033,0.455597,-0.274759,-0.135550,-0.116219,0.632880,-0.716223
-0.050000,-0.050000,0.000000,0.000000,0.000000,0.000000,0.000000,0.000000,0.000000,0.100000,0.100000,-0.100798,-0.415689,-0.050000,-0.050000,1.097416,-0.974596,0.000000,0.000000,0.063195,0.093507,-0.028528,-0.046517,0.448098,-0.270939,-0.137668,-0.114158,0.626361,-0.722255
-0.050000,-0.050000,0.000000,0.000000,0.000000,0.000000,0.000000,0.000000,0.000000,0.100000,0.100000,-0.085128,-0.407701,-0.050000,-0.050000,1.074944,-0.973575,0.000000,0.000000,0.063482,0.083004,-0.030484,-0.044048,0.439403,-0.266161,-0.140679,-0.112884,0.618771,-0.726755
-0.050000,-0.050000,0.000000,0.000000,0.000000,0.000000,0.000000,0.000000,0.000000,0.100000,0.100000,-0.069556,-0.399410,-0.050000,-0.050000,1.051111,-0.971706,0.000000,0.000000,0.061901,0.073699,-0.032036,-0.040719,0.429648,-0.260572,-0.144386,-0.112291,0.610274,-0.729916
-0.050000,-0.050000,0.000000,0.000000,0.000000,0.000000,0.000000,0.000000,0.000000,0.100000,0.100000,-0.054303,-0.390674,-0.050000,-0.050000,1.025523,-0.968402,0.000000,0.000000,0.057495,0.066596,-0.033198,-0.036428,0.418274,-0.254028,-0.149113,-0.112689,0.600316,-0.730600
-0.050000,-0.050000,0.000000,0.000000,0.000000,0.000000,0.000000,0.000000,0.000000,0.100000,0.100000,-0.039799,-0.382096,-0.050000,-0.050000,0.999372,-0.964685,0.000000,0.000000,0.051358,0.060665,-0.033765,-0.031468,0.406106,-0.247093,-0.154277,-0.113681,0.589601,-0.729979
-0.050000,-0.050000,0.000000,0.000000,0.000000,0.000000,0.000000,0.000000,0.000000,0.100000,0.100000,-0.026172,-0.373632,-0.050000,-0.050000,0.972440,-0.959927,0.000000,0.000000,0.042597,0.056916,-0.033853,-0.025810,0.392746,-0.239701,-0.160159,-0.115469,0.577533,-0.727061
-0.050000,-0.050000,0.000000,0.000000,0.000000,0.000000,0.000000,0.000000,0.000000,0.100000,0.100000,-0.013653,-0.365829,-0.050000,-0.050000,0.945641,-0.954692,0.000000,0.000000,0.031746,0.054871,-0.033264,-0.019547,0.378711,-0.232183,-0.166444,-0.117772,0.564332,-0.722444
-0.050000,-0.050000,0.000000,0.000000,0.000000,0.000000,0.000000,0.000000,0.000000,0.100000,0.100000,-0.002193,-0.358741,-0.050000,-0.050000,0.919045,-0.949011,0.000000,0.000000,0.019077,0.054323,-0.031980,-0.012690,0.364083,-0.224578,-0.172988,-0.120454,0.550155,-0.716411
-0.050000,-0.050000,0.000000,0.000000,0.000000,0.000000,0.000000,0.000000,0.000000,0.100000,0.100000,0.007865,-0.353178,-0.050000,-0.050000,0.893989,-0.942922,0.000000,0.000000,0.003789,0.056197,-0.029997,-0.005329,0.349161,-0.217061,-0.179894,-0.123460,0.534152,-0.708335
-0.050000,-0.050000,0.000000,0.000000,0.000000,0.000000,0.000000,0.000000,0.000000,0.100000,0.100000,0.016756,-0.348993,-0.050000,-0.050000,0.870008,-0.936659,0.000000,0.000000,-0.012916,0.059317,-0.027054,0.002743,0.333977,-0.209558,-0.186773,-0.126494,0.517178,-0.699327
-0.050000,-0.050000,0.000000,0.000000,0.000000,0.000000,0.000000,0.000000,0.000000,0.100000,0.100000,0.024200,-0.347014,-0.050000,-0.050000,0.848632,-0.930382,0.000000,0.000000,-0.031901,0.064573,-0.023196,0.011354,0.318922,-0.202146,-0.193687,-0.129479,0.498334,-0.688861
-0.050000,-0.050000,0.000000,0.000000,0.000000,0.000000,0.000000,0.000000,0.000000,0.100000,0.100000,0.030234,-0.347340,-0.050000,-0.050000,0.829724,-0.924213,0.000000,0.000000,-0.052491,0.071323,-0.018112,0.020702,0.303971,-0.194687,-0.200352,-0.132185,0.478039,-0.677570
-0.050000,-0.050000,0.000000,0.000000,0.000000,0.000000,0.000000,0.000000,0.000000,0.100000,0.100000,0.035002,-0.349792,-0.050000,-0.050000,0.813011,-0.918103,0.000000,0.000000,-0.074422,0.079400,-0.011890,0.030759,0.289083,-0.187148,-0.206734,-0.134608,0.456501,-0.665632
-0.050000,-0.050000,0.000000,0.000000,0.000000,0.000000,0.000000,0.000000,0.000000,0.100000,0.100000,0.038036,-0.355561,-0.050000,-0.050000,0.800282,-0.912640,0.000000,0.000000,-0.098167,0.089076,-0.003882,0.041376,0.274755,-0.179403,-0.212467,-0.136458,0.433063,-0.653055
-0.050000,-0.050000,0.000000,0.000000,0.000000,0.000000,0.000000,0.000000,0.000000,0.100000,0.100000,0.039750,-0.363445,-0.050000,-0.050000,0.789295,-0.907199,0.000000,0.000000,-0.122649,0.099585,0.005647,0.052772,0.260367,-0.171397,-0.217655,-0.137873,0.408856,-0.640302
-0.050000,-0.050000,0.000000,0.000000,0.000000,0.000000,0.000000,0.000000,0.000000,0.100000,0.100000,0.039782,-0.374443,-0.050000,-0.050000,0.781532,-0.902459,0.000000,0.000000,-0.148195,0.111049,0.017496,0.064554,0.246465,-0.163077,-0.221860,-0.138683,0.383446,-0.627455
-0.050000,-0.050000,0.000000,0.000000,0.000000,0.000000,0.000000,0.000000,0.000000,0.100000,0.100000,0.038315,-0.387780,-0.050000,-0.050000,0.775352,-0.897993,0.000000,0.000000,-0.174029,0.122926,0.031792,0.076738,0.232666,-0.154446,-0.225075,-0.138986,0.357729,-0.614873
-0.050000,-0.050000,0.000000,0.000000,0.000000,0.000000,0.000000,0.000000,0.000000,0.100000,0.100000,0.035559,-0.403075,-0.050000,-0.050000,0.770378,-0.893779,0.000000,0.000000,-0.200085,0.135117,0.048294,0.089159,0.219066,-0.145585,-0.227423,-0.138867,0.331864,-0.602567
-0.050000,-0.050000,0.000000,0.000000,0.000000,0.000000,0.000000,0.000000,0.000000,0.100000,0.100000,0.031280,-0.420637,-0.050000,-0.050000,0.766084,-0.890080,0.000000,0.000000,-0.225447,0.146936,0.068876,0.101261,0.205751,-0.136605,-0.228122,-0.138350,0.306778,-0.591315
-0.050000,-0.050000,0.000000,0.000000,0.000000,0.000000,0.000000,0.000000,0.000000,0.100000,0.100000,0.025980,-0.439222,-0.050000,-0.050000,0.761433,-0.886331,0.000000,0.000000,-0.250437,0.158608,0.091923,0.113228,0.192631,-0.127619,-0.228056,-0.137571,0.282484,-0.580727
-0.050000,-0.050000,0.000000,0.000000,0.000000,0.000000,0.000000,0.000000,0.000000,0.100000,0.100000,0.019630,-0.458945,-0.050000,-0.050000,0.755680,-0.882794,0.000000,0.000000,-0.273858,0.169272,0.119490,0.124412,0.179784,-0.118876,-0.226384,-0.136668,0.260093,-0.571740
-0.050000,-0.050000,0.000000,0.000000,0.000000,0.000000,0.000000,0.000000,0.000000,0.100000,0.100000,0.012559,-0.478850,-0.050000,-0.050000,0.748088,-0.879090,0.000000,0.000000,-0.295835,0.179016,0.150760,0.134797,0.167247,-0.110539,-0.223663,-0.135728,0.239747,-0.564252
-0.050000,-0.050000,0.000000,0.000000,0.000000,0.000000,0.000000,0.000000,0.000000,0.100000,0.100000,0.005004,-0.498690,-0.050000,-0.050000,0.738664,-0.875259,0.000000,0.000000,-0.316446,0.187842,0.185355,0.144317,0.155104,-0.102651,-0.220093,-0.134784,0.221300,-0.558145
-0.050000,-0.050000,0.000000,0.000000,0.000000,0.000000,0.000000,0.000000,0.000000,0.100000,0.100000,-0.002822,-0.517544,-0.050000,-0.050000,0.725845,-0.871003,0.000000,0.000000,-0.334080,0.194744,0.224981,0.152510,0.143216,-0.095585,-0.215058,-0.134049,0.206218,-0.554545
-0.050000,-0.050000,0.000000,0.000000,0.000000,0.000000,0.000000,0.000000,0.000000,0.100000,0.100000,-0.010775,-0.535388,-0.050000,-0.050000,0.710996,-0.866410,0.000000,0.000000,-0.350458,0.200790,0.267132,0.159695,0.131898,-0.089111,-0.209672,-0.133330,0.192908,-0.552176
-0.050000,-0.050000,0.000000,0.000000,0.000000,0.000000,0.000000,0.000000,0.000000,0.100000,0.100000,-0.018614,-0.551284,-0.050000,-0.050000,0.692849,-0.861186,0.000000,0.000000,-0.363820,0.204936,0.313208,0.165684,0.120869,-0.083431,-0.203240,-0.132769,0.182575,-0.551997
-0.050000,-0.050000,0.000000,0.000000,0.000000,0.000000,0.000000,0.000000,0.000000,0.100000,0.100000,-0.026300,-0.565110,-0.050000,-0.050000,0.672531,-0.855357,0.000000,0.000000,-0.375251,0.207944,0.361383,0.170692,0.110398,-0.078330,-0.196454,-0.132186,0.174075,-0.553021
-0.050000,-0.050000,0.000000,0.000000,0.000000,0.000000,0.000000,0.000000,0.000000,0.100000,0.100000,-0.033705,-0.576982,-0.050000,-0.050000,0.650386,-0.848992,0.000000,0.000000,-0.384805,0.209811,0.411195,0.174852,0.100331,-0.073696,-0.189327,-0.131561,0.167035,-0.555030
-0.050000,-0.050000,0.000000,0.000000,0.000000,0.000000,0.000000,0.000000,0.000000,0.100000,0.100000,-0.040883,-0.585679,-0.050000,-0.050000,0.626656,-0.841730,0.000000,0.000000,-0.391767,0.210651,0.461696,0.178538,0.090828,-0.069273,-0.181873,-0.130679,0.161439,-0.557514
-0.050000,-0.050000,0.000000,0.000000,0.000000,0.000000,0.000000,0.000000,0.000000,0.100000,0.100000,-0.047675,-0.592486,-0.050000,-0.050000,0.602476,-0.833985,0.000000,0.000000,-0.397480,0.210932,0.511919,0.181679,0.081823,-0.064965,-0.174370,-0.129602,0.156198,-0.559893
-0.050000,-0.050000,0.000000,0.000000,0.000000,0.000000,0.000000,0.000000,0.000000,0.100000,0.100000,-0.054321,-0.596237,-0.050000,-0.050000,0.578389,-0.825438,0.000000,0.000000,-0.401224,0.211068,0.560470,0.184890,0.073494,-0.060384,-0.166894,-0.128024,0.151214,-0.561287
-0.050000,-0.050000,0.000000,0.000000,0.000000,0.000000,0.000000,0.000000,0.000000,0.100000,0.100000,-0.060696,-0.597818,-0.050000,-0.050000,0.555366,-0.816346,0.000000,0.000000,-0.403818,0.211487,0.606372,0.188144,0.065843,-0.055426,-0.159562,-0.126006,0.145815,-0.561113
-0.050000,-0.050000,0.000000,0.000000,0.000000,0.000000,0.000000,0.000000,0.000000,0.100000,0.100000,-0.066735,-0.597541,-0.050000,-0.050000,0.533556,-0.806747,0.000000,0.000000,-0.405316,0.212207,0.649502,0.191580,0.058733,-0.050039,-0.152246,-0.123565,0.139887,-0.559367
-0.050000,-0.050000,0.000000,0.000000,0.000000,0.000000,0.000000,0.000000,0.000000,0.100000,0.100000,-0.073046,-0.594826,-0.050000,-0.050000,0.514733,-0.796587,0.000000,0.000000,-0.405952,0.214767,0.686916,0.195679,0.052673,-0.043822,-0.145578,-0.120386,0.132991,-0.554071
-0.050000,-0.050000,0.000000,0.000000,0.000000,0.000000,0.000000,0.000000,0.000000,0.100000,0.100000,-0.078798,-0.591151,-0.050000,-0.050000,0.497924,-0.786051,0.000000,0.000000,-0.405909,0.217933,0.720620,0.200048,0.047028,-0.037099,-0.138761,-0.116877,0.125287,-0.546809
-0.050000,-0.050000,0.000000,0.000000,0.000000,0.000000,0.000000,0.000000,0.000000,0.100000,0.100000,-0.084989,-0.585800,-0.050000,-0.050000,0.484896,-0.775079,0.000000,0.000000,-0.405483,0.223600,0.747602,0.205066,0.042355,-0.029599,-0.132664,-0.112703,0.116637,-0.535548
-0.050000,-0.050000,0.000000,0.000000,0.000000,0.000000,0.000000,0.000000,0.000000,0.100000,0.100000,-0.091032,-0.579798,-0.050000,-0.050000,0.475023,-0.763739,0.000000,0.000000,-0.404710,0.230884,0.769062,0.210441,0.038177,-0.021548,-0.126708,-0.108155,0.107276,-0.521380
-0.050000,-0.050000,0.000000,0.000000,0.000000,0.000000,0.000000,0.000000,0.000000,0.100000,0.100000,-0.097013,-0.573257,-0.050000,-0.050000,0.468061,-0.752033,0.000000,0.000000,-0.403671,0.239790,0.785428,0.216170,0.034439,-0.013071,-0.120863,-0.103219,0.097340,-0.504595
-0.050000,-0.050000,0.000000,0.000000,0.000000,0.000000,0.000000,0.000000,0.000000,0.100000,0.100000,-0.103765,-0.566236,-0.050000,-0.050000,0.465279,-0.739936,0.000000,0.000000,-0.402652,0.251462,0.794501,0.221990,0.031249,-0.004145,-0.115761,-0.097931,0.087251,-0.484158
-0.050000,-0.050000,0.000000,0.000000,0.000000,0.000000,0.000000,0.000000,0.000000,0.100000,0.100000,-0.110184,-0.559328,-0.050000,-0.050000,0.464776,-0.727457,0.000000,0.000000,-0.401334,0.264021,0.799503,0.227931,0.028100,0.004977,-0.110380,-0.092412,0.076960,-0.462136
-0.050000,-0.050000,0.000000,0.000000,0.000000,0.000000,0.000000,0.000000,0.000000,0.100000,0.100000,-0.117493,-0.552412,-0.050000,-0.050000,0.467746,-0.714576,0.000000,0.000000,-0.400027,0.278709,0.798225,0.233538,0.025143,0.014290,-0.105610,-0.086741,0.067098,-0.437619
-0.050000,-0.050000,0.000000,0.000000,0.000000,0.000000,0.000000,0.000000,0.000000,0.100000,0.100000,-0.124955,-0.545860,-0.050000,-0.050000,0.472906,-0.701318,0.000000,0.000000,-0.398448,0.294081,0.792720,0.238780,0.022015,0.023666,-0.100801,-0.081022,0.057660,-0.412100
-0.050000,-0.050000,0.000000,0.000000,0.000000,0.000000,0.000000,0.000000,0.000000,0.100000,0.100000,-0.132740,-0.539550,-0.050000,-0.050000,0.479952,-0.687737,0.000000,0.000000,-0.396685,0.310125,0.783530,0.243596,0.018754,0.033020,-0.096041,-0.075230,0.048720,-0.385801
-0.050000,-0.050000,0.000000,0.000000,0.000000,0.000000,0.000000,0.000000,0.000000,0.100000,0.100000,-0.141302,-0.533842,-0.050000,-0.050000,0.488891,-0.673898,0.000000,0.000000,-0.394552,0.326216,0.769867,0.247259,0.015059,0.042390,-0.091728,-0.069791,0.041002,-0.359569
-0.050000,-0.050000,0.000000,0.000000,0.000000,0.000000,0.000000,0.000000,0.000000,0.100000,0.100000,-0.149903,-0.528407,-0.050000,-0.050000,0.498747,-0.659897,0.000000,0.000000,-0.392114,0.341975,0.753939,0.250320,0.011053,0.051667,-0.087267,-0.064373,0.033851,-0.333694
-0.050000,-0.050000,0.000000,0.000000,0.000000,0.000000,0.000000,0.000000,0.000000,0.100000,0.100000,-0.159086,-0.523647,-0.050000,-0.050000,0.509457,-0.645883,0.000000,0.000000,-0.389118,0.356644,0.734722,0.251871,0.006399,0.060941,-0.083287,-0.059573,0.028099,-0.309243
-0.050000,-0.050000,0.000000,0.000000,0.000000,0.000000,0.000000,0.000000,0.000000,0.100000,0.100000,-0.168332,-0.519326,-0.050000,-0.050000,0.520385,-0.631995,0.000000,0.000000,-0.385613,0.369958,0.713532,0.252194,0.001130,0.070173,-0.079467,-0.055217,0.023347,-0.286459
-0.050000,-0.050000,0.000000,0.000000,0.000000,0.000000,0.000000,0.000000,0.000000,0.100000,0.100000,-0.177703,-0.515355,-0.050000,-0.050000,0.531359,-0.618289,0.000000,0.000000,-0.381656,0.381983,0.690663,0.251303,-0.004690,0.079384,-0.075899,-0.051304,0.019557,-0.265320
-0.050000,-0.050000,0.000000,0.000000,0.000000,0.000000,0.000000,0.000000,0.000000,0.100000,0.100000,-0.186951,-0.512256,-0.050000,-0.050000,0.541636,-0.605092,0.000000,0.000000,-0.376811,0.391322,0.665867,0.248394,-0.011727,0.088704,-0.072965,-0.048517,0.017326,-0.247546
-0.050000,-0.050000,0.000000,0.000000,0.000000,0.000000,0.000000,0.000000,0.000000,0.100000,0.100000,-0.196061,-0.509305,-0.050000,-0.050000,0.551487,-0.592252,0.000000,0.000000,-0.371619,0.399458,0.640189,0.244400,-0.019348,0.098042,-0.070250,-0.046096,0.015875,-0.231493
-0.050000,-0.050000,0.000000,0.000000,0.000000,0.000000,0.000000,0.000000,0.000000,0.100000,0.100000,-0.204700,-0.507276,-0.050000,-0.050000,0.560005,-0.580088,0.000000,0.000000,-0.365529,0.404817,0.613259,0.238458,-0.028470,0.107586,-0.068241,-0.044881,0.015923,-0.219075
-0.050000,-0.050000,0.000000,0.000000,0.000000,0.000000,0.000000,0.000000,0.000000,0.100000,0.100000,-0.212877,-0.505689,-0.050000,-0.050000,0.567386,-0.568498,0.000000,0.000000,-0.358965,0.408605,0.585751,0.231252,-0.038738,0.117283,-0.066660,-0.044316,0.016994,-0.209108
-0.050000,-0.050000,0.000000,0.000000,0.000000,0.000000,0.000000,0.000000,0.000000,0.100000,0.100000,-0.220585,-0.504588,-0.050000,-0.050000,0.573571,-0.557438,0.000000,0.000000,-0.351911,0.410917,0.557795,0.222911,-0.050101,0.127150,-0.065552,-0.044410,0.019016,-0.201424
-0.050000,-0.050000,0.000000,0.000000,0.000000,0.000000,0.000000,0.000000,0.000000,0.100000,0.100000,-0.227382,-0.504477,-0.050000,-0.050000,0.577735,-0.547076,0.000000,0.000000,-0.344273,0.411349,0.529675,0.213330,-0.063485,0.137333,-0.065033,-0.045423,0.022370,-0.196871
-0.050000,-0.050000,0.000000,0.000000,0.000000,0.000000,0.000000,0.000000,0.000000,0.100000,0.100000,-0.233775,-0.504652,-0.050000,-0.050000,0.580802,-0.537141,0.000000,0.000000,-0.336464,0.411309,0.501622,0.203251,-0.077743,0.147665,-0.064872,-0.046743,0.026384,-0.193684
-0.050000,-0.050000,0.000000,0.000000,0.000000,0.000000,0.000000,0.000000,0.000000,0.100000,0.100000,-0.239234,-0.505791,-0.050000,-0.050000,0.581806,-0.527746,0.000000,0.000000,-0.328404,0.410273,0.474033,0.192658,-0.093966,0.158304,-0.065149,-0.048644,0.031472,-0.192745
-0.050000,-0.050000,0.000000,0.000000,0.000000,0.000000,0.000000,0.000000,0.000000,0.100000,0.100000,-0.244163,-0.507409,-0.050000,-0.050000,0.581444,-0.518732,0.000000,0.000000,-0.320452,0.409299,0.447113,0.182139,-0.111300,0.169118,-0.065712,-0.050689,0.037162,-0.192796
-0.050000,-0.050000,0.000000,0.000000,0.000000,0.000000,0.000000,0.000000,0.000000,0.100000,0.100000,-0.248580,-0.509549,-0.050000,-0.050000,0.579741,-0.510022,0.000000,0.000000,-0.312598,0.408375,0.420915,0.171798,-0.129666,0.180100,-0.066577,-0.052893,0.043376,-0.193687
-0.050000,-0.050000,0.000000,0.000000,0.000000,0.000000,0.000000,0.000000,0.000000,0.100000,0.100000,-0.252327,-0.512314,-0.050000,-0.050000,0.576519,-0.501633,0.000000,0.000000,-0.305356,0.408138,0.396226,0.162291,-0.149221,0.191215,-0.067493,-0.054937,0.050000,-0.194945
-0.050000,-0.050000,0.000000,0.000000,0.000000,0.000000,0.000000,0.000000,0.000000,0.100000,0.100000,-0.255882,-0.515348,-0.050000,-0.050000,0.572450,-0.493443,0.000000,0.000000,-0.298472,0.408483,0.372479,0.153406,-0.169147,0.202392,-0.068667,-0.056936,0.056786,-0.196219
-0.050000,-0.050000,0.000000,0.000000,0.000000,0.000000,0.000000,0.000000,0.000000,0.100000,0.100000,-0.259002,-0.518714,-0.050000,-0.050000,0.567413,-0.485496,0.000000,0.000000,-0.292590,0.410015,0.350608,0.145835,-0.189508,0.213534,-0.069710,-0.058489,0.063534,-0.196969
-0.050000,-0.050000,0.000000,0.000000,0.000000,0.000000,0.000000,0.000000,0.000000,0.100000,0.100000,-0.262049,-0.522145,-0.050000,-0.050000,0.561893,-0.477742,0.000000,0.000000,-0.287527,0.412535,0.330243,0.139387,-0.209676,0.224563,-0.070785,-0.059723,0.070053,-0.197023
-0.050000,-0.050000,0.000000,0.000000,0.000000,0.000000,0.000000,0.000000,0.000000,0.100000,0.100000,-0.265033,-0.525593,-0.050000,-0.050000,0.555986,-0.470149,0.000000,0.000000,-0.283285,0.415951,0.311343,0.134009,-0.229586,0.235458,-0.071851,-0.060620,0.076293,-0.196338
-0.050000,-0.050000,0.000000,0.000000,0.000000,0.000000,0.000000,0.000000,0.000000,0.100000,0.100000,-0.268011,-0.528700,-0.050000,-0.050000,0.550212,-0.462857,0.000000,0.000000,-0.280454,0.420702,0.294600,0.130180,-0.248410,0.245898,-0.072535,-0.060827,0.081762,-0.194219
-0.050000,-0.050000,0.000000,0.000000,0.000000,0.000000,0.000000,0.000000,0.000000,0.100000,0.100000,-0.271140,-0.531602,-0.050000,-0.050000,0.544357,-0.455693,0.000000,0.000000,-0.278299,0.425943,0.279096,0.127147,-0.266570,0.256097,-0.073274,-0.060807,0.086814,-0.191383
-0.050000,-0.050000,0.000000,0.000000,0.000000,0.000000,0.000000,0.000000,0.000000,0.100000,0.100000,-0.274382,-0.533834,-0.050000,-0.050000,0.539115,-0.448918,0.000000,0.000000,-0.277531,0.432163,0.265634,0.125404,-0.283038,0.265608,-0.073531,-0.060125,0.090865,-0.187126
-0.050000,-0.050000,0.000000,0.000000,0.000000,0.000000,0.000000,0.000000,0.000000,0.100000,0.100000,-0.277823,-0.535497,-0.050000,-0.050000,0.534239,-0.442406,0.000000,0.000000,-0.277583,0.438653,0.253585,0.124350,-0.298169,0.274561,-0.073638,-0.059150,0.094194,-0.182060
-0.050000,-0.050000,0.000000,0.000000,0.000000,0.000000,0.000000,0.000000,0.000000,0.100000,0.100000,-0.281431,-0.536548,-0.050000,-0.050000,0.529819,-0.436181,0.000000,0.000000,-0.278444,0.445383,0.242835,0.123880,-0.311967,0.282935,-0.073532,-0.057852,0.096814,-0.176243
-0.050000,-0.050000,0.000000,0.000000,0.000000,0.000000,0.000000,0.000000,0.000000,0.100000,0.100000,-0.285130,-0.536632,-0.050000,-0.050000,0.526315,-0.430534,0.000000,0.000000,-0.280238,0.452108,0.233706,0.123936,-0.323631,0.290315,-0.072999,-0.056241,0.098405,-0.169710
-0.050000,-0.050000,0.000000,0.000000,0.000000,0.000000,0.000000,0.000000,0.000000,0.100000,0.100000,-0.288958,-0.536154,-0.050000,-0.050000,0.523060,-0.425122,0.000000,0.000000,-0.282468,0.458615,0.225446,0.124093,-0.334270,0.297163,-0.072415,-0.054525,0.099500,-0.162906
-0.050000,-0.050000,0.000000,0.000000,0.000000,0.000000,0.000000,0.000000,0.000000,0.100000,0.100000,-0.292707,-0.534740,-0.050000,-0.050000,0.520667,-0.420410,0.000000,0.000000,-0.285291,0.464687,0.218496,0.124351,-0.342932,0.302966,-0.071480,-0.052715,0.099730,-0.155901
-0.050000,-0.050000,0.000000,0.000000,0.000000,0.000000,0.000000,0.000000,0.000000,0.100000,0.100000,-0.296372,-0.532711,-0.050000,-0.050000,0.518573,-0.416141,0.000000,0.000000,-0.288342,0.470224,0.212340,0.124409,-0.350473,0.308066,-0.070482,-0.050956,0.099483,-0.148999
-0.050000,-0.050000,0.000000,0.000000,0.000000,0.000000,0.000000,0.000000,0.000000,0.100000,0.100000,-0.299894,-0.530107,-0.050000,-0.050000,0.516824,-0.412359,0.000000,0.000000,-0.291585,0.475264,0.206884,0.124251,-0.356956,0.312492,-0.069390,-0.049246,0.098802,-0.142255
-0.050000,-0.050000,0.000000,0.000000,0.000000,0.000000,0.000000,0.000000,0.000000,0.100000,0.100000,-0.302944,-0.526979,-0.050000,-0.050000,0.515419,-0.409384,0.000000,0.000000,-0.294761,0.479450,0.202233,0.123641,-0.362290,0.316030,-0.068220,-0.047793,0.097690,-0.136060
-0.050000,-0.050000,0.000000,0.000000,0.000000,0.000000,0.000000,0.000000,0.000000,0.100000,0.100000,-0.305772,-0.523525,-0.050000,-0.050000,0.514033,-0.406784,0.000000,0.000000,-0.297903,0.483238,0.197931,0.122674,-0.367135,0.319135,-0.067088,-0.046434,0.096378,-0.130176
-0.050000,-0.050000,0.000000,0.000000,0.000000,0.000000,0.000000,0.000000,0.000000,0.100000,0.100000,-0.307920,-0.519886,-0.050000,-0.050000,0.512751,-0.405036,0.000000,0.000000,-0.300705,0.486201,0.194195,0.121129,-0.371350,0.321521,-0.065971,-0.045404,0.094853,-0.125056
-0.050000,-0.050000,0.000000,0.000000,0.000000,0.000000,0.000000,0.000000,0.000000,0.100000,0.100000,-0.309590,-0.516202,-0.050000,-0.050000,0.511358,-0.403821,0.000000,0.000000,-0.303220,0.488748,0.190690,0.119103,-0.375375,0.323519,-0.064940,-0.044548,0.093253,-0.120481
-0.050000,-0.050000,0.000000,0.000000,0.000000,0.000000,0.000000,0.000000,0.000000,0.100000,0.100000,-0.310744,-0.512554,-0.050000,-0.050000,0.509877,-0.403155,0.000000,0.000000,-0.305409,0.490896,0.187388,0.116632,-0.379267,0.325169,-0.063971,-0.043871,0.091610,-0.116458
-0.050000,-0.050000,0.000000,0.000000,0.000000,0.000000,0.000000,0.000000,0.000000,0.100000,0.100000,-0.311127,-0.509300,-0.050000,-0.050000,0.508226,-0.403250,0.000000,0.000000,-0.307032,0.492557,0.184253,0.113542,-0.383256,0.326440,-0.063127,-0.043449,0.090034,-0.113240
-0.050000,-0.050000,0.000000,0.000000,0.000000,0.000000,0.000000,0.000000,0.000000,0.100000,0.100000,-0.311127,-0.506210,-0.050000,-0.050000,0.506456,-0.403710,0.000000,0.000000,-0.308361,0.494121,0.181097,0.110120,-0.387304,0.327567,-0.062350,-0.043091,0.088488,-0.110422
-0.050000,-0.050000,0.000000,0.000000,0.000000,0.000000,0.000000,0.000000,0.000000,0.100000,0.100000,-0.310429,-0.503778,-0.050000,-0.050000,0.504557,-0.404830,0.000000,0.000000,-0.309106,0.495379,0.177937,0.106125,-0.391603,0.328452,-0.061716,-0.042922,0.087115,-0.108342
-0.050000,-0.050000,0.000000,0.000000,0.000000,0.000000,0.000000,0.000000,0.000000,0.100000,0.100000,-0.309356,-0.501798,-0.050000,-0.050000,0.502610,-0.406293,0.000000,0.000000,-0.309481,0.496624,0.174625,0.101784,-0.396047,0.329252,-0.061192,-0.042803,0.085883,-0.106708
-0.050000,-0.050000,0.000000,0.000000,0.000000,0.000000,0.000000,0.000000,0.000000,0.100000,0.100000,-0.307923,-0.500326,-0.050000,-0.050000,0.500642,-0.408076,0.000000,0.000000,-0.309488,0.497831,0.171178,0.097120,-0.400638,0.329972,-0.060773,-0.042745,0.084814,-0.105506
-0.050000,-0.050000,0.000000,0.000000,0.000000,0.000000,0.000000,0.000000,0.000000,0.100000,0.100000,-0.306182,-0.499659,-0.050000,-0.050000,0.498791,-0.410123,0.000000,0.000000,-0.309046,0.499033,0.167472,0.092058,-0.405338,0.330607,-0.060588,-0.042781,0.084066,-0.104858
-0.050000,-0.050000,0.000000,0.000000,0.000000,0.000000,0.000000,0.000000,0.000000,0.100000,0.100000,-0.304305,-0.499390,-0.050000,-0.050000,0.497013,-0.412240,0.000000,0.000000,-0.308360,0.500324,0.163579,0.086854,-0.410055,0.331226,-0.060514,-0.042831,0.083495,-0.104499
-0.050000,-0.050000,0.000000,0.000000,0.000000,0.000000,0.000000,0.000000,0.000000,0.100000,0.100000,-0.302348,-0.499905,-0.050000,-0.050000,0.495489,-0.414341,0.000000,0.000000,-0.307297,0.501679,0.159386,0.081388,-0.414694,0.331779,-0.060772,-0.042990,0.083352,-0.104652
-0.050000,-0.050000,0.000000,0.000000,0.000000,0.000000,0.000000,0.000000,0.000000,0.100000,0.100000,-0.300424,-0.500875,-0.050000,-0.050000,0.494160,-0.416255,0.000000,0.000000,-0.305999,0.503161,0.154973,0.075886,-0.419180,0.332297,-0.061290,-0.043210,0.083543,-0.105156
-0.050000,-0.050000,0.000000,0.000000,0.000000,0.000000,0.000000,0.000000,0.000000,0.100000,0.100000,-0.298562,-0.502303,-0.050000,-0.050000,0.493042,-0.417944,0.000000,0.000000,-0.304484,0.504750,0.150368,0.070361,-0.423490,0.332765,-0.062090,-0.043516,0.084083,-0.106002
-0.050000,-0.050000,0.000000,0.000000,0.000000,0.000000,0.000000,0.000000,0.000000,0.100000,0.100000,-0.296922,-0.504189,-0.050000,-0.050000,0.492219,-0.419068,0.000000,0.000000,-0.302696,0.506503,0.145541,0.064960,-0.427404,0.333135,-0.063398,-0.043970,0.085215,-0.107353
-0.050000,-0.050000,0.000000,0.000000,0.000000,0.000000,0.000000,0.000000,0.000000,0.100000,0.100000,-0.295390,-0.506336,-0.050000,-0.050000,0.491542,-0.419827,0.000000,0.000000,-0.300780,0.508378,0.140637,0.059720,-0.431092,0.333430,-0.064975,-0.044509,0.086666,-0.108980
-0.050000,-0.050000,0.000000,0.000000,0.000000,0.000000,0.000000,0.000000,0.000000,0.100000,0.100000,-0.294148,-0.508726,-0.050000,-0.050000,0.491091,-0.419764,0.000000,0.000000,-0.298622,0.510449,0.135623,0.054838,-0.434272,0.333578,-0.067130,-0.045211,0.088779,-0.111122
-0.050000,-0.050000,0.000000,0.000000,0.000000,0.000000,0.000000,0.000000,0.000000,0.100000,0.100000,-0.293070,-0.511231,-0.050000,-0.050000,0.490742,-0.419056,0.000000,0.000000,-0.296338,0.512687,0.130636,0.050360,-0.437090,0.333581,-0.069653,-0.046017,0.091335,-0.113599
-0.050000,-0.050000,0.000000,0.000000,0.000000,0.000000,0.000000,0.000000,0.000000,0.100000,0.100000,-0.292162,-0.513807,-0.050000,-0.050000,0.490482,-0.417683,0.000000,0.000000,-0.293927,0.515086,0.125687,0.046303,-0.439535,0.333438,-0.072549,-0.046931,0.094333,-0.116399
-0.050000,-0.050000,0.000000,0.000000,0.000000,0.000000,0.000000,0.000000,0.000000,0.100000,0.100000,-0.291436,-0.516283,-0.050000,-0.050000,0.490238,-0.415317,0.000000,0.000000,-0.291356,0.517724,0.120912,0.042998,-0.441466,0.333080,-0.075863,-0.047901,0.097929,-0.119584
-0.050000,-0.050000,0.000000,0.000000,0.000000,0.000000,0.000000,0.000000,0.000000,0.100000,0.100000,-0.290769,-0.518775,-0.050000,-0.050000,0.490015,-0.412418,0.000000,0.000000,-0.288737,0.520502,0.116281,0.040158,-0.443117,0.332571,-0.079379,-0.048931,0.101819,-0.122952
-0.050000,-0.050000,0.000000,0.000000,0.000000,0.000000,0.000000,0.000000,0.000000,0.100000,0.100000,-0.290164,-0.521051,-0.050000,-0.050000,0.489728,-0.408546,0.000000,0.000000,-0.285993,0.523535,0.111984,0.038247,-0.444302,0.331845,-0.083104,-0.049897,0.106226,-0.126571
-0.050000,-0.050000,0.000000,0.000000,0.000000,0.000000,0.000000,0.000000,0.000000,0.100000,0.100000,-0.289513,-0.523264,-0.050000,-0.050000,0.489408,-0.404091,0.000000,0.000000,-0.283221,0.526750,0.107994,0.037023,-0.445216,0.330949,-0.086842,-0.050802,0.110909,-0.130274
-0.050000,-0.050000,0.000000,0.000000,0.000000,0.000000,0.000000,0.000000,0.000000,0.100000,0.100000,-0.288804,-0.525373,-0.050000,-0.050000,0.489041,-0.399064,0.000000,0.000000,-0.280402,0.530146,0.104317,0.036499,-0.445877,0.329908,-0.090551,-0.051610,0.115855,-0.134033
-0.050000,-0.050000,0.000000,0.000000,0.000000,0.000000,0.000000,0.000000,0.000000,0.100000,0.100000,-0.287872,-0.527358,-0.050000,-0.050000,0.488602,-0.393443,0.000000,0.000000,-0.277561,0.533805,0.101204,0.036949,-0.446326,0.328703,-0.093937,-0.052113,0.121069,-0.137722
-0.050000,-0.050000,0.000000,0.000000,0.000000,0.000000,0.000000,0.000000,0.000000,0.100000,0.100000,-0.286813,-0.529359,-0.050000,-0.050000,0.488150,-0.387518,0.000000,0.000000,-0.274709,0.537611,0.098368,0.037924,-0.446680,0.327405,-0.097137,-0.052495,0.126396,-0.141340
-0.050000,-0.050000,0.000000,0.000000,0.000000,0.000000,0.000000,0.000000,0.000000,0.100000,0.100000,-0.285380,-0.531337,-0.050000,-0.050000,0.487653,-0.381272,0.000000,0.000000,-0.271867,0.541705,0.096198,0.039809,-0.447023,0.325989,-0.099732,-0.052422,0.131873,-0.144706
-0.050000,-0.050000,0.000000,0.000000,0.000000,0.000000,0.000000,0.000000,0.000000,0.100000,0.100000,-0.283675,-0.533417,-0.050000,-0.050000,0.487157,-0.374934,0.000000,0.000000,-0.269034,0.546003,0.094432,0.042212,-0.447467,0.324509,-0.101875,-0.052064,0.137373,-0.147814
-0.050000,-0.050000,0.000000,0.000000,0.000000,0.000000,0.000000,0.000000,0.000000,0.100000,0.100000,-0.281669,-0.535581,-0.050000,-0.050000,0.486659,-0.368560,0.000000,0.000000,-0.266210,0.550508,0.093096,0.045109,-0.448057,0.322982,-0.103519,-0.051374,0.142879,-0.150635
-0.050000,-0.050000,0.000000,0.000000,0.000000,0.000000,0.000000,0.000000,0.000000,0.100000,0.100000,-0.279178,-0.537938,-0.050000,-0.050000,0.486174,-0.362447,0.000000,0.000000,-0.263457,0.555314,0.092380,0.048456,-0.449053,0.321396,-0.104390,-0.050168,0.148267,-0.152897
-0.050000,-0.050000,0.000000,0.000000,0.000000,0.000000,0.000000,0.000000,0.000000,0.100000,0.100000,-0.276472,-0.540394,-0.050000,-0.050000,0.485692,-0.356470,0.000000,0.000000,-0.260700,0.560263,0.091913,0.051991,-0.450305,0.319807,-0.104895,-0.048724,0.153544,-0.154834
-0.050000,-0.050000,0.000000,0.000000,0.000000,0.000000,0.000000,0.000000,0.000000,0.100000,0.100000,-0.273264,-0.543061,-0.050000,-0.050000,0.485229,-0.351081,0.000000,0.000000,-0.258066,0.565497,0.092018,0.055653,-0.452171,0.318163,-0.104646,-0.046776,0.158507,-0.156015
-0.050000,-0.050000,0.000000,0.000000,0.000000,0.000000,0.000000,0.000000,0.000000,0.100000,0.100000,-0.269816,-0.545800,-0.050000,-0.050000,0.484761,-0.346148,0.000000,0.000000,-0.255488,0.570846,0.092367,0.059213,-0.454491,0.316511,-0.104018,-0.044582,0.163135,-0.156639
-0.050000,-0.050000,0.000000,0.000000,0.000000,0.000000,0.000000,0.000000,0.000000,0.100000,0.100000,-0.266106,-0.548593,-0.050000,-0.050000,0.484286,-0.341753,0.000000,0.000000,-0.253002,0.576304,0.092989,0.062604,-0.457288,0.314834,-0.103006,-0.042131,0.167395,-0.156670
-0.050000,-0.050000,0.000000,0.000000,0.000000,0.000000,0.000000,0.000000,0.000000,0.100000,0.100000,-0.262121,-0.551372,-0.050000,-0.050000,0.483808,-0.338257,0.000000,0.000000,-0.250718,0.581785,0.093866,0.065484,-0.460706,0.313088,-0.101603,-0.039499,0.170948,-0.155820
-0.050000,-0.050000,0.000000,0.000000,0.000000,0.000000,0.000000,0.000000,0.000000,0.100000,0.100000,-0.258055,-0.554019,-0.050000,-0.050000,0.483292,-0.335250,0.000000,0.000000,-0.248519,0.587194,0.094849,0.067999,-0.464447,0.311332,-0.100056,-0.036781,0.174077,-0.154506
-0.050000,-0.050000,0.000000,0.000000,0.000000,0.000000,0.000000,0.000000,0.000000,0.100000,0.100000,-0.253847,-0.556458,-0.050000,-0.050000,0.482768,-0.333262,0.000000,0.000000,-0.246609,0.592392,0.095950,0.069683,-0.468665,0.309473,-0.098285,-0.034109,0.176269,-0.152320
-0.050000,-0.050000,0.000000,0.000000,0.000000,0.000000,0.000000,0.000000,0.000000,0.100000,0.100000,-0.249663,-0.558562,-0.050000,-0.050000,0.482200,-0.331920,0.000000,0.000000,-0.244888,0.597260,0.097083,0.070696,-0.473083,0.307572,-0.096465,-0.031546,0.177779,-0.149650
-0.050000,-0.050000,0.000000,0.000000,0.000000,0.000000,0.000000,0.000000,0.000000,0.100000,0.100000,-0.245510,-0.560329,-0.050000,-0.050000,0.481598,-0.331257,0.000000,0.000000,-0.243406,0.601769,0.098241,0.070992,-0.477658,0.305606,-0.094598,-0.029133,0.178577,-0.146501
-0.050000,-0.050000,0.000000,0.000000,0.000000,0.000000,0.000000,0.000000,0.000000,0.100000,0.100000,-0.241494,-0.561567,-0.050000,-0.050000,0.480985,-0.331379,0.000000,0.000000,-0.242259,0.605565,0.099360,0.070323,-0.482204,0.303572,-0.092709,-0.027111,0.178353,-0.142919
-0.050000,-0.050000,0.000000,0.000000,0.000000,0.000000,0.000000,0.000000,0.000000,0.100000,0.100000,-0.237605,-0.562403,-0.050000,-0.050000,0.480325,-0.331942,0.000000,0.000000,-0.241333,0.608900,0.100514,0.069086,-0.486707,0.301514,-0.090821,-0.025251,0.177597,-0.139130
-0.050000,-0.050000,0.000000,0.000000,0.000000,0.000000,0.000000,0.000000,0.000000,0.100000,0.100000,-0.233965,-0.562638,-0.050000,-0.050000,0.479674,-0.333102,0.000000,0.000000,-0.240774,0.611250,0.101630,0.066987,-0.490916,0.299453,-0.088901,-0.023894,0.175832,-0.135189
-0.050000,-0.050000,0.000000,0.000000,0.000000,0.000000,0.000000,0.000000,0.000000,0.100000,0.100000,-0.230558,-0.562407,-0.050000,-0.050000,0.479003,-0.334572,0.000000,0.000000,-0.240482,0.612866,0.102809,0.064419,-0.494866,0.297451,-0.086947,-0.022786,0.173492,-0.131252
-0.050000,-0.050000,0.000000,0.000000,0.000000,0.000000,0.000000,0.000000,0.000000,0.100000,0.100000,-0.227399,-0.561752,-0.050000,-0.050000,0.478334,-0.336301,0.000000,0.000000,-0.240463,0.613702,0.104040,0.061434,-0.498511,0.295525,-0.084946,-0.021966,0.170571,-0.127371
-0.050000,-0.050000,0.000000,0.000000,0.000000,0.000000,0.000000,0.000000,0.000000,0.100000,0.100000,-0.224589,-0.560625,-0.050000,-0.050000,0.477693,-0.338136,0.000000,0.000000,-0.240730,0.613427,0.105379,0.058245,-0.501662,0.293863,-0.082828,-0.021472,0.166985,-0.123752
-0.050000,-0.050000,0.000000,0.000000,0.000000,0.000000,0.000000,0.000000,0.000000,0.100000,0.100000,-0.222027,-0.559247,-0.050000,-0.050000,0.477059,-0.340038,0.000000,0.000000,-0.241206,0.612560,0.106838,0.054970,-0.504557,0.292359,-0.080657,-0.021105,0.163080,-0.120248
-0.050000,-0.050000,0.000000,0.000000,0.000000,0.000000,0.000000,0.000000,0.000000,0.100000,0.100000,-0.219856,-0.557530,-0.050000,-0.050000,0.476476,-0.341814,0.000000,0.000000,-0.241901,0.610538,0.108463,0.051908,-0.506926,0.291347,-0.078342,-0.020950,0.158647,-0.117147
-0.050000,-0.050000,0.000000,0.000000,0.000000,0.000000,0.000000,0.000000,0.000000,0.100000,0.100000,-0.217994,-0.555676,-0.050000,-0.050000,0.475926,-0.343485,0.000000,0.000000,-0.242760,0.607851,0.110245,0.049104,-0.509002,0.290732,-0.075968,-0.020861,0.153958,-0.114269
-0.050000,-0.050000,0.000000,0.000000,0.000000,0.000000,0.000000,0.000000,0.000000,0.100000,0.100000,-0.216435,-0.553715,-0.050000,-0.050000,0.475417,-0.344995,0.000000,0.000000,-0.243749,0.604461,0.112174,0.046649,-0.510771,0.290576,-0.073532,-0.020840,0.149022,-0.111658
-0.050000,-0.050000,0.000000,0.000000,0.000000,0.000000,0.000000,0.000000,0.000000,0.100000,0.100000,-0.215248,-0.551670,-0.050000,-0.050000,0.474962,-0.346237,0.000000,0.000000,-0.244835,0.600233,0.114231,0.044809,-0.512194,0.291198,-0.071082,-0.020855,0.143850,-0.109431
-0.050000,-0.050000,0.000000,0.000000,0.000000,0.000000,0.000000,0.000000,0.000000,0.100000,0.100000,-0.214302,-0.549663,-0.050000,-0.050000,0.474547,-0.347360,0.000000,0.000000,-0.246011,0.595605,0.116378,0.043303,-0.513449,0.292241,-0.068655,-0.020916,0.138571,-0.107365
-0.050000,-0.050000,0.000000,0.000000,0.000000,0.000000,0.000000,0.000000,0.000000,0.100000,0.100000,-0.213706,-0.547621,-0.050000,-0.050000,0.474189,-0.348211,0.000000,0.000000,-0.247241,0.590247,0.118537,0.042456,-0.514422,0.294219,-0.066339,-0.021028,0.133151,-0.105714
-0.050000,-0.050000,0.000000,0.000000,0.000000,0.000000,0.000000,0.000000,0.000000,0.100000,0.100000,-0.213344,-0.545637,-0.050000,-0.050000,0.473881,-0.348958,0.000000,0.000000,-0.248552,0.584544,0.120669,0.041946,-0.515246,0.296771,-0.064163,-0.021240,0.127683,-0.104290
-0.050000,-0.050000,0.000000,0.000000,0.000000,0.000000,0.000000,0.000000,0.000000,0.100000,0.100000,-0.213203,-0.543670,-0.050000,-0.050000,0.473619,-0.349589,0.000000,0.000000,-0.249925,0.578477,0.122730,0.041779,-0.515920,0.299943,-0.062153,-0.021556,0.122178,-0.103136
-0.050000,-0.050000,0.000000,0.000000,0.000000,0.000000,0.000000,0.000000,0.000000,0.100000,0.100000,-0.213313,-0.541671,-0.050000,-0.050000,0.473441,-0.350139,0.000000,0.000000,-0.251421,0.572055,0.124551,0.041865,-0.516401,0.303865,-0.060457,-0.022089,0.116669,-0.102400
-0.050000,-0.050000,0.000000,0.000000,0.000000,0.000000,0.000000,0.000000,0.000000,0.100000,0.100000,-0.213555,-0.539684,-0.050000,-0.050000,0.473310,-0.350685,0.000000,0.000000,-0.253017,0.565478,0.126261,0.042059,-0.516776,0.308154,-0.058934,-0.022769,0.111175,-0.101877
-0.050000,-0.050000,0.000000,0.000000,0.000000,0.000000,0.000000,0.000000,0.000000,0.100000,0.100000,-0.214032,-0.537591,-0.050000,-0.050000,0.473309,-0.351233,0.000000,0.000000,-0.254829,0.558678,0.127585,0.042293,-0.516920,0.313038,-0.057817,-0.023768,0.105718,-0.101877
-0.050000,-0.050000,0.000000,0.000000,0.000000,0.000000,0.000000,0.000000,0.000000,0.100000,0.100000,-0.214646,-0.535435,-0.050000,-0.050000,0.473408,-0.351847,0.000000,0.000000,-0.256842,0.551820,0.128688,0.042490,-0.516897,0.318154,-0.056948,-0.024989,0.100308,-0.102216
-0.050000,-0.050000,0.000000,0.000000,0.000000,0.000000,0.000000,0.000000,0.000000,0.100000,0.100000,-0.215409,-0.533178,-0.050000,-0.050000,0.473622,-0.352519,0.000000,0.000000,-0.259075,0.544910,0.129524,0.042627,-0.516689,0.323479,-0.056355,-0.026449,0.094949,-0.102938
-0.050000,-0.050000,0.000000,0.000000,0.000000,0.000000,0.000000,0.000000,0.000000,0.100000,0.100000,-0.216407,-0.530780,-0.050000,-0.050000,0.474056,-0.353330,0.000000,0.000000,-0.261658,0.538053,0.130017,0.042695,-0.516178,0.328819,-0.056106,-0.028175,0.089660,-0.104190
-0.050000,-0.050000,0.000000,0.000000,0.000000,0.000000,0.000000,0.000000,0.000000,0.100000,0.100000,-0.217513,-0.528293,-0.050000,-0.050000,0.474586,-0.354210,0.000000,0.000000,-0.264440,0.531231,0.130382,0.042736,-0.515515,0.334116,-0.056031,-0.030035,0.084428,-0.105714
-0.050000,-0.050000,0.000000,0.000000,0.000000,0.000000,0.000000,0.000000,0.000000,0.100000,0.100000,-0.218928,-0.525673,-0.050000,-0.050000,0.475411,-0.355304,0.000000,0.000000,-0.267611,0.524600,0.130484,0.042846,-0.514493,0.339089,-0.056267,-0.032030,0.079278,-0.107732
-0.050000,-0.050000,0.000000,0.000000,0.000000,0.000000,0.000000,0.000000,0.000000,0.100000,0.100000,-0.220528,-0.522984,-0.050000,-0.050000,0.476387,-0.356530,0.000000,0.000000,-0.270992,0.518125,0.130552,0.043099,-0.513282,0.343719,-0.056665,-0.034026,0.074204,-0.109963
-0.050000,-0.050000,0.000000,0.000000,0.000000,0.000000,0.000000,0.000000,0.000000,0.100000,0.100000,-0.222359,-0.520240,-0.050000,-0.050000,0.477552,-0.357918,0.000000,0.000000,-0.274588,0.511843,0.130584,0.043548,-0.511861,0.347931,-0.057236,-0.035986,0.069197,-0.112389
-0.050000,-0.050000,0.000000,0.000000,0.000000,0.000000,0.000000,0.000000,0.000000,0.100000,0.100000,-0.224518,-0.517479,-0.050000,-0.050000,0.478967,-0.359611,0.000000,0.000000,-0.278323,0.505918,0.130709,0.044449,-0.510240,0.351385,-0.057993,-0.037690,0.064294,-0.114812
-0.050000,-0.050000,0.000000,0.000000,0.000000,0.000000,0.000000,0.000000,0.000000,0.100000,0.100000,-0.226843,-0.514741,-0.050000,-0.050000,0.480462,-0.361403,0.000000,0.000000,-0.282103,0.500166,0.130948,0.045616,-0.508558,0.354423,-0.058867,-0.039273,0.059448,-0.117182
-0.050000,-0.050000,0.000000,0.000000,0.000000,0.000000,0.000000,0.000000,0.000000,0.100000,0.100000,-0.229514,-0.512060,-0.050000,-0.050000,0.482181,-0.363608,0.000000,0.000000,-0.285776,0.494901,0.131454,0.047436,-0.506847,0.356486,-0.059935,-0.040376,0.054735,-0.119139
-0.050000,-0.050000,0.000000,0.000000,0.000000,0.000000,0.000000,0.000000,0.000000,0.100000,0.100000,-0.232355,-0.509484,-0.050000,-0.050000,0.483931,-0.365980,0.000000,0.000000,-0.289247,0.489927,0.132221,0.049665,-0.505270,0.357970,-0.061160,-0.041207,0.050111,-0.120670
-0.050000,-0.050000,0.000000,0.000000,0.000000,0.000000,0.000000,0.000000,0.000000,0.100000,0.100000,-0.235383,-0.507018,-0.050000,-0.050000,0.485741,-0.368599,0.000000,0.000000,-0.292444,0.485311,0.133269,0.052357,-0.503864,0.358806,-0.062555,-0.041695,0.045589,-0.121667
-0.050000,-0.050000,0.000000,0.000000,0.000000,0.000000,0.000000,0.000000,0.000000,0.100000,0.100000,-0.238564,-0.504726,-0.050000,-0.050000,0.487525,-0.371516,0.000000,0.000000,-0.295031,0.481205,0.134737,0.055549,-0.502939,0.358875,-0.064210,-0.041756,0.041273,-0.121735
-0.050000,-0.050000,0.000000,0.000000,0.000000,0.000000,0.000000,0.000000,0.000000,0.100000,0.100000,-0.241801,-0.502585,-0.050000,-0.050000,0.489261,-0.374518,0.000000,0.000000,-0.297251,0.477374,0.136448,0.059012,-0.502322,0.358590,-0.066031,-0.041654,0.037041,-0.121292
-0.050000,-0.050000,0.000000,0.000000,0.000000,0.000000,0.000000,0.000000,0.000000,0.100000,0.100000,-0.245069,-0.500674,-0.050000,-0.050000,0.490836,-0.377731,0.000000,0.000000,-0.298533,0.474136,0.138638,0.062804,-0.502535,0.357710,-0.068180,-0.041247,0.033148,-0.119742
-0.050000,-0.050000,0.000000,0.000000,0.000000,0.000000,0.000000,0.000000,0.000000,0.100000,0.100000,-0.248274,-0.498987,-0.050000,-0.050000,0.492251,-0.380916,0.000000,0.000000,-0.299172,0.471262,0.141116,0.066718,-0.503351,0.356659,-0.070544,-0.040812,0.029474,-0.117602
-0.050000,-0.050000,0.000000,0.000000,0.000000,0.000000,0.000000,0.000000,0.000000,0.100000,0.100000,-0.251394,-0.497521,-0.050000,-0.050000,0.493483,-0.384083,0.000000,0.000000,-0.299057,0.468811,0.143906,0.070718,-0.504865,0.355456,-0.073135,-0.040355,0.026091,-0.114830
-0.050000,-0.050000,0.000000,0.000000,0.000000,0.000000,0.000000,0.000000,0.000000,0.100000,0.100000,-0.254313,-0.496377,-0.050000,-0.050000,0.494374,-0.387005,0.000000,0.000000,-0.297918,0.466865,0.147093,0.074633,-0.507369,0.354387,-0.075976,-0.040059,0.023253,-0.111500
-0.050000,-0.050000,0.000000,0.000000,0.000000,0.000000,0.000000,0.000000,0.000000,0.100000,0.100000,-0.257088,-0.495456,-0.050000,-0.050000,0.495126,-0.389778,0.000000,0.000000,-0.296219,0.465256,0.150456,0.078538,-0.510381,0.353454,-0.078935,-0.039884,0.020679,-0.107947
-0.050000,-0.050000,0.000000,0.000000,0.000000,0.000000,0.000000,0.000000,0.000000,0.100000,0.100000,-0.259555,-0.494938,-0.050000,-0.050000,0.495430,-0.392010,0.000000,0.000000,-0.293429,0.464142,0.154226,0.082188,-0.514414,0.353125,-0.082054,-0.040068,0.018907,-0.104236
-0.050000,-0.050000,0.000000,0.000000,0.000000,0.000000,0.000000,0.000000,0.000000,0.100000,0.100000,-0.261790,-0.494722,-0.050000,-0.050000,0.495537,-0.393864,0.000000,0.000000,-0.290043,0.463385,0.158162,0.085731,-0.518935,0.353354,-0.085202,-0.040500,0.017638,-0.100655
-0.050000,-0.050000,0.000000,0.000000,0.000000,0.000000,0.000000,0.000000,0.000000,0.100000,0.100000,-0.263768,-0.494830,-0.050000,-0.050000,0.495374,-0.395233,0.000000,0.000000,-0.285999,0.462972,0.162297,0.089107,-0.523983,0.354281,-0.088360,-0.041224,0.016998,-0.097279
-0.050000,-0.050000,0.000000,0.000000,0.000000,0.000000,0.000000,0.000000,0.000000,0.100000,0.100000,-0.265405,-0.495336,-0.050000,-0.050000,0.494863,-0.395846,0.000000,0.000000,-0.281265,0.462897,0.166653,0.092256,-0.529502,0.356438,-0.091442,-0.042314,0.017306,-0.094438
-0.050000,-0.050000,0.000000,0.000000,0.000000,0.000000,0.000000,0.000000,0.000000,0.100000,0.100000,-0.266841,-0.496090,-0.050000,-0.050000,0.494238,-0.396112,0.000000,0.000000,-0.276180,0.463087,0.171037,0.095344,-0.535209,0.359290,-0.094458,-0.043572,0.018114,-0.091930
-0.050000,-0.050000,0.000000,0.000000,0.000000,0.000000,0.000000,0.000000,0.000000,0.100000,0.100000,-0.267897,-0.497213,-0.050000,-0.050000,0.493250,-0.395465,0.000000,0.000000,-0.270545,0.463528,0.175586,0.098225,-0.541177,0.363844,-0.097316,-0.045154,0.020086,-0.090217
-0.050000,-0.050000,0.000000,0.000000,0.000000,0.000000,0.000000,0.000000,0.000000,0.100000,0.100000,-0.268715,-0.498543,-0.050000,-0.050000,0.492152,-0.394397,0.000000,0.000000,-0.264684,0.464191,0.180091,0.101080,-0.547191,0.369473,-0.100057,-0.046845,0.022746,-0.089003
-0.050000,-0.050000,0.000000,0.000000,0.000000,0.000000,0.000000,0.000000,0.000000,0.100000,0.100000,-0.269266,-0.500063,-0.050000,-0.050000,0.490877,-0.392790,0.000000,0.000000,-0.258590,0.465017,0.184591,0.103882,-0.553261,0.376367,-0.102672,-0.048661,0.026203,-0.088343
-0.050000,-0.050000,0.000000,0.000000,0.000000,0.000000,0.000000,0.000000,0.000000,0.100000,0.100000,-0.269490,-0.501687,-0.050000,-0.050000,0.489398,-0.390575,0.000000,0.000000,-0.252349,0.466001,0.189070,0.106714,-0.559408,0.384915,-0.105150,-0.050534,0.030652,-0.088320
-0.050000,-0.050000,0.000000,0.000000,0.000000,0.000000,0.000000,0.000000,0.000000,0.100000,0.100000,-0.269524,-0.503372,-0.050000,-0.050000,0.487849,-0.388127,0.000000,0.000000,-0.246062,0.467115,0.193462,0.109598,-0.565590,0.394323,-0.107554,-0.052417,0.035625,-0.088607
-0.050000,-0.050000,0.000000,0.000000,0.000000,0.000000,0.000000,0.000000,0.000000,0.100000,0.100000,-0.269217,-0.504980,-0.050000,-0.050000,0.486069,-0.385157,0.000000,0.000000,-0.239749,0.468353,0.197878,0.112699,-0.572020,0.405403,-0.109860,-0.054238,0.041566,-0.089396
-0.050000,-0.050000,0.000000,0.000000,0.000000,0.000000,0.000000,0.000000,0.000000,0.100000,0.100000,-0.268715,-0.506501,-0.050000,-0.050000,0.484191,-0.382069,0.000000,0.000000,-0.233485,0.469703,0.202271,0.116045,-0.578685,0.417280,-0.112129,-0.055979,0.047984,-0.090352
-0.050000,-0.050000,0.000000,0.000000,0.000000,0.000000,0.000000,0.000000,0.000000,0.100000,0.100000,-0.268007,-0.507874,-0.050000,-0.050000,0.482165,-0.378810,0.000000,0.000000,-0.227266,0.471135,0.206717,0.119710,-0.585684,0.430019,-0.114380,-0.057620,0.054896,-0.091456
-0.050000,-0.050000,0.000000,0.000000,0.000000,0.000000,0.000000,0.000000,0.000000,0.100000,0.100000,-0.267098,-0.508939,-0.050000,-0.050000,0.479931,-0.375518,0.000000,0.000000,-0.221100,0.472623,0.211352,0.124034,-0.593337,0.443442,-0.116633,-0.059042,0.062228,-0.092559
-0.050000,-0.050000,0.000000,0.000000,0.000000,0.000000,0.000000,0.000000,0.000000,0.100000,0.100000,-0.266100,-0.509852,-0.050000,-0.050000,0.477591,-0.372267,0.000000,0.000000,-0.214982,0.474138,0.216098,0.128744,-0.601378,0.457168,-0.118938,-0.060387,0.069714,-0.093591
-0.050000,-0.050000,0.000000,0.000000,0.000000,0.000000,0.000000,0.000000,0.000000,0.100000,0.100000,-0.264990,-0.510281,-0.050000,-0.050000,0.474983,-0.369209,0.000000,0.000000,-0.208823,0.475556,0.221216,0.134541,-0.610412,0.471070,-0.121310,-0.061417,0.077334,-0.094394
-0.050000,-0.050000,0.000000,0.000000,0.000000,0.000000,0.000000,0.000000,0.000000,0.100000,0.100000,-0.263886,-0.510429,-0.050000,-0.050000,0.472231,-0.366388,0.000000,0.000000,-0.202615,0.476821,0.226584,0.141077,-0.620093,0.484867,-0.123814,-0.062339,0.084835,-0.094943
-0.050000,-0.050000,0.000000,0.000000,0.000000,0.000000,0.000000,0.000000,0.000000,0.100000,0.100000,-0.262812,-0.510201,-0.050000,-0.050000,0.469300,-0.363854,0.000000,0.000000,-0.196299,0.477848,0.232264,0.148529,-0.630545,0.498457,-0.126461,-0.063092,0.092159,-0.095198
-0.050000,-0.050000,0.000000,0.000000,0.000000,0.000000,0.000000,0.000000,0.000000,0.100000,0.100000,-0.261866,-0.509385,-0.050000,-0.050000,0.466188,-0.361871,0.000000,0.000000,-0.189675,0.478257,0.238275,0.157275,-0.641980,0.511545,-0.129346,-0.063683,0.099062,-0.095098
-0.050000,-0.050000,0.000000,0.000000,0.000000,0.000000,0.000000,0.000000,0.000000,0.100000,0.100000,-0.261036,-0.508297,-0.050000,-0.050000,0.462990,-0.360184,0.000000,0.000000,-0.182926,0.478298,0.244502,0.166705,-0.653957,0.524365,-0.132430,-0.064269,0.105618,-0.094722
-0.050000,-0.050000,0.000000,0.000000,0.000000,0.000000,0.000000,0.000000,0.000000,0.100000,0.100000,-0.260462,-0.506383,-0.050000,-0.050000,0.459724,-0.359343,0.000000,0.000000,-0.175609,0.477104,0.250920,0.177623,-0.666923,0.536551,-0.135878,-0.064828,0.111495,-0.094103
-0.050000,-0.050000,0.000000,0.000000,0.000000,0.000000,0.000000,0.000000,0.000000,0.100000,0.100000,-0.260096,-0.504023,-0.050000,-0.050000,0.456513,-0.359029,0.000000,0.000000,-0.168009,0.475000,0.257410,0.189275,-0.680386,0.548490,-0.139623,-0.065564,0.116828,-0.093337
-0.050000,-0.050000,0.000000,0.000000,0.000000,0.000000,0.000000,0.000000,0.000000,0.100000,0.100000,-0.259975,-0.501052,-0.050000,-0.050000,0.453410,-0.359395,0.000000,0.000000,-0.159992,0.471697,0.263900,0.201787,-0.694376,0.560163,-0.143699,-0.066483,0.121570,-0.092521
-0.050000,-0.050000,0.000000,0.000000,0.000000,0.000000,0.000000,0.000000,0.000000,0.100000,0.100000,-0.260140,-0.497234,-0.050000,-0.050000,0.450692,-0.360755,0.000000,0.000000,-0.151359,0.466429,0.270193,0.215136,-0.708770,0.571821,-0.148218,-0.067887,0.125626,-0.092000
-0.050000,-0.050000,0.000000,0.000000,0.000000,0.000000,0.000000,0.000000,0.000000,0.100000,0.100000,-0.260497,-0.492985,-0.050000,-0.050000,0.448204,-0.362627,0.000000,0.000000,-0.142532,0.460096,0.276407,0.228830,-0.723377,0.583550,-0.152983,-0.069591,0.129231,-0.091543
-0.050000,-0.050000,0.000000,0.000000,0.000000,0.000000,0.000000,0.000000,0.000000,0.100000,0.100000,-0.261102,-0.487699,-0.050000,-0.050000,0.446531,-0.365783,0.000000,0.000000,-0.132937,0.450967,0.282233,0.243071,-0.738055,0.595787,-0.158249,-0.072174,0.132247,-0.091930
-0.050000,-0.050000,0.000000,0.000000,0.000000,0.000000,0.000000,0.000000,0.000000,0.100000,0.100000,-0.261841,-0.481872,-0.050000,-0.050000,0.445418,-0.369631,0.000000,0.000000,-0.123127,0.440212,0.287899,0.257336,-0.752663,0.608554,-0.163761,-0.075364,0.134946,-0.092787
-0.050000,-0.050000,0.000000,0.000000,0.000000,0.000000,0.000000,0.000000,0.000000,0.100000,0.100000,-0.262694,-0.475359,-0.050000,-0.050000,0.445051,-0.374350,0.000000,0.000000,-0.112930,0.427369,0.293344,0.271627,-0.767097,0.622015,-0.169572,-0.079316,0.137379,-0.094383
-0.050000,-0.050000,0.000000,0.000000,0.000000,0.000000,0.000000,0.000000,0.000000,0.100000,0.100000,-0.263494,-0.468098,-0.050000,-0.050000,0.445783,-0.380138,0.000000,0.000000,-0.102249,0.411834,0.298679,0.285666,-0.781060,0.636620,-0.175662,-0.084392,0.139776,-0.097170
-0.050000,-0.050000,0.000000,0.000000,0.000000,0.000000,0.000000,0.000000,0.000000,0.100000,0.100000,-0.264334,-0.460391,-0.050000,-0.050000,0.447066,-0.386435,0.000000,0.000000,-0.091492,0.394915,0.303981,0.299451,-0.794780,0.651896,-0.181880,-0.090034,0.142127,-0.100465
-0.050000,-0.050000,0.000000,0.000000,0.000000,0.000000,0.000000,0.000000,0.000000,0.100000,0.100000,-0.264808,-0.451991,-0.050000,-0.050000,0.449681,-0.393834,0.000000,0.000000,-0.080158,0.374974,0.309526,0.312699,-0.807715,0.668662,-0.188255,-0.097061,0.144859,-0.105320
-0.050000,-0.050000,0.000000,0.000000,0.000000,0.000000,0.000000,0.000000,0.000000,0.100000,0.100000,-0.265102,-0.443197,-0.050000,-0.050000,0.452886,-0.401669,0.000000,0.000000,-0.068755,0.353637,0.315356,0.325481,-0.820220,0.686261,-0.194614,-0.104752,0.147879,-0.110856
-0.050000,-0.050000,0.000000,0.000000,0.000000,0.000000,0.000000,0.000000,0.000000,0.100000,0.100000,-0.265027,-0.434000,-0.050000,-0.050000,0.456842,-0.410038,0.000000,0.000000,-0.057093,0.330552,0.321623,0.337777,-0.832165,0.704819,-0.200936,-0.113289,0.151353,-0.117304
