RRGGZZ/g1_deploy_sonic/data/example_scalelab/qwen_50fps/case_test12/joint_pos.csv
joint_0,joint_1,joint_2,joint_3,joint_4,joint_5,joint_6,joint_7,joint_8,joint_9,joint_10,joint_11,joint_12,joint_13,joint_14,joint_15,joint_16,joint_17,joint_18,joint_19,joint_20,joint_21,joint_22,joint_23,joint_24,joint_25,joint_26,joint_27,joint_28
-0.050000,-0.050000,0.000000,0.000000,0.000000,0.000000,0.000000,0.000000,0.000000,0.100000,0.100000,-0.184240,-0.623161,-0.050000,-0.050000,0.407397,-0.845558,0.000000,0.000000,-0.478259,0.283691,1.151315,0.155446,0.113739,-0.369228,-0.068471,0.030039,0.024903,-0.552522
-0.050000,-0.050000,0.000000,0.000000,0.000000,0.000000,0.000000,0.000000,0.000000,0.100000,0.100000,-0.194106,-0.643583,-0.050000,-0.050000,0.396901,-0.850965,0.000000,0.000000,-0.475414,0.297791,1.172490,0.159352,0.116338,-0.362578,-0.079899,0.021121,0.028192,-0.556079
-0.050000,-0.050000,0.000000,0.000000,0.000000,0.000000,0.000000,0.000000,0.000000,0.100000,0.100000,-0.196808,-0.654930,-0.050000,-0.050000,0.392619,-0.853085,0.000000,0.000000,-0.472653,0.305380,1.183690,0.155278,0.119538,-0.357303,-0.084856,0.014156,0.028820,-0.556091
-0.050000,-0.050000,0.000000,0.000000,0.000000,0.000000,0.000000,0.000000,0.000000,0.100000,0.100000,-0.195966,-0.661033,-0.050000,-0.050000,0.391081,-0.853452,0.000000,0.000000,-0.470343,0.308936,1.190716,0.147070,0.122909,-0.352698,-0.086761,0.008473,0.028053,-0.554521
-0.050000,-0.050000,0.000000,0.000000,0.000000,0.000000,0.000000,0.000000,0.000000,0.100000,0.100000,-0.193508,-0.664103,-0.050000,-0.050000,0.390853,-0.852988,0.000000,0.000000,-0.468503,0.310108,1.195931,0.136584,0.126336,-0.348469,-0.087294,0.003507,0.026627,-0.552133
-0.050000,-0.050000,0.000000,0.000000,0.000000,0.000000,0.000000,0.000000,0.000000,0.100000,0.100000,-0.189722,-0.665233,-0.050000,-0.050000,0.390903,-0.851673,0.000000,0.000000,-0.466609,0.309170,1.200669,0.125328,0.129839,-0.344072,-0.086928,-0.000843,0.024528,-0.549611
-0.050000,-0.050000,0.000000,0.000000,0.000000,0.000000,0.000000,0.000000,0.000000,0.100000,0.100000,-0.185424,-0.665137,-0.050000,-0.050000,0.391164,-0.850004,0.000000,0.000000,-0.464775,0.307119,1.205045,0.113755,0.133351,-0.339682,-0.086225,-0.004825,0.022211,-0.547081
-0.050000,-0.050000,0.000000,0.000000,0.000000,0.000000,0.000000,0.000000,0.000000,0.100000,0.100000,-0.180549,-0.664124,-0.050000,-0.050000,0.391312,-0.847889,0.000000,0.000000,-0.462732,0.303975,1.209281,0.102617,0.136810,-0.335112,-0.085255,-0.008392,0.019668,-0.544909
-0.050000,-0.050000,0.000000,0.000000,0.000000,0.000000,0.000000,0.000000,0.000000,0.100000,0.100000,-0.175253,-0.662271,-0.050000,-0.050000,0.391321,-0.845425,0.000000,0.000000,-0.460408,0.299975,1.213209,0.092509,0.140118,-0.330382,-0.084191,-0.011529,0.017104,-0.543396
-0.050000,-0.050000,0.000000,0.000000,0.000000,0.000000,0.000000,0.000000,0.000000,0.100000,0.100000,-0.169694,-0.659946,-0.050000,-0.050000,0.391284,-0.842749,0.000000,0.000000,-0.457983,0.295527,1.216913,0.083064,0.143337,-0.325566,-0.083065,-0.014501,0.014545,-0.542354
-0.050000,-0.050000,0.000000,0.000000,0.000000,0.000000,0.000000,0.000000,0.000000,0.100000,0.100000,-0.163786,-0.656588,-0.050000,-0.050000,0.391045,-0.839763,0.000000,0.000000,-0.455092,0.290343,1.219924,0.075943,0.146174,-0.320559,-0.082061,-0.016867,0.012278,-0.542545
-0.050000,-0.050000,0.000000,0.000000,0.000000,0.000000,0.000000,0.000000,0.000000,0.100000,0.100000,-0.157722,-0.652797,-0.050000,-0.050000,0.390858,-0.836665,0.000000,0.000000,-0.452206,0.285066,1.222482,0.070057,0.148837,-0.315496,-0.081111,-0.019179,0.010217,-0.543426
-0.050000,-0.050000,0.000000,0.000000,0.000000,0.000000,0.000000,0.000000,0.000000,0.100000,0.100000,-0.151525,-0.648258,-0.050000,-0.050000,0.390660,-0.833429,0.000000,0.000000,-0.449146,0.279628,1.224363,0.066284,0.151178,-0.310337,-0.080328,-0.021183,0.008524,-0.545245
-0.050000,-0.050000,0.000000,0.000000,0.000000,0.000000,0.000000,0.000000,0.000000,0.100000,0.100000,-0.145318,-0.642983,-0.050000,-0.050000,0.390571,-0.830102,0.000000,0.000000,-0.446114,0.274403,1.225561,0.064901,0.153228,-0.305102,-0.079730,-0.022939,0.007245,-0.547808
-0.050000,-0.050000,0.000000,0.000000,0.000000,0.000000,0.000000,0.000000,0.000000,0.100000,0.100000,-0.139047,-0.637416,-0.050000,-0.050000,0.390559,-0.826705,0.000000,0.000000,-0.443172,0.269423,1.226315,0.065146,0.155082,-0.299796,-0.079223,-0.024708,0.006222,-0.550922
-0.050000,-0.050000,0.000000,0.000000,0.000000,0.000000,0.000000,0.000000,0.000000,0.100000,0.100000,-0.133060,-0.630793,-0.050000,-0.050000,0.390775,-0.823170,0.000000,0.000000,-0.440464,0.265330,1.226369,0.069159,0.156658,-0.294364,-0.078955,-0.025921,0.005705,-0.554245
-0.050000,-0.050000,0.000000,0.000000,0.000000,0.000000,0.000000,0.000000,0.000000,0.100000,0.100000,-0.127132,-0.624123,-0.050000,-0.050000,0.391115,-0.819506,0.000000,0.000000,-0.438090,0.262027,1.226183,0.075356,0.158116,-0.288786,-0.078712,-0.027169,0.005350,-0.557589
-0.050000,-0.050000,0.000000,0.000000,0.000000,0.000000,0.000000,0.000000,0.000000,0.100000,0.100000,-0.121536,-0.617014,-0.050000,-0.050000,0.391636,-0.815623,0.000000,0.000000,-0.436116,0.259982,1.225739,0.084903,0.159470,-0.283006,-0.078536,-0.028043,0.005209,-0.560437
-0.050000,-0.050000,0.000000,0.000000,0.000000,0.000000,0.000000,0.000000,0.000000,0.100000,0.100000,-0.116371,-0.609757,-0.050000,-0.050000,0.392320,-0.811372,0.000000,0.000000,-0.434740,0.259611,1.225281,0.098204,0.160807,-0.276893,-0.078312,-0.028489,0.005104,-0.562127
-0.050000,-0.050000,0.000000,0.000000,0.000000,0.000000,0.000000,0.000000,0.000000,0.100000,0.100000,-0.111451,-0.602817,-0.050000,-0.050000,0.393064,-0.806833,0.000000,0.000000,-0.433721,0.260495,1.224863,0.114182,0.162105,-0.270506,-0.078052,-0.028839,0.005000,-0.563081
-0.050000,-0.050000,0.000000,0.000000,0.000000,0.000000,0.000000,0.000000,0.000000,0.100000,0.100000,-0.107472,-0.595676,-0.050000,-0.050000,0.393973,-0.801462,0.000000,0.000000,-0.433691,0.264204,1.224706,0.135907,0.163503,-0.263453,-0.077595,-0.028140,0.004678,-0.561038
-0.050000,-0.050000,0.000000,0.000000,0.000000,0.000000,0.000000,0.000000,0.000000,0.100000,0.100000,-0.103915,-0.589386,-0.050000,-0.050000,0.394868,-0.795509,0.000000,0.000000,-0.434125,0.269635,1.224771,0.161054,0.164858,-0.255903,-0.077022,-0.027287,0.004187,-0.557383
-0.050000,-0.050000,0.000000,0.000000,0.000000,0.000000,0.000000,0.000000,0.000000,0.100000,0.100000,-0.101244,-0.583503,-0.050000,-0.050000,0.395786,-0.788570,0.000000,0.000000,-0.435316,0.277629,1.225102,0.191224,0.166237,-0.247661,-0.076260,-0.025672,0.003412,-0.550705
-0.050000,-0.050000,0.000000,0.000000,0.000000,0.000000,0.000000,0.000000,0.000000,0.100000,0.100000,-0.099565,-0.578279,-0.050000,-0.050000,0.396665,-0.780440,0.000000,0.000000,-0.437251,0.288184,1.225599,0.226590,0.167525,-0.238653,-0.075342,-0.023371,0.002360,-0.540675
-0.050000,-0.050000,0.000000,0.000000,0.000000,0.000000,0.000000,0.000000,0.000000,0.100000,0.100000,-0.098512,-0.573951,-0.050000,-0.050000,0.397488,-0.771317,0.000000,0.000000,-0.439581,0.300530,1.226240,0.265651,0.168700,-0.229203,-0.074316,-0.020814,0.001117,-0.528354
-0.050000,-0.050000,0.000000,0.000000,0.000000,0.000000,0.000000,0.000000,0.000000,0.100000,0.100000,-0.099182,-0.569668,-0.050000,-0.050000,0.398222,-0.760246,0.000000,0.000000,-0.442894,0.315993,1.226625,0.311518,0.169572,-0.218908,-0.073242,-0.017102,-0.000311,-0.510992
-0.050000,-0.050000,0.000000,0.000000,0.000000,0.000000,0.000000,0.000000,0.000000,0.100000,0.100000,-0.100612,-0.566168,-0.050000,-0.050000,0.398883,-0.747862,0.000000,0.000000,-0.446524,0.332850,1.226848,0.360997,0.170106,-0.208445,-0.072168,-0.013329,-0.001760,-0.491200
-0.050000,-0.050000,0.000000,0.000000,0.000000,0.000000,0.000000,0.000000,0.000000,0.100000,0.100000,-0.103485,-0.562433,-0.050000,-0.050000,0.399428,-0.733599,0.000000,0.000000,-0.450699,0.351521,1.226490,0.415312,0.170168,-0.197867,-0.071220,-0.008979,-0.003101,-0.467667
-0.050000,-0.050000,0.000000,0.000000,0.000000,0.000000,0.000000,0.000000,0.000000,0.100000,0.100000,-0.107731,-0.558137,-0.050000,-0.050000,0.399847,-0.717502,0.000000,0.000000,-0.455238,0.371222,1.225294,0.473531,0.169585,-0.187628,-0.070520,-0.004406,-0.004104,-0.441065
-0.050000,-0.050000,0.000000,0.000000,0.000000,0.000000,0.000000,0.000000,0.000000,0.100000,0.100000,-0.112835,-0.553323,-0.050000,-0.050000,0.400205,-0.699833,0.000000,0.000000,-0.460019,0.391236,1.223527,0.534254,0.168528,-0.178070,-0.069961,0.000203,-0.004871,-0.412309
-0.050000,-0.050000,0.000000,0.000000,0.000000,0.000000,0.000000,0.000000,0.000000,0.100000,0.100000,-0.119899,-0.546098,-0.050000,-0.050000,0.400304,-0.680072,0.000000,0.000000,-0.464995,0.411285,1.220085,0.598147,0.166416,-0.169642,-0.070010,0.004912,-0.004767,-0.380732
-0.050000,-0.050000,0.000000,0.000000,0.000000,0.000000,0.000000,0.000000,0.000000,0.100000,0.100000,-0.127649,-0.537381,-0.050000,-0.050000,0.400343,-0.658942,0.000000,0.000000,-0.470090,0.430363,1.215866,0.662879,0.163693,-0.162569,-0.070269,0.009323,-0.004222,-0.348060
-0.050000,-0.050000,0.000000,0.000000,0.000000,0.000000,0.000000,0.000000,0.000000,0.100000,0.100000,-0.136693,-0.525827,-0.050000,-0.050000,0.400146,-0.636302,0.000000,0.000000,-0.475126,0.448067,1.210230,0.728198,0.160055,-0.157110,-0.071039,0.013445,-0.002863,-0.314379
-0.050000,-0.050000,0.000000,0.000000,0.000000,0.000000,0.000000,0.000000,0.000000,0.100000,0.100000,-0.146609,-0.511266,-0.050000,-0.050000,0.399697,-0.612516,0.000000,0.000000,-0.479964,0.463584,1.203400,0.792637,0.155543,-0.153276,-0.072204,0.017024,-0.000781,-0.280767
-0.050000,-0.050000,0.000000,0.000000,0.000000,0.000000,0.000000,0.000000,0.000000,0.100000,0.100000,-0.157074,-0.494216,-0.050000,-0.050000,0.399119,-0.587845,0.000000,0.000000,-0.484798,0.477211,1.195757,0.856010,0.150450,-0.150978,-0.073618,0.020297,0.001778,-0.247269
-0.050000,-0.050000,0.000000,0.000000,0.000000,0.000000,0.000000,0.000000,0.000000,0.100000,0.100000,-0.168282,-0.473205,-0.050000,-0.050000,0.398013,-0.562452,0.000000,0.000000,-0.488876,0.487313,1.186880,0.916147,0.144275,-0.149783,-0.075436,0.022624,0.005096,-0.215598
-0.050000,-0.050000,0.000000,0.000000,0.000000,0.000000,0.000000,0.000000,0.000000,0.100000,0.100000,-0.179600,-0.449768,-0.050000,-0.050000,0.396748,-0.536700,0.000000,0.000000,-0.492862,0.495132,1.177616,0.973660,0.137665,-0.149523,-0.077308,0.024660,0.008633,-0.185064
-0.050000,-0.050000,0.000000,0.000000,0.000000,0.000000,0.000000,0.000000,0.000000,0.100000,0.100000,-0.191027,-0.423498,-0.050000,-0.050000,0.395045,-0.510737,0.000000,0.000000,-0.496185,0.499820,1.167931,1.027174,0.130385,-0.149501,-0.079250,0.026037,0.012418,-0.156749
-0.050000,-0.050000,0.000000,0.000000,0.000000,0.000000,0.000000,0.000000,0.000000,0.100000,0.100000,-0.202195,-0.395104,-0.050000,-0.050000,0.392989,-0.484886,0.000000,0.000000,-0.498932,0.501689,1.158371,1.076238,0.122676,-0.149192,-0.081027,0.026942,0.016133,-0.130731
-0.050000,-0.050000,0.000000,0.000000,0.000000,0.000000,0.000000,0.000000,0.000000,0.100000,0.100000,-0.213206,-0.365178,-0.050000,-0.050000,0.390668,-0.459108,0.000000,0.000000,-0.501346,0.501763,1.148947,1.121910,0.114710,-0.148704,-0.082700,0.027750,0.019769,-0.106315
-0.050000,-0.050000,0.000000,0.000000,0.000000,0.000000,0.000000,0.000000,0.000000,0.100000,0.100000,-0.223343,-0.334275,-0.050000,-0.050000,0.387928,-0.434089,0.000000,0.000000,-0.502745,0.498754,1.140578,1.161339,0.106443,-0.146584,-0.083804,0.027873,0.022885,-0.085024
-0.050000,-0.050000,0.000000,0.000000,0.000000,0.000000,0.000000,0.000000,0.000000,0.100000,0.100000,-0.233127,-0.302894,-0.050000,-0.050000,0.384999,-0.409596,0.000000,0.000000,-0.503841,0.494806,1.132899,1.197192,0.098169,-0.143833,-0.084646,0.028188,0.025684,-0.065090
-0.050000,-0.050000,0.000000,0.000000,0.000000,0.000000,0.000000,0.000000,0.000000,0.100000,0.100000,-0.242014,-0.271938,-0.050000,-0.050000,0.381851,-0.386147,0.000000,0.000000,-0.504230,0.489346,1.126591,1.227995,0.089893,-0.139691,-0.084893,0.028250,0.027896,-0.047265
-0.050000,-0.050000,0.000000,0.000000,0.000000,0.000000,0.000000,0.000000,0.000000,0.100000,0.100000,-0.250104,-0.242113,-0.050000,-0.050000,0.378627,-0.364052,0.000000,0.000000,-0.504109,0.483337,1.121732,1.254340,0.081777,-0.134616,-0.084607,0.028305,0.029582,-0.031050
-0.050000,-0.050000,0.000000,0.000000,0.000000,0.000000,0.000000,0.000000,0.000000,0.100000,0.100000,-0.257692,-0.213185,-0.050000,-0.050000,0.375281,-0.342944,0.000000,0.000000,-0.503556,0.477197,1.117940,1.277473,0.073800,-0.128885,-0.083982,0.028538,0.030906,-0.015872
-0.050000,-0.050000,0.000000,0.000000,0.000000,0.000000,0.000000,0.000000,0.000000,0.100000,0.100000,-0.264032,-0.187497,-0.050000,-0.050000,0.372169,-0.324419,0.000000,0.000000,-0.502497,0.471168,1.116230,1.295411,0.066174,-0.122668,-0.082627,0.028471,0.031679,-0.002687
-0.050000,-0.050000,0.000000,0.000000,0.000000,0.000000,0.000000,0.000000,0.000000,0.100000,0.100000,-0.270047,-0.163452,-0.050000,-0.050000,0.369036,-0.307328,0.000000,0.000000,-0.501066,0.465755,1.115460,1.310736,0.058788,-0.116421,-0.081090,0.028692,0.032284,0.009676
-0.050000,-0.050000,0.000000,0.000000,0.000000,0.000000,0.000000,0.000000,0.000000,0.100000,0.100000,-0.275220,-0.142811,-0.050000,-0.050000,0.366215,-0.292796,0.000000,0.000000,-0.499355,0.461140,1.116135,1.322383,0.051770,-0.110505,-0.079162,0.028764,0.032696,0.020436
-0.050000,-0.050000,0.000000,0.000000,0.000000,0.000000,0.000000,0.000000,0.000000,0.100000,0.100000,-0.279900,-0.125453,-0.050000,-0.050000,0.363702,-0.280753,0.000000,0.000000,-0.497453,0.457571,1.117736,1.331075,0.045127,-0.105228,-0.077099,0.028823,0.033131,0.029652
-0.050000,-0.050000,0.000000,0.000000,0.000000,0.000000,0.000000,0.000000,0.000000,0.100000,0.100000,-0.284281,-0.110505,-0.050000,-0.050000,0.361361,-0.270563,0.000000,0.000000,-0.495330,0.454787,1.119962,1.337673,0.038766,-0.100436,-0.074964,0.028935,0.033607,0.037767
-0.050000,-0.050000,0.000000,0.000000,0.000000,0.000000,0.000000,0.000000,0.000000,0.100000,0.100000,-0.288120,-0.100550,-0.050000,-0.050000,0.359772,-0.263970,0.000000,0.000000,-0.493440,0.453372,1.122722,1.340851,0.032976,-0.096779,-0.072876,0.028691,0.034363,0.043180
-0.050000,-0.050000,0.000000,0.000000,0.000000,0.000000,0.000000,0.000000,0.000000,0.100000,0.100000,-0.291963,-0.092907,-0.050000,-0.050000,0.358393,-0.259139,0.000000,0.000000,-0.491439,0.452612,1.125497,1.342389,0.027494,-0.093519,-0.070901,0.028518,0.035291,0.047318
-0.050000,-0.050000,0.000000,0.000000,0.000000,0.000000,0.000000,0.000000,0.000000,0.100000,0.100000,-0.295656,-0.089278,-0.050000,-0.050000,0.357704,-0.257146,0.000000,0.000000,-0.489803,0.452784,1.128073,1.341402,0.022545,-0.090876,-0.069150,0.028059,0.036536,0.049006
-0.050000,-0.050000,0.000000,0.000000,0.000000,0.000000,0.000000,0.000000,0.000000,0.100000,0.100000,-0.299483,-0.088890,-0.050000,-0.050000,0.357614,-0.257399,0.000000,0.000000,-0.488483,0.453528,1.130017,1.338315,0.018070,-0.088300,-0.067686,0.027439,0.038056,0.048579
-0.050000,-0.050000,0.000000,0.000000,0.000000,0.000000,0.000000,0.000000,0.000000,0.100000,0.100000,-0.303457,-0.090875,-0.050000,-0.050000,0.357965,-0.259286,0.000000,0.000000,-0.487393,0.454648,1.131404,1.333682,0.013941,-0.085686,-0.066402,0.026738,0.039762,0.046597
-0.050000,-0.050000,0.000000,0.000000,0.000000,0.000000,0.000000,0.000000,0.000000,0.100000,0.100000,-0.307804,-0.096925,-0.050000,-0.050000,0.359389,-0.263730,0.000000,0.000000,-0.487023,0.456080,1.131283,1.326221,0.010361,-0.082247,-0.065627,0.025629,0.041796,0.041833
-0.050000,-0.050000,0.000000,0.000000,0.000000,0.000000,0.000000,0.000000,0.000000,0.100000,0.100000,-0.312518,-0.104788,-0.050000,-0.050000,0.361296,-0.269287,0.000000,0.000000,-0.486824,0.457516,1.130138,1.317301,0.006922,-0.078052,-0.065004,0.024507,0.043944,0.035886
-0.050000,-0.050000,0.000000,0.000000,0.000000,0.000000,0.000000,0.000000,0.000000,0.100000,0.100000,-0.317750,-0.115544,-0.050000,-0.050000,0.364160,-0.276472,0.000000,0.000000,-0.487084,0.458828,1.127253,1.305949,0.003602,-0.072364,-0.064792,0.023057,0.046319,0.028065
-0.050000,-0.050000,0.000000,0.000000,0.000000,0.000000,0.000000,0.000000,0.000000,0.100000,0.100000,-0.323555,-0.128395,-0.050000,-0.050000,0.367845,-0.284720,0.000000,0.000000,-0.487435,0.459760,1.122528,1.292392,-0.000090,-0.064842,-0.064888,0.021383,0.048897,0.019025
-0.050000,-0.050000,0.000000,0.000000,0.000000,0.000000,0.000000,0.000000,0.000000,0.100000,0.100000,-0.329806,-0.142783,-0.050000,-0.050000,0.372182,-0.293696,0.000000,0.000000,-0.487852,0.460413,1.116306,1.277109,-0.004154,-0.055853,-0.065153,0.019557,0.051608,0.009122
-0.050000,-0.050000,0.000000,0.000000,0.000000,0.000000,0.000000,0.000000,0.000000,0.100000,0.100000,-0.336811,-0.159414,-0.050000,-0.050000,0.377596,-0.303563,0.000000,0.000000,-0.487760,0.460071,1.107212,1.258595,-0.009861,-0.043613,-0.066011,0.017154,0.054801,-0.001862
-0.050000,-0.050000,0.000000,0.000000,0.000000,0.000000,0.000000,0.000000,0.000000,0.100000,0.100000,-0.344204,-0.176981,-0.050000,-0.050000,0.383585,-0.313749,0.000000,0.000000,-0.487241,0.459226,1.096363,1.238285,-0.016841,-0.029492,-0.066993,0.014579,0.058225,-0.013245
-0.050000,-0.050000,0.000000,0.000000,0.000000,0.000000,0.000000,0.000000,0.000000,0.100000,0.100000,-0.352124,-0.195862,-0.050000,-0.050000,0.390324,-0.324244,0.000000,0.000000,-0.485596,0.457226,1.082765,1.215060,-0.026388,-0.012140,-0.068529,0.011383,0.062255,-0.025151
-0.050000,-0.050000,0.000000,0.000000,0.000000,0.000000,0.000000,0.000000,0.000000,0.100000,0.100000,-0.360345,-0.215444,-0.050000,-0.050000,0.397565,-0.334775,0.000000,0.000000,-0.482545,0.454097,1.066641,1.189284,-0.038947,0.008245,-0.070534,0.007639,0.066910,-0.037314
-0.050000,-0.050000,0.000000,0.000000,0.000000,0.000000,0.000000,0.000000,0.000000,0.100000,0.100000,-0.368716,-0.235462,-0.050000,-0.050000,0.405162,-0.345234,0.000000,0.000000,-0.478365,0.450139,1.048492,1.161479,-0.053966,0.030951,-0.072915,0.003381,0.072072,-0.049687
-0.050000,-0.050000,0.000000,0.000000,0.000000,0.000000,0.000000,0.000000,0.000000,0.100000,0.100000,-0.377115,-0.255699,-0.050000,-0.050000,0.412867,-0.355256,0.000000,0.000000,-0.471366,0.444166,1.027118,1.130440,-0.074207,0.058027,-0.076320,-0.001928,0.078344,-0.062172
-0.050000,-0.050000,0.000000,0.000000,0.000000,0.000000,0.000000,0.000000,0.000000,0.100000,0.100000,-0.385292,-0.275779,-0.050000,-0.050000,0.420595,-0.364941,0.000000,0.000000,-0.462970,0.437377,1.003970,1.097688,-0.097307,0.087284,-0.080201,-0.007847,0.085139,-0.074715
-0.050000,-0.050000,0.000000,0.000000,0.000000,0.000000,0.000000,0.000000,0.000000,0.100000,0.100000,-0.393062,-0.295395,-0.050000,-0.050000,0.427909,-0.373832,0.000000,0.000000,-0.451786,0.428780,0.978406,1.062564,-0.125206,0.120133,-0.085158,-0.014858,0.092859,-0.087185
-0.050000,-0.050000,0.000000,0.000000,0.000000,0.000000,0.000000,0.000000,0.000000,0.100000,0.100000,-0.400193,-0.314231,-0.050000,-0.050000,0.434639,-0.381895,0.000000,0.000000,-0.438345,0.418854,0.951175,1.025844,-0.156925,0.155701,-0.091010,-0.022795,0.101168,-0.099441
-0.050000,-0.050000,0.000000,0.000000,0.000000,0.000000,0.000000,0.000000,0.000000,0.100000,0.100000,-0.406691,-0.332319,-0.050000,-0.050000,0.440748,-0.389135,0.000000,0.000000,-0.423108,0.407930,0.922723,0.987934,-0.191495,0.193201,-0.097766,-0.031686,0.109895,-0.111492
-0.050000,-0.050000,0.000000,0.000000,0.000000,0.000000,0.000000,0.000000,0.000000,0.100000,0.100000,-0.412106,-0.348879,-0.050000,-0.050000,0.445484,-0.394949,0.000000,0.000000,-0.404937,0.395254,0.893244,0.949117,-0.230135,0.233599,-0.105637,-0.041610,0.118934,-0.122791
-0.050000,-0.050000,0.000000,0.000000,0.000000,0.000000,0.000000,0.000000,0.000000,0.100000,0.100000,-0.416717,-0.364434,-0.050000,-0.050000,0.449375,-0.399868,0.000000,0.000000,-0.385505,0.382024,0.863438,0.910009,-0.270315,0.274940,-0.114300,-0.052372,0.127890,-0.133556
-0.050000,-0.050000,0.000000,0.000000,0.000000,0.000000,0.000000,0.000000,0.000000,0.100000,0.100000,-0.420232,-0.378368,-0.050000,-0.050000,0.451799,-0.403397,0.000000,0.000000,-0.364089,0.367724,0.833781,0.871201,-0.312433,0.317605,-0.123721,-0.063862,0.136515,-0.143282
-0.050000,-0.050000,0.000000,0.000000,0.000000,0.000000,0.000000,0.000000,0.000000,0.100000,0.100000,-0.422784,-0.390862,-0.050000,-0.050000,0.453048,-0.405841,0.000000,0.000000,-0.341571,0.352980,0.804841,0.833290,-0.354972,0.360416,-0.133564,-0.075835,0.144464,-0.151944
-0.050000,-0.050000,0.000000,0.000000,0.000000,0.000000,0.000000,0.000000,0.000000,0.100000,0.100000,-0.424563,-0.402182,-0.050000,-0.050000,0.453236,-0.407294,0.000000,0.000000,-0.318234,0.337943,0.776627,0.796257,-0.397506,0.403044,-0.143851,-0.088315,0.151714,-0.159623
-0.050000,-0.050000,0.000000,0.000000,0.000000,0.000000,0.000000,0.000000,0.000000,0.100000,0.100000,-0.425290,-0.411616,-0.050000,-0.050000,0.452294,-0.407789,0.000000,0.000000,-0.294304,0.322749,0.750422,0.761740,-0.438725,0.444433,-0.153689,-0.100500,0.157661,-0.165896
-0.050000,-0.050000,0.000000,0.000000,0.000000,0.000000,0.000000,0.000000,0.000000,0.100000,0.100000,-0.425448,-0.420075,-0.050000,-0.050000,0.450691,-0.407647,0.000000,0.000000,-0.270245,0.307651,0.725459,0.728770,-0.478607,0.484511,-0.163521,-0.112835,0.162654,-0.171220
-0.050000,-0.050000,0.000000,0.000000,0.000000,0.000000,0.000000,0.000000,0.000000,0.100000,0.100000,-0.424817,-0.426960,-0.050000,-0.050000,0.448631,-0.407108,0.000000,0.000000,-0.246377,0.292795,0.702802,0.698786,-0.515915,0.522183,-0.172474,-0.124519,0.166333,-0.175509
-0.050000,-0.050000,0.000000,0.000000,0.000000,0.000000,0.000000,0.000000,0.000000,0.100000,0.100000,-0.423594,-0.432651,-0.050000,-0.050000,0.446529,-0.406449,0.000000,0.000000,-0.222991,0.278278,0.682214,0.671554,-0.550418,0.557144,-0.180643,-0.135649,0.168907,-0.179092
-0.050000,-0.050000,0.000000,0.000000,0.000000,0.000000,0.000000,0.000000,0.000000,0.100000,0.100000,-0.421920,-0.437398,-0.050000,-0.050000,0.444440,-0.405694,0.000000,0.000000,-0.200066,0.264035,0.663364,0.646657,-0.582472,0.589708,-0.188150,-0.146330,0.170580,-0.182128
-0.050000,-0.050000,0.000000,0.000000,0.000000,0.000000,0.000000,0.000000,0.000000,0.100000,0.100000,-0.419441,-0.440577,-0.050000,-0.050000,0.443340,-0.405655,0.000000,0.000000,-0.178306,0.250369,0.647394,0.625737,-0.610238,0.618048,-0.194165,-0.155731,0.171300,-0.185073
-0.050000,-0.050000,0.000000,0.000000,0.000000,0.000000,0.000000,0.000000,0.000000,0.100000,0.100000,-0.416574,-0.443027,-0.050000,-0.050000,0.442691,-0.405762,0.000000,0.000000,-0.157190,0.236921,0.633039,0.607024,-0.635460,0.643815,-0.199571,-0.164686,0.171499,-0.187903
-0.050000,-0.050000,0.000000,0.000000,0.000000,0.000000,0.000000,0.000000,0.000000,0.100000,0.100000,-0.412898,-0.444146,-0.050000,-0.050000,0.443481,-0.406864,0.000000,0.000000,-0.137317,0.223969,0.621227,0.591793,-0.656715,0.665623,-0.203764,-0.172514,0.171308,-0.191128
-0.050000,-0.050000,0.000000,0.000000,0.000000,0.000000,0.000000,0.000000,0.000000,0.100000,0.100000,-0.408529,-0.444287,-0.050000,-0.050000,0.445496,-0.408687,0.000000,0.000000,-0.118478,0.211339,0.611502,0.579255,-0.674737,0.684230,-0.207177,-0.179587,0.171051,-0.194776
-0.050000,-0.050000,0.000000,0.000000,0.000000,0.000000,0.000000,0.000000,0.000000,0.100000,0.100000,-0.403550,-0.443602,-0.050000,-0.050000,0.448574,-0.411123,0.000000,0.000000,-0.100532,0.198958,0.603517,0.568917,-0.690093,0.700202,-0.209994,-0.186056,0.170842,-0.198844
-0.050000,-0.050000,0.000000,0.000000,0.000000,0.000000,0.000000,0.000000,0.000000,0.100000,0.100000,-0.397383,-0.441606,-0.050000,-0.050000,0.453640,-0.414913,0.000000,0.000000,-0.084029,0.187114,0.598313,0.561689,-0.701508,0.712539,-0.211906,-0.191484,0.171164,-0.203765
-0.050000,-0.050000,0.000000,0.000000,0.000000,0.000000,0.000000,0.000000,0.000000,0.100000,0.100000,-0.390599,-0.438943,-0.050000,-0.050000,0.459558,-0.419126,0.000000,0.000000,-0.068362,0.175478,0.594759,0.556126,-0.710698,0.722865,-0.213475,-0.196485,0.171877,-0.209093
-0.050000,-0.050000,0.000000,0.000000,0.000000,0.000000,0.000000,0.000000,0.000000,0.100000,0.100000,-0.382625,-0.435180,-0.050000,-0.050000,0.467089,-0.424464,0.000000,0.000000,-0.054035,0.164393,0.593862,0.552950,-0.716573,0.730435,-0.214358,-0.200656,0.173416,-0.215103
-0.050000,-0.050000,0.000000,0.000000,0.000000,0.000000,0.000000,0.000000,0.000000,0.100000,0.100000,-0.373734,-0.430617,-0.050000,-0.050000,0.475556,-0.430418,0.000000,0.000000,-0.040859,0.153785,0.595277,0.551514,-0.719825,0.736013,-0.214727,-0.204239,0.175709,-0.221488
-0.050000,-0.050000,0.000000,0.000000,0.000000,0.000000,0.000000,0.000000,0.000000,0.100000,0.100000,-0.364052,-0.425356,-0.050000,-0.050000,0.484739,-0.436883,0.000000,0.000000,-0.028664,0.143591,0.598710,0.551499,-0.720884,0.739997,-0.214665,-0.207328,0.178672,-0.228146
-0.050000,-0.050000,0.000000,0.000000,0.000000,0.000000,0.000000,0.000000,0.000000,0.100000,0.100000,-0.353125,-0.419184,-0.050000,-0.050000,0.494724,-0.444095,0.000000,0.000000,-0.018116,0.134311,0.605384,0.553402,-0.718717,0.741908,-0.213598,-0.209543,0.182534,-0.234913
-0.050000,-0.050000,0.000000,0.000000,0.000000,0.000000,0.000000,0.000000,0.000000,0.100000,0.100000,-0.341617,-0.412473,-0.050000,-0.050000,0.504816,-0.451489,0.000000,0.000000,-0.008541,0.125502,0.614051,0.556418,-0.714660,0.742694,-0.212006,-0.211301,0.186847,-0.241600
-0.050000,-0.050000,0.000000,0.000000,0.000000,0.000000,0.000000,0.000000,0.000000,0.100000,0.100000,-0.329090,-0.405057,-0.050000,-0.050000,0.514985,-0.459246,0.000000,0.000000,-0.000627,0.117674,0.625816,0.561016,-0.707778,0.741912,-0.209205,-0.212188,0.191611,-0.247950
-0.050000,-0.050000,0.000000,0.000000,0.000000,0.000000,0.000000,0.000000,0.000000,0.100000,0.100000,-0.315907,-0.397127,-0.050000,-0.050000,0.524731,-0.467011,0.000000,0.000000,0.005892,0.110633,0.640105,0.566867,-0.698682,0.740031,-0.205345,-0.212356,0.196408,-0.253755
-0.050000,-0.050000,0.000000,0.000000,0.000000,0.000000,0.000000,0.000000,0.000000,0.100000,0.100000,-0.302186,-0.388766,-0.050000,-0.050000,0.533968,-0.474750,0.000000,0.000000,0.011215,0.104262,0.656566,0.573790,-0.687699,0.737268,-0.200532,-0.211897,0.201073,-0.258988
-0.050000,-0.050000,0.000000,0.000000,0.000000,0.000000,0.000000,0.000000,0.000000,0.100000,0.100000,-0.287656,-0.379972,-0.050000,-0.050000,0.542035,-0.482136,0.000000,0.000000,0.014570,0.098994,0.675929,0.582131,-0.674194,0.733462,-0.194045,-0.210405,0.204979,-0.263097
-0.050000,-0.050000,0.000000,0.000000,0.000000,0.000000,0.000000,0.000000,0.000000,0.100000,0.100000,-0.272801,-0.370910,-0.050000,-0.050000,0.549137,-0.489237,0.000000,0.000000,0.016887,0.094231,0.696956,0.591335,-0.659208,0.729161,-0.186714,-0.208381,0.208171,-0.266397
-0.050000,-0.050000,0.000000,0.000000,0.000000,0.000000,0.000000,0.000000,0.000000,0.100000,0.100000,-0.257303,-0.361642,-0.050000,-0.050000,0.554580,-0.495637,0.000000,0.000000,0.017396,0.090335,0.720106,0.601614,-0.642240,0.724319,-0.177934,-0.205495,0.209936,-0.268387
-0.050000,-0.050000,0.000000,0.000000,0.000000,0.000000,0.000000,0.000000,0.000000,0.100000,0.100000,-0.241420,-0.352312,-0.050000,-0.050000,0.558440,-0.501343,0.000000,0.000000,0.016599,0.086922,0.744548,0.612565,-0.623880,0.719339,-0.168249,-0.202081,0.210218,-0.269249
-0.050000,-0.050000,0.000000,0.000000,0.000000,0.000000,0.000000,0.000000,0.000000,0.100000,0.100000,-0.225203,-0.342968,-0.050000,-0.050000,0.560810,-0.506400,0.000000,0.000000,0.014686,0.083879,0.769930,0.624007,-0.604345,0.714336,-0.157888,-0.198256,0.209056,-0.269108
-0.050000,-0.050000,0.000000,0.000000,0.000000,0.000000,0.000000,0.000000,0.000000,0.100000,0.100000,-0.208556,-0.333949,-0.050000,-0.050000,0.561008,-0.510221,0.000000,0.000000,0.011122,0.081195,0.795804,0.635545,-0.583637,0.709813,-0.146778,-0.194098,0.205693,-0.267699
-0.050000,-0.050000,0.000000,0.000000,0.000000,0.000000,0.000000,0.000000,0.000000,0.100000,0.100000,-0.191768,-0.325126,-0.050000,-0.050000,0.559863,-0.513416,0.000000,0.000000,0.006757,0.078576,0.821713,0.646979,-0.562218,0.705712,-0.135526,-0.189864,0.200903,-0.265567
-0.050000,-0.050000,0.000000,0.000000,0.000000,0.000000,0.000000,0.000000,0.000000,0.100000,0.100000,-0.174834,-0.316971,-0.050000,-0.050000,0.556812,-0.515380,0.000000,0.000000,0.001013,0.075999,0.846992,0.657654,-0.540204,0.702658,-0.124156,-0.185740,0.194054,-0.262582
-0.050000,-0.050000,0.000000,0.000000,0.000000,0.000000,0.000000,0.000000,0.000000,0.100000,0.100000,-0.158045,-0.309493,-0.050000,-0.050000,0.552480,-0.516524,0.000000,0.000000,-0.005628,0.073310,0.871205,0.667227,-0.517959,0.700691,-0.113052,-0.181917,0.185692,-0.259159
-0.050000,-0.050000,0.000000,0.000000,0.000000,0.000000,0.000000,0.000000,0.000000,0.100000,0.100000,-0.141457,-0.302688,-0.050000,-0.050000,0.547088,-0.516942,0.000000,0.000000,-0.013045,0.070489,0.894255,0.675611,-0.495603,0.699780,-0.102311,-0.178407,0.176061,-0.255479
-0.050000,-0.050000,0.000000,0.000000,0.000000,0.000000,0.000000,0.000000,0.000000,0.100000,0.100000,-0.125664,-0.297277,-0.050000,-0.050000,0.540785,-0.516431,0.000000,0.000000,-0.021480,0.067517,0.914886,0.681513,-0.473782,0.700638,-0.092319,-0.175682,0.165039,-0.251738
-0.050000,-0.050000,0.000000,0.000000,0.000000,0.000000,0.000000,0.000000,0.000000,0.100000,0.100000,-0.110504,-0.292673,-0.050000,-0.050000,0.534105,-0.515517,0.000000,0.000000,-0.030378,0.064434,0.933890,0.685709,-0.452377,0.702539,-0.082913,-0.173375,0.153323,-0.248168
-0.050000,-0.050000,0.000000,0.000000,0.000000,0.000000,0.000000,0.000000,0.000000,0.100000,0.100000,-0.096796,-0.289707,-0.050000,-0.050000,0.527319,-0.514049,0.000000,0.000000,-0.039960,0.061371,0.949938,0.686812,-0.432211,0.706041,-0.074531,-0.171986,0.140891,-0.244895
-0.050000,-0.050000,0.000000,0.000000,0.000000,0.000000,0.000000,0.000000,0.000000,0.100000,0.100000,-0.084603,-0.288064,-0.050000,-0.050000,0.520833,-0.512371,0.000000,0.000000,-0.049831,0.058463,0.963485,0.685260,-0.413421,0.710531,-0.067041,-0.171249,0.128256,-0.242059
-0.050000,-0.050000,0.000000,0.000000,0.000000,0.000000,0.000000,0.000000,0.000000,0.100000,0.100000,-0.073907,-0.287672,-0.050000,-0.050000,0.514767,-0.510535,0.000000,0.000000,-0.059900,0.055764,0.974745,0.681248,-0.396041,0.715778,-0.060369,-0.171090,0.115575,-0.239664
-0.050000,-0.050000,0.000000,0.000000,0.000000,0.000000,0.000000,0.000000,0.000000,0.100000,0.100000,-0.065936,-0.289143,-0.050000,-0.050000,0.509708,-0.508779,0.000000,0.000000,-0.069906,0.053766,0.982664,0.673796,-0.381295,0.721441,-0.054990,-0.171774,0.103348,-0.237730
-0.050000,-0.050000,0.000000,0.000000,0.000000,0.000000,0.000000,0.000000,0.000000,0.100000,0.100000,-0.059680,-0.291737,-0.050000,-0.050000,0.505362,-0.507048,0.000000,0.000000,-0.079752,0.052213,0.988676,0.664311,-0.368367,0.727084,-0.050281,-0.172800,0.091560,-0.236262
-0.050000,-0.050000,0.000000,0.000000,0.000000,0.000000,0.000000,0.000000,0.000000,0.100000,0.100000,-0.056518,-0.296044,-0.050000,-0.050000,0.502266,-0.505630,0.000000,0.000000,-0.089070,0.051723,0.991728,0.651961,-0.358592,0.732119,-0.046822,-0.174407,0.080797,-0.235124
-0.050000,-0.050000,0.000000,0.000000,0.000000,0.000000,0.000000,0.000000,0.000000,0.100000,0.100000,-0.055827,-0.301619,-0.050000,-0.050000,0.500163,-0.504445,0.000000,0.000000,-0.097767,0.052131,0.992787,0.637776,-0.351543,0.736174,-0.044209,-0.176243,0.071101,-0.234319
-0.050000,-0.050000,0.000000,0.000000,0.000000,0.000000,0.000000,0.000000,0.000000,0.100000,0.100000,-0.057424,-0.308329,-0.050000,-0.050000,0.498946,-0.503480,0.000000,0.000000,-0.105827,0.053414,0.992152,0.622123,-0.347026,0.739122,-0.042360,-0.178231,0.062469,-0.233746
-0.050000,-0.050000,0.000000,0.000000,0.000000,0.000000,0.000000,0.000000,0.000000,0.100000,0.100000,-0.062185,-0.316300,-0.050000,-0.050000,0.498864,-0.502985,0.000000,0.000000,-0.112721,0.056024,0.989522,0.605199,-0.346019,0.740130,-0.041637,-0.180282,0.055598,-0.233284
-0.050000,-0.050000,0.000000,0.000000,0.000000,0.000000,0.000000,0.000000,0.000000,0.100000,0.100000,-0.068769,-0.325146,-0.050000,-0.050000,0.499390,-0.502624,0.000000,0.000000,-0.118935,0.059368,0.985916,0.587757,-0.347206,0.739812,-0.041464,-0.182265,0.049883,-0.232985
-0.050000,-0.050000,0.000000,0.000000,0.000000,0.000000,0.000000,0.000000,0.000000,0.100000,0.100000,-0.078056,-0.334903,-0.050000,-0.050000,0.500811,-0.502689,0.000000,0.000000,-0.123890,0.063880,0.980953,0.570096,-0.351459,0.737469,-0.042300,-0.184111,0.046077,-0.232725
-0.050000,-0.050000,0.000000,0.000000,0.000000,0.000000,0.000000,0.000000,0.000000,0.100000,0.100000,-0.089098,-0.345369,-0.050000,-0.050000,0.502803,-0.502937,0.000000,0.000000,-0.127986,0.069129,0.975248,0.552730,-0.357816,0.733685,-0.043794,-0.185799,0.043794,-0.232563
-0.050000,-0.050000,0.000000,0.000000,0.000000,0.000000,0.000000,0.000000,0.000000,0.100000,0.100000,-0.101622,-0.356403,-0.050000,-0.050000,0.505270,-0.503347,0.000000,0.000000,-0.131310,0.075011,0.968933,0.535842,-0.365894,0.728693,-0.045909,-0.187342,0.042901,-0.232451
-0.050000,-0.050000,0.000000,0.000000,0.000000,0.000000,0.000000,0.000000,0.000000,0.100000,0.100000,-0.115674,-0.367887,-0.050000,-0.050000,0.508441,-0.503988,0.000000,0.000000,-0.133725,0.081526,0.961910,0.520006,-0.375582,0.722622,-0.048829,-0.188752,0.043827,-0.232460
-0.050000,-0.050000,0.000000,0.000000,0.000000,0.000000,0.000000,0.000000,0.000000,0.100000,0.100000,-0.130477,-0.379779,-0.050000,-0.050000,0.511950,-0.504650,0.000000,0.000000,-0.135750,0.088385,0.954502,0.505004,-0.386050,0.716052,-0.052211,-0.190129,0.045855,-0.232519
-0.050000,-0.050000,0.000000,0.000000,0.000000,0.000000,0.000000,0.000000,0.000000,0.100000,0.100000,-0.146105,-0.391929,-0.050000,-0.050000,0.516181,-0.505422,0.000000,0.000000,-0.137302,0.095596,0.946446,0.491364,-0.397013,0.709261,-0.056281,-0.191521,0.049405,-0.232758
-0.050000,-0.050000,0.000000,0.000000,0.000000,0.000000,0.000000,0.000000,0.000000,0.100000,0.100000,-0.162047,-0.404349,-0.050000,-0.050000,0.520917,-0.506160,0.000000,0.000000,-0.138810,0.103014,0.937851,0.478875,-0.407845,0.702673,-0.060797,-0.193031,0.053956,-0.233114
-0.050000,-0.050000,0.000000,0.000000,0.000000,0.000000,0.000000,0.000000,0.000000,0.100000,0.100000,-0.178162,-0.416963,-0.050000,-0.050000,0.526126,-0.506845,0.000000,0.000000,-0.140379,0.110587,0.928709,0.467463,-0.418284,0.696459,-0.065699,-0.194692,0.059327,-0.233578
-0.050000,-0.050000,0.000000,0.000000,0.000000,0.000000,0.000000,0.000000,0.000000,0.100000,0.100000,-0.194234,-0.429765,-0.050000,-0.050000,0.532030,-0.507420,0.000000,0.000000,-0.142450,0.118324,0.918779,0.457327,-0.427544,0.691088,-0.070979,-0.196584,0.065406,-0.234271
-0.050000,-0.050000,0.000000,0.000000,0.000000,0.000000,0.000000,0.000000,0.000000,0.100000,0.100000,-0.210177,-0.442739,-0.050000,-0.050000,0.538237,-0.507853,0.000000,0.000000,-0.144954,0.126175,0.908291,0.448053,-0.435858,0.686360,-0.076435,-0.198694,0.071838,-0.235032
-0.050000,-0.050000,0.000000,0.000000,0.000000,0.000000,0.000000,0.000000,0.000000,0.100000,0.100000,-0.225821,-0.455911,-0.050000,-0.050000,0.544926,-0.508068,0.000000,0.000000,-0.148482,0.134232,0.897029,0.439824,-0.442353,0.682666,-0.082022,-0.201050,0.078396,-0.236024
-0.050000,-0.050000,0.000000,0.000000,0.000000,0.000000,0.000000,0.000000,0.000000,0.100000,0.100000,-0.241149,-0.469265,-0.050000,-0.050000,0.551717,-0.508045,0.000000,0.000000,-0.152966,0.142481,0.885235,0.432357,-0.447260,0.679767,-0.087563,-0.203616,0.084813,-0.237141
-0.050000,-0.050000,0.000000,0.000000,0.000000,0.000000,0.000000,0.000000,0.000000,0.100000,0.100000,-0.256181,-0.482776,-0.050000,-0.050000,0.558495,-0.507778,0.000000,0.000000,-0.158436,0.150925,0.873014,0.425523,-0.450621,0.677566,-0.092993,-0.206351,0.090953,-0.238384
-0.050000,-0.050000,0.000000,0.000000,0.000000,0.000000,0.000000,0.000000,0.000000,0.100000,0.100000,-0.270730,-0.496478,-0.050000,-0.050000,0.564867,-0.507155,0.000000,0.000000,-0.165399,0.159699,0.860601,0.419309,-0.451977,0.676071,-0.098072,-0.209207,0.096357,-0.239847
-0.050000,-0.050000,0.000000,0.000000,0.000000,0.000000,0.000000,0.000000,0.000000,0.100000,0.100000,-0.285015,-0.510250,-0.050000,-0.050000,0.570769,-0.506290,0.000000,0.000000,-0.173271,0.168648,0.848175,0.413493,-0.452055,0.674978,-0.102876,-0.212154,0.101247,-0.241433
-0.050000,-0.050000,0.000000,0.000000,0.000000,0.000000,0.000000,0.000000,0.000000,0.100000,0.100000,-0.298729,-0.524096,-0.050000,-0.050000,0.575577,-0.505028,0.000000,0.000000,-0.182607,0.177921,0.836183,0.408075,-0.450435,0.674263,-0.107089,-0.215129,0.105105,-0.243273
-0.050000,-0.050000,0.000000,0.000000,0.000000,0.000000,0.000000,0.000000,0.000000,0.100000,0.100000,-0.312011,-0.537847,-0.050000,-0.050000,0.579188,-0.503478,0.000000,0.000000,-0.192870,0.187358,0.824857,0.402899,-0.447716,0.673712,-0.110805,-0.218124,0.108173,-0.245331
-0.050000,-0.050000,0.000000,0.000000,0.000000,0.000000,0.000000,0.000000,0.000000,0.100000,0.100000,-0.324842,-0.551437,-0.050000,-0.050000,0.581493,-0.501655,0.000000,0.000000,-0.203936,0.196932,0.814351,0.397872,-0.444117,0.673233,-0.114035,-0.221113,0.110481,-0.247608
-0.050000,-0.050000,0.000000,0.000000,0.000000,0.000000,0.000000,0.000000,0.000000,0.100000,0.100000,-0.336859,-0.564621,-0.050000,-0.050000,0.581727,-0.499477,0.000000,0.000000,-0.215668,0.206537,0.805370,0.392939,-0.439819,0.672740,-0.116576,-0.224085,0.111941,-0.250204
-0.050000,-0.050000,0.000000,0.000000,0.000000,0.000000,0.000000,0.000000,0.000000,0.100000,0.100000,-0.348374,-0.577362,-0.050000,-0.050000,0.580483,-0.497128,0.000000,0.000000,-0.227689,0.216134,0.797518,0.387984,-0.435147,0.672185,-0.118776,-0.227045,0.112914,-0.253025
-0.050000,-0.050000,0.000000,0.000000,0.000000,0.000000,0.000000,0.000000,0.000000,0.100000,0.100000,-0.358787,-0.589301,-0.050000,-0.050000,0.576804,-0.494463,0.000000,0.000000,-0.239723,0.225518,0.791672,0.382985,-0.430318,0.671546,-0.120379,-0.229991,0.113389,-0.256177
-0.050000,-0.050000,0.000000,0.000000,0.000000,0.000000,0.000000,0.000000,0.000000,0.100000,0.100000,-0.368288,-0.600348,-0.050000,-0.050000,0.571201,-0.491635,0.000000,0.000000,-0.251495,0.234693,0.787473,0.377858,-0.425468,0.670817,-0.121708,-0.232917,0.113663,-0.259566
-0.050000,-0.050000,0.000000,0.000000,0.000000,0.000000,0.000000,0.000000,0.000000,0.100000,0.100000,-0.376799,-0.610447,-0.050000,-0.050000,0.563769,-0.488651,0.000000,0.000000,-0.262853,0.243611,0.784868,0.372580,-0.420682,0.670014,-0.122826,-0.235818,0.113861,-0.263159
-0.050000,-0.050000,0.000000,0.000000,0.000000,0.000000,0.000000,0.000000,0.000000,0.100000,0.100000,-0.383888,-0.619180,-0.050000,-0.050000,0.554186,-0.485446,0.000000,0.000000,-0.273377,0.252082,0.784258,0.367206,-0.416000,0.669168,-0.123738,-0.238646,0.114184,-0.266908
-0.050000,-0.050000,0.000000,0.000000,0.000000,0.000000,0.000000,0.000000,0.000000,0.100000,0.100000,-0.389962,-0.626840,-0.050000,-0.050000,0.543234,-0.482154,0.000000,0.000000,-0.283337,0.260342,0.784896,0.361663,-0.411271,0.668264,-0.124671,-0.241395,0.114622,-0.270713
-0.050000,-0.050000,0.000000,0.000000,0.000000,0.000000,0.000000,0.000000,0.000000,0.100000,0.100000,-0.394456,-0.632934,-0.050000,-0.050000,0.530586,-0.478632,0.000000,0.000000,-0.292322,0.268157,0.787279,0.356146,-0.406315,0.667330,-0.125546,-0.243944,0.115312,-0.274461
-0.050000,-0.050000,0.000000,0.000000,0.000000,0.000000,0.000000,0.000000,0.000000,0.100000,0.100000,-0.397696,-0.637721,-0.050000,-0.050000,0.516907,-0.474964,0.000000,0.000000,-0.300701,0.275789,0.790788,0.350636,-0.400815,0.666319,-0.126501,-0.246255,0.116125,-0.278019
-0.050000,-0.050000,0.000000,0.000000,0.000000,0.000000,0.000000,0.000000,0.000000,0.100000,0.100000,-0.399741,-0.641291,-0.050000,-0.050000,0.502446,-0.471132,0.000000,0.000000,-0.308562,0.283260,0.795245,0.345218,-0.394618,0.665228,-0.127516,-0.248289,0.117011,-0.281318
-0.050000,-0.050000,0.000000,0.000000,0.000000,0.000000,0.000000,0.000000,0.000000,0.100000,0.100000,-0.400420,-0.643505,-0.050000,-0.050000,0.487557,-0.467050,0.000000,0.000000,-0.316132,0.290693,0.800663,0.340180,-0.386973,0.663940,-0.128500,-0.249820,0.117725,-0.284077
-0.050000,-0.050000,0.000000,0.000000,0.000000,0.000000,0.000000,0.000000,0.000000,0.100000,0.100000,-0.400159,-0.644799,-0.050000,-0.050000,0.472485,-0.462793,0.000000,0.000000,-0.323605,0.298154,0.806606,0.335385,-0.378154,0.662489,-0.129498,-0.250989,0.118245,-0.286384
-0.050000,-0.050000,0.000000,0.000000,0.000000,0.000000,0.000000,0.000000,0.000000,0.100000,0.100000,-0.398738,-0.645028,-0.050000,-0.050000,0.457739,-0.458268,0.000000,0.000000,-0.331397,0.305858,0.813250,0.331287,-0.367071,0.660647,-0.130283,-0.251443,0.118122,-0.287838
-0.050000,-0.050000,0.000000,0.000000,0.000000,0.000000,0.000000,0.000000,0.000000,0.100000,0.100000,-0.396499,-0.644570,-0.050000,-0.050000,0.443456,-0.453534,0.000000,0.000000,-0.339613,0.313802,0.820369,0.327794,-0.354015,0.658423,-0.130853,-0.251310,0.117324,-0.288506
-0.050000,-0.050000,0.000000,0.000000,0.000000,0.000000,0.000000,0.000000,0.000000,0.100000,0.100000,-0.393583,-0.643597,-0.050000,-0.050000,0.429801,-0.448611,0.000000,0.000000,-0.348391,0.322033,0.827943,0.324978,-0.338966,0.655777,-0.131148,-0.250579,0.115752,-0.288363
-0.050000,-0.050000,0.000000,0.000000,0.000000,0.000000,0.000000,0.000000,0.000000,0.100000,0.100000,-0.390019,-0.642268,-0.050000,-0.050000,0.417267,-0.443579,0.000000,0.000000,-0.358097,0.330720,0.836269,0.323118,-0.321413,0.652449,-0.130888,-0.249030,0.113009,-0.287127
-0.050000,-0.050000,0.000000,0.000000,0.000000,0.000000,0.000000,0.000000,0.000000,0.100000,0.100000,-0.386089,-0.640793,-0.050000,-0.050000,0.405471,-0.438446,0.000000,0.000000,-0.368372,0.339615,0.845137,0.321938,-0.302253,0.648666,-0.130296,-0.246979,0.109440,-0.285113
-0.050000,-0.050000,0.000000,0.000000,0.000000,0.000000,0.000000,0.000000,0.000000,0.100000,0.100000,-0.381730,-0.639327,-0.050000,-0.050000,0.395074,-0.433442,0.000000,0.000000,-0.379607,0.348923,0.855205,0.321757,-0.280962,0.644045,-0.128923,-0.244117,0.104574,-0.281955
-0.050000,-0.050000,0.000000,0.000000,0.000000,0.000000,0.000000,0.000000,0.000000,0.100000,0.100000,-0.377159,-0.638012,-0.050000,-0.050000,0.385663,-0.428599,0.000000,0.000000,-0.391347,0.358331,0.866391,0.322289,-0.258450,0.638818,-0.126981,-0.240751,0.098778,-0.277952
-0.050000,-0.050000,0.000000,0.000000,0.000000,0.000000,0.000000,0.000000,0.000000,0.100000,0.100000,-0.372432,-0.636923,-0.050000,-0.050000,0.377202,-0.424032,0.000000,0.000000,-0.403493,0.367787,0.878833,0.323432,-0.235039,0.633005,-0.124476,-0.236948,0.092149,-0.273184
-0.050000,-0.050000,0.000000,0.000000,0.000000,0.000000,0.000000,0.000000,0.000000,0.100000,0.100000,-0.367473,-0.636195,-0.050000,-0.050000,0.369864,-0.420097,0.000000,0.000000,-0.415733,0.377048,0.893185,0.325054,-0.211248,0.626564,-0.121124,-0.232776,0.084778,-0.267683
-0.050000,-0.050000,0.000000,0.000000,0.000000,0.000000,0.000000,0.000000,0.000000,0.100000,0.100000,-0.362483,-0.635769,-0.050000,-0.050000,0.363141,-0.416601,0.000000,0.000000,-0.427912,0.386054,0.908886,0.326927,-0.187422,0.619779,-0.117359,-0.228445,0.076954,-0.261721
-0.050000,-0.050000,0.000000,0.000000,0.000000,0.000000,0.000000,0.000000,0.000000,0.100000,0.100000,-0.357159,-0.635776,-0.050000,-0.050000,0.357361,-0.414147,0.000000,0.000000,-0.439439,0.394353,0.926913,0.328778,-0.164311,0.612681,-0.112688,-0.224102,0.068893,-0.255414
-0.050000,-0.050000,0.000000,0.000000,0.000000,0.000000,0.000000,0.000000,0.000000,0.100000,0.100000,-0.351668,-0.636127,-0.050000,-0.050000,0.352098,-0.412548,0.000000,0.000000,-0.450205,0.401909,0.946661,0.330392,-0.142115,0.605589,-0.107508,-0.219918,0.060833,-0.249021
-0.050000,-0.050000,0.000000,0.000000,0.000000,0.000000,0.000000,0.000000,0.000000,0.100000,0.100000,-0.345913,-0.636787,-0.050000,-0.050000,0.347278,-0.411885,0.000000,0.000000,-0.460003,0.408605,0.968062,0.331603,-0.121052,0.598661,-0.101841,-0.216007,0.052957,-0.242715
-0.050000,-0.050000,0.000000,0.000000,0.000000,0.000000,0.000000,0.000000,0.000000,0.100000,0.100000,-0.339619,-0.637753,-0.050000,-0.050000,0.342950,-0.412482,0.000000,0.000000,-0.468146,0.413934,0.991221,0.332052,-0.101811,0.592327,-0.095611,-0.212663,0.045642,-0.236883
-0.050000,-0.050000,0.000000,0.000000,0.000000,0.000000,0.000000,0.000000,0.000000,0.100000,0.100000,-0.333024,-0.638904,-0.050000,-0.050000,0.338857,-0.413926,0.000000,0.000000,-0.475157,0.418367,1.015399,0.331890,-0.083835,0.586529,-0.089133,-0.209713,0.038728,-0.231440
-0.050000,-0.050000,0.000000,0.000000,0.000000,0.000000,0.000000,0.000000,0.000000,0.100000,0.100000,-0.325609,-0.640258,-0.050000,-0.050000,0.335213,-0.416677,0.000000,0.000000,-0.479920,0.421053,1.040669,0.330727,-0.068123,0.581936,-0.082288,-0.207588,0.032724,-0.226990
-0.050000,-0.050000,0.000000,0.000000,0.000000,0.000000,0.000000,0.000000,0.000000,0.100000,0.100000,-0.317588,-0.641710,-0.050000,-0.050000,0.331868,-0.420310,0.000000,0.000000,-0.483019,0.422523,1.066265,0.328806,-0.054090,0.578447,-0.075350,-0.206042,0.027387,-0.223389
-0.050000,-0.050000,0.000000,0.000000,0.000000,0.000000,0.000000,0.000000,0.000000,0.100000,0.100000,-0.308867,-0.643226,-0.050000,-0.050000,0.328845,-0.424721,0.000000,0.000000,-0.484393,0.422763,1.091853,0.326219,-0.041692,0.576140,-0.068386,-0.205073,0.022711,-0.220720
-0.050000,-0.050000,0.000000,0.000000,0.000000,0.000000,0.000000,0.000000,0.000000,0.100000,0.100000,-0.299216,-0.644775,-0.050000,-0.050000,0.326272,-0.429842,0.000000,0.000000,-0.483659,0.421523,1.116756,0.323114,-0.031221,0.575376,-0.061599,-0.204735,0.018768,-0.219292
-0.050000,-0.050000,0.000000,0.000000,0.000000,0.000000,0.000000,0.000000,0.000000,0.100000,0.100000,-0.288873,-0.646333,-0.050000,-0.050000,0.324062,-0.435338,0.000000,0.000000,-0.481588,0.419450,1.140868,0.319728,-0.021965,0.575679,-0.054952,-0.204755,0.015220,-0.218679
-0.050000,-0.050000,0.000000,0.000000,0.000000,0.000000,0.000000,0.000000,0.000000,0.100000,0.100000,-0.277519,-0.647876,-0.050000,-0.050000,0.322407,-0.441129,0.000000,0.000000,-0.477524,0.416052,1.163212,0.316414,-0.014457,0.577539,-0.048810,-0.205192,0.012136,-0.219354
-0.050000,-0.050000,0.000000,0.000000,0.000000,0.000000,0.000000,0.000000,0.000000,0.100000,0.100000,-0.265343,-0.649414,-0.050000,-0.050000,0.321271,-0.446930,0.000000,0.000000,-0.472211,0.411941,1.183764,0.313397,-0.008071,0.580459,-0.043086,-0.205803,0.009183,-0.220879
-0.050000,-0.050000,0.000000,0.000000,0.000000,0.000000,0.000000,0.000000,0.000000,0.100000,0.100000,-0.252401,-0.650940,-0.050000,-0.050000,0.320635,-0.452599,0.000000,0.000000,-0.465793,0.407209,1.202341,0.310906,-0.002650,0.584287,-0.037853,-0.206503,0.006228,-0.223169
-0.050000,-0.050000,0.000000,0.000000,0.000000,0.000000,0.000000,0.000000,0.000000,0.100000,0.100000,-0.238732,-0.652415,-0.050000,-0.050000,0.320557,-0.457947,0.000000,0.000000,-0.458381,0.401894,1.218295,0.309391,0.001848,0.588931,-0.033393,-0.207137,0.003061,-0.226228
-0.050000,-0.050000,0.000000,0.000000,0.000000,0.000000,0.000000,0.000000,0.000000,0.100000,0.100000,-0.224455,-0.653892,-0.050000,-0.050000,0.320944,-0.462969,0.000000,0.000000,-0.450402,0.396308,1.232273,0.308654,0.005809,0.594043,-0.029391,-0.207721,-0.000364,-0.229715
-0.050000,-0.050000,0.000000,0.000000,0.000000,0.000000,0.000000,0.000000,0.000000,0.100000,0.100000,-0.209763,-0.655226,-0.050000,-0.050000,0.321817,-0.467497,0.000000,0.000000,-0.441942,0.390367,1.243282,0.309324,0.009194,0.599524,-0.026377,-0.208050,-0.004287,-0.233720
-0.050000,-0.050000,0.000000,0.000000,0.000000,0.000000,0.000000,0.000000,0.000000,0.100000,0.100000,-0.194744,-0.656457,-0.050000,-0.050000,0.323112,-0.471607,0.000000,0.000000,-0.433330,0.384259,1.251997,0.311109,0.012272,0.605116,-0.024017,-0.208214,-0.008668,-0.237964
-0.050000,-0.050000,0.000000,0.000000,0.000000,0.000000,0.000000,0.000000,0.000000,0.100000,0.100000,-0.179602,-0.657514,-0.050000,-0.050000,0.324719,-0.475340,0.000000,0.000000,-0.424733,0.378008,1.258559,0.313987,0.015153,0.610673,-0.022331,-0.208200,-0.013498,-0.242360
-0.050000,-0.050000,0.000000,0.000000,0.000000,0.000000,0.000000,0.000000,0.000000,0.100000,0.100000,-0.164704,-0.658222,-0.050000,-0.050000,0.326564,-0.478756,0.000000,0.000000,-0.416408,0.371578,1.262777,0.318039,0.017917,0.615999,-0.021480,-0.208000,-0.018768,-0.246841
-0.050000,-0.050000,0.000000,0.000000,0.000000,0.000000,0.000000,0.000000,0.000000,0.100000,0.100000,-0.149945,-0.658675,-0.050000,-0.050000,0.328574,-0.481969,0.000000,0.000000,-0.408352,0.364988,1.265432,0.322854,0.020613,0.621117,-0.021114,-0.207725,-0.024331,-0.251313
-0.050000,-0.050000,0.000000,0.000000,0.000000,0.000000,0.000000,0.000000,0.000000,0.100000,0.100000,-0.136028,-0.658512,-0.050000,-0.050000,0.330632,-0.485076,0.000000,0.000000,-0.400919,0.358128,1.266013,0.328537,0.023297,0.625786,-0.021553,-0.207386,-0.030084,-0.255750
-0.050000,-0.050000,0.000000,0.000000,0.000000,0.000000,0.000000,0.000000,0.000000,0.100000,0.100000,-0.122819,-0.657824,-0.050000,-0.050000,0.332699,-0.488176,0.000000,0.000000,-0.394063,0.350959,1.265213,0.334667,0.025952,0.630077,-0.022454,-0.207101,-0.035864,-0.260112
-0.050000,-0.050000,0.000000,0.000000,0.000000,0.000000,0.000000,0.000000,0.000000,0.100000,0.100000,-0.110512,-0.656530,-0.050000,-0.050000,0.334701,-0.491341,0.000000,0.000000,-0.387843,0.343447,1.263218,0.341043,0.028584,0.633979,-0.023764,-0.206917,-0.041531,-0.264397
-0.050000,-0.050000,0.000000,0.000000,0.000000,0.000000,0.000000,0.000000,0.000000,0.100000,0.100000,-0.099562,-0.654433,-0.050000,-0.050000,0.336558,-0.494639,0.000000,0.000000,-0.382448,0.335490,1.260013,0.347384,0.031188,0.637400,-0.025467,-0.206952,-0.046840,-0.268617
-0.050000,-0.050000,0.000000,0.000000,0.000000,0.000000,0.000000,0.000000,0.000000,0.100000,0.100000,-0.089585,-0.651721,-0.050000,-0.050000,0.338290,-0.498071,0.000000,0.000000,-0.377692,0.327133,1.256093,0.353548,0.033736,0.640470,-0.027357,-0.207158,-0.051839,-0.272798
-0.050000,-0.050000,0.000000,0.000000,0.000000,0.000000,0.000000,0.000000,0.000000,0.100000,0.100000,-0.081402,-0.648072,-0.050000,-0.050000,0.339817,-0.501638,0.000000,0.000000,-0.373915,0.318278,1.251171,0.359151,0.036230,0.642996,-0.029486,-0.207722,-0.056139,-0.276972
-0.050000,-0.050000,0.000000,0.000000,0.000000,0.000000,0.000000,0.000000,0.000000,0.100000,0.100000,-0.074603,-0.643687,-0.050000,-0.050000,0.341182,-0.505298,0.000000,0.000000,-0.370941,0.308994,1.245657,0.364113,0.038633,0.645059,-0.031676,-0.208546,-0.059836,-0.281192
-0.050000,-0.050000,0.000000,0.000000,0.000000,0.000000,0.000000,0.000000,0.000000,0.100000,0.100000,-0.069219,-0.638602,-0.050000,-0.050000,0.342401,-0.508987,0.000000,0.000000,-0.368757,0.299349,1.239619,0.368334,0.040942,0.646654,-0.033890,-0.209617,-0.062881,-0.285491
-0.050000,-0.050000,0.000000,0.000000,0.000000,0.000000,0.000000,0.000000,0.000000,0.100000,0.100000,-0.065518,-0.632821,-0.050000,-0.050000,0.343495,-0.512572,0.000000,0.000000,-0.367495,0.289476,1.233024,0.371626,0.043110,0.647659,-0.036087,-0.210931,-0.065102,-0.289921
-0.050000,-0.050000,0.000000,0.000000,0.000000,0.000000,0.000000,0.000000,0.000000,0.100000,0.100000,-0.062987,-0.626544,-0.050000,-0.050000,0.344506,-0.516061,0.000000,0.000000,-0.366889,0.279423,1.226133,0.374188,0.045135,0.648201,-0.038219,-0.212349,-0.066733,-0.294507
-0.050000,-0.050000,0.000000,0.000000,0.000000,0.000000,0.000000,0.000000,0.000000,0.100000,0.100000,-0.062198,-0.619798,-0.050000,-0.050000,0.345481,-0.519196,0.000000,0.000000,-0.367254,0.269543,1.218756,0.375836,0.046894,0.648069,-0.040278,-0.213820,-0.067441,-0.299273
-0.050000,-0.050000,0.000000,0.000000,0.000000,0.000000,0.000000,0.000000,0.000000,0.100000,0.100000,-0.062663,-0.612804,-0.050000,-0.050000,0.346450,-0.521999,0.000000,0.000000,-0.368332,0.259891,1.211134,0.376855,0.048344,0.647396,-0.042228,-0.215183,-0.067455,-0.304235
-0.050000,-0.050000,0.000000,0.000000,0.000000,0.000000,0.000000,0.000000,0.000000,0.100000,0.100000,-0.064289,-0.605718,-0.050000,-0.050000,0.347449,-0.524399,0.000000,0.000000,-0.370086,0.250670,1.203296,0.377427,0.049428,0.646237,-0.044084,-0.216330,-0.066811,-0.309356
-0.050000,-0.050000,0.000000,0.000000,0.000000,0.000000,0.000000,0.000000,0.000000,0.100000,0.100000,-0.067147,-0.598772,-0.050000,-0.050000,0.348533,-0.526255,0.000000,0.000000,-0.372602,0.242296,1.195253,0.377819,0.049956,0.644634,-0.045845,-0.217043,-0.065441,-0.314547
-0.050000,-0.050000,0.000000,0.000000,0.000000,0.000000,0.000000,0.000000,0.000000,0.100000,0.100000,-0.070831,-0.592061,-0.050000,-0.050000,0.349672,-0.527703,0.000000,0.000000,-0.375605,0.234569,1.187135,0.378210,0.050015,0.642754,-0.047528,-0.217383,-0.063578,-0.319791
-0.050000,-0.050000,0.000000,0.000000,0.000000,0.000000,0.000000,0.000000,0.000000,0.100000,0.100000,-0.075607,-0.585923,-0.050000,-0.050000,0.350950,-0.528511,0.000000,0.000000,-0.379387,0.228298,1.178914,0.379049,0.049254,0.640684,-0.049142,-0.216943,-0.061065,-0.324811
-0.050000,-0.050000,0.000000,0.000000,0.000000,0.000000,0.000000,0.000000,0.000000,0.100000,0.100000,-0.081117,-0.580473,-0.050000,-0.050000,0.352317,-0.528851,0.000000,0.000000,-0.383684,0.223220,1.170720,0.380497,0.047772,0.638590,-0.050701,-0.215846,-0.058135,-0.329544
-0.050000,-0.050000,0.000000,0.000000,0.000000,0.000000,0.000000,0.000000,0.000000,0.100000,0.100000,-0.087257,-0.575815,-0.050000,-0.050000,0.353768,-0.528764,0.000000,0.000000,-0.388465,0.219460,1.162591,0.382752,0.045569,0.636592,-0.052234,-0.214049,-0.054889,-0.333811
-0.050000,-0.050000,0.000000,0.000000,0.000000,0.000000,0.000000,0.000000,0.000000,0.100000,0.100000,-0.093975,-0.572180,-0.050000,-0.050000,0.355311,-0.528263,0.000000,0.000000,-0.393792,0.217354,1.154612,0.386113,0.042573,0.634774,-0.053750,-0.211387,-0.051446,-0.337256
-0.050000,-0.050000,0.000000,0.000000,0.000000,0.000000,0.000000,0.000000,0.000000,0.100000,0.100000,-0.101063,-0.569457,-0.050000,-0.050000,0.356887,-0.527508,0.000000,0.000000,-0.399429,0.216428,1.146799,0.390445,0.039006,0.633164,-0.055277,-0.208156,-0.047927,-0.339997
-0.050000,-0.050000,0.000000,0.000000,0.000000,0.000000,0.000000,0.000000,0.000000,0.100000,0.100000,-0.108495,-0.567967,-0.050000,-0.050000,0.358524,-0.526493,0.000000,0.000000,-0.405576,0.217362,1.139313,0.396089,0.034820,0.631674,-0.056804,-0.204005,-0.044552,-0.341361
-0.050000,-0.050000,0.000000,0.000000,0.000000,0.000000,0.000000,0.000000,0.000000,0.100000,0.100000,-0.116102,-0.567586,-0.050000,-0.050000,0.360164,-0.525366,0.000000,0.000000,-0.411982,0.219629,1.132178,0.402850,0.030275,0.630231,-0.058356,-0.199267,-0.041420,-0.341511
-0.050000,-0.050000,0.000000,0.000000,0.000000,0.000000,0.000000,0.000000,0.000000,0.100000,0.100000,-0.123776,-0.568244,-0.050000,-0.050000,0.361785,-0.524208,0.000000,0.000000,-0.418591,0.223146,1.125447,0.410589,0.025570,0.628662,-0.059931,-0.194024,-0.038657,-0.340368
-0.050000,-0.050000,0.000000,0.000000,0.000000,0.000000,0.000000,0.000000,0.000000,0.100000,0.100000,-0.131362,-0.569971,-0.050000,-0.050000,0.363381,-0.523127,0.000000,0.000000,-0.425357,0.227947,1.119278,0.419163,0.020978,0.626611,-0.061511,-0.188308,-0.036476,-0.337710
-0.050000,-0.050000,0.000000,0.000000,0.000000,0.000000,0.000000,0.000000,0.000000,0.100000,0.100000,-0.138861,-0.572496,-0.050000,-0.050000,0.364910,-0.522118,0.000000,0.000000,-0.432137,0.233589,1.113556,0.428360,0.016568,0.624140,-0.063122,-0.182353,-0.034762,-0.333941
-0.050000,-0.050000,0.000000,0.000000,0.000000,0.000000,0.000000,0.000000,0.000000,0.100000,0.100000,-0.145983,-0.575945,-0.050000,-0.050000,0.366396,-0.521380,0.000000,0.000000,-0.438900,0.240267,1.108629,0.437886,0.012812,0.620554,-0.064695,-0.176190,-0.033870,-0.328671
-0.050000,-0.050000,0.000000,0.000000,0.000000,0.000000,0.000000,0.000000,0.000000,0.100000,0.100000,-0.152780,-0.580031,-0.050000,-0.050000,0.367786,-0.520856,0.000000,0.000000,-0.445506,0.247562,1.104359,0.447569,0.009710,0.616002,-0.066273,-0.170029,-0.033624,-0.322379
-0.050000,-0.050000,0.000000,0.000000,0.000000,0.000000,0.000000,0.000000,0.000000,0.100000,0.100000,-0.159177,-0.584609,-0.050000,-0.050000,0.369085,-0.520582,0.000000,0.000000,-0.451902,0.255306,1.100773,0.457150,0.007378,0.610391,-0.067837,-0.164011,-0.033995,-0.315276
-0.050000,-0.050000,0.000000,0.000000,0.000000,0.000000,0.000000,0.000000,0.000000,0.100000,0.100000,-0.165027,-0.589566,-0.050000,-0.050000,0.370289,-0.520631,0.000000,0.000000,-0.457990,0.263327,1.097991,0.466320,0.006009,0.603586,-0.069355,-0.158325,-0.034999,-0.307562
-0.050000,-0.050000,0.000000,0.000000,0.000000,0.000000,0.000000,0.000000,0.000000,0.100000,0.100000,-0.170493,-0.594691,-0.050000,-0.050000,0.371373,-0.520876,0.000000,0.000000,-0.463801,0.271471,1.095785,0.475109,0.005373,0.595927,-0.070873,-0.152952,-0.036421,-0.299536
-0.050000,-0.050000,0.000000,0.000000,0.000000,0.000000,0.000000,0.000000,0.000000,0.100000,0.100000,-0.175262,-0.599916,-0.050000,-0.050000,0.372353,-0.521472,0.000000,0.000000,-0.469152,0.279469,1.094430,0.483046,0.005749,0.587332,-0.072304,-0.148233,-0.038308,-0.291468
-0.050000,-0.050000,0.000000,0.000000,0.000000,0.000000,0.000000,0.000000,0.000000,0.100000,0.100000,-0.179532,-0.605037,-0.050000,-0.050000,0.373194,-0.522273,0.000000,0.000000,-0.474100,0.287241,1.093670,0.490230,0.006856,0.578215,-0.073708,-0.144069,-0.040448,-0.283585
-0.050000,-0.050000,0.000000,0.000000,0.000000,0.000000,0.000000,0.000000,0.000000,0.100000,0.100000,-0.183308,-0.609966,-0.050000,-0.050000,0.373910,-0.523245,0.000000,0.000000,-0.478640,0.294647,1.093432,0.496613,0.008543,0.568878,-0.075066,-0.140493,-0.042719,-0.276085
-0.050000,-0.050000,0.000000,0.000000,0.000000,0.000000,0.000000,0.000000,0.000000,0.100000,0.100000,-0.186537,-0.614583,-0.050000,-0.050000,0.374494,-0.524356,0.000000,0.000000,-0.482689,0.301470,1.093686,0.502084,0.010691,0.559697,-0.076347,-0.137597,-0.045007,-0.269215
-0.050000,-0.050000,0.000000,0.000000,0.000000,0.000000,0.000000,0.000000,0.000000,0.100000,0.100000,-0.189397,-0.618872,-0.050000,-0.050000,0.374970,-0.525543,0.000000,0.000000,-0.486405,0.307862,1.094237,0.506840,0.013117,0.550743,-0.077585,-0.135165,-0.047251,-0.262875
