RRGGZZ/g1_deploy_sonic/data/example_scalelab/qwen_audio/g1_ref_en/case_test8/joint_pos.csv
joint_0,joint_1,joint_2,joint_3,joint_4,joint_5,joint_6,joint_7,joint_8,joint_9,joint_10,joint_11,joint_12,joint_13,joint_14,joint_15,joint_16,joint_17,joint_18,joint_19,joint_20,joint_21,joint_22,joint_23,joint_24,joint_25,joint_26,joint_27,joint_28
-0.050000,-0.050000,0.000000,0.000000,0.000000,0.000000,0.000000,0.000000,0.000000,0.100000,0.100000,-0.094681,-0.595959,-0.050000,-0.050000,0.429449,-0.771493,0.000000,0.000000,-0.478472,0.294946,1.020735,-0.014009,0.131135,-0.441724,-0.098597,-0.003358,0.063528,-0.614650
-0.050000,-0.050000,0.000000,0.000000,0.000000,0.000000,0.000000,0.000000,0.000000,0.100000,0.100000,-0.104532,-0.602619,-0.050000,-0.050000,0.416869,-0.774842,0.000000,0.000000,-0.477425,0.294216,1.037510,-0.003033,0.132655,-0.436840,-0.106230,-0.002882,0.068490,-0.627651
-0.050000,-0.050000,0.000000,0.000000,0.000000,0.000000,0.000000,0.000000,0.000000,0.100000,0.100000,-0.112865,-0.607062,-0.050000,-0.050000,0.405640,-0.777718,0.000000,0.000000,-0.476311,0.292074,1.052313,0.006348,0.134729,-0.431960,-0.112146,-0.002354,0.072679,-0.639442
-0.050000,-0.050000,0.000000,0.000000,0.000000,0.000000,0.000000,0.000000,0.000000,0.100000,0.100000,-0.118162,-0.607068,-0.050000,-0.050000,0.397114,-0.779652,0.000000,0.000000,-0.475067,0.287107,1.063175,0.012540,0.137909,-0.427087,-0.114626,-0.001721,0.075317,-0.648813
-0.050000,-0.050000,0.000000,0.000000,0.000000,0.000000,0.000000,0.000000,0.000000,0.100000,0.100000,-0.121618,-0.604291,-0.050000,-0.050000,0.389939,-0.781199,0.000000,0.000000,-0.474013,0.281002,1.072785,0.016902,0.142080,-0.422520,-0.115249,-0.001204,0.076989,-0.656419
-0.050000,-0.050000,0.000000,0.000000,0.000000,0.000000,0.000000,0.000000,0.000000,0.100000,0.100000,-0.124154,-0.600122,-0.050000,-0.050000,0.383440,-0.782555,0.000000,0.000000,-0.473055,0.274328,1.081770,0.020348,0.146746,-0.418106,-0.114945,-0.000745,0.078178,-0.663143
-0.050000,-0.050000,0.000000,0.000000,0.000000,0.000000,0.000000,0.000000,0.000000,0.100000,0.100000,-0.124750,-0.593428,-0.050000,-0.050000,0.378088,-0.783881,0.000000,0.000000,-0.472197,0.267384,1.090663,0.022112,0.152732,-0.414272,-0.113086,-0.000892,0.078419,-0.667682
-0.050000,-0.050000,0.000000,0.000000,0.000000,0.000000,0.000000,0.000000,0.000000,0.100000,0.100000,-0.124829,-0.586273,-0.050000,-0.050000,0.373008,-0.785305,0.000000,0.000000,-0.471240,0.260593,1.099700,0.023524,0.159027,-0.410634,-0.110947,-0.001319,0.078470,-0.671663
-0.050000,-0.050000,0.000000,0.000000,0.000000,0.000000,0.000000,0.000000,0.000000,0.100000,0.100000,-0.123869,-0.578196,-0.050000,-0.050000,0.368471,-0.786925,0.000000,0.000000,-0.470082,0.254107,1.109026,0.024229,0.165942,-0.407387,-0.108250,-0.002310,0.078139,-0.674527
-0.050000,-0.050000,0.000000,0.000000,0.000000,0.000000,0.000000,0.000000,0.000000,0.100000,0.100000,-0.122044,-0.569719,-0.050000,-0.050000,0.364424,-0.788842,0.000000,0.000000,-0.468462,0.248054,1.118489,0.024535,0.173077,-0.404465,-0.105334,-0.003868,0.077650,-0.676737
-0.050000,-0.050000,0.000000,0.000000,0.000000,0.000000,0.000000,0.000000,0.000000,0.100000,0.100000,-0.119787,-0.561042,-0.050000,-0.050000,0.360623,-0.790909,0.000000,0.000000,-0.466610,0.242217,1.128020,0.024642,0.180321,-0.401705,-0.102308,-0.005710,0.077083,-0.678621
-0.050000,-0.050000,0.000000,0.000000,0.000000,0.000000,0.000000,0.000000,0.000000,0.100000,0.100000,-0.116526,-0.552263,-0.050000,-0.050000,0.357591,-0.793433,0.000000,0.000000,-0.463808,0.236845,1.137083,0.024598,0.187180,-0.399204,-0.099370,-0.008217,0.076581,-0.680317
-0.050000,-0.050000,0.000000,0.000000,0.000000,0.000000,0.000000,0.000000,0.000000,0.100000,0.100000,-0.113060,-0.543540,-0.050000,-0.050000,0.354841,-0.796075,0.000000,0.000000,-0.460680,0.231509,1.145696,0.024672,0.193678,-0.396675,-0.096581,-0.010840,0.076183,-0.682183
-0.050000,-0.050000,0.000000,0.000000,0.000000,0.000000,0.000000,0.000000,0.000000,0.100000,0.100000,-0.109184,-0.534928,-0.050000,-0.050000,0.352657,-0.798951,0.000000,0.000000,-0.456899,0.226243,1.153410,0.024983,0.199454,-0.394089,-0.094089,-0.013695,0.075994,-0.684392
-0.050000,-0.050000,0.000000,0.000000,0.000000,0.000000,0.000000,0.000000,0.000000,0.100000,0.100000,-0.105210,-0.526496,-0.050000,-0.050000,0.351100,-0.801935,0.000000,0.000000,-0.452608,0.220825,1.159626,0.025910,0.204132,-0.391164,-0.092088,-0.016540,0.076137,-0.687221
-0.050000,-0.050000,0.000000,0.000000,0.000000,0.000000,0.000000,0.000000,0.000000,0.100000,0.100000,-0.101189,-0.518153,-0.050000,-0.050000,0.349857,-0.804973,0.000000,0.000000,-0.448062,0.215330,1.165094,0.027145,0.208260,-0.388069,-0.090332,-0.019381,0.076447,-0.690360
-0.050000,-0.050000,0.000000,0.000000,0.000000,0.000000,0.000000,0.000000,0.000000,0.100000,0.100000,-0.097539,-0.510100,-0.050000,-0.050000,0.349648,-0.807948,0.000000,0.000000,-0.443177,0.209459,1.167547,0.029888,0.210398,-0.384013,-0.089507,-0.021889,0.077405,-0.694451
-0.050000,-0.050000,0.000000,0.000000,0.000000,0.000000,0.000000,0.000000,0.000000,0.100000,0.100000,-0.094184,-0.502148,-0.050000,-0.050000,0.349809,-0.810834,0.000000,0.000000,-0.438366,0.203505,1.168818,0.033307,0.211849,-0.379497,-0.089020,-0.024217,0.078630,-0.698734
-0.050000,-0.050000,0.000000,0.000000,0.000000,0.000000,0.000000,0.000000,0.000000,0.100000,0.100000,-0.091418,-0.494401,-0.050000,-0.050000,0.350710,-0.813540,0.000000,0.000000,-0.433701,0.197387,1.167723,0.038080,0.211924,-0.374062,-0.089209,-0.026189,0.080389,-0.703399
-0.050000,-0.050000,0.000000,0.000000,0.000000,0.000000,0.000000,0.000000,0.000000,0.100000,0.100000,-0.089546,-0.486906,-0.050000,-0.050000,0.352377,-0.815970,0.000000,0.000000,-0.429580,0.191366,1.164086,0.044443,0.210766,-0.367504,-0.090062,-0.027776,0.082814,-0.707993
-0.050000,-0.050000,0.000000,0.000000,0.000000,0.000000,0.000000,0.000000,0.000000,0.100000,0.100000,-0.088121,-0.479537,-0.050000,-0.050000,0.354426,-0.818263,0.000000,0.000000,-0.425731,0.185394,1.159178,0.051602,0.208991,-0.360385,-0.091245,-0.029171,0.085572,-0.712553
-0.050000,-0.050000,0.000000,0.000000,0.000000,0.000000,0.000000,0.000000,0.000000,0.100000,0.100000,-0.088395,-0.472688,-0.050000,-0.050000,0.357604,-0.820077,0.000000,0.000000,-0.423225,0.180138,1.150459,0.061248,0.205841,-0.351477,-0.093329,-0.030120,0.089600,-0.716208
-0.050000,-0.050000,0.000000,0.000000,0.000000,0.000000,0.000000,0.000000,0.000000,0.100000,0.100000,-0.089311,-0.466074,-0.050000,-0.050000,0.361124,-0.821736,0.000000,0.000000,-0.421293,0.175320,1.140542,0.071649,0.202463,-0.342030,-0.095673,-0.031012,0.094166,-0.719326
-0.050000,-0.050000,0.000000,0.000000,0.000000,0.000000,0.000000,0.000000,0.000000,0.100000,0.100000,-0.091512,-0.459930,-0.050000,-0.050000,0.365331,-0.823081,0.000000,0.000000,-0.420506,0.171376,1.128227,0.083560,0.198630,-0.331506,-0.098538,-0.031788,0.099806,-0.721370
-0.050000,-0.050000,0.000000,0.000000,0.000000,0.000000,0.000000,0.000000,0.000000,0.100000,0.100000,-0.095048,-0.454367,-0.050000,-0.050000,0.370103,-0.824139,0.000000,0.000000,-0.420971,0.168619,1.113752,0.096600,0.194895,-0.320234,-0.101862,-0.032686,0.106766,-0.722054
-0.050000,-0.050000,0.000000,0.000000,0.000000,0.000000,0.000000,0.000000,0.000000,0.100000,0.100000,-0.099252,-0.449094,-0.050000,-0.050000,0.375157,-0.825054,0.000000,0.000000,-0.422060,0.166456,1.098197,0.110204,0.191209,-0.308587,-0.105416,-0.033646,0.114385,-0.722059
-0.050000,-0.050000,0.000000,0.000000,0.000000,0.000000,0.000000,0.000000,0.000000,0.100000,0.100000,-0.105377,-0.444772,-0.050000,-0.050000,0.380806,-0.825557,0.000000,0.000000,-0.424937,0.166293,1.079829,0.124636,0.188542,-0.296601,-0.109607,-0.035158,0.124308,-0.720006
-0.050000,-0.050000,0.000000,0.000000,0.000000,0.000000,0.000000,0.000000,0.000000,0.100000,0.100000,-0.112064,-0.440748,-0.050000,-0.050000,0.386557,-0.825907,0.000000,0.000000,-0.428300,0.166769,1.060673,0.139000,0.186476,-0.284818,-0.113998,-0.036953,0.135056,-0.717404
-0.050000,-0.050000,0.000000,0.000000,0.000000,0.000000,0.000000,0.000000,0.000000,0.100000,0.100000,-0.119879,-0.437323,-0.050000,-0.050000,0.392509,-0.825948,0.000000,0.000000,-0.432638,0.168524,1.039941,0.153229,0.185612,-0.273438,-0.118789,-0.039315,0.147454,-0.713703
-0.050000,-0.050000,0.000000,0.000000,0.000000,0.000000,0.000000,0.000000,0.000000,0.100000,0.100000,-0.128590,-0.434372,-0.050000,-0.050000,0.398463,-0.825580,0.000000,0.000000,-0.437610,0.171318,1.017951,0.166662,0.186331,-0.263061,-0.123915,-0.042341,0.161443,-0.709398
-0.050000,-0.050000,0.000000,0.000000,0.000000,0.000000,0.000000,0.000000,0.000000,0.100000,0.100000,-0.137749,-0.431657,-0.050000,-0.050000,0.404417,-0.825009,0.000000,0.000000,-0.442901,0.174631,0.995331,0.179697,0.187841,-0.253187,-0.129209,-0.045699,0.176226,-0.704792
-0.050000,-0.050000,0.000000,0.000000,0.000000,0.000000,0.000000,0.000000,0.000000,0.100000,0.100000,-0.147834,-0.429379,-0.050000,-0.050000,0.410087,-0.823583,0.000000,0.000000,-0.448540,0.178956,0.971359,0.190818,0.191964,-0.245436,-0.134770,-0.049983,0.192939,-0.700158
-0.050000,-0.050000,0.000000,0.000000,0.000000,0.000000,0.000000,0.000000,0.000000,0.100000,0.100000,-0.158082,-0.427154,-0.050000,-0.050000,0.415572,-0.821773,0.000000,0.000000,-0.454096,0.183417,0.947155,0.201211,0.196899,-0.238443,-0.140280,-0.054464,0.210009,-0.695767
-0.050000,-0.050000,0.000000,0.000000,0.000000,0.000000,0.000000,0.000000,0.000000,0.100000,0.100000,-0.168654,-0.425036,-0.050000,-0.050000,0.420689,-0.819197,0.000000,0.000000,-0.459486,0.188151,0.922485,0.210149,0.203459,-0.232966,-0.145686,-0.059341,0.227789,-0.691860
-0.050000,-0.050000,0.000000,0.000000,0.000000,0.000000,0.000000,0.000000,0.000000,0.100000,0.100000,-0.179270,-0.422893,-0.050000,-0.050000,0.425270,-0.815671,0.000000,0.000000,-0.464385,0.192803,0.897892,0.217794,0.211244,-0.228758,-0.150606,-0.064232,0.245461,-0.688716
-0.050000,-0.050000,0.000000,0.000000,0.000000,0.000000,0.000000,0.000000,0.000000,0.100000,0.100000,-0.189909,-0.420738,-0.050000,-0.050000,0.429583,-0.811671,0.000000,0.000000,-0.469039,0.197415,0.873336,0.224792,0.219641,-0.225184,-0.155283,-0.069131,0.263078,-0.685953
-0.050000,-0.050000,0.000000,0.000000,0.000000,0.000000,0.000000,0.000000,0.000000,0.100000,0.100000,-0.200246,-0.418491,-0.050000,-0.050000,0.432859,-0.806082,0.000000,0.000000,-0.472649,0.201538,0.849835,0.230499,0.228936,-0.222720,-0.158613,-0.073344,0.279091,-0.684299
-0.050000,-0.050000,0.000000,0.000000,0.000000,0.000000,0.000000,0.000000,0.000000,0.100000,0.100000,-0.210382,-0.416239,-0.050000,-0.050000,0.435727,-0.799972,0.000000,0.000000,-0.475876,0.205440,0.827013,0.236042,0.238164,-0.220298,-0.161327,-0.077107,0.294104,-0.682875
-0.050000,-0.050000,0.000000,0.000000,0.000000,0.000000,0.000000,0.000000,0.000000,0.100000,0.100000,-0.220116,-0.413980,-0.050000,-0.050000,0.437778,-0.792819,0.000000,0.000000,-0.478336,0.208898,0.805546,0.241255,0.247256,-0.217961,-0.162808,-0.079973,0.307119,-0.681910
-0.050000,-0.050000,0.000000,0.000000,0.000000,0.000000,0.000000,0.000000,0.000000,0.100000,0.100000,-0.229294,-0.411822,-0.050000,-0.050000,0.438936,-0.784797,0.000000,0.000000,-0.480076,0.211894,0.786010,0.246559,0.255530,-0.215133,-0.162894,-0.081664,0.317444,-0.681008
-0.050000,-0.050000,0.000000,0.000000,0.000000,0.000000,0.000000,0.000000,0.000000,0.100000,0.100000,-0.238195,-0.409715,-0.050000,-0.050000,0.439647,-0.776339,0.000000,0.000000,-0.481455,0.214661,0.767439,0.251907,0.263395,-0.212058,-0.162281,-0.082768,0.326425,-0.680138
-0.050000,-0.050000,0.000000,0.000000,0.000000,0.000000,0.000000,0.000000,0.000000,0.100000,0.100000,-0.246098,-0.407916,-0.050000,-0.050000,0.439019,-0.767050,0.000000,0.000000,-0.481939,0.216786,0.752358,0.257582,0.269303,-0.207764,-0.159663,-0.082100,0.330950,-0.678890
-0.050000,-0.050000,0.000000,0.000000,0.000000,0.000000,0.000000,0.000000,0.000000,0.100000,0.100000,-0.253635,-0.406242,-0.050000,-0.050000,0.437984,-0.757686,0.000000,0.000000,-0.482206,0.218719,0.738519,0.263252,0.274454,-0.203079,-0.156516,-0.080984,0.334088,-0.677480
-0.050000,-0.050000,0.000000,0.000000,0.000000,0.000000,0.000000,0.000000,0.000000,0.100000,0.100000,-0.260437,-0.404817,-0.050000,-0.050000,0.436137,-0.748173,0.000000,0.000000,-0.482038,0.220268,0.727163,0.268912,0.278088,-0.197612,-0.152312,-0.078973,0.334452,-0.675743
-0.050000,-0.050000,0.000000,0.000000,0.000000,0.000000,0.000000,0.000000,0.000000,0.100000,0.100000,-0.266472,-0.403597,-0.050000,-0.050000,0.433626,-0.738925,0.000000,0.000000,-0.481622,0.221483,0.718222,0.274077,0.280252,-0.191712,-0.147494,-0.076580,0.332637,-0.673885
-0.050000,-0.050000,0.000000,0.000000,0.000000,0.000000,0.000000,0.000000,0.000000,0.100000,0.100000,-0.272124,-0.402481,-0.050000,-0.050000,0.430782,-0.729809,0.000000,0.000000,-0.481081,0.222532,0.710488,0.278994,0.281680,-0.185595,-0.142371,-0.073995,0.329732,-0.671967
-0.050000,-0.050000,0.000000,0.000000,0.000000,0.000000,0.000000,0.000000,0.000000,0.100000,0.100000,-0.276645,-0.401511,-0.050000,-0.050000,0.427212,-0.721603,0.000000,0.000000,-0.480490,0.223219,0.706060,0.282395,0.281207,-0.179599,-0.137102,-0.071723,0.324739,-0.670439
-0.050000,-0.050000,0.000000,0.000000,0.000000,0.000000,0.000000,0.000000,0.000000,0.100000,0.100000,-0.280826,-0.400530,-0.050000,-0.050000,0.423484,-0.713802,0.000000,0.000000,-0.480013,0.223877,0.702611,0.285162,0.280220,-0.173874,-0.132021,-0.069794,0.319411,-0.669210
-0.050000,-0.050000,0.000000,0.000000,0.000000,0.000000,0.000000,0.000000,0.000000,0.100000,0.100000,-0.284325,-0.399530,-0.050000,-0.050000,0.419441,-0.706816,0.000000,0.000000,-0.479760,0.224481,0.701123,0.286663,0.278204,-0.168694,-0.127314,-0.068553,0.313413,-0.668580
-0.050000,-0.050000,0.000000,0.000000,0.000000,0.000000,0.000000,0.000000,0.000000,0.100000,0.100000,-0.287283,-0.398446,-0.050000,-0.050000,0.415207,-0.700696,0.000000,0.000000,-0.480028,0.225348,0.701415,0.287124,0.275347,-0.164286,-0.123301,-0.068210,0.307197,-0.668614
-0.050000,-0.050000,0.000000,0.000000,0.000000,0.000000,0.000000,0.000000,0.000000,0.100000,0.100000,-0.289969,-0.397320,-0.050000,-0.050000,0.410876,-0.695010,0.000000,0.000000,-0.480556,0.226349,0.702595,0.287065,0.272071,-0.160265,-0.119636,-0.068317,0.300872,-0.668982
-0.050000,-0.050000,0.000000,0.000000,0.000000,0.000000,0.000000,0.000000,0.000000,0.100000,0.100000,-0.292144,-0.396124,-0.050000,-0.050000,0.406340,-0.690506,0.000000,0.000000,-0.482312,0.228422,0.706307,0.286615,0.267694,-0.157245,-0.117183,-0.069590,0.294363,-0.669821
-0.050000,-0.050000,0.000000,0.000000,0.000000,0.000000,0.000000,0.000000,0.000000,0.100000,0.100000,-0.294262,-0.394975,-0.050000,-0.050000,0.401732,-0.686312,0.000000,0.000000,-0.484595,0.231116,0.710839,0.286635,0.262974,-0.154357,-0.115092,-0.071053,0.287691,-0.670436
-0.050000,-0.050000,0.000000,0.000000,0.000000,0.000000,0.000000,0.000000,0.000000,0.100000,0.100000,-0.296268,-0.393917,-0.050000,-0.050000,0.396975,-0.682735,0.000000,0.000000,-0.487932,0.235052,0.717015,0.287595,0.257568,-0.151728,-0.113723,-0.072895,0.280690,-0.670603
-0.050000,-0.050000,0.000000,0.000000,0.000000,0.000000,0.000000,0.000000,0.000000,0.100000,0.100000,-0.298367,-0.393147,-0.050000,-0.050000,0.392014,-0.679555,0.000000,0.000000,-0.492424,0.240725,0.724739,0.290825,0.251512,-0.148792,-0.112860,-0.074586,0.273011,-0.669292
-0.050000,-0.050000,0.000000,0.000000,0.000000,0.000000,0.000000,0.000000,0.000000,0.100000,0.100000,-0.300513,-0.392522,-0.050000,-0.050000,0.386949,-0.676574,0.000000,0.000000,-0.497495,0.247267,0.733237,0.295188,0.245131,-0.145700,-0.112250,-0.076203,0.264992,-0.667244
-0.050000,-0.050000,0.000000,0.000000,0.000000,0.000000,0.000000,0.000000,0.000000,0.100000,0.100000,-0.302996,-0.392598,-0.050000,-0.050000,0.381473,-0.673811,0.000000,0.000000,-0.504180,0.256911,0.743681,0.304574,0.237903,-0.141362,-0.112017,-0.076854,0.255487,-0.661429
-0.050000,-0.050000,0.000000,0.000000,0.000000,0.000000,0.000000,0.000000,0.000000,0.100000,0.100000,-0.305602,-0.392944,-0.050000,-0.050000,0.375846,-0.670984,0.000000,0.000000,-0.511275,0.267612,0.754533,0.315876,0.230481,-0.136472,-0.111811,-0.077020,0.245425,-0.653980
-0.050000,-0.050000,0.000000,0.000000,0.000000,0.000000,0.000000,0.000000,0.000000,0.100000,0.100000,-0.308453,-0.393828,-0.050000,-0.050000,0.369917,-0.668030,0.000000,0.000000,-0.519186,0.280423,0.766202,0.331010,0.222672,-0.130481,-0.111658,-0.076217,0.234249,-0.643264
-0.050000,-0.050000,0.000000,0.000000,0.000000,0.000000,0.000000,0.000000,0.000000,0.100000,0.100000,-0.311460,-0.395149,-0.050000,-0.050000,0.363749,-0.664684,0.000000,0.000000,-0.527523,0.295030,0.777972,0.349659,0.214772,-0.123498,-0.111478,-0.074351,0.222105,-0.629051
-0.050000,-0.050000,0.000000,0.000000,0.000000,0.000000,0.000000,0.000000,0.000000,0.100000,0.100000,-0.314544,-0.396689,-0.050000,-0.050000,0.357462,-0.661142,0.000000,0.000000,-0.536073,0.310536,0.789791,0.370064,0.206827,-0.116019,-0.111284,-0.071953,0.209477,-0.613089
-0.050000,-0.050000,0.000000,0.000000,0.000000,0.000000,0.000000,0.000000,0.000000,0.100000,0.100000,-0.317609,-0.398470,-0.050000,-0.050000,0.351096,-0.656717,0.000000,0.000000,-0.544608,0.327760,0.800433,0.394048,0.199338,-0.107778,-0.111134,-0.068183,0.196013,-0.592530
-0.050000,-0.050000,0.000000,0.000000,0.000000,0.000000,0.000000,0.000000,0.000000,0.100000,0.100000,-0.320568,-0.400142,-0.050000,-0.050000,0.344857,-0.651973,0.000000,0.000000,-0.552943,0.345126,0.810218,0.418355,0.192220,-0.099644,-0.111084,-0.064134,0.182576,-0.570974
-0.050000,-0.050000,0.000000,0.000000,0.000000,0.000000,0.000000,0.000000,0.000000,0.100000,0.100000,-0.323318,-0.401596,-0.050000,-0.050000,0.338869,-0.646592,0.000000,0.000000,-0.560877,0.362775,0.818291,0.443308,0.185842,-0.091724,-0.111230,-0.059524,0.169192,-0.547423
-0.050000,-0.050000,0.000000,0.000000,0.000000,0.000000,0.000000,0.000000,0.000000,0.100000,0.100000,-0.325681,-0.402489,-0.050000,-0.050000,0.333505,-0.640718,0.000000,0.000000,-0.568119,0.379828,0.823832,0.466900,0.180597,-0.084778,-0.111790,-0.054841,0.156566,-0.523389
-0.050000,-0.050000,0.000000,0.000000,0.000000,0.000000,0.000000,0.000000,0.000000,0.100000,0.100000,-0.327850,-0.403101,-0.050000,-0.050000,0.328453,-0.634599,0.000000,0.000000,-0.575017,0.396582,0.828107,0.489812,0.175918,-0.078320,-0.112557,-0.050120,0.144319,-0.499113
-0.050000,-0.050000,0.000000,0.000000,0.000000,0.000000,0.000000,0.000000,0.000000,0.100000,0.100000,-0.329267,-0.402624,-0.050000,-0.050000,0.324888,-0.628235,0.000000,0.000000,-0.580622,0.411397,0.827739,0.507874,0.173335,-0.074250,-0.114220,-0.046045,0.134221,-0.476569
-0.050000,-0.050000,0.000000,0.000000,0.000000,0.000000,0.000000,0.000000,0.000000,0.100000,0.100000,-0.330419,-0.401835,-0.050000,-0.050000,0.321957,-0.622009,0.000000,0.000000,-0.585759,0.425374,0.825714,0.523627,0.171495,-0.071171,-0.116221,-0.042381,0.125107,-0.455308
-0.050000,-0.050000,0.000000,0.000000,0.000000,0.000000,0.000000,0.000000,0.000000,0.100000,0.100000,-0.331039,-0.400422,-0.050000,-0.050000,0.320295,-0.616058,0.000000,0.000000,-0.589961,0.437673,0.820379,0.534761,0.171140,-0.070070,-0.118898,-0.039539,0.117961,-0.436614
-0.050000,-0.050000,0.000000,0.000000,0.000000,0.000000,0.000000,0.000000,0.000000,0.100000,0.100000,-0.331201,-0.398750,-0.050000,-0.050000,0.320042,-0.610831,0.000000,0.000000,-0.593217,0.448237,0.811893,0.540594,0.172185,-0.071099,-0.122191,-0.037703,0.113100,-0.421408
-0.050000,-0.050000,0.000000,0.000000,0.000000,0.000000,0.000000,0.000000,0.000000,0.100000,0.100000,-0.331132,-0.396948,-0.050000,-0.050000,0.320492,-0.605966,0.000000,0.000000,-0.596000,0.457934,0.801830,0.543777,0.173930,-0.073192,-0.125793,-0.036371,0.109383,-0.407946
-0.050000,-0.050000,0.000000,0.000000,0.000000,0.000000,0.000000,0.000000,0.000000,0.100000,0.100000,-0.330634,-0.395553,-0.050000,-0.050000,0.323024,-0.602759,0.000000,0.000000,-0.597399,0.465288,0.787756,0.539111,0.177440,-0.078391,-0.130038,-0.036470,0.109209,-0.400198
-0.050000,-0.050000,0.000000,0.000000,0.000000,0.000000,0.000000,0.000000,0.000000,0.100000,0.100000,-0.330121,-0.394570,-0.050000,-0.050000,0.326172,-0.600238,0.000000,0.000000,-0.598356,0.471988,0.772685,0.532180,0.181385,-0.084505,-0.134367,-0.036925,0.110149,-0.394244
-0.050000,-0.050000,0.000000,0.000000,0.000000,0.000000,0.000000,0.000000,0.000000,0.100000,0.100000,-0.329579,-0.394412,-0.050000,-0.050000,0.330551,-0.599087,0.000000,0.000000,-0.598429,0.477381,0.755621,0.520720,0.186199,-0.092448,-0.138861,-0.038092,0.113315,-0.391880
-0.050000,-0.050000,0.000000,0.000000,0.000000,0.000000,0.000000,0.000000,0.000000,0.100000,0.100000,-0.329318,-0.395526,-0.050000,-0.050000,0.335912,-0.599437,0.000000,0.000000,-0.597658,0.481673,0.737312,0.505855,0.191532,-0.101803,-0.143247,-0.039634,0.118427,-0.392527
-0.050000,-0.050000,0.000000,0.000000,0.000000,0.000000,0.000000,0.000000,0.000000,0.100000,0.100000,-0.329198,-0.397275,-0.050000,-0.050000,0.341764,-0.600536,0.000000,0.000000,-0.596464,0.485415,0.718379,0.489288,0.197123,-0.111865,-0.147579,-0.041362,0.124513,-0.394680
-0.050000,-0.050000,0.000000,0.000000,0.000000,0.000000,0.000000,0.000000,0.000000,0.100000,0.100000,-0.329963,-0.401304,-0.050000,-0.050000,0.348649,-0.603862,0.000000,0.000000,-0.594032,0.487620,0.698618,0.469568,0.202927,-0.123200,-0.151407,-0.043143,0.132995,-0.400254
-0.050000,-0.050000,0.000000,0.000000,0.000000,0.000000,0.000000,0.000000,0.000000,0.100000,0.100000,-0.331146,-0.406103,-0.050000,-0.050000,0.355733,-0.607853,0.000000,0.000000,-0.591178,0.489287,0.678855,0.449428,0.208602,-0.134641,-0.154989,-0.044802,0.142095,-0.406611
-0.050000,-0.050000,0.000000,0.000000,0.000000,0.000000,0.000000,0.000000,0.000000,0.100000,0.100000,-0.333161,-0.412440,-0.050000,-0.050000,0.363213,-0.613175,0.000000,0.000000,-0.587480,0.489875,0.659091,0.428448,0.214022,-0.146293,-0.158080,-0.046221,0.152434,-0.414533
-0.050000,-0.050000,0.000000,0.000000,0.000000,0.000000,0.000000,0.000000,0.000000,0.100000,0.100000,-0.336124,-0.420120,-0.050000,-0.050000,0.370833,-0.619554,0.000000,0.000000,-0.582878,0.489249,0.639692,0.407688,0.218777,-0.157546,-0.160602,-0.047213,0.163667,-0.423401
-0.050000,-0.050000,0.000000,0.000000,0.000000,0.000000,0.000000,0.000000,0.000000,0.100000,0.100000,-0.339559,-0.428471,-0.050000,-0.050000,0.378522,-0.626460,0.000000,0.000000,-0.577823,0.488017,0.620476,0.387038,0.223201,-0.168600,-0.162839,-0.047992,0.175347,-0.432743
-0.050000,-0.050000,0.000000,0.000000,0.000000,0.000000,0.000000,0.000000,0.000000,0.100000,0.100000,-0.344328,-0.438296,-0.050000,-0.050000,0.386124,-0.634402,0.000000,0.000000,-0.571281,0.484763,0.602072,0.367864,0.226034,-0.178346,-0.164211,-0.047984,0.187882,-0.442746
-0.050000,-0.050000,0.000000,0.000000,0.000000,0.000000,0.000000,0.000000,0.000000,0.100000,0.100000,-0.349423,-0.448383,-0.050000,-0.050000,0.393633,-0.642480,0.000000,0.000000,-0.564211,0.480810,0.583948,0.349402,0.228169,-0.187520,-0.165320,-0.047705,0.200541,-0.452766
-0.050000,-0.050000,0.000000,0.000000,0.000000,0.000000,0.000000,0.000000,0.000000,0.100000,0.100000,-0.355171,-0.458997,-0.050000,-0.050000,0.400958,-0.650831,0.000000,0.000000,-0.556082,0.475456,0.566384,0.332366,0.228911,-0.195553,-0.165904,-0.046884,0.213449,-0.462819
-0.050000,-0.050000,0.000000,0.000000,0.000000,0.000000,0.000000,0.000000,0.000000,0.100000,0.100000,-0.361204,-0.469659,-0.050000,-0.050000,0.408044,-0.659031,0.000000,0.000000,-0.546907,0.468785,0.549295,0.316906,0.228050,-0.202382,-0.166065,-0.045573,0.226287,-0.472586
-0.050000,-0.050000,0.000000,0.000000,0.000000,0.000000,0.000000,0.000000,0.000000,0.100000,0.100000,-0.367378,-0.480344,-0.050000,-0.050000,0.415010,-0.667155,0.000000,0.000000,-0.537208,0.461454,0.532445,0.302234,0.226389,-0.208610,-0.166015,-0.044018,0.239088,-0.482210
-0.050000,-0.050000,0.000000,0.000000,0.000000,0.000000,0.000000,0.000000,0.000000,0.100000,0.100000,-0.373338,-0.490454,-0.050000,-0.050000,0.421614,-0.674471,0.000000,0.000000,-0.526153,0.452493,0.516154,0.289823,0.222298,-0.213191,-0.165539,-0.041907,0.251303,-0.491075
-0.050000,-0.050000,0.000000,0.000000,0.000000,0.000000,0.000000,0.000000,0.000000,0.100000,0.100000,-0.379033,-0.500209,-0.050000,-0.050000,0.428108,-0.681363,0.000000,0.000000,-0.514800,0.443169,0.500032,0.278072,0.217501,-0.217318,-0.164996,-0.039696,0.263168,-0.499635
-0.050000,-0.050000,0.000000,0.000000,0.000000,0.000000,0.000000,0.000000,0.000000,0.100000,0.100000,-0.384198,-0.509254,-0.050000,-0.050000,0.434380,-0.687407,0.000000,0.000000,-0.502850,0.433119,0.484248,0.267642,0.211292,-0.220537,-0.164318,-0.037285,0.274331,-0.507584
-0.050000,-0.050000,0.000000,0.000000,0.000000,0.000000,0.000000,0.000000,0.000000,0.100000,0.100000,-0.388565,-0.517406,-0.050000,-0.050000,0.440440,-0.692412,0.000000,0.000000,-0.490771,0.422790,0.468901,0.258327,0.204089,-0.223044,-0.163633,-0.034869,0.284495,-0.514916
-0.050000,-0.050000,0.000000,0.000000,0.000000,0.000000,0.000000,0.000000,0.000000,0.100000,0.100000,-0.392534,-0.525110,-0.050000,-0.050000,0.446393,-0.696896,0.000000,0.000000,-0.478626,0.412321,0.453774,0.249569,0.196389,-0.225196,-0.162946,-0.032452,0.294159,-0.521941
-0.050000,-0.050000,0.000000,0.000000,0.000000,0.000000,0.000000,0.000000,0.000000,0.100000,0.100000,-0.395161,-0.531428,-0.050000,-0.050000,0.451983,-0.699740,0.000000,0.000000,-0.467158,0.402157,0.439684,0.242265,0.188029,-0.226494,-0.162362,-0.030309,0.301884,-0.528111
-0.050000,-0.050000,0.000000,0.000000,0.000000,0.000000,0.000000,0.000000,0.000000,0.100000,0.100000,-0.397377,-0.537337,-0.050000,-0.050000,0.457412,-0.702083,0.000000,0.000000,-0.456227,0.392319,0.426127,0.235423,0.179739,-0.227537,-0.161818,-0.028331,0.308816,-0.534013
-0.050000,-0.050000,0.000000,0.000000,0.000000,0.000000,0.000000,0.000000,0.000000,0.100000,0.100000,-0.398768,-0.542427,-0.050000,-0.050000,0.462519,-0.703420,0.000000,0.000000,-0.446368,0.383137,0.413633,0.229506,0.171587,-0.228072,-0.161356,-0.026684,0.314161,-0.539376
-0.050000,-0.050000,0.000000,0.000000,0.000000,0.000000,0.000000,0.000000,0.000000,0.100000,0.100000,-0.399529,-0.546895,-0.050000,-0.050000,0.467172,-0.703960,0.000000,0.000000,-0.438154,0.374965,0.402604,0.224561,0.164053,-0.228076,-0.160934,-0.025455,0.317637,-0.544171
-0.050000,-0.050000,0.000000,0.000000,0.000000,0.000000,0.000000,0.000000,0.000000,0.100000,0.100000,-0.399974,-0.551050,-0.050000,-0.050000,0.471599,-0.704100,0.000000,0.000000,-0.430763,0.367299,0.392309,0.220103,0.156830,-0.227816,-0.160534,-0.024434,0.320176,-0.548682
-0.050000,-0.050000,0.000000,0.000000,0.000000,0.000000,0.000000,0.000000,0.000000,0.100000,0.100000,-0.399829,-0.554601,-0.050000,-0.050000,0.475091,-0.703452,0.000000,0.000000,-0.426492,0.361432,0.384705,0.217242,0.150985,-0.226633,-0.160106,-0.024087,0.319549,-0.552206
-0.050000,-0.050000,0.000000,0.000000,0.000000,0.000000,0.000000,0.000000,0.000000,0.100000,0.100000,-0.399588,-0.558036,-0.050000,-0.050000,0.478179,-0.702677,0.000000,0.000000,-0.423375,0.356145,0.378088,0.214946,0.145647,-0.225083,-0.159646,-0.023957,0.317798,-0.555357
-0.050000,-0.050000,0.000000,0.000000,0.000000,0.000000,0.000000,0.000000,0.000000,0.100000,0.100000,-0.399155,-0.561240,-0.050000,-0.050000,0.480458,-0.701645,0.000000,0.000000,-0.422564,0.352020,0.373441,0.213779,0.141323,-0.222797,-0.159124,-0.024261,0.313797,-0.557764
-0.050000,-0.050000,0.000000,0.000000,0.000000,0.000000,0.000000,0.000000,0.000000,0.100000,0.100000,-0.398629,-0.564277,-0.050000,-0.050000,0.481762,-0.700559,0.000000,0.000000,-0.424035,0.348770,0.370761,0.213708,0.137937,-0.219657,-0.158532,-0.024961,0.307572,-0.559426
-0.050000,-0.050000,0.000000,0.000000,0.000000,0.000000,0.000000,0.000000,0.000000,0.100000,0.100000,-0.398057,-0.567231,-0.050000,-0.050000,0.482579,-0.699447,0.000000,0.000000,-0.426648,0.345957,0.369063,0.214185,0.135021,-0.216089,-0.157905,-0.025860,0.300234,-0.560715
-0.050000,-0.050000,0.000000,0.000000,0.000000,0.000000,0.000000,0.000000,0.000000,0.100000,0.100000,-0.397300,-0.569827,-0.050000,-0.050000,0.481783,-0.698399,0.000000,0.000000,-0.432269,0.343710,0.370081,0.216057,0.133268,-0.211133,-0.157216,-0.027280,0.289903,-0.561119
-0.050000,-0.050000,0.000000,0.000000,0.000000,0.000000,0.000000,0.000000,0.000000,0.100000,0.100000,-0.396411,-0.572204,-0.050000,-0.050000,0.480449,-0.697369,0.000000,0.000000,-0.438655,0.341347,0.371887,0.218248,0.131820,-0.205731,-0.156530,-0.028848,0.278787,-0.561388
-0.050000,-0.050000,0.000000,0.000000,0.000000,0.000000,0.000000,0.000000,0.000000,0.100000,0.100000,-0.395258,-0.574146,-0.050000,-0.050000,0.478043,-0.696375,0.000000,0.000000,-0.446568,0.338753,0.375271,0.221078,0.130982,-0.199435,-0.155849,-0.030712,0.266103,-0.561384
-0.050000,-0.050000,0.000000,0.000000,0.000000,0.000000,0.000000,0.000000,0.000000,0.100000,0.100000,-0.393637,-0.575387,-0.050000,-0.050000,0.474687,-0.695339,0.000000,0.000000,-0.455414,0.335352,0.380013,0.224187,0.130654,-0.192431,-0.155214,-0.032813,0.252430,-0.561538
-0.050000,-0.050000,0.000000,0.000000,0.000000,0.000000,0.000000,0.000000,0.000000,0.100000,0.100000,-0.391782,-0.576277,-0.050000,-0.050000,0.470857,-0.694282,0.000000,0.000000,-0.464725,0.331548,0.385435,0.227437,0.130580,-0.185075,-0.154603,-0.035034,0.238262,-0.561770
-0.050000,-0.050000,0.000000,0.000000,0.000000,0.000000,0.000000,0.000000,0.000000,0.100000,0.100000,-0.388930,-0.575734,-0.050000,-0.050000,0.465949,-0.693022,0.000000,0.000000,-0.474528,0.325938,0.392702,0.230583,0.131258,-0.177211,-0.154087,-0.037514,0.223592,-0.562902
-0.050000,-0.050000,0.000000,0.000000,0.000000,0.000000,0.000000,0.000000,0.000000,0.100000,0.100000,-0.385680,-0.574633,-0.050000,-0.050000,0.460826,-0.691664,0.000000,0.000000,-0.484236,0.319668,0.400588,0.233570,0.132222,-0.169441,-0.153599,-0.040039,0.209075,-0.564508
-0.050000,-0.050000,0.000000,0.000000,0.000000,0.000000,0.000000,0.000000,0.000000,0.100000,0.100000,-0.381633,-0.572415,-0.050000,-0.050000,0.455272,-0.690109,0.000000,0.000000,-0.493756,0.312074,0.409713,0.236240,0.133755,-0.161860,-0.153167,-0.042656,0.194866,-0.567063
-0.050000,-0.050000,0.000000,0.000000,0.000000,0.000000,0.000000,0.000000,0.000000,0.100000,0.100000,-0.376756,-0.569069,-0.050000,-0.050000,0.449571,-0.688353,0.000000,0.000000,-0.502728,0.303348,0.420227,0.238510,0.135954,-0.155061,-0.152759,-0.045263,0.181522,-0.570743
-0.050000,-0.050000,0.000000,0.000000,0.000000,0.000000,0.000000,0.000000,0.000000,0.100000,0.100000,-0.371464,-0.565157,-0.050000,-0.050000,0.443796,-0.686496,0.000000,0.000000,-0.511425,0.294056,0.431434,0.240581,0.138487,-0.148653,-0.152364,-0.047865,0.168611,-0.574984
-0.050000,-0.050000,0.000000,0.000000,0.000000,0.000000,0.000000,0.000000,0.000000,0.100000,0.100000,-0.365037,-0.559772,-0.050000,-0.050000,0.438127,-0.684423,0.000000,0.000000,-0.519028,0.283744,0.445116,0.242228,0.142113,-0.144204,-0.151930,-0.050262,0.157630,-0.580844
-0.050000,-0.050000,0.000000,0.000000,0.000000,0.000000,0.000000,0.000000,0.000000,0.100000,0.100000,-0.358316,-0.554036,-0.050000,-0.050000,0.432554,-0.682326,0.000000,0.000000,-0.526255,0.273402,0.459777,0.243888,0.146089,-0.140559,-0.151448,-0.052518,0.147418,-0.587108
-0.050000,-0.050000,0.000000,0.000000,0.000000,0.000000,0.000000,0.000000,0.000000,0.100000,0.100000,-0.351004,-0.547599,-0.050000,-0.050000,0.427173,-0.680183,0.000000,0.000000,-0.532731,0.263000,0.476398,0.245572,0.150765,-0.138525,-0.150871,-0.054492,0.138745,-0.594177
-0.050000,-0.050000,0.000000,0.000000,0.000000,0.000000,0.000000,0.000000,0.000000,0.100000,0.100000,-0.343336,-0.540828,-0.050000,-0.050000,0.422011,-0.678103,0.000000,0.000000,-0.538552,0.253220,0.495259,0.247729,0.155997,-0.138088,-0.150118,-0.056036,0.131679,-0.601567
-0.050000,-0.050000,0.000000,0.000000,0.000000,0.000000,0.000000,0.000000,0.000000,0.100000,0.100000,-0.335490,-0.533889,-0.050000,-0.050000,0.416958,-0.676054,0.000000,0.000000,-0.544045,0.243750,0.515239,0.250122,0.161507,-0.138452,-0.149275,-0.057366,0.125417,-0.609119
-0.050000,-0.050000,0.000000,0.000000,0.000000,0.000000,0.000000,0.000000,0.000000,0.100000,0.100000,-0.327519,-0.527044,-0.050000,-0.050000,0.412173,-0.674248,0.000000,0.000000,-0.548782,0.236185,0.538812,0.253989,0.167475,-0.140719,-0.148039,-0.057861,0.121395,-0.616174
-0.050000,-0.050000,0.000000,0.000000,0.000000,0.000000,0.000000,0.000000,0.000000,0.100000,0.100000,-0.319650,-0.520421,-0.050000,-0.050000,0.407449,-0.672560,0.000000,0.000000,-0.553345,0.229530,0.563554,0.258590,0.173442,-0.143348,-0.146638,-0.058037,0.117985,-0.622685
-0.050000,-0.050000,0.000000,0.000000,0.000000,0.000000,0.000000,0.000000,0.000000,0.100000,0.100000,-0.311986,-0.514241,-0.050000,-0.050000,0.402843,-0.671106,0.000000,0.000000,-0.557560,0.224696,0.590634,0.264659,0.179408,-0.146699,-0.144907,-0.057576,0.115800,-0.628107
-0.050000,-0.050000,0.000000,0.000000,0.000000,0.000000,0.000000,0.000000,0.000000,0.100000,0.100000,-0.304804,-0.508835,-0.050000,-0.050000,0.398324,-0.669936,0.000000,0.000000,-0.561541,0.222092,0.619717,0.272556,0.185077,-0.150183,-0.142820,-0.056453,0.114462,-0.631667
-0.050000,-0.050000,0.000000,0.000000,0.000000,0.000000,0.000000,0.000000,0.000000,0.100000,0.100000,-0.297863,-0.503816,-0.050000,-0.050000,0.393847,-0.668908,0.000000,0.000000,-0.565405,0.220604,0.649801,0.281368,0.190598,-0.153734,-0.140556,-0.054998,0.113548,-0.634297
-0.050000,-0.050000,0.000000,0.000000,0.000000,0.000000,0.000000,0.000000,0.000000,0.100000,0.100000,-0.292016,-0.500350,-0.050000,-0.050000,0.389530,-0.668341,0.000000,0.000000,-0.569005,0.222827,0.681926,0.293151,0.195340,-0.156828,-0.137815,-0.052601,0.113290,-0.633136
-0.050000,-0.050000,0.000000,0.000000,0.000000,0.000000,0.000000,0.000000,0.000000,0.100000,0.100000,-0.286635,-0.497491,-0.050000,-0.050000,0.385304,-0.667927,0.000000,0.000000,-0.572520,0.226311,0.714277,0.305857,0.199764,-0.159700,-0.134966,-0.049933,0.113071,-0.630503
-0.050000,-0.050000,0.000000,0.000000,0.000000,0.000000,0.000000,0.000000,0.000000,0.100000,0.100000,-0.282184,-0.495848,-0.050000,-0.050000,0.381262,-0.667817,0.000000,0.000000,-0.575862,0.232318,0.747076,0.320412,0.203551,-0.162129,-0.131902,-0.046726,0.112929,-0.624928
-0.050000,-0.050000,0.000000,0.000000,0.000000,0.000000,0.000000,0.000000,0.000000,0.100000,0.100000,-0.278801,-0.495518,-0.050000,-0.050000,0.377513,-0.667975,0.000000,0.000000,-0.579005,0.240681,0.779244,0.336358,0.206684,-0.164317,-0.128777,-0.043130,0.112625,-0.616383
-0.050000,-0.050000,0.000000,0.000000,0.000000,0.000000,0.000000,0.000000,0.000000,0.100000,0.100000,-0.275952,-0.495845,-0.050000,-0.050000,0.373910,-0.668266,0.000000,0.000000,-0.582047,0.250221,0.811095,0.353000,0.209490,-0.166385,-0.125622,-0.039338,0.112240,-0.606353
-0.050000,-0.050000,0.000000,0.000000,0.000000,0.000000,0.000000,0.000000,0.000000,0.100000,0.100000,-0.274809,-0.498171,-0.050000,-0.050000,0.370889,-0.668836,0.000000,0.000000,-0.584733,0.262702,0.840343,0.370584,0.211379,-0.168790,-0.122647,-0.035293,0.111502,-0.592550
-0.050000,-0.050000,0.000000,0.000000,0.000000,0.000000,0.000000,0.000000,0.000000,0.100000,0.100000,-0.274238,-0.501136,-0.050000,-0.050000,0.368082,-0.669438,0.000000,0.000000,-0.587285,0.275859,0.868238,0.387986,0.212993,-0.171579,-0.119817,-0.031307,0.110692,-0.577955
-0.050000,-0.050000,0.000000,0.000000,0.000000,0.000000,0.000000,0.000000,0.000000,0.100000,0.100000,-0.274810,-0.505379,-0.050000,-0.050000,0.365702,-0.670105,0.000000,0.000000,-0.589572,0.290370,0.893430,0.405027,0.214056,-0.175138,-0.117280,-0.027441,0.109739,-0.561778
-0.050000,-0.050000,0.000000,0.000000,0.000000,0.000000,0.000000,0.000000,0.000000,0.100000,0.100000,-0.276481,-0.510786,-0.050000,-0.050000,0.363703,-0.670682,0.000000,0.000000,-0.591580,0.305469,0.915208,0.420636,0.214617,-0.179870,-0.115173,-0.024014,0.108859,-0.545305
-0.050000,-0.050000,0.000000,0.000000,0.000000,0.000000,0.000000,0.000000,0.000000,0.100000,0.100000,-0.278700,-0.516775,-0.050000,-0.050000,0.361895,-0.671214,0.000000,0.000000,-0.593449,0.320863,0.935279,0.435529,0.214926,-0.185189,-0.113282,-0.020806,0.108015,-0.528682
-0.050000,-0.050000,0.000000,0.000000,0.000000,0.000000,0.000000,0.000000,0.000000,0.100000,0.100000,-0.282452,-0.524255,-0.050000,-0.050000,0.360475,-0.671355,0.000000,0.000000,-0.594909,0.335904,0.949622,0.446827,0.214556,-0.192417,-0.112174,-0.018662,0.107711,-0.513713
-0.050000,-0.050000,0.000000,0.000000,0.000000,0.000000,0.000000,0.000000,0.000000,0.100000,0.100000,-0.286668,-0.532125,-0.050000,-0.050000,0.359104,-0.671274,0.000000,0.000000,-0.596250,0.350450,0.961992,0.456584,0.214007,-0.200159,-0.111348,-0.016940,0.107733,-0.499904
-0.050000,-0.050000,0.000000,0.000000,0.000000,0.000000,0.000000,0.000000,0.000000,0.100000,0.100000,-0.291815,-0.540772,-0.050000,-0.050000,0.357831,-0.670752,0.000000,0.000000,-0.597351,0.364005,0.970414,0.463260,0.213098,-0.208926,-0.111089,-0.016062,0.108410,-0.488419
-0.050000,-0.050000,0.000000,0.000000,0.000000,0.000000,0.000000,0.000000,0.000000,0.100000,0.100000,-0.297794,-0.549929,-0.050000,-0.050000,0.356515,-0.669605,0.000000,0.000000,-0.598281,0.376011,0.974951,0.466570,0.212018,-0.218206,-0.111406,-0.015982,0.110001,-0.480045
-0.050000,-0.050000,0.000000,0.000000,0.000000,0.000000,0.000000,0.000000,0.000000,0.100000,0.100000,-0.304188,-0.559340,-0.050000,-0.050000,0.355177,-0.668146,0.000000,0.000000,-0.599127,0.387242,0.977545,0.468199,0.210852,-0.227743,-0.112011,-0.016302,0.112049,-0.473226
-0.050000,-0.050000,0.000000,0.000000,0.000000,0.000000,0.000000,0.000000,0.000000,0.100000,0.100000,-0.311666,-0.569025,-0.050000,-0.050000,0.353674,-0.665495,0.000000,0.000000,-0.599891,0.395740,0.974544,0.465009,0.209897,-0.237118,-0.113465,-0.017514,0.115766,-0.471404
-0.050000,-0.050000,0.000000,0.000000,0.000000,0.000000,0.000000,0.000000,0.000000,0.100000,0.100000,-0.319441,-0.578614,-0.050000,-0.050000,0.352135,-0.662386,0.000000,0.000000,-0.600709,0.403352,0.969772,0.460482,0.209221,-0.246150,-0.115191,-0.018883,0.120099,-0.471081
-0.050000,-0.050000,0.000000,0.000000,0.000000,0.000000,0.000000,0.000000,0.000000,0.100000,0.100000,-0.327808,-0.588010,-0.050000,-0.050000,0.350525,-0.658356,0.000000,0.000000,-0.601631,0.409187,0.961457,0.453278,0.209106,-0.254498,-0.117461,-0.020565,0.125661,-0.473753
-0.050000,-0.050000,0.000000,0.000000,0.000000,0.000000,0.000000,0.000000,0.000000,0.100000,0.100000,-0.336607,-0.596808,-0.050000,-0.050000,0.348980,-0.653369,0.000000,0.000000,-0.602840,0.413572,0.949807,0.444197,0.210014,-0.261734,-0.120239,-0.022285,0.132471,-0.478686
-0.050000,-0.050000,0.000000,0.000000,0.000000,0.000000,0.000000,0.000000,0.000000,0.100000,0.100000,-0.345622,-0.605307,-0.050000,-0.050000,0.347469,-0.647903,0.000000,0.000000,-0.604192,0.417231,0.936489,0.434177,0.211435,-0.268416,-0.123269,-0.024025,0.139904,-0.484747
-0.050000,-0.050000,0.000000,0.000000,0.000000,0.000000,0.000000,0.000000,0.000000,0.100000,0.100000,-0.354998,-0.612315,-0.050000,-0.050000,0.346350,-0.641128,0.000000,0.000000,-0.606218,0.419461,0.918570,0.422711,0.215006,-0.273077,-0.126958,-0.025517,0.149059,-0.492816
-0.050000,-0.050000,0.000000,0.000000,0.000000,0.000000,0.000000,0.000000,0.000000,0.100000,0.100000,-0.364388,-0.618654,-0.050000,-0.050000,0.345457,-0.634026,0.000000,0.000000,-0.608517,0.421485,0.899317,0.411211,0.219421,-0.277035,-0.130808,-0.026871,0.158674,-0.501107
-0.050000,-0.050000,0.000000,0.000000,0.000000,0.000000,0.000000,0.000000,0.000000,0.100000,0.100000,-0.373806,-0.623655,-0.050000,-0.050000,0.345016,-0.626273,0.000000,0.000000,-0.611364,0.423097,0.877396,0.399645,0.225520,-0.279589,-0.134981,-0.027946,0.169208,-0.509841
-0.050000,-0.050000,0.000000,0.000000,0.000000,0.000000,0.000000,0.000000,0.000000,0.100000,0.100000,-0.383041,-0.627058,-0.050000,-0.050000,0.345149,-0.618203,0.000000,0.000000,-0.614764,0.424749,0.853398,0.388809,0.233319,-0.280804,-0.139309,-0.028710,0.180309,-0.518295
-0.050000,-0.050000,0.000000,0.000000,0.000000,0.000000,0.000000,0.000000,0.000000,0.100000,0.100000,-0.392183,-0.629660,-0.050000,-0.050000,0.345569,-0.609975,0.000000,0.000000,-0.618441,0.426420,0.828362,0.378339,0.241967,-0.281350,-0.143713,-0.029318,0.191694,-0.526608
-0.050000,-0.050000,0.000000,0.000000,0.000000,0.000000,0.000000,0.000000,0.000000,0.100000,0.100000,-0.400778,-0.629628,-0.050000,-0.050000,0.346861,-0.601861,0.000000,0.000000,-0.622812,0.428565,0.801441,0.369957,0.252788,-0.280065,-0.148024,-0.029492,0.203260,-0.533745
-0.050000,-0.050000,0.000000,0.000000,0.000000,0.000000,0.000000,0.000000,0.000000,0.100000,0.100000,-0.409126,-0.628694,-0.050000,-0.050000,0.348386,-0.593972,0.000000,0.000000,-0.627336,0.430902,0.774405,0.362543,0.264094,-0.278218,-0.152184,-0.029548,0.214638,-0.540337
-0.050000,-0.050000,0.000000,0.000000,0.000000,0.000000,0.000000,0.000000,0.000000,0.100000,0.100000,-0.416980,-0.625954,-0.050000,-0.050000,0.350377,-0.586535,0.000000,0.000000,-0.632164,0.433626,0.747140,0.357064,0.276372,-0.275245,-0.156043,-0.029366,0.225641,-0.545837
-0.050000,-0.050000,0.000000,0.000000,0.000000,0.000000,0.000000,0.000000,0.000000,0.100000,0.100000,-0.424284,-0.621465,-0.050000,-0.050000,0.352611,-0.579833,0.000000,0.000000,-0.637119,0.436634,0.720807,0.353974,0.288998,-0.271173,-0.159372,-0.029003,0.235781,-0.550055
-0.050000,-0.050000,0.000000,0.000000,0.000000,0.000000,0.000000,0.000000,0.000000,0.100000,0.100000,-0.431311,-0.616102,-0.050000,-0.050000,0.354967,-0.573500,0.000000,0.000000,-0.642137,0.439785,0.694941,0.352078,0.301799,-0.266550,-0.162435,-0.028550,0.245491,-0.553632
-0.050000,-0.050000,0.000000,0.000000,0.000000,0.000000,0.000000,0.000000,0.000000,0.100000,0.100000,-0.437528,-0.608346,-0.050000,-0.050000,0.357267,-0.568489,0.000000,0.000000,-0.647116,0.443062,0.672241,0.354343,0.314141,-0.260205,-0.164429,-0.027898,0.253266,-0.555058
-0.050000,-0.050000,0.000000,0.000000,0.000000,0.000000,0.000000,0.000000,0.000000,0.100000,0.100000,-0.443504,-0.599911,-0.050000,-0.050000,0.359406,-0.563913,0.000000,0.000000,-0.652027,0.446277,0.651123,0.358145,0.326033,-0.253251,-0.166017,-0.027195,0.260236,-0.555677
-0.050000,-0.050000,0.000000,0.000000,0.000000,0.000000,0.000000,0.000000,0.000000,0.100000,0.100000,-0.448999,-0.590115,-0.050000,-0.050000,0.361222,-0.560207,0.000000,0.000000,-0.656804,0.449367,0.633171,0.365023,0.337026,-0.245081,-0.166790,-0.026392,0.265592,-0.554683
-0.050000,-0.050000,0.000000,0.000000,0.000000,0.000000,0.000000,0.000000,0.000000,0.100000,0.100000,-0.454088,-0.579264,-0.050000,-0.050000,0.362475,-0.557224,0.000000,0.000000,-0.661377,0.452196,0.619180,0.375141,0.346654,-0.235694,-0.166751,-0.025506,0.269143,-0.551849
-0.050000,-0.050000,0.000000,0.000000,0.000000,0.000000,0.000000,0.000000,0.000000,0.100000,0.100000,-0.458975,-0.567885,-0.050000,-0.050000,0.363447,-0.554602,0.000000,0.000000,-0.665847,0.454894,0.607171,0.386878,0.355599,-0.225699,-0.166305,-0.024580,0.271791,-0.548096
-0.050000,-0.050000,0.000000,0.000000,0.000000,0.000000,0.000000,0.000000,0.000000,0.100000,0.100000,-0.463321,-0.555447,-0.050000,-0.050000,0.363353,-0.552714,0.000000,0.000000,-0.669909,0.457188,0.601767,0.403410,0.362017,-0.214122,-0.164802,-0.023544,0.271669,-0.541195
-0.050000,-0.050000,0.000000,0.000000,0.000000,0.000000,0.000000,0.000000,0.000000,0.100000,0.100000,-0.467478,-0.542840,-0.050000,-0.050000,0.362889,-0.550943,0.000000,0.000000,-0.673781,0.459415,0.598590,0.421390,0.367503,-0.202208,-0.163041,-0.022476,0.270681,-0.533128
-0.050000,-0.050000,0.000000,0.000000,0.000000,0.000000,0.000000,0.000000,0.000000,0.100000,0.100000,-0.471255,-0.529894,-0.050000,-0.050000,0.361683,-0.549410,0.000000,0.000000,-0.677274,0.461511,0.599865,0.442262,0.371123,-0.189620,-0.160767,-0.021340,0.267960,-0.522727
-0.050000,-0.050000,0.000000,0.000000,0.000000,0.000000,0.000000,0.000000,0.000000,0.100000,0.100000,-0.474551,-0.516968,-0.050000,-0.050000,0.359831,-0.547908,0.000000,0.000000,-0.680218,0.463733,0.605275,0.465453,0.372806,-0.176950,-0.158211,-0.020142,0.263767,-0.509852
-0.050000,-0.050000,0.000000,0.000000,0.000000,0.000000,0.000000,0.000000,0.000000,0.100000,0.100000,-0.477606,-0.504052,-0.050000,-0.050000,0.357657,-0.546422,0.000000,0.000000,-0.682887,0.466018,0.612753,0.489804,0.373520,-0.164238,-0.155514,-0.018912,0.258838,-0.495739
-0.050000,-0.050000,0.000000,0.000000,0.000000,0.000000,0.000000,0.000000,0.000000,0.100000,0.100000,-0.479681,-0.491638,-0.050000,-0.050000,0.354826,-0.544816,0.000000,0.000000,-0.684386,0.468973,0.625536,0.516442,0.371349,-0.152478,-0.152719,-0.017597,0.252269,-0.477967
-0.050000,-0.050000,0.000000,0.000000,0.000000,0.000000,0.000000,0.000000,0.000000,0.100000,0.100000,-0.481328,-0.479518,-0.050000,-0.050000,0.351919,-0.543168,0.000000,0.000000,-0.685367,0.472300,0.639708,0.543389,0.368257,-0.141388,-0.149969,-0.016265,0.245378,-0.459113
-0.050000,-0.050000,0.000000,0.000000,0.000000,0.000000,0.000000,0.000000,0.000000,0.100000,0.100000,-0.482117,-0.467986,-0.050000,-0.050000,0.348859,-0.541438,0.000000,0.000000,-0.685309,0.476369,0.656656,0.570952,0.363325,-0.131639,-0.147306,-0.014896,0.237844,-0.438093
-0.050000,-0.050000,0.000000,0.000000,0.000000,0.000000,0.000000,0.000000,0.000000,0.100000,0.100000,-0.481866,-0.457220,-0.050000,-0.050000,0.345953,-0.539724,0.000000,0.000000,-0.683989,0.481367,0.675579,0.598242,0.356692,-0.123770,-0.144797,-0.013537,0.230133,-0.415441
-0.050000,-0.050000,0.000000,0.000000,0.000000,0.000000,0.000000,0.000000,0.000000,0.100000,0.100000,-0.481094,-0.446836,-0.050000,-0.050000,0.343123,-0.538017,0.000000,0.000000,-0.682038,0.486831,0.695490,0.625396,0.349210,-0.116840,-0.142366,-0.012183,0.222333,-0.391974
-0.050000,-0.050000,0.000000,0.000000,0.000000,0.000000,0.000000,0.000000,0.000000,0.100000,0.100000,-0.478592,-0.437760,-0.050000,-0.050000,0.340916,-0.536575,0.000000,0.000000,-0.677999,0.493714,0.717251,0.651050,0.339469,-0.113110,-0.140150,-0.010949,0.214894,-0.367201
-0.050000,-0.050000,0.000000,0.000000,0.000000,0.000000,0.000000,0.000000,0.000000,0.100000,0.100000,-0.475508,-0.429139,-0.050000,-0.050000,0.338997,-0.535308,0.000000,0.000000,-0.673274,0.500979,0.739317,0.675983,0.329097,-0.110402,-0.137978,-0.009792,0.207729,-0.342444
-0.050000,-0.050000,0.000000,0.000000,0.000000,0.000000,0.000000,0.000000,0.000000,0.100000,0.100000,-0.471260,-0.421431,-0.050000,-0.050000,0.337658,-0.534391,0.000000,0.000000,-0.667177,0.509009,0.761993,0.699474,0.317462,-0.109739,-0.135894,-0.008792,0.201113,-0.317720
-0.050000,-0.050000,0.000000,0.000000,0.000000,0.000000,0.000000,0.000000,0.000000,0.100000,0.100000,-0.465947,-0.414620,-0.050000,-0.050000,0.336932,-0.533951,0.000000,0.000000,-0.659909,0.517447,0.784799,0.721443,0.304864,-0.110720,-0.133839,-0.007993,0.195198,-0.293943
-0.050000,-0.050000,0.000000,0.000000,0.000000,0.000000,0.000000,0.000000,0.000000,0.100000,0.100000,-0.460102,-0.408257,-0.050000,-0.050000,0.336513,-0.533750,0.000000,0.000000,-0.652054,0.526090,0.807669,0.742651,0.291784,-0.112522,-0.131798,-0.007295,0.189633,-0.270640
-0.050000,-0.050000,0.000000,0.000000,0.000000,0.000000,0.000000,0.000000,0.000000,0.100000,0.100000,-0.452939,-0.403142,-0.050000,-0.050000,0.336878,-0.534307,0.000000,0.000000,-0.643004,0.534622,0.830221,0.762029,0.277815,-0.115853,-0.129739,-0.006871,0.185073,-0.249945
-0.050000,-0.050000,0.000000,0.000000,0.000000,0.000000,0.000000,0.000000,0.000000,0.100000,0.100000,-0.445455,-0.398385,-0.050000,-0.050000,0.337409,-0.535064,0.000000,0.000000,-0.633811,0.542850,0.852555,0.781112,0.263775,-0.119328,-0.127663,-0.006489,0.180744,-0.230391
-0.050000,-0.050000,0.000000,0.000000,0.000000,0.000000,0.000000,0.000000,0.000000,0.100000,0.100000,-0.437333,-0.394345,-0.050000,-0.050000,0.338272,-0.536221,0.000000,0.000000,-0.624334,0.550470,0.874455,0.799602,0.249595,-0.123092,-0.125552,-0.006189,0.176881,-0.213121
-0.050000,-0.050000,0.000000,0.000000,0.000000,0.000000,0.000000,0.000000,0.000000,0.100000,0.100000,-0.428824,-0.390864,-0.050000,-0.050000,0.339222,-0.537535,0.000000,0.000000,-0.615151,0.556966,0.895795,0.818323,0.235796,-0.126428,-0.123384,-0.005806,0.173155,-0.198358
-0.050000,-0.050000,0.000000,0.000000,0.000000,0.000000,0.000000,0.000000,0.000000,0.100000,0.100000,-0.420123,-0.387663,-0.050000,-0.050000,0.340214,-0.538927,0.000000,0.000000,-0.606115,0.562900,0.916856,0.837159,0.222186,-0.129550,-0.121187,-0.005381,0.169497,-0.184850
-0.050000,-0.050000,0.000000,0.000000,0.000000,0.000000,0.000000,0.000000,0.000000,0.100000,0.100000,-0.411195,-0.385024,-0.050000,-0.050000,0.340950,-0.540030,0.000000,0.000000,-0.598339,0.566509,0.936994,0.857579,0.209951,-0.131104,-0.118844,-0.004550,0.165489,-0.174938
-0.050000,-0.050000,0.000000,0.000000,0.000000,0.000000,0.000000,0.000000,0.000000,0.100000,0.100000,-0.402292,-0.382479,-0.050000,-0.050000,0.341490,-0.540841,0.000000,0.000000,-0.591190,0.569209,0.956812,0.878836,0.198402,-0.131911,-0.116422,-0.003507,0.161203,-0.166025
-0.050000,-0.050000,0.000000,0.000000,0.000000,0.000000,0.000000,0.000000,0.000000,0.100000,0.100000,-0.393435,-0.380125,-0.050000,-0.050000,0.341636,-0.541065,0.000000,0.000000,-0.585298,0.570090,0.975987,0.901767,0.188224,-0.131225,-0.113842,-0.002040,0.156360,-0.159109
-0.050000,-0.050000,0.000000,0.000000,0.000000,0.000000,0.000000,0.000000,0.000000,0.100000,0.100000,-0.384775,-0.377810,-0.050000,-0.050000,0.341236,-0.540340,0.000000,0.000000,-0.580874,0.569099,0.994467,0.926589,0.179693,-0.128825,-0.111050,-0.000080,0.150757,-0.153594
-0.050000,-0.050000,0.000000,0.000000,0.000000,0.000000,0.000000,0.000000,0.000000,0.100000,0.100000,-0.376212,-0.375515,-0.050000,-0.050000,0.340565,-0.539143,0.000000,0.000000,-0.577184,0.567172,1.012600,0.952357,0.171985,-0.125566,-0.108152,0.002125,0.144774,-0.148780
-0.050000,-0.050000,0.000000,0.000000,0.000000,0.000000,0.000000,0.000000,0.000000,0.100000,0.100000,-0.368080,-0.373142,-0.050000,-0.050000,0.339000,-0.536133,0.000000,0.000000,-0.575665,0.562754,1.029494,0.980536,0.166782,-0.119804,-0.104914,0.004998,0.137583,-0.145055
-0.050000,-0.050000,0.000000,0.000000,0.000000,0.000000,0.000000,0.000000,0.000000,0.100000,0.100000,-0.360109,-0.370724,-0.050000,-0.050000,0.337170,-0.532462,0.000000,0.000000,-0.574756,0.557744,1.045856,1.009129,0.162298,-0.113374,-0.101591,0.008011,0.130043,-0.141376
-0.050000,-0.050000,0.000000,0.000000,0.000000,0.000000,0.000000,0.000000,0.000000,0.100000,0.100000,-0.352460,-0.368220,-0.050000,-0.050000,0.334811,-0.527468,0.000000,0.000000,-0.575068,0.551549,1.061153,1.038550,0.159252,-0.105605,-0.098096,0.011306,0.121805,-0.137790
-0.050000,-0.050000,0.000000,0.000000,0.000000,0.000000,0.000000,0.000000,0.000000,0.100000,0.100000,-0.345116,-0.365632,-0.050000,-0.050000,0.332104,-0.521185,0.000000,0.000000,-0.576242,0.544860,1.075042,1.067653,0.157221,-0.097075,-0.094566,0.014626,0.113097,-0.133807
-0.050000,-0.050000,0.000000,0.000000,0.000000,0.000000,0.000000,0.000000,0.000000,0.100000,0.100000,-0.337925,-0.363001,-0.050000,-0.050000,0.329223,-0.514256,0.000000,0.000000,-0.577847,0.537924,1.088228,1.096595,0.155698,-0.088163,-0.091017,0.017959,0.104155,-0.129626
-0.050000,-0.050000,0.000000,0.000000,0.000000,0.000000,0.000000,0.000000,0.000000,0.100000,0.100000,-0.331122,-0.360256,-0.050000,-0.050000,0.326222,-0.505620,0.000000,0.000000,-0.580150,0.531421,1.098717,1.123108,0.154939,-0.079172,-0.087709,0.020882,0.094965,-0.124441
-0.050000,-0.050000,0.000000,0.000000,0.000000,0.000000,0.000000,0.000000,0.000000,0.100000,0.100000,-0.324427,-0.357471,-0.050000,-0.050000,0.323337,-0.496530,0.000000,0.000000,-0.582511,0.525421,1.108133,1.148210,0.154197,-0.070495,-0.084589,0.023525,0.085862,-0.118907
-0.050000,-0.050000,0.000000,0.000000,0.000000,0.000000,0.000000,0.000000,0.000000,0.100000,0.100000,-0.317945,-0.354607,-0.050000,-0.050000,0.320683,-0.486527,0.000000,0.000000,-0.584990,0.520428,1.115406,1.170490,0.153492,-0.062447,-0.081845,0.025609,0.076933,-0.112676
-0.050000,-0.050000,0.000000,0.000000,0.000000,0.000000,0.000000,0.000000,0.000000,0.100000,0.100000,-0.311673,-0.351653,-0.050000,-0.050000,0.318555,-0.475873,0.000000,0.000000,-0.587350,0.516945,1.120340,1.189084,0.152466,-0.055515,-0.079655,0.026924,0.068510,-0.105942
-0.050000,-0.050000,0.000000,0.000000,0.000000,0.000000,0.000000,0.000000,0.000000,0.100000,0.100000,-0.305505,-0.348654,-0.050000,-0.050000,0.316691,-0.464893,0.000000,0.000000,-0.589649,0.514217,1.124104,1.205835,0.151280,-0.049141,-0.077744,0.027854,0.060341,-0.098956
-0.050000,-0.050000,0.000000,0.000000,0.000000,0.000000,0.000000,0.000000,0.000000,0.100000,0.100000,-0.299749,-0.345534,-0.050000,-0.050000,0.315956,-0.453332,0.000000,0.000000,-0.591609,0.514046,1.124414,1.216513,0.149322,-0.044734,-0.076805,0.027514,0.053362,-0.091736
-0.050000,-0.050000,0.000000,0.000000,0.000000,0.000000,0.000000,0.000000,0.000000,0.100000,0.100000,-0.294201,-0.342395,-0.050000,-0.050000,0.315656,-0.441708,0.000000,0.000000,-0.593460,0.514667,1.123720,1.225262,0.147092,-0.040932,-0.076180,0.026793,0.046876,-0.084633
-0.050000,-0.050000,0.000000,0.000000,0.000000,0.000000,0.000000,0.000000,0.000000,0.100000,0.100000,-0.289070,-0.339222,-0.050000,-0.050000,0.316226,-0.429955,0.000000,0.000000,-0.595094,0.516873,1.121018,1.230153,0.144318,-0.038342,-0.076182,0.025309,0.041377,-0.077768
-0.050000,-0.050000,0.000000,0.000000,0.000000,0.000000,0.000000,0.000000,0.000000,0.100000,0.100000,-0.284552,-0.336101,-0.050000,-0.050000,0.317666,-0.418317,0.000000,0.000000,-0.596599,0.520298,1.116824,1.231857,0.141115,-0.036664,-0.076682,0.023298,0.036926,-0.071465
-0.050000,-0.050000,0.000000,0.000000,0.000000,0.000000,0.000000,0.000000,0.000000,0.100000,0.100000,-0.280340,-0.333006,-0.050000,-0.050000,0.319540,-0.406737,0.000000,0.000000,-0.598041,0.524333,1.111885,1.231968,0.137699,-0.035442,-0.077430,0.021024,0.032999,-0.065443
-0.050000,-0.050000,0.000000,0.000000,0.000000,0.000000,0.000000,0.000000,0.000000,0.100000,0.100000,-0.277351,-0.330150,-0.050000,-0.050000,0.322551,-0.395666,0.000000,0.000000,-0.599478,0.529461,1.105678,1.228751,0.133983,-0.035040,-0.078614,0.018446,0.030496,-0.060514
-0.050000,-0.050000,0.000000,0.000000,0.000000,0.000000,0.000000,0.000000,0.000000,0.100000,0.100000,-0.274844,-0.327420,-0.050000,-0.050000,0.325845,-0.384863,0.000000,0.000000,-0.600973,0.534706,1.099379,1.224941,0.130315,-0.034758,-0.079831,0.015934,0.028341,-0.055929
-0.050000,-0.050000,0.000000,0.000000,0.000000,0.000000,0.000000,0.000000,0.000000,0.100000,0.100000,-0.273301,-0.324942,-0.050000,-0.050000,0.329705,-0.374596,0.000000,0.000000,-0.602582,0.540183,1.092895,1.219944,0.126742,-0.034717,-0.081111,0.013551,0.026885,-0.052033
-0.050000,-0.050000,0.000000,0.000000,0.000000,0.000000,0.000000,0.000000,0.000000,0.100000,0.100000,-0.272765,-0.322765,-0.050000,-0.050000,0.333894,-0.365038,0.000000,0.000000,-0.604382,0.545479,1.086793,1.214633,0.123570,-0.034734,-0.082256,0.011553,0.025773,-0.048598
-0.050000,-0.050000,0.000000,0.000000,0.000000,0.000000,0.000000,0.000000,0.000000,0.100000,0.100000,-0.272732,-0.320737,-0.050000,-0.050000,0.338247,-0.355833,0.000000,0.000000,-0.606277,0.550683,1.080881,1.209166,0.120597,-0.034781,-0.083334,0.009747,0.024834,-0.045393
-0.050000,-0.050000,0.000000,0.000000,0.000000,0.000000,0.000000,0.000000,0.000000,0.100000,0.100000,-0.274079,-0.319140,-0.050000,-0.050000,0.342727,-0.347898,0.000000,0.000000,-0.608473,0.555184,1.076135,1.204080,0.118605,-0.034837,-0.084014,0.008710,0.023852,-0.042378
-0.050000,-0.050000,0.000000,0.000000,0.000000,0.000000,0.000000,0.000000,0.000000,0.100000,0.100000,-0.275783,-0.317653,-0.050000,-0.050000,0.347138,-0.340435,0.000000,0.000000,-0.610741,0.559374,1.071873,1.199234,0.117014,-0.034916,-0.084536,0.007928,0.022703,-0.039265
-0.050000,-0.050000,0.000000,0.000000,0.000000,0.000000,0.000000,0.000000,0.000000,0.100000,0.100000,-0.278199,-0.316387,-0.050000,-0.050000,0.351413,-0.333914,0.000000,0.000000,-0.613151,0.562942,1.068580,1.194871,0.116224,-0.035040,-0.084741,0.007654,0.021222,-0.035953
-0.050000,-0.050000,0.000000,0.000000,0.000000,0.000000,0.000000,0.000000,0.000000,0.100000,0.100000,-0.281041,-0.315245,-0.050000,-0.050000,0.355379,-0.328379,0.000000,0.000000,-0.615590,0.565849,1.066262,1.190949,0.116246,-0.035284,-0.084654,0.007785,0.019250,-0.032237
-0.050000,-0.050000,0.000000,0.000000,0.000000,0.000000,0.000000,0.000000,0.000000,0.100000,0.100000,-0.284096,-0.314165,-0.050000,-0.050000,0.359191,-0.323336,0.000000,0.000000,-0.618044,0.568426,1.064430,1.187247,0.116675,-0.035587,-0.084421,0.008119,0.017032,-0.028320
-0.050000,-0.050000,0.000000,0.000000,0.000000,0.000000,0.000000,0.000000,0.000000,0.100000,0.100000,-0.287338,-0.313129,-0.050000,-0.050000,0.362371,-0.319733,0.000000,0.000000,-0.620342,0.570083,1.063849,1.183947,0.118138,-0.036148,-0.083861,0.008833,0.014092,-0.023755
-0.050000,-0.050000,0.000000,0.000000,0.000000,0.000000,0.000000,0.000000,0.000000,0.100000,0.100000,-0.290512,-0.312075,-0.050000,-0.050000,0.365318,-0.316562,0.000000,0.000000,-0.622531,0.571485,1.063574,1.180694,0.119836,-0.036799,-0.083239,0.009600,0.010987,-0.019047
-0.050000,-0.050000,0.000000,0.000000,0.000000,0.000000,0.000000,0.000000,0.000000,0.100000,0.100000,-0.293553,-0.310987,-0.050000,-0.050000,0.367798,-0.314254,0.000000,0.000000,-0.624501,0.572376,1.063910,1.177536,0.122005,-0.037628,-0.082496,0.010470,0.007553,-0.014054
-0.050000,-0.050000,0.000000,0.000000,0.000000,0.000000,0.000000,0.000000,0.000000,0.100000,0.100000,-0.296283,-0.309848,-0.050000,-0.050000,0.369824,-0.312657,0.000000,0.000000,-0.626181,0.572886,1.064613,1.174389,0.124385,-0.038587,-0.081724,0.011331,0.004024,-0.009030
-0.050000,-0.050000,0.000000,0.000000,0.000000,0.000000,0.000000,0.000000,0.000000,0.100000,0.100000,-0.298859,-0.308682,-0.050000,-0.050000,0.371622,-0.311416,0.000000,0.000000,-0.627717,0.573205,1.065499,1.171249,0.126871,-0.039612,-0.080937,0.012186,0.000448,-0.003990
