RRGGZZ/g1_deploy_sonic/data/example_scalelab/qwen_50fps/case_test_add/joint_pos.csv
joint_0,joint_1,joint_2,joint_3,joint_4,joint_5,joint_6,joint_7,joint_8,joint_9,joint_10,joint_11,joint_12,joint_13,joint_14,joint_15,joint_16,joint_17,joint_18,joint_19,joint_20,joint_21,joint_22,joint_23,joint_24,joint_25,joint_26,joint_27,joint_28
-0.050000,-0.050000,0.000000,0.000000,0.000000,0.000000,0.000000,0.000000,0.000000,0.100000,0.100000,-0.180366,-0.515247,-0.050000,-0.050000,0.405623,-0.754986,0.000000,0.000000,-0.511558,0.217810,1.084953,-0.102481,0.155754,-0.390394,-0.082966,-0.061741,0.016266,-0.581200
-0.050000,-0.050000,0.000000,0.000000,0.000000,0.000000,0.000000,0.000000,0.000000,0.100000,0.100000,-0.192172,-0.524646,-0.050000,-0.050000,0.390625,-0.760501,0.000000,0.000000,-0.511610,0.215587,1.115840,-0.088866,0.159159,-0.386988,-0.096619,-0.061945,0.019925,-0.588597
-0.050000,-0.050000,0.000000,0.000000,0.000000,0.000000,0.000000,0.000000,0.000000,0.100000,0.100000,-0.194999,-0.527382,-0.050000,-0.050000,0.382233,-0.762561,0.000000,0.000000,-0.509622,0.209796,1.134746,-0.080586,0.163367,-0.383544,-0.102544,-0.060387,0.020286,-0.591721
-0.050000,-0.050000,0.000000,0.000000,0.000000,0.000000,0.000000,0.000000,0.000000,0.100000,0.100000,-0.193115,-0.526240,-0.050000,-0.050000,0.377107,-0.762976,0.000000,0.000000,-0.506978,0.202137,1.148051,-0.074803,0.167827,-0.380468,-0.104587,-0.057376,0.019027,-0.593097
-0.050000,-0.050000,0.000000,0.000000,0.000000,0.000000,0.000000,0.000000,0.000000,0.100000,0.100000,-0.188886,-0.522928,-0.050000,-0.050000,0.373564,-0.762554,0.000000,0.000000,-0.504224,0.193440,1.158648,-0.070331,0.172369,-0.377661,-0.104744,-0.053530,0.016991,-0.593716
-0.050000,-0.050000,0.000000,0.000000,0.000000,0.000000,0.000000,0.000000,0.000000,0.100000,0.100000,-0.183150,-0.518240,-0.050000,-0.050000,0.370906,-0.762319,0.000000,0.000000,-0.501263,0.184127,1.168092,-0.065931,0.176911,-0.375169,-0.103760,-0.049036,0.014544,-0.594169
-0.050000,-0.050000,0.000000,0.000000,0.000000,0.000000,0.000000,0.000000,0.000000,0.100000,0.100000,-0.176823,-0.512924,-0.050000,-0.050000,0.368616,-0.762218,0.000000,0.000000,-0.498351,0.174657,1.176740,-0.061703,0.181388,-0.372826,-0.102290,-0.044416,0.011970,-0.594698
-0.050000,-0.050000,0.000000,0.000000,0.000000,0.000000,0.000000,0.000000,0.000000,0.100000,0.100000,-0.170124,-0.507244,-0.050000,-0.050000,0.366579,-0.762650,0.000000,0.000000,-0.495376,0.165238,1.184884,-0.057287,0.185709,-0.370693,-0.100508,-0.039784,0.009404,-0.595543
-0.050000,-0.050000,0.000000,0.000000,0.000000,0.000000,0.000000,0.000000,0.000000,0.100000,0.100000,-0.163379,-0.501451,-0.050000,-0.050000,0.364698,-0.763754,0.000000,0.000000,-0.492409,0.156143,1.192368,-0.052736,0.189743,-0.368777,-0.098641,-0.035422,0.007026,-0.597005
-0.050000,-0.050000,0.000000,0.000000,0.000000,0.000000,0.000000,0.000000,0.000000,0.100000,0.100000,-0.156609,-0.495682,-0.050000,-0.050000,0.362855,-0.765273,0.000000,0.000000,-0.489455,0.147290,1.199427,-0.047983,0.193575,-0.366948,-0.096698,-0.031298,0.004752,-0.598931
-0.050000,-0.050000,0.000000,0.000000,0.000000,0.000000,0.000000,0.000000,0.000000,0.100000,0.100000,-0.150235,-0.489966,-0.050000,-0.050000,0.361168,-0.767696,0.000000,0.000000,-0.486608,0.139094,1.205345,-0.043225,0.196856,-0.365380,-0.094982,-0.027798,0.002988,-0.602003
-0.050000,-0.050000,0.000000,0.000000,0.000000,0.000000,0.000000,0.000000,0.000000,0.100000,0.100000,-0.144064,-0.484389,-0.050000,-0.050000,0.359484,-0.770460,0.000000,0.000000,-0.483890,0.131248,1.210580,-0.038274,0.199798,-0.363804,-0.093337,-0.024706,0.001466,-0.605809
-0.050000,-0.050000,0.000000,0.000000,0.000000,0.000000,0.000000,0.000000,0.000000,0.100000,0.100000,-0.138343,-0.478909,-0.050000,-0.050000,0.357870,-0.773673,0.000000,0.000000,-0.481376,0.123896,1.214789,-0.033266,0.202268,-0.362243,-0.091938,-0.022142,0.000386,-0.610580
-0.050000,-0.050000,0.000000,0.000000,0.000000,0.000000,0.000000,0.000000,0.000000,0.100000,0.100000,-0.133219,-0.473488,-0.050000,-0.050000,0.356300,-0.777079,0.000000,0.000000,-0.479202,0.116997,1.217834,-0.028081,0.204231,-0.360488,-0.090848,-0.020047,-0.000201,-0.616325
-0.050000,-0.050000,0.000000,0.000000,0.000000,0.000000,0.000000,0.000000,0.000000,0.100000,0.100000,-0.128400,-0.468161,-0.050000,-0.050000,0.354791,-0.780607,0.000000,0.000000,-0.477247,0.110358,1.220184,-0.022674,0.205846,-0.358572,-0.089879,-0.018280,-0.000512,-0.622714
-0.050000,-0.050000,0.000000,0.000000,0.000000,0.000000,0.000000,0.000000,0.000000,0.100000,0.100000,-0.124666,-0.462719,-0.050000,-0.050000,0.353322,-0.783882,0.000000,0.000000,-0.475948,0.104238,1.220936,-0.016764,0.206846,-0.355989,-0.089425,-0.016839,-0.000119,-0.630041
-0.050000,-0.050000,0.000000,0.000000,0.000000,0.000000,0.000000,0.000000,0.000000,0.100000,0.100000,-0.121366,-0.457316,-0.050000,-0.050000,0.351965,-0.786975,0.000000,0.000000,-0.475027,0.098313,1.221008,-0.010258,0.207481,-0.352895,-0.089062,-0.015556,0.000551,-0.637781
-0.050000,-0.050000,0.000000,0.000000,0.000000,0.000000,0.000000,0.000000,0.000000,0.100000,0.100000,-0.118911,-0.451815,-0.050000,-0.050000,0.350678,-0.789621,0.000000,0.000000,-0.474686,0.092721,1.220049,-0.002909,0.207691,-0.348977,-0.088967,-0.014359,0.001660,-0.645867
-0.050000,-0.050000,0.000000,0.000000,0.000000,0.000000,0.000000,0.000000,0.000000,0.100000,0.100000,-0.117383,-0.446171,-0.050000,-0.050000,0.349500,-0.791650,0.000000,0.000000,-0.474997,0.087509,1.218181,0.005737,0.207481,-0.343935,-0.089049,-0.013113,0.003156,-0.653902
-0.050000,-0.050000,0.000000,0.000000,0.000000,0.000000,0.000000,0.000000,0.000000,0.100000,0.100000,-0.116362,-0.440589,-0.050000,-0.050000,0.348464,-0.793358,0.000000,0.000000,-0.475726,0.082501,1.215807,0.015281,0.206970,-0.338140,-0.089176,-0.011938,0.004855,-0.661910
-0.050000,-0.050000,0.000000,0.000000,0.000000,0.000000,0.000000,0.000000,0.000000,0.100000,0.100000,-0.116799,-0.434641,-0.050000,-0.050000,0.347523,-0.794038,0.000000,0.000000,-0.477344,0.078270,1.212400,0.027147,0.205976,-0.330468,-0.089474,-0.010519,0.006960,-0.668928
-0.050000,-0.050000,0.000000,0.000000,0.000000,0.000000,0.000000,0.000000,0.000000,0.100000,0.100000,-0.117811,-0.428854,-0.050000,-0.050000,0.346781,-0.794397,0.000000,0.000000,-0.479413,0.074456,1.208638,0.040406,0.204636,-0.321716,-0.089705,-0.009223,0.009166,-0.675258
-0.050000,-0.050000,0.000000,0.000000,0.000000,0.000000,0.000000,0.000000,0.000000,0.100000,0.100000,-0.119862,-0.422961,-0.050000,-0.050000,0.346156,-0.794120,0.000000,0.000000,-0.482080,0.071449,1.204278,0.055701,0.202894,-0.311414,-0.089945,-0.007933,0.011530,-0.680251
-0.050000,-0.050000,0.000000,0.000000,0.000000,0.000000,0.000000,0.000000,0.000000,0.100000,0.100000,-0.122949,-0.417014,-0.050000,-0.050000,0.345677,-0.793334,0.000000,0.000000,-0.485309,0.069570,1.199374,0.073159,0.200671,-0.299483,-0.090145,-0.006822,0.013960,-0.683275
-0.050000,-0.050000,0.000000,0.000000,0.000000,0.000000,0.000000,0.000000,0.000000,0.100000,0.100000,-0.126582,-0.411331,-0.050000,-0.050000,0.345308,-0.792320,0.000000,0.000000,-0.488856,0.068374,1.194163,0.092091,0.198098,-0.286479,-0.090274,-0.005994,0.016384,-0.685040
-0.050000,-0.050000,0.000000,0.000000,0.000000,0.000000,0.000000,0.000000,0.000000,0.100000,0.100000,-0.131664,-0.405294,-0.050000,-0.050000,0.345021,-0.790722,0.000000,0.000000,-0.493011,0.069394,1.188123,0.113666,0.194836,-0.271559,-0.090450,-0.005601,0.018798,-0.683115
-0.050000,-0.050000,0.000000,0.000000,0.000000,0.000000,0.000000,0.000000,0.000000,0.100000,0.100000,-0.137185,-0.399651,-0.050000,-0.050000,0.344799,-0.789041,0.000000,0.000000,-0.497377,0.071569,1.181708,0.136663,0.191098,-0.255733,-0.090583,-0.005781,0.021105,-0.679128
-0.050000,-0.050000,0.000000,0.000000,0.000000,0.000000,0.000000,0.000000,0.000000,0.100000,0.100000,-0.143574,-0.393957,-0.050000,-0.050000,0.344575,-0.787055,0.000000,0.000000,-0.502023,0.075765,1.174610,0.161391,0.186772,-0.238873,-0.090803,-0.006574,0.023317,-0.671901
-0.050000,-0.050000,0.000000,0.000000,0.000000,0.000000,0.000000,0.000000,0.000000,0.100000,0.100000,-0.150681,-0.388241,-0.050000,-0.050000,0.344300,-0.784784,0.000000,0.000000,-0.506878,0.082338,1.166753,0.187629,0.181812,-0.221421,-0.091190,-0.008139,0.025388,-0.661001
-0.050000,-0.050000,0.000000,0.000000,0.000000,0.000000,0.000000,0.000000,0.000000,0.100000,0.100000,-0.158046,-0.382813,-0.050000,-0.050000,0.343972,-0.782291,0.000000,0.000000,-0.511736,0.090332,1.158433,0.214933,0.176422,-0.203663,-0.091644,-0.010190,0.027335,-0.647752
-0.050000,-0.050000,0.000000,0.000000,0.000000,0.000000,0.000000,0.000000,0.000000,0.100000,0.100000,-0.166290,-0.376879,-0.050000,-0.050000,0.343436,-0.779107,0.000000,0.000000,-0.516807,0.102070,1.148997,0.243748,0.170331,-0.186179,-0.092543,-0.013095,0.029094,-0.629316
-0.050000,-0.050000,0.000000,0.000000,0.000000,0.000000,0.000000,0.000000,0.000000,0.100000,0.100000,-0.174476,-0.371256,-0.050000,-0.050000,0.342773,-0.775398,0.000000,0.000000,-0.521737,0.115464,1.139126,0.273611,0.163884,-0.169148,-0.093589,-0.016351,0.030675,-0.608359
-0.050000,-0.050000,0.000000,0.000000,0.000000,0.000000,0.000000,0.000000,0.000000,0.100000,0.100000,-0.182936,-0.365424,-0.050000,-0.050000,0.341882,-0.770751,0.000000,0.000000,-0.526628,0.131601,1.128565,0.304681,0.157082,-0.153057,-0.094979,-0.019933,0.032056,-0.583817
-0.050000,-0.050000,0.000000,0.000000,0.000000,0.000000,0.000000,0.000000,0.000000,0.100000,0.100000,-0.191359,-0.359461,-0.050000,-0.050000,0.340714,-0.764785,0.000000,0.000000,-0.531409,0.150306,1.117602,0.337340,0.150108,-0.138385,-0.096651,-0.023529,0.033127,-0.556029
-0.050000,-0.050000,0.000000,0.000000,0.000000,0.000000,0.000000,0.000000,0.000000,0.100000,0.100000,-0.199594,-0.353640,-0.050000,-0.050000,0.339401,-0.757722,0.000000,0.000000,-0.535951,0.170549,1.106424,0.371070,0.143052,-0.124781,-0.098502,-0.027044,0.034005,-0.526288
-0.050000,-0.050000,0.000000,0.000000,0.000000,0.000000,0.000000,0.000000,0.000000,0.100000,0.100000,-0.207577,-0.347395,-0.050000,-0.050000,0.337631,-0.748226,0.000000,0.000000,-0.540424,0.193719,1.095395,0.407659,0.136222,-0.113524,-0.100523,-0.029869,0.034248,-0.493238
-0.050000,-0.050000,0.000000,0.000000,0.000000,0.000000,0.000000,0.000000,0.000000,0.100000,0.100000,-0.215067,-0.341450,-0.050000,-0.050000,0.335720,-0.737012,0.000000,0.000000,-0.544588,0.217921,1.084772,0.446102,0.129628,-0.103662,-0.102539,-0.032185,0.034118,-0.459044
-0.050000,-0.050000,0.000000,0.000000,0.000000,0.000000,0.000000,0.000000,0.000000,0.100000,0.100000,-0.222061,-0.335425,-0.050000,-0.050000,0.333506,-0.723374,0.000000,0.000000,-0.548545,0.243507,1.074905,0.487323,0.123502,-0.095699,-0.104439,-0.033549,0.033352,-0.423396
-0.050000,-0.050000,0.000000,0.000000,0.000000,0.000000,0.000000,0.000000,0.000000,0.100000,0.100000,-0.228303,-0.329522,-0.050000,-0.050000,0.331023,-0.707105,0.000000,0.000000,-0.552236,0.269665,1.066435,0.531856,0.118059,-0.089471,-0.105933,-0.033630,0.031778,-0.387104
-0.050000,-0.050000,0.000000,0.000000,0.000000,0.000000,0.000000,0.000000,0.000000,0.100000,0.100000,-0.234151,-0.323708,-0.050000,-0.050000,0.328410,-0.688798,0.000000,0.000000,-0.555680,0.296086,1.058861,0.578425,0.113076,-0.084697,-0.107262,-0.033025,0.029752,-0.350517
-0.050000,-0.050000,0.000000,0.000000,0.000000,0.000000,0.000000,0.000000,0.000000,0.100000,0.100000,-0.238763,-0.317987,-0.050000,-0.050000,0.325474,-0.667372,0.000000,0.000000,-0.558793,0.321756,1.054046,0.629498,0.109237,-0.081547,-0.107520,-0.030295,0.026433,-0.314311
-0.050000,-0.050000,0.000000,0.000000,0.000000,0.000000,0.000000,0.000000,0.000000,0.100000,0.100000,-0.242960,-0.312400,-0.050000,-0.050000,0.322463,-0.644097,0.000000,0.000000,-0.561635,0.346651,1.050672,0.682371,0.106014,-0.079604,-0.107406,-0.026835,0.022626,-0.278696
-0.050000,-0.050000,0.000000,0.000000,0.000000,0.000000,0.000000,0.000000,0.000000,0.100000,0.100000,-0.246289,-0.306820,-0.050000,-0.050000,0.319324,-0.618850,0.000000,0.000000,-0.564126,0.369925,1.049592,0.737678,0.103660,-0.078767,-0.106429,-0.022011,0.017979,-0.244123
-0.050000,-0.050000,0.000000,0.000000,0.000000,0.000000,0.000000,0.000000,0.000000,0.100000,0.100000,-0.248794,-0.301344,-0.050000,-0.050000,0.316171,-0.592376,0.000000,0.000000,-0.566182,0.390924,1.050802,0.794108,0.102127,-0.078668,-0.104612,-0.016184,0.012689,-0.211244
-0.050000,-0.050000,0.000000,0.000000,0.000000,0.000000,0.000000,0.000000,0.000000,0.100000,0.100000,-0.250997,-0.295592,-0.050000,-0.050000,0.312941,-0.564966,0.000000,0.000000,-0.568019,0.410308,1.053377,0.850962,0.101122,-0.079481,-0.102394,-0.009764,0.007069,-0.179367
-0.050000,-0.050000,0.000000,0.000000,0.000000,0.000000,0.000000,0.000000,0.000000,0.100000,0.100000,-0.251977,-0.290247,-0.050000,-0.050000,0.309960,-0.537951,0.000000,0.000000,-0.569108,0.425901,1.058567,0.906339,0.100909,-0.080106,-0.099143,-0.002819,0.001032,-0.150764
-0.050000,-0.050000,0.000000,0.000000,0.000000,0.000000,0.000000,0.000000,0.000000,0.100000,0.100000,-0.252848,-0.284571,-0.050000,-0.050000,0.306964,-0.511332,0.000000,0.000000,-0.569929,0.439571,1.064616,0.959709,0.101028,-0.081047,-0.095755,0.004158,-0.004928,-0.123829
-0.050000,-0.050000,0.000000,0.000000,0.000000,0.000000,0.000000,0.000000,0.000000,0.100000,0.100000,-0.253089,-0.279054,-0.050000,-0.050000,0.304210,-0.486136,0.000000,0.000000,-0.570199,0.450348,1.071850,1.009541,0.101448,-0.081546,-0.092016,0.010836,-0.010712,-0.099755
-0.050000,-0.050000,0.000000,0.000000,0.000000,0.000000,0.000000,0.000000,0.000000,0.100000,0.100000,-0.252947,-0.273792,-0.050000,-0.050000,0.301745,-0.463194,0.000000,0.000000,-0.569925,0.458522,1.079532,1.053957,0.101911,-0.081167,-0.088316,0.016573,-0.015911,-0.079007
-0.050000,-0.050000,0.000000,0.000000,0.000000,0.000000,0.000000,0.000000,0.000000,0.100000,0.100000,-0.252676,-0.268245,-0.050000,-0.050000,0.299319,-0.441798,0.000000,0.000000,-0.569390,0.465107,1.087417,1.094714,0.102396,-0.080332,-0.084661,0.022060,-0.020739,-0.060164
-0.050000,-0.050000,0.000000,0.000000,0.000000,0.000000,0.000000,0.000000,0.000000,0.100000,0.100000,-0.251946,-0.263934,-0.050000,-0.050000,0.297510,-0.424507,0.000000,0.000000,-0.568155,0.468978,1.094828,1.126196,0.102453,-0.077330,-0.081532,0.025171,-0.024242,-0.046505
-0.050000,-0.050000,0.000000,0.000000,0.000000,0.000000,0.000000,0.000000,0.000000,0.100000,0.100000,-0.251297,-0.259419,-0.050000,-0.050000,0.295698,-0.409426,0.000000,0.000000,-0.566762,0.471969,1.101717,1.152746,0.102254,-0.073353,-0.078731,0.027808,-0.027090,-0.035010
-0.050000,-0.050000,0.000000,0.000000,0.000000,0.000000,0.000000,0.000000,0.000000,0.100000,0.100000,-0.250530,-0.255813,-0.050000,-0.050000,0.294192,-0.397587,0.000000,0.000000,-0.565082,0.473719,1.107720,1.172074,0.101548,-0.067677,-0.076508,0.028813,-0.028836,-0.027153
-0.050000,-0.050000,0.000000,0.000000,0.000000,0.000000,0.000000,0.000000,0.000000,0.100000,0.100000,-0.249844,-0.253234,-0.050000,-0.050000,0.292875,-0.388914,0.000000,0.000000,-0.563327,0.474882,1.112595,1.184502,0.100286,-0.060455,-0.074914,0.028413,-0.029520,-0.022664
-0.050000,-0.050000,0.000000,0.000000,0.000000,0.000000,0.000000,0.000000,0.000000,0.100000,0.100000,-0.249247,-0.250969,-0.050000,-0.050000,0.291567,-0.382272,0.000000,0.000000,-0.561519,0.475766,1.116777,1.192623,0.098671,-0.052230,-0.073646,0.027499,-0.029593,-0.020075
-0.050000,-0.050000,0.000000,0.000000,0.000000,0.000000,0.000000,0.000000,0.000000,0.100000,0.100000,-0.248842,-0.251157,-0.050000,-0.050000,0.290504,-0.379310,0.000000,0.000000,-0.559971,0.476689,1.119513,1.193053,0.096413,-0.042601,-0.073149,0.024722,-0.028521,-0.021396
-0.050000,-0.050000,0.000000,0.000000,0.000000,0.000000,0.000000,0.000000,0.000000,0.100000,0.100000,-0.248683,-0.251938,-0.050000,-0.050000,0.289336,-0.378051,0.000000,0.000000,-0.558526,0.477869,1.121709,1.190238,0.093915,-0.032465,-0.072816,0.021907,-0.027129,-0.023965
-0.050000,-0.050000,0.000000,0.000000,0.000000,0.000000,0.000000,0.000000,0.000000,0.100000,0.100000,-0.248762,-0.254587,-0.050000,-0.050000,0.288186,-0.379040,0.000000,0.000000,-0.557418,0.479508,1.123202,1.183134,0.091161,-0.021953,-0.072794,0.018424,-0.025317,-0.028439
-0.050000,-0.050000,0.000000,0.000000,0.000000,0.000000,0.000000,0.000000,0.000000,0.100000,0.100000,-0.249129,-0.259083,-0.050000,-0.050000,0.287003,-0.381948,0.000000,0.000000,-0.556655,0.481807,1.124361,1.172673,0.088357,-0.011564,-0.072860,0.014763,-0.023454,-0.034051
-0.050000,-0.050000,0.000000,0.000000,0.000000,0.000000,0.000000,0.000000,0.000000,0.100000,0.100000,-0.249747,-0.264617,-0.050000,-0.050000,0.285739,-0.386007,0.000000,0.000000,-0.556019,0.484471,1.125359,1.160194,0.085529,-0.001266,-0.072956,0.011153,-0.021594,-0.040220
-0.050000,-0.050000,0.000000,0.000000,0.000000,0.000000,0.000000,0.000000,0.000000,0.100000,0.100000,-0.250570,-0.272918,-0.050000,-0.050000,0.284550,-0.392121,0.000000,0.000000,-0.555817,0.488089,1.126522,1.144260,0.082984,0.008135,-0.072928,0.007433,-0.020197,-0.046929
-0.050000,-0.050000,0.000000,0.000000,0.000000,0.000000,0.000000,0.000000,0.000000,0.100000,0.100000,-0.251610,-0.282148,-0.050000,-0.050000,0.283326,-0.399098,0.000000,0.000000,-0.555513,0.491964,1.127892,1.126722,0.080598,0.017130,-0.072796,0.004002,-0.019130,-0.053498
-0.050000,-0.050000,0.000000,0.000000,0.000000,0.000000,0.000000,0.000000,0.000000,0.100000,0.100000,-0.252706,-0.293067,-0.050000,-0.050000,0.282201,-0.407290,0.000000,0.000000,-0.555218,0.496306,1.129680,1.106860,0.078540,0.025336,-0.072486,0.000646,-0.018645,-0.059847
-0.050000,-0.050000,0.000000,0.000000,0.000000,0.000000,0.000000,0.000000,0.000000,0.100000,0.100000,-0.253730,-0.305274,-0.050000,-0.050000,0.281245,-0.416513,0.000000,0.000000,-0.554578,0.500808,1.131972,1.084561,0.076804,0.032868,-0.072012,-0.002672,-0.018822,-0.065674
-0.050000,-0.050000,0.000000,0.000000,0.000000,0.000000,0.000000,0.000000,0.000000,0.100000,0.100000,-0.254760,-0.318171,-0.050000,-0.050000,0.280383,-0.426351,0.000000,0.000000,-0.553677,0.505369,1.134561,1.060683,0.075279,0.039961,-0.071463,-0.005844,-0.019424,-0.071096
-0.050000,-0.050000,0.000000,0.000000,0.000000,0.000000,0.000000,0.000000,0.000000,0.100000,0.100000,-0.255262,-0.332303,-0.050000,-0.050000,0.279908,-0.437273,0.000000,0.000000,-0.551877,0.509695,1.137781,1.033285,0.074059,0.046427,-0.070791,-0.009406,-0.020881,-0.075668
-0.050000,-0.050000,0.000000,0.000000,0.000000,0.000000,0.000000,0.000000,0.000000,0.100000,0.100000,-0.255577,-0.346596,-0.050000,-0.050000,0.279610,-0.448612,0.000000,0.000000,-0.549495,0.513752,1.141159,1.004113,0.072941,0.052655,-0.070165,-0.012916,-0.022712,-0.079708
-0.050000,-0.050000,0.000000,0.000000,0.000000,0.000000,0.000000,0.000000,0.000000,0.100000,0.100000,-0.255355,-0.361270,-0.050000,-0.050000,0.279605,-0.460469,0.000000,0.000000,-0.546210,0.517336,1.144789,0.972392,0.071883,0.058603,-0.069584,-0.016756,-0.025033,-0.083074
-0.050000,-0.050000,0.000000,0.000000,0.000000,0.000000,0.000000,0.000000,0.000000,0.100000,0.100000,-0.254550,-0.375924,-0.050000,-0.050000,0.279853,-0.472577,0.000000,0.000000,-0.541924,0.520311,1.148468,0.938504,0.070737,0.064384,-0.069149,-0.020872,-0.027694,-0.085764
-0.050000,-0.050000,0.000000,0.000000,0.000000,0.000000,0.000000,0.000000,0.000000,0.100000,0.100000,-0.253372,-0.390476,-0.050000,-0.050000,0.280285,-0.484792,0.000000,0.000000,-0.537063,0.522862,1.152127,0.903241,0.069549,0.069963,-0.068817,-0.025082,-0.030570,-0.087983
-0.050000,-0.050000,0.000000,0.000000,0.000000,0.000000,0.000000,0.000000,0.000000,0.100000,0.100000,-0.251366,-0.404679,-0.050000,-0.050000,0.280875,-0.496809,0.000000,0.000000,-0.530913,0.524520,1.155651,0.866325,0.067990,0.075401,-0.068737,-0.029637,-0.033618,-0.089407
-0.050000,-0.050000,0.000000,0.000000,0.000000,0.000000,0.000000,0.000000,0.000000,0.100000,0.100000,-0.249025,-0.418503,-0.050000,-0.050000,0.281564,-0.508527,0.000000,0.000000,-0.524359,0.525729,1.159017,0.829013,0.066285,0.080597,-0.068779,-0.034120,-0.036710,-0.090405
-0.050000,-0.050000,0.000000,0.000000,0.000000,0.000000,0.000000,0.000000,0.000000,0.100000,0.100000,-0.246214,-0.431846,-0.050000,-0.050000,0.282249,-0.519669,0.000000,0.000000,-0.517153,0.526285,1.162195,0.791627,0.064257,0.085571,-0.068977,-0.038584,-0.039777,-0.090887
-0.050000,-0.050000,0.000000,0.000000,0.000000,0.000000,0.000000,0.000000,0.000000,0.100000,0.100000,-0.243145,-0.444551,-0.050000,-0.050000,0.282851,-0.529954,0.000000,0.000000,-0.509625,0.526230,1.165195,0.755171,0.061954,0.090305,-0.069260,-0.042760,-0.042723,-0.091009
-0.050000,-0.050000,0.000000,0.000000,0.000000,0.000000,0.000000,0.000000,0.000000,0.100000,0.100000,-0.239901,-0.456912,-0.050000,-0.050000,0.283435,-0.539569,0.000000,0.000000,-0.501970,0.525748,1.168089,0.719396,0.059484,0.094779,-0.069587,-0.046835,-0.045583,-0.090897
-0.050000,-0.050000,0.000000,0.000000,0.000000,0.000000,0.000000,0.000000,0.000000,0.100000,0.100000,-0.236741,-0.468200,-0.050000,-0.050000,0.283749,-0.547715,0.000000,0.000000,-0.494349,0.524431,1.170846,0.686397,0.056779,0.099140,-0.069864,-0.050144,-0.048153,-0.090817
-0.050000,-0.050000,0.000000,0.000000,0.000000,0.000000,0.000000,0.000000,0.000000,0.100000,0.100000,-0.233669,-0.479079,-0.050000,-0.050000,0.284042,-0.554927,0.000000,0.000000,-0.486998,0.522629,1.173578,0.655015,0.054040,0.103318,-0.070070,-0.053258,-0.050549,-0.090918
-0.050000,-0.050000,0.000000,0.000000,0.000000,0.000000,0.000000,0.000000,0.000000,0.100000,0.100000,-0.230901,-0.489095,-0.050000,-0.050000,0.284196,-0.560874,0.000000,0.000000,-0.480028,0.520085,1.176260,0.626311,0.051294,0.107471,-0.070135,-0.055792,-0.052678,-0.091496
-0.050000,-0.050000,0.000000,0.000000,0.000000,0.000000,0.000000,0.000000,0.000000,0.100000,0.100000,-0.228564,-0.498210,-0.050000,-0.050000,0.284323,-0.565567,0.000000,0.000000,-0.473659,0.516680,1.178879,0.600475,0.048685,0.111669,-0.070012,-0.057810,-0.054499,-0.092972
-0.050000,-0.050000,0.000000,0.000000,0.000000,0.000000,0.000000,0.000000,0.000000,0.100000,0.100000,-0.226484,-0.506814,-0.050000,-0.050000,0.284483,-0.569369,0.000000,0.000000,-0.467735,0.512714,1.181467,0.576457,0.046151,0.115807,-0.069758,-0.059670,-0.056121,-0.095046
-0.050000,-0.050000,0.000000,0.000000,0.000000,0.000000,0.000000,0.000000,0.000000,0.100000,0.100000,-0.225115,-0.513965,-0.050000,-0.050000,0.284777,-0.571834,0.000000,0.000000,-0.462706,0.507431,1.183768,0.556250,0.043978,0.120151,-0.069268,-0.060798,-0.057280,-0.098965
-0.050000,-0.050000,0.000000,0.000000,0.000000,0.000000,0.000000,0.000000,0.000000,0.100000,0.100000,-0.223985,-0.520562,-0.050000,-0.050000,0.285291,-0.573585,0.000000,0.000000,-0.458235,0.501525,1.185865,0.537717,0.041942,0.124355,-0.068663,-0.061967,-0.058200,-0.103853
-0.050000,-0.050000,0.000000,0.000000,0.000000,0.000000,0.000000,0.000000,0.000000,0.100000,0.100000,-0.223272,-0.526105,-0.050000,-0.050000,0.286105,-0.574581,0.000000,0.000000,-0.454431,0.494659,1.187530,0.521650,0.040164,0.128498,-0.067954,-0.062873,-0.058758,-0.110285
-0.050000,-0.050000,0.000000,0.000000,0.000000,0.000000,0.000000,0.000000,0.000000,0.100000,0.100000,-0.222820,-0.530694,-0.050000,-0.050000,0.287344,-0.575104,0.000000,0.000000,-0.451226,0.486985,1.188561,0.507663,0.038565,0.132297,-0.067236,-0.063718,-0.058947,-0.118208
-0.050000,-0.050000,0.000000,0.000000,0.000000,0.000000,0.000000,0.000000,0.000000,0.100000,0.100000,-0.222452,-0.534673,-0.050000,-0.050000,0.288887,-0.575261,0.000000,0.000000,-0.448449,0.478799,1.189143,0.494933,0.037054,0.135806,-0.066478,-0.064641,-0.058918,-0.127059
-0.050000,-0.050000,0.000000,0.000000,0.000000,0.000000,0.000000,0.000000,0.000000,0.100000,0.100000,-0.222240,-0.537431,-0.050000,-0.050000,0.291069,-0.575435,0.000000,0.000000,-0.446160,0.469875,1.188548,0.484439,0.035622,0.138425,-0.065940,-0.065483,-0.058401,-0.137580
-0.050000,-0.050000,0.000000,0.000000,0.000000,0.000000,0.000000,0.000000,0.000000,0.100000,0.100000,-0.221880,-0.539646,-0.050000,-0.050000,0.293589,-0.575555,0.000000,0.000000,-0.444172,0.460688,1.187283,0.474788,0.034143,0.140409,-0.065452,-0.066531,-0.057703,-0.148740
-0.050000,-0.050000,0.000000,0.000000,0.000000,0.000000,0.000000,0.000000,0.000000,0.100000,0.100000,-0.221423,-0.541039,-0.050000,-0.050000,0.296567,-0.575947,0.000000,0.000000,-0.442408,0.451213,1.185019,0.466342,0.032581,0.141422,-0.065190,-0.067647,-0.056713,-0.160727
-0.050000,-0.050000,0.000000,0.000000,0.000000,0.000000,0.000000,0.000000,0.000000,0.100000,0.100000,-0.220757,-0.541673,-0.050000,-0.050000,0.299904,-0.576760,0.000000,0.000000,-0.440790,0.441607,1.181791,0.458734,0.030883,0.141360,-0.065161,-0.068914,-0.055524,-0.173200
-0.050000,-0.050000,0.000000,0.000000,0.000000,0.000000,0.000000,0.000000,0.000000,0.100000,0.100000,-0.219875,-0.541793,-0.050000,-0.050000,0.303458,-0.577790,0.000000,0.000000,-0.439288,0.431908,1.177925,0.451601,0.029091,0.140604,-0.065241,-0.070293,-0.054226,-0.185953
-0.050000,-0.050000,0.000000,0.000000,0.000000,0.000000,0.000000,0.000000,0.000000,0.100000,0.100000,-0.218792,-0.540921,-0.050000,-0.050000,0.307253,-0.579711,0.000000,0.000000,-0.437796,0.422134,1.173066,0.445073,0.027170,0.138553,-0.065662,-0.071824,-0.052825,-0.198856
-0.050000,-0.050000,0.000000,0.000000,0.000000,0.000000,0.000000,0.000000,0.000000,0.100000,0.100000,-0.217470,-0.539494,-0.050000,-0.050000,0.311064,-0.581948,0.000000,0.000000,-0.436380,0.412234,1.167821,0.438611,0.025237,0.136017,-0.066131,-0.073486,-0.051465,-0.211719
-0.050000,-0.050000,0.000000,0.000000,0.000000,0.000000,0.000000,0.000000,0.000000,0.100000,0.100000,-0.216006,-0.537285,-0.050000,-0.050000,0.314851,-0.584845,0.000000,0.000000,-0.434975,0.402159,1.162178,0.432185,0.023343,0.132885,-0.066736,-0.075271,-0.050196,-0.224413
-0.050000,-0.050000,0.000000,0.000000,0.000000,0.000000,0.000000,0.000000,0.000000,0.100000,0.100000,-0.214416,-0.534293,-0.050000,-0.050000,0.318455,-0.588334,0.000000,0.000000,-0.433608,0.391737,1.156500,0.425491,0.021646,0.129630,-0.067344,-0.077218,-0.049180,-0.236732
-0.050000,-0.050000,0.000000,0.000000,0.000000,0.000000,0.000000,0.000000,0.000000,0.100000,0.100000,-0.212755,-0.530724,-0.050000,-0.050000,0.321903,-0.592208,0.000000,0.000000,-0.432281,0.381051,1.150842,0.418538,0.020092,0.126324,-0.067960,-0.079222,-0.048328,-0.248784
-0.050000,-0.050000,0.000000,0.000000,0.000000,0.000000,0.000000,0.000000,0.000000,0.100000,0.100000,-0.211044,-0.526213,-0.050000,-0.050000,0.324923,-0.596784,0.000000,0.000000,-0.431009,0.369620,1.145781,0.410873,0.019072,0.123767,-0.068384,-0.081497,-0.048090,-0.259987
-0.050000,-0.050000,0.000000,0.000000,0.000000,0.000000,0.000000,0.000000,0.000000,0.100000,0.100000,-0.209333,-0.521138,-0.050000,-0.050000,0.327650,-0.601693,0.000000,0.000000,-0.429793,0.357715,1.141202,0.402656,0.018384,0.121812,-0.068709,-0.083850,-0.048197,-0.270640
-0.050000,-0.050000,0.000000,0.000000,0.000000,0.000000,0.000000,0.000000,0.000000,0.100000,0.100000,-0.207609,-0.515414,-0.050000,-0.050000,0.329962,-0.606995,0.000000,0.000000,-0.428651,0.345076,1.137465,0.393686,0.018237,0.120998,-0.068793,-0.086407,-0.048906,-0.280432
-0.050000,-0.050000,0.000000,0.000000,0.000000,0.000000,0.000000,0.000000,0.000000,0.100000,0.100000,-0.205846,-0.509168,-0.050000,-0.050000,0.331842,-0.612557,0.000000,0.000000,-0.427599,0.331662,1.134807,0.383890,0.018715,0.121709,-0.068578,-0.089180,-0.050306,-0.289226
-0.050000,-0.050000,0.000000,0.000000,0.000000,0.000000,0.000000,0.000000,0.000000,0.100000,0.100000,-0.204139,-0.502524,-0.050000,-0.050000,0.333414,-0.618317,0.000000,0.000000,-0.426596,0.317719,1.132885,0.373510,0.019605,0.123399,-0.068231,-0.092065,-0.052134,-0.297335
-0.050000,-0.050000,0.000000,0.000000,0.000000,0.000000,0.000000,0.000000,0.000000,0.100000,0.100000,-0.202208,-0.495592,-0.050000,-0.050000,0.334468,-0.624053,0.000000,0.000000,-0.425799,0.302816,1.132650,0.362126,0.021461,0.127510,-0.067358,-0.095308,-0.054992,-0.304096
-0.050000,-0.050000,0.000000,0.000000,0.000000,0.000000,0.000000,0.000000,0.000000,0.100000,0.100000,-0.200325,-0.488485,-0.050000,-0.050000,0.335244,-0.629809,0.000000,0.000000,-0.425087,0.287483,1.133298,0.350222,0.023852,0.132729,-0.066371,-0.098649,-0.058294,-0.310176
-0.050000,-0.050000,0.000000,0.000000,0.000000,0.000000,0.000000,0.000000,0.000000,0.100000,0.100000,-0.198265,-0.481385,-0.050000,-0.050000,0.335673,-0.635327,0.000000,0.000000,-0.424615,0.271596,1.135243,0.337691,0.027065,0.139577,-0.065059,-0.102206,-0.062298,-0.315411
-0.050000,-0.050000,0.000000,0.000000,0.000000,0.000000,0.000000,0.000000,0.000000,0.100000,0.100000,-0.196038,-0.474487,-0.050000,-0.050000,0.335824,-0.640469,0.000000,0.000000,-0.424487,0.255409,1.138401,0.324708,0.031219,0.147616,-0.063498,-0.105864,-0.066870,-0.320069
-0.050000,-0.050000,0.000000,0.000000,0.000000,0.000000,0.000000,0.000000,0.000000,0.100000,0.100000,-0.193781,-0.467726,-0.050000,-0.050000,0.335778,-0.645331,0.000000,0.000000,-0.424520,0.239047,1.142352,0.311460,0.035988,0.156324,-0.061851,-0.109592,-0.071771,-0.324374
-0.050000,-0.050000,0.000000,0.000000,0.000000,0.000000,0.000000,0.000000,0.000000,0.100000,0.100000,-0.191150,-0.461679,-0.050000,-0.050000,0.335515,-0.649384,0.000000,0.000000,-0.425364,0.222854,1.147668,0.298003,0.042246,0.165469,-0.059888,-0.113225,-0.077173,-0.328541
-0.050000,-0.050000,0.000000,0.000000,0.000000,0.000000,0.000000,0.000000,0.000000,0.100000,0.100000,-0.188524,-0.456061,-0.050000,-0.050000,0.335136,-0.652996,0.000000,0.000000,-0.426486,0.206954,1.153582,0.284600,0.049281,0.174290,-0.057950,-0.116709,-0.082647,-0.332802
-0.050000,-0.050000,0.000000,0.000000,0.000000,0.000000,0.000000,0.000000,0.000000,0.100000,0.100000,-0.185690,-0.451222,-0.050000,-0.050000,0.334674,-0.655901,0.000000,0.000000,-0.428315,0.191686,1.160254,0.271364,0.057519,0.182271,-0.055928,-0.119890,-0.088194,-0.337372
-0.050000,-0.050000,0.000000,0.000000,0.000000,0.000000,0.000000,0.000000,0.000000,0.100000,0.100000,-0.182745,-0.447290,-0.050000,-0.050000,0.334218,-0.658153,0.000000,0.000000,-0.430879,0.177514,1.167390,0.258579,0.066912,0.188435,-0.053941,-0.122521,-0.093540,-0.342465
-0.050000,-0.050000,0.000000,0.000000,0.000000,0.000000,0.000000,0.000000,0.000000,0.100000,0.100000,-0.179728,-0.444068,-0.050000,-0.050000,0.333730,-0.659875,0.000000,0.000000,-0.433784,0.164125,1.174813,0.246163,0.077038,0.193270,-0.052022,-0.124790,-0.098704,-0.348001
-0.050000,-0.050000,0.000000,0.000000,0.000000,0.000000,0.000000,0.000000,0.000000,0.100000,0.100000,-0.176597,-0.442210,-0.050000,-0.050000,0.333486,-0.660995,0.000000,0.000000,-0.437864,0.153036,1.182281,0.234779,0.088431,0.194304,-0.050248,-0.125886,-0.103200,-0.354280
-0.050000,-0.050000,0.000000,0.000000,0.000000,0.000000,0.000000,0.000000,0.000000,0.100000,0.100000,-0.173413,-0.441325,-0.050000,-0.050000,0.333309,-0.661661,0.000000,0.000000,-0.442164,0.143343,1.189624,0.224168,0.100240,0.193109,-0.048630,-0.126315,-0.107200,-0.361070
-0.050000,-0.050000,0.000000,0.000000,0.000000,0.000000,0.000000,0.000000,0.000000,0.100000,0.100000,-0.170185,-0.441672,-0.050000,-0.050000,0.333428,-0.661999,0.000000,0.000000,-0.447101,0.135923,1.196591,0.214691,0.112544,0.188540,-0.047224,-0.125638,-0.110429,-0.368303
-0.050000,-0.050000,0.000000,0.000000,0.000000,0.000000,0.000000,0.000000,0.000000,0.100000,0.100000,-0.166947,-0.443350,-0.050000,-0.050000,0.333916,-0.662109,0.000000,0.000000,-0.452416,0.131032,1.202878,0.206582,0.124828,0.180660,-0.046088,-0.123774,-0.112733,-0.375741
-0.050000,-0.050000,0.000000,0.000000,0.000000,0.000000,0.000000,0.000000,0.000000,0.100000,0.100000,-0.163601,-0.446164,-0.050000,-0.050000,0.334618,-0.661982,0.000000,0.000000,-0.457817,0.127896,1.208667,0.199521,0.137020,0.170649,-0.045094,-0.121137,-0.114423,-0.383372
-0.050000,-0.050000,0.000000,0.000000,0.000000,0.000000,0.000000,0.000000,0.000000,0.100000,0.100000,-0.160402,-0.450602,-0.050000,-0.050000,0.336078,-0.661918,0.000000,0.000000,-0.463521,0.128393,1.213119,0.194466,0.148315,0.157046,-0.044524,-0.116928,-0.114737,-0.390488
-0.050000,-0.050000,0.000000,0.000000,0.000000,0.000000,0.000000,0.000000,0.000000,0.100000,0.100000,-0.157058,-0.456451,-0.050000,-0.050000,0.337855,-0.661687,0.000000,0.000000,-0.469009,0.130788,1.216784,0.190765,0.158848,0.142072,-0.044076,-0.112063,-0.114389,-0.397368
-0.050000,-0.050000,0.000000,0.000000,0.000000,0.000000,0.000000,0.000000,0.000000,0.100000,0.100000,-0.153802,-0.463787,-0.050000,-0.050000,0.340275,-0.661503,0.000000,0.000000,-0.474330,0.135914,1.219271,0.188800,0.168142,0.125492,-0.043898,-0.106282,-0.113045,-0.403456
-0.050000,-0.050000,0.000000,0.000000,0.000000,0.000000,0.000000,0.000000,0.000000,0.100000,0.100000,-0.150623,-0.472719,-0.050000,-0.050000,0.343325,-0.661317,0.000000,0.000000,-0.479266,0.143458,1.220605,0.188594,0.175901,0.108315,-0.043935,-0.099889,-0.110825,-0.408534
-0.050000,-0.050000,0.000000,0.000000,0.000000,0.000000,0.000000,0.000000,0.000000,0.100000,0.100000,-0.147411,-0.483004,-0.050000,-0.050000,0.346798,-0.661090,0.000000,0.000000,-0.483849,0.152673,1.221135,0.189759,0.182598,0.090938,-0.044051,-0.093236,-0.108086,-0.412906
-0.050000,-0.050000,0.000000,0.000000,0.000000,0.000000,0.000000,0.000000,0.000000,0.100000,0.100000,-0.144606,-0.494983,-0.050000,-0.050000,0.351138,-0.660903,0.000000,0.000000,-0.487776,0.164425,1.220374,0.192898,0.187125,0.074308,-0.044439,-0.086262,-0.104387,-0.415541
-0.050000,-0.050000,0.000000,0.000000,0.000000,0.000000,0.000000,0.000000,0.000000,0.100000,0.100000,-0.141867,-0.508360,-0.050000,-0.050000,0.355883,-0.660659,0.000000,0.000000,-0.491241,0.177387,1.218975,0.197370,0.190541,0.058556,-0.044832,-0.079472,-0.100382,-0.417283
-0.050000,-0.050000,0.000000,0.000000,0.000000,0.000000,0.000000,0.000000,0.000000,0.100000,0.100000,-0.139534,-0.523078,-0.050000,-0.050000,0.361210,-0.660368,0.000000,0.000000,-0.494081,0.191796,1.216828,0.203280,0.192480,0.044270,-0.045323,-0.072917,-0.095910,-0.417669
-0.050000,-0.050000,0.000000,0.000000,0.000000,0.000000,0.000000,0.000000,0.000000,0.100000,0.100000,-0.137701,-0.539019,-0.050000,-0.050000,0.367010,-0.660019,0.000000,0.000000,-0.496321,0.207170,1.214152,0.210447,0.193215,0.031885,-0.045838,-0.066850,-0.091169,-0.416799
-0.050000,-0.050000,0.000000,0.000000,0.000000,0.000000,0.000000,0.000000,0.000000,0.100000,0.100000,-0.136206,-0.555901,-0.050000,-0.050000,0.373114,-0.659597,0.000000,0.000000,-0.498155,0.223187,1.211145,0.218575,0.193186,0.020847,-0.046342,-0.061248,-0.086308,-0.415079
-0.050000,-0.050000,0.000000,0.000000,0.000000,0.000000,0.000000,0.000000,0.000000,0.100000,0.100000,-0.135757,-0.573632,-0.050000,-0.050000,0.379634,-0.659091,0.000000,0.000000,-0.499303,0.239672,1.207756,0.227743,0.192105,0.012647,-0.046855,-0.056443,-0.081276,-0.411955
-0.050000,-0.050000,0.000000,0.000000,0.000000,0.000000,0.000000,0.000000,0.000000,0.100000,0.100000,-0.135875,-0.591901,-0.050000,-0.050000,0.386300,-0.658551,0.000000,0.000000,-0.500177,0.256253,1.204213,0.237586,0.190599,0.006016,-0.047311,-0.052266,-0.076285,-0.408167
-0.050000,-0.050000,0.000000,0.000000,0.000000,0.000000,0.000000,0.000000,0.000000,0.100000,0.100000,-0.136986,-0.610429,-0.050000,-0.050000,0.393090,-0.657924,0.000000,0.000000,-0.500661,0.272708,1.200474,0.248005,0.188617,0.001568,-0.047730,-0.048836,-0.071303,-0.403584
-0.050000,-0.050000,0.000000,0.000000,0.000000,0.000000,0.000000,0.000000,0.000000,0.100000,0.100000,-0.139186,-0.628827,-0.050000,-0.050000,0.399837,-0.657234,0.000000,0.000000,-0.500877,0.288652,1.196512,0.258793,0.186310,-0.000807,-0.048101,-0.046164,-0.066390,-0.398510
-0.050000,-0.050000,0.000000,0.000000,0.000000,0.000000,0.000000,0.000000,0.000000,0.100000,0.100000,-0.142123,-0.647052,-0.050000,-0.050000,0.406547,-0.656517,0.000000,0.000000,-0.501022,0.304180,1.192437,0.269772,0.183808,-0.001832,-0.048414,-0.044026,-0.061548,-0.393109
-0.050000,-0.050000,0.000000,0.000000,0.000000,0.000000,0.000000,0.000000,0.000000,0.100000,0.100000,-0.146674,-0.664212,-0.050000,-0.050000,0.412856,-0.655668,0.000000,0.000000,-0.500886,0.318347,1.187830,0.280773,0.180934,-0.000417,-0.048728,-0.042750,-0.056761,-0.387740
-0.050000,-0.050000,0.000000,0.000000,0.000000,0.000000,0.000000,0.000000,0.000000,0.100000,0.100000,-0.152001,-0.680527,-0.050000,-0.050000,0.418924,-0.654866,0.000000,0.000000,-0.500855,0.331589,1.182960,0.291574,0.177846,0.002100,-0.048983,-0.041942,-0.052038,-0.382514
-0.050000,-0.050000,0.000000,0.000000,0.000000,0.000000,0.000000,0.000000,0.000000,0.100000,0.100000,-0.158512,-0.695408,-0.050000,-0.050000,0.424467,-0.653983,0.000000,0.000000,-0.500773,0.343329,1.177503,0.302052,0.174390,0.006104,-0.049263,-0.041713,-0.047323,-0.377808
-0.050000,-0.050000,0.000000,0.000000,0.000000,0.000000,0.000000,0.000000,0.000000,0.100000,0.100000,-0.166020,-0.708490,-0.050000,-0.050000,0.429339,-0.653047,0.000000,0.000000,-0.500693,0.353347,1.171326,0.311989,0.170464,0.011208,-0.049592,-0.042005,-0.042571,-0.374020
-0.050000,-0.050000,0.000000,0.000000,0.000000,0.000000,0.000000,0.000000,0.000000,0.100000,0.100000,-0.174150,-0.720149,-0.050000,-0.050000,0.433804,-0.652165,0.000000,0.000000,-0.500796,0.362124,1.164690,0.321352,0.166222,0.016934,-0.049916,-0.042595,-0.037791,-0.370841
-0.050000,-0.050000,0.000000,0.000000,0.000000,0.000000,0.000000,0.000000,0.000000,0.100000,0.100000,-0.183250,-0.729017,-0.050000,-0.050000,0.437022,-0.651053,0.000000,0.000000,-0.500643,0.368403,1.156764,0.329936,0.161138,0.023476,-0.050478,-0.043778,-0.032832,-0.369551
-0.050000,-0.050000,0.000000,0.000000,0.000000,0.000000,0.000000,0.000000,0.000000,0.100000,0.100000,-0.192604,-0.736047,-0.050000,-0.050000,0.439712,-0.650013,0.000000,0.000000,-0.500703,0.373369,1.148233,0.337704,0.155632,0.030085,-0.051077,-0.045181,-0.027773,-0.369207
-0.050000,-0.050000,0.000000,0.000000,0.000000,0.000000,0.000000,0.000000,0.000000,0.100000,0.100000,-0.202271,-0.740642,-0.050000,-0.050000,0.441369,-0.648804,0.000000,0.000000,-0.500618,0.376470,1.138641,0.344716,0.149422,0.036745,-0.051908,-0.046915,-0.022529,-0.370428
-0.050000,-0.050000,0.000000,0.000000,0.000000,0.000000,0.000000,0.000000,0.000000,0.100000,0.100000,-0.211863,-0.742812,-0.050000,-0.050000,0.442028,-0.647409,0.000000,0.000000,-0.500419,0.378046,1.128037,0.350992,0.142554,0.043071,-0.052981,-0.048891,-0.017120,-0.373029
-0.050000,-0.050000,0.000000,0.000000,0.000000,0.000000,0.000000,0.000000,0.000000,0.100000,0.100000,-0.221305,-0.743209,-0.050000,-0.050000,0.442078,-0.645939,0.000000,0.000000,-0.500242,0.378585,1.116764,0.356610,0.135279,0.049062,-0.054202,-0.050990,-0.011586,-0.376515
-0.050000,-0.050000,0.000000,0.000000,0.000000,0.000000,0.000000,0.000000,0.000000,0.100000,0.100000,-0.230126,-0.740784,-0.050000,-0.050000,0.440695,-0.643947,0.000000,0.000000,-0.499641,0.377834,1.104208,0.361814,0.127231,0.054294,-0.055876,-0.053269,-0.005977,-0.381219
-0.050000,-0.050000,0.000000,0.000000,0.000000,0.000000,0.000000,0.000000,0.000000,0.100000,0.100000,-0.238353,-0.736757,-0.050000,-0.050000,0.438770,-0.641770,0.000000,0.000000,-0.499055,0.376634,1.091102,0.366548,0.118945,0.058948,-0.057721,-0.055565,-0.000372,-0.386216
-0.050000,-0.050000,0.000000,0.000000,0.000000,0.000000,0.000000,0.000000,0.000000,0.100000,0.100000,-0.245720,-0.730782,-0.050000,-0.050000,0.435884,-0.639105,0.000000,0.000000,-0.498220,0.375073,1.077226,0.371124,0.110306,0.062894,-0.059905,-0.057846,0.005101,-0.391332
-0.050000,-0.050000,0.000000,0.000000,0.000000,0.000000,0.000000,0.000000,0.000000,0.100000,0.100000,-0.252036,-0.723156,-0.050000,-0.050000,0.432227,-0.635928,0.000000,0.000000,-0.497281,0.373720,1.062877,0.375661,0.101574,0.066164,-0.062361,-0.060031,0.010233,-0.395800
-0.050000,-0.050000,0.000000,0.000000,0.000000,0.000000,0.000000,0.000000,0.000000,0.100000,0.100000,-0.257568,-0.714442,-0.050000,-0.050000,0.428085,-0.632404,0.000000,0.000000,-0.496231,0.372532,1.048223,0.380154,0.092835,0.068978,-0.065022,-0.062149,0.015130,-0.399764
-0.050000,-0.050000,0.000000,0.000000,0.000000,0.000000,0.000000,0.000000,0.000000,0.100000,0.100000,-0.261623,-0.704128,-0.050000,-0.050000,0.423103,-0.628066,0.000000,0.000000,-0.495217,0.372590,1.033561,0.385017,0.084389,0.071135,-0.067919,-0.064004,0.019119,-0.401496
-0.050000,-0.050000,0.000000,0.000000,0.000000,0.000000,0.000000,0.000000,0.000000,0.100000,0.100000,-0.264801,-0.693115,-0.050000,-0.050000,0.417818,-0.623372,0.000000,0.000000,-0.494204,0.373392,1.019091,0.390038,0.076275,0.072979,-0.070936,-0.065748,0.022586,-0.401823
-0.050000,-0.050000,0.000000,0.000000,0.000000,0.000000,0.000000,0.000000,0.000000,0.100000,0.100000,-0.266839,-0.681234,-0.050000,-0.050000,0.412118,-0.618090,0.000000,0.000000,-0.493365,0.375655,1.005174,0.395453,0.068737,0.074454,-0.074009,-0.067250,0.025110,-0.399672
-0.050000,-0.050000,0.000000,0.000000,0.000000,0.000000,0.000000,0.000000,0.000000,0.100000,0.100000,-0.267822,-0.668763,-0.050000,-0.050000,0.406211,-0.612362,0.000000,0.000000,-0.492813,0.379588,0.992337,0.401324,0.062010,0.075612,-0.076996,-0.068500,0.026589,-0.394697
-0.050000,-0.050000,0.000000,0.000000,0.000000,0.000000,0.000000,0.000000,0.000000,0.100000,0.100000,-0.268129,-0.655989,-0.050000,-0.050000,0.400125,-0.606318,0.000000,0.000000,-0.492357,0.384630,0.980281,0.407564,0.055849,0.076597,-0.079996,-0.069611,0.027378,-0.387820
-0.050000,-0.050000,0.000000,0.000000,0.000000,0.000000,0.000000,0.000000,0.000000,0.100000,0.100000,-0.267252,-0.642768,-0.050000,-0.050000,0.394118,-0.599946,0.000000,0.000000,-0.492613,0.392319,0.970742,0.414537,0.051113,0.077115,-0.082463,-0.070274,0.026627,-0.376718
-0.050000,-0.050000,0.000000,0.000000,0.000000,0.000000,0.000000,0.000000,0.000000,0.100000,0.100000,-0.265889,-0.629551,-0.050000,-0.050000,0.388064,-0.593459,0.000000,0.000000,-0.493003,0.401189,0.962773,0.422049,0.047144,0.077447,-0.084784,-0.070771,0.025183,-0.363570
-0.050000,-0.050000,0.000000,0.000000,0.000000,0.000000,0.000000,0.000000,0.000000,0.100000,0.100000,-0.263818,-0.616295,-0.050000,-0.050000,0.382204,-0.586954,0.000000,0.000000,-0.493924,0.412055,0.957481,0.430266,0.044402,0.077372,-0.086524,-0.070901,0.022659,-0.347318
-0.050000,-0.050000,0.000000,0.000000,0.000000,0.000000,0.000000,0.000000,0.000000,0.100000,0.100000,-0.261174,-0.603227,-0.050000,-0.050000,0.376596,-0.580646,0.000000,0.000000,-0.495244,0.424610,0.955298,0.439261,0.042878,0.076892,-0.087556,-0.070655,0.019237,-0.328389
-0.050000,-0.050000,0.000000,0.000000,0.000000,0.000000,0.000000,0.000000,0.000000,0.100000,0.100000,-0.258298,-0.590377,-0.050000,-0.050000,0.371026,-0.574412,0.000000,0.000000,-0.496762,0.438257,0.955280,0.448843,0.042167,0.076152,-0.088257,-0.070196,0.015277,-0.307739
-0.050000,-0.050000,0.000000,0.000000,0.000000,0.000000,0.000000,0.000000,0.000000,0.100000,0.100000,-0.254610,-0.578021,-0.050000,-0.050000,0.366125,-0.568908,0.000000,0.000000,-0.498785,0.453747,0.960105,0.459381,0.043073,0.074826,-0.087484,-0.069127,0.010357,-0.284317
-0.050000,-0.050000,0.000000,0.000000,0.000000,0.000000,0.000000,0.000000,0.000000,0.100000,0.100000,-0.250834,-0.566146,-0.050000,-0.050000,0.361246,-0.563675,0.000000,0.000000,-0.500799,0.469855,0.967428,0.470471,0.044744,0.073316,-0.086301,-0.067845,0.005141,-0.259881
-0.050000,-0.050000,0.000000,0.000000,0.000000,0.000000,0.000000,0.000000,0.000000,0.100000,0.100000,-0.246522,-0.554927,-0.050000,-0.050000,0.356860,-0.559175,0.000000,0.000000,-0.502926,0.486803,0.978550,0.482183,0.047539,0.071475,-0.083992,-0.066137,-0.000539,-0.234231
-0.050000,-0.050000,0.000000,0.000000,0.000000,0.000000,0.000000,0.000000,0.000000,0.100000,0.100000,-0.241713,-0.544555,-0.050000,-0.050000,0.352915,-0.555476,0.000000,0.000000,-0.504883,0.503985,0.993019,0.494293,0.051273,0.069515,-0.080723,-0.064084,-0.006463,-0.208224
-0.050000,-0.050000,0.000000,0.000000,0.000000,0.000000,0.000000,0.000000,0.000000,0.100000,0.100000,-0.236724,-0.534757,-0.050000,-0.050000,0.349155,-0.552237,0.000000,0.000000,-0.506677,0.521302,1.009676,0.506651,0.055643,0.067452,-0.076942,-0.061795,-0.012510,-0.182075
-0.050000,-0.050000,0.000000,0.000000,0.000000,0.000000,0.000000,0.000000,0.000000,0.100000,0.100000,-0.230598,-0.526379,-0.050000,-0.050000,0.346369,-0.550461,0.000000,0.000000,-0.507868,0.537948,1.029783,0.519008,0.060941,0.065523,-0.071893,-0.059133,-0.018648,-0.156923
-0.050000,-0.050000,0.000000,0.000000,0.000000,0.000000,0.000000,0.000000,0.000000,0.100000,0.100000,-0.224224,-0.518741,-0.050000,-0.050000,0.343856,-0.549252,0.000000,0.000000,-0.508593,0.554099,1.051057,0.531221,0.066640,0.063700,-0.066626,-0.056288,-0.024718,-0.132625
-0.050000,-0.050000,0.000000,0.000000,0.000000,0.000000,0.000000,0.000000,0.000000,0.100000,0.100000,-0.216908,-0.512359,-0.050000,-0.050000,0.342154,-0.549236,0.000000,0.000000,-0.508538,0.569112,1.073734,0.543071,0.072760,0.062111,-0.060839,-0.053247,-0.030658,-0.110071
-0.050000,-0.050000,0.000000,0.000000,0.000000,0.000000,0.000000,0.000000,0.000000,0.100000,0.100000,-0.208719,-0.507268,-0.050000,-0.050000,0.341245,-0.550387,0.000000,0.000000,-0.507548,0.582654,1.096594,0.554353,0.079018,0.060782,-0.055024,-0.050098,-0.036299,-0.089810
-0.050000,-0.050000,0.000000,0.000000,0.000000,0.000000,0.000000,0.000000,0.000000,0.100000,0.100000,-0.199958,-0.502958,-0.050000,-0.050000,0.340889,-0.552254,0.000000,0.000000,-0.505917,0.595250,1.119360,0.565185,0.085362,0.059590,-0.049196,-0.046826,-0.041771,-0.071114
-0.050000,-0.050000,0.000000,0.000000,0.000000,0.000000,0.000000,0.000000,0.000000,0.100000,0.100000,-0.189800,-0.500624,-0.050000,-0.050000,0.341749,-0.555943,0.000000,0.000000,-0.502807,0.605193,1.140607,0.575118,0.091326,0.058656,-0.043993,-0.043654,-0.046532,-0.056381
-0.050000,-0.050000,0.000000,0.000000,0.000000,0.000000,0.000000,0.000000,0.000000,0.100000,0.100000,-0.179080,-0.499032,-0.050000,-0.050000,0.343203,-0.560358,0.000000,0.000000,-0.499023,0.613984,1.160460,0.584506,0.097030,0.057730,-0.039190,-0.040451,-0.050962,-0.043624
-0.050000,-0.050000,0.000000,0.000000,0.000000,0.000000,0.000000,0.000000,0.000000,0.100000,0.100000,-0.167406,-0.498868,-0.050000,-0.050000,0.345505,-0.566116,0.000000,0.000000,-0.494120,0.620618,1.178050,0.593231,0.102116,0.056779,-0.035251,-0.037417,-0.054706,-0.034117
-0.050000,-0.050000,0.000000,0.000000,0.000000,0.000000,0.000000,0.000000,0.000000,0.100000,0.100000,-0.155072,-0.499904,-0.050000,-0.050000,0.348448,-0.573043,0.000000,0.000000,-0.488317,0.625254,1.192955,0.601433,0.106449,0.055629,-0.032325,-0.034604,-0.057724,-0.027683
-0.050000,-0.050000,0.000000,0.000000,0.000000,0.000000,0.000000,0.000000,0.000000,0.100000,0.100000,-0.142238,-0.501638,-0.050000,-0.050000,0.351835,-0.580698,0.000000,0.000000,-0.481960,0.628629,1.205947,0.609264,0.110261,0.054313,-0.029979,-0.031927,-0.060300,-0.023256
-0.050000,-0.050000,0.000000,0.000000,0.000000,0.000000,0.000000,0.000000,0.000000,0.100000,0.100000,-0.129105,-0.504929,-0.050000,-0.050000,0.355565,-0.589820,0.000000,0.000000,-0.474739,0.629209,1.215243,0.616822,0.112910,0.052555,-0.029252,-0.029754,-0.061760,-0.022815
-0.050000,-0.050000,0.000000,0.000000,0.000000,0.000000,0.000000,0.000000,0.000000,0.100000,0.100000,-0.115889,-0.508664,-0.050000,-0.050000,0.359406,-0.599466,0.000000,0.000000,-0.467382,0.628674,1.222702,0.624263,0.115036,0.050541,-0.029043,-0.027802,-0.062797,-0.024123
-0.050000,-0.050000,0.000000,0.000000,0.000000,0.000000,0.000000,0.000000,0.000000,0.100000,0.100000,-0.102927,-0.513294,-0.050000,-0.050000,0.363123,-0.609955,0.000000,0.000000,-0.459833,0.626185,1.227644,0.631766,0.116395,0.048184,-0.029877,-0.026274,-0.063085,-0.028104
-0.050000,-0.050000,0.000000,0.000000,0.000000,0.000000,0.000000,0.000000,0.000000,0.100000,0.100000,-0.090612,-0.518509,-0.050000,-0.050000,0.366471,-0.620955,0.000000,0.000000,-0.452550,0.622029,1.230630,0.639531,0.117251,0.045608,-0.031449,-0.025147,-0.062802,-0.034301
-0.050000,-0.050000,0.000000,0.000000,0.000000,0.000000,0.000000,0.000000,0.000000,0.100000,0.100000,-0.078773,-0.524059,-0.050000,-0.050000,0.369535,-0.632298,0.000000,0.000000,-0.445529,0.616804,1.232413,0.647506,0.117775,0.042886,-0.033437,-0.024290,-0.062154,-0.041916
-0.050000,-0.050000,0.000000,0.000000,0.000000,0.000000,0.000000,0.000000,0.000000,0.100000,0.100000,-0.068591,-0.530196,-0.050000,-0.050000,0.371688,-0.643848,0.000000,0.000000,-0.439483,0.609421,1.232411,0.656239,0.118112,0.040258,-0.036154,-0.023908,-0.060942,-0.052048
-0.050000,-0.050000,0.000000,0.000000,0.000000,0.000000,0.000000,0.000000,0.000000,0.100000,0.100000,-0.059363,-0.536447,-0.050000,-0.050000,0.373379,-0.655420,0.000000,0.000000,-0.434169,0.601130,1.231863,0.665448,0.118432,0.037749,-0.038978,-0.023746,-0.059526,-0.063226
-0.050000,-0.050000,0.000000,0.000000,0.000000,0.000000,0.000000,0.000000,0.000000,0.100000,0.100000,-0.051790,-0.542927,-0.050000,-0.050000,0.374264,-0.666816,0.000000,0.000000,-0.430022,0.591368,1.230524,0.675466,0.118913,0.035627,-0.042035,-0.023833,-0.057848,-0.075927
-0.050000,-0.050000,0.000000,0.000000,0.000000,0.000000,0.000000,0.000000,0.000000,0.100000,0.100000,-0.045933,-0.549460,-0.050000,-0.050000,0.374421,-0.677815,0.000000,0.000000,-0.427168,0.580387,1.228740,0.686358,0.119683,0.034092,-0.045078,-0.024052,-0.056004,-0.089791
-0.050000,-0.050000,0.000000,0.000000,0.000000,0.000000,0.000000,0.000000,0.000000,0.100000,0.100000,-0.041293,-0.556043,-0.050000,-0.050000,0.374123,-0.688588,0.000000,0.000000,-0.425227,0.568594,1.226767,0.697873,0.120636,0.032969,-0.048071,-0.024354,-0.054050,-0.104378
-0.050000,-0.050000,0.000000,0.000000,0.000000,0.000000,0.000000,0.000000,0.000000,0.100000,0.100000,-0.038985,-0.562502,-0.050000,-0.050000,0.372958,-0.698429,0.000000,0.000000,-0.425041,0.555434,1.224261,0.710541,0.122075,0.032990,-0.050856,-0.024595,-0.051942,-0.120079
-0.050000,-0.050000,0.000000,0.000000,0.000000,0.000000,0.000000,0.000000,0.000000,0.100000,0.100000,-0.037839,-0.568885,-0.050000,-0.050000,0.371528,-0.707899,0.000000,0.000000,-0.425693,0.541707,1.221665,0.723740,0.123632,0.033561,-0.053419,-0.024807,-0.049731,-0.136160
-0.050000,-0.050000,0.000000,0.000000,0.000000,0.000000,0.000000,0.000000,0.000000,0.100000,0.100000,-0.038337,-0.575039,-0.050000,-0.050000,0.369644,-0.716586,0.000000,0.000000,-0.427521,0.527231,1.218666,0.737609,0.125394,0.035072,-0.055705,-0.024868,-0.047376,-0.152696
-0.050000,-0.050000,0.000000,0.000000,0.000000,0.000000,0.000000,0.000000,0.000000,0.100000,0.100000,-0.040189,-0.580859,-0.050000,-0.050000,0.367521,-0.724555,0.000000,0.000000,-0.430202,0.512363,1.215252,0.751781,0.127125,0.037359,-0.057678,-0.024790,-0.044823,-0.169366
-0.050000,-0.050000,0.000000,0.000000,0.000000,0.000000,0.000000,0.000000,0.000000,0.100000,0.100000,-0.042901,-0.586464,-0.050000,-0.050000,0.365300,-0.732092,0.000000,0.000000,-0.433429,0.497229,1.211560,0.766107,0.128794,0.040176,-0.059410,-0.024592,-0.042145,-0.186064
-0.050000,-0.050000,0.000000,0.000000,0.000000,0.000000,0.000000,0.000000,0.000000,0.100000,0.100000,-0.047025,-0.591321,-0.050000,-0.050000,0.362927,-0.738608,0.000000,0.000000,-0.437278,0.482234,1.207067,0.780062,0.130053,0.043696,-0.060828,-0.024303,-0.039090,-0.202426
-0.050000,-0.050000,0.000000,0.000000,0.000000,0.000000,0.000000,0.000000,0.000000,0.100000,0.100000,-0.051651,-0.595779,-0.050000,-0.050000,0.360650,-0.744736,0.000000,0.000000,-0.441291,0.467403,1.202221,0.793581,0.130971,0.047438,-0.062037,-0.023976,-0.035844,-0.218478
-0.050000,-0.050000,0.000000,0.000000,0.000000,0.000000,0.000000,0.000000,0.000000,0.100000,0.100000,-0.057038,-0.599480,-0.050000,-0.050000,0.358425,-0.750139,0.000000,0.000000,-0.445417,0.453143,1.196726,0.806211,0.131311,0.051360,-0.063087,-0.023714,-0.032249,-0.233913
-0.050000,-0.050000,0.000000,0.000000,0.000000,0.000000,0.000000,0.000000,0.000000,0.100000,0.100000,-0.062928,-0.602367,-0.050000,-0.050000,0.356363,-0.754854,0.000000,0.000000,-0.449438,0.439756,1.190690,0.817633,0.130965,0.055178,-0.064051,-0.023631,-0.028293,-0.248544
-0.050000,-0.050000,0.000000,0.000000,0.000000,0.000000,0.000000,0.000000,0.000000,0.100000,0.100000,-0.069053,-0.604674,-0.050000,-0.050000,0.354435,-0.759123,0.000000,0.000000,-0.453343,0.426938,1.184282,0.828176,0.130144,0.058906,-0.064961,-0.023626,-0.024108,-0.262625
-0.050000,-0.050000,0.000000,0.000000,0.000000,0.000000,0.000000,0.000000,0.000000,0.100000,0.100000,-0.075761,-0.605777,-0.050000,-0.050000,0.352752,-0.762234,0.000000,0.000000,-0.456930,0.415940,1.177321,0.836780,0.128325,0.062141,-0.065964,-0.024110,-0.019397,-0.275251
-0.050000,-0.050000,0.000000,0.000000,0.000000,0.000000,0.000000,0.000000,0.000000,0.100000,0.100000,-0.082528,-0.606311,-0.050000,-0.050000,0.351249,-0.764763,0.000000,0.000000,-0.460304,0.405783,1.170176,0.844422,0.126026,0.065134,-0.067010,-0.024709,-0.014485,-0.287131
-0.050000,-0.050000,0.000000,0.000000,0.000000,0.000000,0.000000,0.000000,0.000000,0.100000,0.100000,-0.089634,-0.606003,-0.050000,-0.050000,0.349968,-0.766226,0.000000,0.000000,-0.463428,0.397262,1.162814,0.850659,0.123032,0.067705,-0.068197,-0.025658,-0.009237,-0.297676
-0.050000,-0.050000,0.000000,0.000000,0.000000,0.000000,0.000000,0.000000,0.000000,0.100000,0.100000,-0.096995,-0.605098,-0.050000,-0.050000,0.348906,-0.766570,0.000000,0.000000,-0.466401,0.390347,1.155444,0.855840,0.119505,0.069978,-0.069506,-0.026809,-0.003798,-0.306786
-0.050000,-0.050000,0.000000,0.000000,0.000000,0.000000,0.000000,0.000000,0.000000,0.100000,0.100000,-0.104486,-0.603874,-0.050000,-0.050000,0.347988,-0.766156,0.000000,0.000000,-0.469226,0.384514,1.148101,0.860371,0.115632,0.072068,-0.070923,-0.028064,0.001751,-0.314927
-0.050000,-0.050000,0.000000,0.000000,0.000000,0.000000,0.000000,0.000000,0.000000,0.100000,0.100000,-0.112486,-0.602277,-0.050000,-0.050000,0.347327,-0.764053,0.000000,0.000000,-0.472180,0.381093,1.141012,0.864062,0.111356,0.073965,-0.072414,-0.029401,0.007263,-0.320660
-0.050000,-0.050000,0.000000,0.000000,0.000000,0.000000,0.000000,0.000000,0.000000,0.100000,0.100000,-0.120628,-0.600832,-0.050000,-0.050000,0.346786,-0.761214,0.000000,0.000000,-0.475124,0.378784,1.134148,0.867579,0.106956,0.075848,-0.073939,-0.030637,0.012620,-0.325155
-0.050000,-0.050000,0.000000,0.000000,0.000000,0.000000,0.000000,0.000000,0.000000,0.100000,0.100000,-0.129159,-0.599588,-0.050000,-0.050000,0.346406,-0.757174,0.000000,0.000000,-0.478322,0.378355,1.127624,0.870876,0.102512,0.077706,-0.075424,-0.031713,0.017626,-0.327518
-0.050000,-0.050000,0.000000,0.000000,0.000000,0.000000,0.000000,0.000000,0.000000,0.100000,0.100000,-0.137992,-0.598895,-0.050000,-0.050000,0.346164,-0.752270,0.000000,0.000000,-0.481837,0.379601,1.121473,0.874123,0.098213,0.079531,-0.076790,-0.032507,0.022026,-0.327762
-0.050000,-0.050000,0.000000,0.000000,0.000000,0.000000,0.000000,0.000000,0.000000,0.100000,0.100000,-0.147054,-0.598734,-0.050000,-0.050000,0.345980,-0.746829,0.000000,0.000000,-0.485476,0.381999,1.115582,0.877433,0.094025,0.081363,-0.078079,-0.033088,0.025974,-0.326543
-0.050000,-0.050000,0.000000,0.000000,0.000000,0.000000,0.000000,0.000000,0.000000,0.100000,0.100000,-0.156421,-0.599547,-0.050000,-0.050000,0.345986,-0.740764,0.000000,0.000000,-0.489808,0.386495,1.110114,0.880432,0.090371,0.082906,-0.079077,-0.033272,0.028662,-0.322467
-0.050000,-0.050000,0.000000,0.000000,0.000000,0.000000,0.000000,0.000000,0.000000,0.100000,0.100000,-0.165925,-0.601135,-0.050000,-0.050000,0.346038,-0.734679,0.000000,0.000000,-0.494221,0.391868,1.104815,0.883291,0.086993,0.084322,-0.079954,-0.033254,0.030621,-0.317112
-0.050000,-0.050000,0.000000,0.000000,0.000000,0.000000,0.000000,0.000000,0.000000,0.100000,0.100000,-0.175520,-0.603648,-0.050000,-0.050000,0.346240,-0.728676,0.000000,0.000000,-0.499074,0.398527,1.099705,0.885535,0.084170,0.085362,-0.080613,-0.033042,0.031379,-0.309954
-0.050000,-0.050000,0.000000,0.000000,0.000000,0.000000,0.000000,0.000000,0.000000,0.100000,0.100000,-0.185065,-0.607044,-0.050000,-0.050000,0.346633,-0.723210,0.000000,0.000000,-0.504152,0.405941,1.094630,0.886800,0.081881,0.086047,-0.081140,-0.032817,0.030950,-0.301698
-0.050000,-0.050000,0.000000,0.000000,0.000000,0.000000,0.000000,0.000000,0.000000,0.100000,0.100000,-0.194602,-0.610997,-0.050000,-0.050000,0.347123,-0.718164,0.000000,0.000000,-0.509312,0.413806,1.089532,0.887328,0.079958,0.086503,-0.081571,-0.032541,0.029685,-0.292747
-0.050000,-0.050000,0.000000,0.000000,0.000000,0.000000,0.000000,0.000000,0.000000,0.100000,0.100000,-0.203752,-0.615846,-0.050000,-0.050000,0.348128,-0.714455,0.000000,0.000000,-0.514646,0.421816,1.084259,0.885666,0.078716,0.086656,-0.082007,-0.032704,0.026909,-0.283675
-0.050000,-0.050000,0.000000,0.000000,0.000000,0.000000,0.000000,0.000000,0.000000,0.100000,0.100000,-0.212771,-0.620935,-0.050000,-0.050000,0.349392,-0.711552,0.000000,0.000000,-0.519807,0.429565,1.078766,0.882728,0.077731,0.086854,-0.082484,-0.033005,0.023401,-0.274886
-0.050000,-0.050000,0.000000,0.000000,0.000000,0.000000,0.000000,0.000000,0.000000,0.100000,0.100000,-0.221386,-0.626413,-0.050000,-0.050000,0.351257,-0.709999,0.000000,0.000000,-0.524806,0.436677,1.072978,0.877657,0.077098,0.087233,-0.083111,-0.033827,0.018904,-0.267029
-0.050000,-0.050000,0.000000,0.000000,0.000000,0.000000,0.000000,0.000000,0.000000,0.100000,0.100000,-0.229647,-0.631985,-0.050000,-0.050000,0.353884,-0.709825,0.000000,0.000000,-0.529363,0.442693,1.066830,0.870498,0.076578,0.088178,-0.083980,-0.035177,0.013673,-0.260640
-0.050000,-0.050000,0.000000,0.000000,0.000000,0.000000,0.000000,0.000000,0.000000,0.100000,0.100000,-0.237690,-0.637450,-0.050000,-0.050000,0.357066,-0.710579,0.000000,0.000000,-0.533659,0.447888,1.060376,0.861785,0.076108,0.089540,-0.085010,-0.036819,0.007927,-0.255311
-0.050000,-0.050000,0.000000,0.000000,0.000000,0.000000,0.000000,0.000000,0.000000,0.100000,0.100000,-0.245308,-0.642881,-0.050000,-0.050000,0.361775,-0.713250,0.000000,0.000000,-0.536970,0.451071,1.053494,0.850553,0.075331,0.092226,-0.086504,-0.039330,0.001629,-0.252557
-0.050000,-0.050000,0.000000,0.000000,0.000000,0.000000,0.000000,0.000000,0.000000,0.100000,0.100000,-0.252884,-0.647901,-0.050000,-0.050000,0.367396,-0.716763,0.000000,0.000000,-0.539823,0.453234,1.046249,0.837990,0.074248,0.095605,-0.088210,-0.042058,-0.004943,-0.250976
-0.050000,-0.050000,0.000000,0.000000,0.000000,0.000000,0.000000,0.000000,0.000000,0.100000,0.100000,-0.260391,-0.652642,-0.050000,-0.050000,0.374590,-0.721640,0.000000,0.000000,-0.541728,0.453798,1.038640,0.823833,0.072518,0.100144,-0.090272,-0.045305,-0.011687,-0.251198
-0.050000,-0.050000,0.000000,0.000000,0.000000,0.000000,0.000000,0.000000,0.000000,0.100000,0.100000,-0.268159,-0.656980,-0.050000,-0.050000,0.383555,-0.727649,0.000000,0.000000,-0.542658,0.453170,1.030610,0.808544,0.069861,0.105655,-0.092636,-0.048845,-0.018404,-0.252591
-0.050000,-0.050000,0.000000,0.000000,0.000000,0.000000,0.000000,0.000000,0.000000,0.100000,0.100000,-0.276114,-0.661002,-0.050000,-0.050000,0.393795,-0.734341,0.000000,0.000000,-0.543017,0.451715,1.022212,0.792469,0.066499,0.111787,-0.095163,-0.052567,-0.025145,-0.254703
-0.050000,-0.050000,0.000000,0.000000,0.000000,0.000000,0.000000,0.000000,0.000000,0.100000,0.100000,-0.285065,-0.664723,-0.050000,-0.050000,0.406917,-0.742475,0.000000,0.000000,-0.541783,0.449461,1.013203,0.775698,0.061329,0.118786,-0.098029,-0.056465,-0.031305,-0.257299
-0.050000,-0.050000,0.000000,0.000000,0.000000,0.000000,0.000000,0.000000,0.000000,0.100000,0.100000,-0.294628,-0.668305,-0.050000,-0.050000,0.421610,-0.751084,0.000000,0.000000,-0.539989,0.446993,1.003583,0.758571,0.055062,0.126021,-0.100950,-0.060351,-0.037215,-0.259778
-0.050000,-0.050000,0.000000,0.000000,0.000000,0.000000,0.000000,0.000000,0.000000,0.100000,0.100000,-0.305473,-0.671840,-0.050000,-0.050000,0.438820,-0.760621,0.000000,0.000000,-0.537023,0.444563,0.993163,0.741216,0.047022,0.133429,-0.104018,-0.064164,-0.042313,-0.261826
-0.050000,-0.050000,0.000000,0.000000,0.000000,0.000000,0.000000,0.000000,0.000000,0.100000,0.100000,-0.317852,-0.675546,-0.050000,-0.050000,0.458429,-0.770845,0.000000,0.000000,-0.533069,0.442558,0.981634,0.723673,0.037138,0.140652,-0.107168,-0.067824,-0.046319,-0.263129
-0.050000,-0.050000,0.000000,0.000000,0.000000,0.000000,0.000000,0.000000,0.000000,0.100000,0.100000,-0.331274,-0.679508,-0.050000,-0.050000,0.479687,-0.781438,0.000000,0.000000,-0.528569,0.440865,0.969220,0.706034,0.025936,0.147705,-0.110284,-0.071358,-0.049588,-0.263858
-0.050000,-0.050000,0.000000,0.000000,0.000000,0.000000,0.000000,0.000000,0.000000,0.100000,0.100000,-0.347456,-0.683986,-0.050000,-0.050000,0.503994,-0.792828,0.000000,0.000000,-0.522680,0.440178,0.954830,0.687971,0.012220,0.153994,-0.113658,-0.074707,-0.050380,-0.263682
-0.050000,-0.050000,0.000000,0.000000,0.000000,0.000000,0.000000,0.000000,0.000000,0.100000,0.100000,-0.364904,-0.689041,-0.050000,-0.050000,0.529604,-0.804290,0.000000,0.000000,-0.516427,0.439835,0.939091,0.669594,-0.002753,0.159854,-0.116986,-0.077992,-0.049862,-0.263253
-0.050000,-0.050000,0.000000,0.000000,0.000000,0.000000,0.000000,0.000000,0.000000,0.100000,0.100000,-0.384708,-0.694747,-0.050000,-0.050000,0.557062,-0.815973,0.000000,0.000000,-0.509334,0.440103,0.921307,0.650532,-0.019456,0.164904,-0.120596,-0.081305,-0.046759,-0.262766
-0.050000,-0.050000,0.000000,0.000000,0.000000,0.000000,0.000000,0.000000,0.000000,0.100000,0.100000,-0.406590,-0.701159,-0.050000,-0.050000,0.585583,-0.827437,0.000000,0.000000,-0.501635,0.440474,0.901312,0.630522,-0.037424,0.169184,-0.124528,-0.084863,-0.040846,-0.263033
-0.050000,-0.050000,0.000000,0.000000,0.000000,0.000000,0.000000,0.000000,0.000000,0.100000,0.100000,-0.429913,-0.708065,-0.050000,-0.050000,0.614671,-0.838649,0.000000,0.000000,-0.493749,0.440857,0.879735,0.609786,-0.056103,0.172840,-0.128700,-0.088565,-0.032904,-0.263933
-0.050000,-0.050000,0.000000,0.000000,0.000000,0.000000,0.000000,0.000000,0.000000,0.100000,0.100000,-0.455852,-0.715609,-0.050000,-0.050000,0.643805,-0.848849,0.000000,0.000000,-0.484987,0.440427,0.854983,0.587300,-0.075502,0.175518,-0.133760,-0.093097,-0.020514,-0.267408
-0.050000,-0.050000,0.000000,0.000000,0.000000,0.000000,0.000000,0.000000,0.000000,0.100000,0.100000,-0.482805,-0.723304,-0.050000,-0.050000,0.672398,-0.858220,0.000000,0.000000,-0.476244,0.439232,0.828608,0.563807,-0.094678,0.177515,-0.139202,-0.097984,-0.005824,-0.272569
-0.050000,-0.050000,0.000000,0.000000,0.000000,0.000000,0.000000,0.000000,0.000000,0.100000,0.100000,-0.511282,-0.731087,-0.050000,-0.050000,0.699732,-0.866088,0.000000,0.000000,-0.467078,0.436567,0.799800,0.538798,-0.113286,0.178683,-0.145522,-0.103693,0.012392,-0.280660
-0.050000,-0.050000,0.000000,0.000000,0.000000,0.000000,0.000000,0.000000,0.000000,0.100000,0.100000,-0.540567,-0.738565,-0.050000,-0.050000,0.725042,-0.872108,0.000000,0.000000,-0.457742,0.432093,0.768964,0.512501,-0.130446,0.178972,-0.152551,-0.110111,0.033606,-0.291820
-0.050000,-0.050000,0.000000,0.000000,0.000000,0.000000,0.000000,0.000000,0.000000,0.100000,0.100000,-0.570346,-0.745539,-0.050000,-0.050000,0.748671,-0.876764,0.000000,0.000000,-0.448389,0.426187,0.736753,0.485199,-0.146163,0.178387,-0.160186,-0.116980,0.056925,-0.305142
-0.050000,-0.050000,0.000000,0.000000,0.000000,0.000000,0.000000,0.000000,0.000000,0.100000,0.100000,-0.600186,-0.751686,-0.050000,-0.050000,0.768408,-0.878273,0.000000,0.000000,-0.438783,0.417562,0.702516,0.456871,-0.158710,0.176642,-0.168454,-0.124600,0.083161,-0.322402
-0.050000,-0.050000,0.000000,0.000000,0.000000,0.000000,0.000000,0.000000,0.000000,0.100000,0.100000,-0.629687,-0.756783,-0.050000,-0.050000,0.785779,-0.878162,0.000000,0.000000,-0.429312,0.407490,0.667478,0.427978,-0.168655,0.173662,-0.176914,-0.132322,0.110698,-0.341441
-0.050000,-0.050000,0.000000,0.000000,0.000000,0.000000,0.000000,0.000000,0.000000,0.100000,0.100000,-0.658414,-0.760749,-0.050000,-0.050000,0.799442,-0.875371,0.000000,0.000000,-0.419895,0.395460,0.631570,0.398831,-0.174993,0.169323,-0.185376,-0.140120,0.139471,-0.362795
-0.050000,-0.050000,0.000000,0.000000,0.000000,0.000000,0.000000,0.000000,0.000000,0.100000,0.100000,-0.685905,-0.763461,-0.050000,-0.050000,0.809571,-0.870250,0.000000,0.000000,-0.410867,0.382179,0.595465,0.369911,-0.177390,0.163364,-0.193334,-0.147518,0.168601,-0.385463
-0.050000,-0.050000,0.000000,0.000000,0.000000,0.000000,0.000000,0.000000,0.000000,0.100000,0.100000,-0.712393,-0.765133,-0.050000,-0.050000,0.817028,-0.863454,0.000000,0.000000,-0.401940,0.367990,0.559280,0.341141,-0.176721,0.156051,-0.200838,-0.154531,0.197894,-0.408906
-0.050000,-0.050000,0.000000,0.000000,0.000000,0.000000,0.000000,0.000000,0.000000,0.100000,0.100000,-0.736605,-0.765614,-0.050000,-0.050000,0.820165,-0.854041,0.000000,0.000000,-0.394155,0.353599,0.524044,0.313755,-0.171100,0.146722,-0.206762,-0.160276,0.226040,-0.432389
-0.050000,-0.050000,0.000000,0.000000,0.000000,0.000000,0.000000,0.000000,0.000000,0.100000,0.100000,-0.759475,-0.765327,-0.050000,-0.050000,0.820937,-0.843468,0.000000,0.000000,-0.386788,0.339407,0.489518,0.287173,-0.162538,0.135999,-0.211661,-0.165160,0.253441,-0.455463
-0.050000,-0.050000,0.000000,0.000000,0.000000,0.000000,0.000000,0.000000,0.000000,0.100000,0.100000,-0.780241,-0.764376,-0.050000,-0.050000,0.818692,-0.831472,0.000000,0.000000,-0.380620,0.326172,0.456515,0.262212,-0.150428,0.123679,-0.214844,-0.168612,0.279089,-0.477366
-0.050000,-0.050000,0.000000,0.000000,0.000000,0.000000,0.000000,0.000000,0.000000,0.100000,0.100000,-0.799034,-0.763075,-0.050000,-0.050000,0.814056,-0.818719,0.000000,0.000000,-0.375759,0.314570,0.425393,0.239054,-0.135554,0.110011,-0.216360,-0.170623,0.302741,-0.497506
-0.050000,-0.050000,0.000000,0.000000,0.000000,0.000000,0.000000,0.000000,0.000000,0.100000,0.100000,-0.816420,-0.761720,-0.050000,-0.050000,0.807650,-0.805479,0.000000,0.000000,-0.371627,0.304305,0.395724,0.217350,-0.118854,0.095506,-0.216680,-0.171615,0.324870,-0.516258
-0.050000,-0.050000,0.000000,0.000000,0.000000,0.000000,0.000000,0.000000,0.000000,0.100000,0.100000,-0.831258,-0.760445,-0.050000,-0.050000,0.799242,-0.792339,0.000000,0.000000,-0.369880,0.297280,0.369208,0.198342,-0.100261,0.079923,-0.215022,-0.170815,0.343830,-0.531826
-0.050000,-0.050000,0.000000,0.000000,0.000000,0.000000,0.000000,0.000000,0.000000,0.100000,0.100000,-0.844958,-0.759651,-0.050000,-0.050000,0.789680,-0.779374,0.000000,0.000000,-0.368960,0.292216,0.344600,0.181137,-0.081147,0.064140,-0.212579,-0.169267,0.361075,-0.545579
-0.050000,-0.050000,0.000000,0.000000,0.000000,0.000000,0.000000,0.000000,0.000000,0.100000,0.100000,-0.856872,-0.759396,-0.050000,-0.050000,0.779118,-0.767133,0.000000,0.000000,-0.369848,0.290172,0.322800,0.166289,-0.061885,0.048170,-0.209069,-0.166687,0.375727,-0.556556
-0.050000,-0.050000,0.000000,0.000000,0.000000,0.000000,0.000000,0.000000,0.000000,0.100000,0.100000,-0.867420,-0.759902,-0.050000,-0.050000,0.767935,-0.755822,0.000000,0.000000,-0.372203,0.290933,0.303674,0.153700,-0.043413,0.032527,-0.205000,-0.163476,0.388073,-0.564999
-0.050000,-0.050000,0.000000,0.000000,0.000000,0.000000,0.000000,0.000000,0.000000,0.100000,0.100000,-0.877099,-0.761208,-0.050000,-0.050000,0.756345,-0.745244,0.000000,0.000000,-0.375465,0.293819,0.286623,0.142972,-0.025807,0.017359,-0.200763,-0.160003,0.398710,-0.571612
-0.050000,-0.050000,0.000000,0.000000,0.000000,0.000000,0.000000,0.000000,0.000000,0.100000,0.100000,-0.885246,-0.763397,-0.050000,-0.050000,0.744733,-0.736291,0.000000,0.000000,-0.380653,0.299958,0.272726,0.134712,-0.010469,0.003134,-0.196254,-0.156105,0.406627,-0.575244
-0.050000,-0.050000,0.000000,0.000000,0.000000,0.000000,0.000000,0.000000,0.000000,0.100000,0.100000,-0.892926,-0.766518,-0.050000,-0.050000,0.733102,-0.728165,0.000000,0.000000,-0.386443,0.307829,0.260725,0.128214,0.003089,-0.010074,-0.192071,-0.152340,0.413059,-0.577368
-0.050000,-0.050000,0.000000,0.000000,0.000000,0.000000,0.000000,0.000000,0.000000,0.100000,0.100000,-0.899752,-0.770499,-0.050000,-0.050000,0.721771,-0.721345,0.000000,0.000000,-0.393351,0.317831,0.250989,0.123608,0.014153,-0.022049,-0.188104,-0.148618,0.417535,-0.577508
-0.050000,-0.050000,0.000000,0.000000,0.000000,0.000000,0.000000,0.000000,0.000000,0.100000,0.100000,-0.906051,-0.775307,-0.050000,-0.050000,0.710846,-0.715592,0.000000,0.000000,-0.400932,0.329341,0.243075,0.120669,0.022701,-0.032629,-0.184528,-0.145096,0.420354,-0.576107
-0.050000,-0.050000,0.000000,0.000000,0.000000,0.000000,0.000000,0.000000,0.000000,0.100000,0.100000,-0.912053,-0.780828,-0.050000,-0.050000,0.700268,-0.710587,0.000000,0.000000,-0.408895,0.341923,0.236500,0.119017,0.029304,-0.042084,-0.181358,-0.141843,0.421953,-0.573628
-0.050000,-0.050000,0.000000,0.000000,0.000000,0.000000,0.000000,0.000000,0.000000,0.100000,0.100000,-0.917458,-0.786972,-0.050000,-0.050000,0.690482,-0.706716,0.000000,0.000000,-0.417407,0.355440,0.231428,0.118856,0.033172,-0.049895,-0.178515,-0.138759,0.421807,-0.569714
-0.050000,-0.050000,0.000000,0.000000,0.000000,0.000000,0.000000,0.000000,0.000000,0.100000,0.100000,-0.922724,-0.793639,-0.050000,-0.050000,0.681182,-0.703336,0.000000,0.000000,-0.425927,0.369342,0.227144,0.119628,0.035476,-0.056608,-0.176065,-0.135973,0.420696,-0.565088
-0.050000,-0.050000,0.000000,0.000000,0.000000,0.000000,0.000000,0.000000,0.000000,0.100000,0.100000,-0.927632,-0.800685,-0.050000,-0.050000,0.672630,-0.700599,0.000000,0.000000,-0.434477,0.383361,0.223593,0.121337,0.036163,-0.062096,-0.173894,-0.133389,0.418466,-0.559673
-0.050000,-0.050000,0.000000,0.000000,0.000000,0.000000,0.000000,0.000000,0.000000,0.100000,0.100000,-0.932258,-0.807984,-0.050000,-0.050000,0.664819,-0.698288,0.000000,0.000000,-0.442775,0.397104,0.220454,0.123729,0.035848,-0.066568,-0.172005,-0.131041,0.415438,-0.553751
-0.050000,-0.050000,0.000000,0.000000,0.000000,0.000000,0.000000,0.000000,0.000000,0.100000,0.100000,-0.936652,-0.815447,-0.050000,-0.050000,0.657558,-0.696227,0.000000,0.000000,-0.450835,0.410601,0.217526,0.126559,0.034900,-0.070324,-0.170321,-0.128892,0.411855,-0.547469
-0.050000,-0.050000,0.000000,0.000000,0.000000,0.000000,0.000000,0.000000,0.000000,0.100000,0.100000,-0.940586,-0.822893,-0.050000,-0.050000,0.651293,-0.694538,0.000000,0.000000,-0.458252,0.423099,0.214765,0.129847,0.033809,-0.073253,-0.168899,-0.126972,0.407869,-0.541022
-0.050000,-0.050000,0.000000,0.000000,0.000000,0.000000,0.000000,0.000000,0.000000,0.100000,0.100000,-0.944218,-0.830292,-0.050000,-0.050000,0.645560,-0.692951,0.000000,0.000000,-0.465223,0.435036,0.211984,0.133250,0.032794,-0.075776,-0.167682,-0.125262,0.403749,-0.534504
-0.050000,-0.050000,0.000000,0.000000,0.000000,0.000000,0.000000,0.000000,0.000000,0.100000,0.100000,-0.947406,-0.837519,-0.050000,-0.050000,0.640602,-0.691541,0.000000,0.000000,-0.471476,0.445953,0.209238,0.136768,0.032243,-0.077922,-0.166701,-0.123768,0.399730,-0.528153
-0.050000,-0.050000,0.000000,0.000000,0.000000,0.000000,0.000000,0.000000,0.000000,0.100000,0.100000,-0.950149,-0.844502,-0.050000,-0.050000,0.636301,-0.690238,0.000000,0.000000,-0.477006,0.455910,0.206546,0.140229,0.032337,-0.079884,-0.165961,-0.122493,0.396055,-0.522149
-0.050000,-0.050000,0.000000,0.000000,0.000000,0.000000,0.000000,0.000000,0.000000,0.100000,0.100000,-0.952530,-0.851248,-0.050000,-0.050000,0.632453,-0.688980,0.000000,0.000000,-0.482029,0.465186,0.203864,0.143572,0.032968,-0.081768,-0.165418,-0.121375,0.392684,-0.516423
-0.050000,-0.050000,0.000000,0.000000,0.000000,0.000000,0.000000,0.000000,0.000000,0.100000,0.100000,-0.954388,-0.857600,-0.050000,-0.050000,0.629358,-0.687867,0.000000,0.000000,-0.486092,0.473229,0.201533,0.146732,0.034535,-0.083659,-0.165111,-0.120463,0.390137,-0.511574
-0.050000,-0.050000,0.000000,0.000000,0.000000,0.000000,0.000000,0.000000,0.000000,0.100000,0.100000,-0.955930,-0.863632,-0.050000,-0.050000,0.626584,-0.686762,0.000000,0.000000,-0.489758,0.480744,0.199357,0.149626,0.036627,-0.085645,-0.164982,-0.119653,0.388087,-0.507236
-0.050000,-0.050000,0.000000,0.000000,0.000000,0.000000,0.000000,0.000000,0.000000,0.100000,0.100000,-0.957120,-0.869275,-0.050000,-0.050000,0.624280,-0.685728,0.000000,0.000000,-0.492802,0.487455,0.197623,0.152256,0.039340,-0.087776,-0.164976,-0.118929,0.386803,-0.503799
-0.050000,-0.050000,0.000000,0.000000,0.000000,0.000000,0.000000,0.000000,0.000000,0.100000,0.100000,-0.958072,-0.874523,-0.050000,-0.050000,0.622308,-0.684713,0.000000,0.000000,-0.495447,0.493615,0.196353,0.154567,0.042488,-0.090119,-0.165029,-0.118230,0.386207,-0.501269
-0.050000,-0.050000,0.000000,0.000000,0.000000,0.000000,0.000000,0.000000,0.000000,0.100000,0.100000,-0.958882,-0.879436,-0.050000,-0.050000,0.620541,-0.683693,0.000000,0.000000,-0.497867,0.499409,0.195447,0.156601,0.045930,-0.092654,-0.165136,-0.117518,0.386122,-0.499432
-0.050000,-0.050000,0.000000,0.000000,0.000000,0.000000,0.000000,0.000000,0.000000,0.100000,0.100000,-0.959600,-0.883889,-0.050000,-0.050000,0.619105,-0.682657,0.000000,0.000000,-0.499958,0.504691,0.195244,0.158279,0.049650,-0.095521,-0.165109,-0.116745,0.386793,-0.498848
-0.050000,-0.050000,0.000000,0.000000,0.000000,0.000000,0.000000,0.000000,0.000000,0.100000,0.100000,-0.960349,-0.887993,-0.050000,-0.050000,0.617768,-0.681552,0.000000,0.000000,-0.502036,0.509798,0.195394,0.159657,0.053504,-0.098665,-0.165047,-0.115895,0.387869,-0.498970
-0.050000,-0.050000,0.000000,0.000000,0.000000,0.000000,0.000000,0.000000,0.000000,0.100000,0.100000,-0.961178,-0.891689,-0.050000,-0.050000,0.616602,-0.680353,0.000000,0.000000,-0.504036,0.514638,0.196036,0.160721,0.057480,-0.102166,-0.164814,-0.114945,0.389446,-0.500069
-0.050000,-0.050000,0.000000,0.000000,0.000000,0.000000,0.000000,0.000000,0.000000,0.100000,0.100000,-0.962162,-0.894979,-0.050000,-0.050000,0.615532,-0.679002,0.000000,0.000000,-0.506040,0.519304,0.197003,0.161476,0.061564,-0.106064,-0.164425,-0.113904,0.391438,-0.502012
-0.050000,-0.050000,0.000000,0.000000,0.000000,0.000000,0.000000,0.000000,0.000000,0.100000,0.100000,-0.963275,-0.897938,-0.050000,-0.050000,0.614518,-0.677525,0.000000,0.000000,-0.508086,0.523832,0.198197,0.161982,0.065726,-0.110288,-0.163916,-0.112776,0.393733,-0.504574
-0.050000,-0.050000,0.000000,0.000000,0.000000,0.000000,0.000000,0.000000,0.000000,0.100000,0.100000,-0.964613,-0.900413,-0.050000,-0.050000,0.613598,-0.675771,0.000000,0.000000,-0.510028,0.528126,0.199522,0.162180,0.070061,-0.115033,-0.163223,-0.111606,0.396519,-0.508046
-0.050000,-0.050000,0.000000,0.000000,0.000000,0.000000,0.000000,0.000000,0.000000,0.100000,0.100000,-0.966055,-0.902544,-0.050000,-0.050000,0.612698,-0.673835,0.000000,0.000000,-0.511949,0.532261,0.200847,0.162150,0.074513,-0.120141,-0.162451,-0.110395,0.399605,-0.512010
-0.050000,-0.050000,0.000000,0.000000,0.000000,0.000000,0.000000,0.000000,0.000000,0.100000,0.100000,-0.967612,-0.904251,-0.050000,-0.050000,0.611841,-0.671620,0.000000,0.000000,-0.513674,0.536138,0.202057,0.161893,0.079139,-0.125677,-0.161612,-0.109197,0.403124,-0.516572
-0.050000,-0.050000,0.000000,0.000000,0.000000,0.000000,0.000000,0.000000,0.000000,0.100000,0.100000,-0.969173,-0.905550,-0.050000,-0.050000,0.611009,-0.669126,0.000000,0.000000,-0.515110,0.539716,0.203031,0.161446,0.083914,-0.131575,-0.160788,-0.108047,0.407090,-0.521603
-0.050000,-0.050000,0.000000,0.000000,0.000000,0.000000,0.000000,0.000000,0.000000,0.100000,0.100000,-0.970675,-0.906526,-0.050000,-0.050000,0.610210,-0.666427,0.000000,0.000000,-0.516326,0.543064,0.203780,0.160843,0.088812,-0.137750,-0.159968,-0.106931,0.411381,-0.526952
-0.050000,-0.050000,0.000000,0.000000,0.000000,0.000000,0.000000,0.000000,0.000000,0.100000,0.100000,-0.971981,-0.907021,-0.050000,-0.050000,0.609432,-0.663345,0.000000,0.000000,-0.516877,0.545915,0.204083,0.160124,0.093785,-0.144157,-0.159333,-0.105960,0.416322,-0.532744
-0.050000,-0.050000,0.000000,0.000000,0.000000,0.000000,0.000000,0.000000,0.000000,0.100000,0.100000,-0.973003,-0.907210,-0.050000,-0.050000,0.608716,-0.660071,0.000000,0.000000,-0.517072,0.548497,0.204054,0.159302,0.098795,-0.150687,-0.158795,-0.105073,0.421605,-0.538741
-0.050000,-0.050000,0.000000,0.000000,0.000000,0.000000,0.000000,0.000000,0.000000,0.100000,0.100000,-0.973626,-0.907008,-0.050000,-0.050000,0.608043,-0.656493,0.000000,0.000000,-0.516616,0.550643,0.203601,0.158433,0.103744,-0.157214,-0.158480,-0.104330,0.427419,-0.545001
-0.050000,-0.050000,0.000000,0.000000,0.000000,0.000000,0.000000,0.000000,0.000000,0.100000,0.100000,-0.973707,-0.906452,-0.050000,-0.050000,0.607443,-0.652662,0.000000,0.000000,-0.515563,0.552412,0.202751,0.157539,0.108545,-0.163596,-0.158400,-0.103738,0.433682,-0.551450
-0.050000,-0.050000,0.000000,0.000000,0.000000,0.000000,0.000000,0.000000,0.000000,0.100000,0.100000,-0.973311,-0.905628,-0.050000,-0.050000,0.606931,-0.648649,0.000000,0.000000,-0.514065,0.553934,0.201563,0.156624,0.113231,-0.169843,-0.158491,-0.103263,0.440253,-0.558016
-0.050000,-0.050000,0.000000,0.000000,0.000000,0.000000,0.000000,0.000000,0.000000,0.100000,0.100000,-0.972074,-0.904387,-0.050000,-0.050000,0.606484,-0.644316,0.000000,0.000000,-0.511826,0.555017,0.199998,0.155752,0.117527,-0.175575,-0.158924,-0.102998,0.447316,-0.564755
-0.050000,-0.050000,0.000000,0.000000,0.000000,0.000000,0.000000,0.000000,0.000000,0.100000,0.100000,-0.970215,-0.902895,-0.050000,-0.050000,0.606157,-0.639845,0.000000,0.000000,-0.509246,0.555963,0.198130,0.154873,0.121615,-0.180976,-0.159537,-0.102876,0.454562,-0.571532
-0.050000,-0.050000,0.000000,0.000000,0.000000,0.000000,0.000000,0.000000,0.000000,0.100000,0.100000,-0.967536,-0.901068,-0.050000,-0.050000,0.605903,-0.635147,0.000000,0.000000,-0.506203,0.556686,0.195988,0.154024,0.125321,-0.185782,-0.160396,-0.102943,0.462045,-0.578361
-0.050000,-0.050000,0.000000,0.000000,0.000000,0.000000,0.000000,0.000000,0.000000,0.100000,0.100000,-0.964056,-0.898931,-0.050000,-0.050000,0.605726,-0.630289,0.000000,0.000000,-0.502878,0.557320,0.193592,0.153171,0.128668,-0.189960,-0.161454,-0.103203,0.469592,-0.585140
-0.050000,-0.050000,0.000000,0.000000,0.000000,0.000000,0.000000,0.000000,0.000000,0.100000,0.100000,-0.959945,-0.896553,-0.050000,-0.050000,0.605619,-0.625325,0.000000,0.000000,-0.499349,0.557910,0.190977,0.152313,0.131750,-0.193646,-0.162650,-0.103616,0.477152,-0.591860
-0.050000,-0.050000,0.000000,0.000000,0.000000,0.000000,0.000000,0.000000,0.000000,0.100000,0.100000,-0.954908,-0.893791,-0.050000,-0.050000,0.605501,-0.620212,0.000000,0.000000,-0.495702,0.558503,0.188138,0.151390,0.134349,-0.196437,-0.164028,-0.104284,0.484523,-0.598335
-0.050000,-0.050000,0.000000,0.000000,0.000000,0.000000,0.000000,0.000000,0.000000,0.100000,0.100000,-0.949316,-0.890783,-0.050000,-0.050000,0.605408,-0.615081,0.000000,0.000000,-0.492008,0.559131,0.185076,0.150404,0.136688,-0.198706,-0.165493,-0.105119,0.491678,-0.604581
-0.050000,-0.050000,0.000000,0.000000,0.000000,0.000000,0.000000,0.000000,0.000000,0.100000,0.100000,-0.943061,-0.887453,-0.050000,-0.050000,0.605250,-0.609925,0.000000,0.000000,-0.488359,0.559832,0.181793,0.149288,0.138644,-0.200257,-0.167049,-0.106174,0.498427,-0.610434
-0.050000,-0.050000,0.000000,0.000000,0.000000,0.000000,0.000000,0.000000,0.000000,0.100000,0.100000,-0.936301,-0.883826,-0.050000,-0.050000,0.605002,-0.604840,0.000000,0.000000,-0.484817,0.560609,0.178260,0.148001,0.140239,-0.201195,-0.168661,-0.107427,0.504630,-0.615780
-0.050000,-0.050000,0.000000,0.000000,0.000000,0.000000,0.000000,0.000000,0.000000,0.100000,0.100000,-0.929181,-0.879957,-0.050000,-0.050000,0.604677,-0.599842,0.000000,0.000000,-0.481343,0.561411,0.174518,0.146556,0.141554,-0.201674,-0.170295,-0.108826,0.510374,-0.620704
-0.050000,-0.050000,0.000000,0.000000,0.000000,0.000000,0.000000,0.000000,0.000000,0.100000,0.100000,-0.921706,-0.875764,-0.050000,-0.050000,0.604137,-0.595068,0.000000,0.000000,-0.478154,0.562321,0.170468,0.144804,0.142365,-0.201541,-0.171969,-0.110437,0.515144,-0.624765
-0.050000,-0.050000,0.000000,0.000000,0.000000,0.000000,0.000000,0.000000,0.000000,0.100000,0.100000,-0.914095,-0.871348,-0.050000,-0.050000,0.603482,-0.590520,0.000000,0.000000,-0.475073,0.563184,0.166204,0.142830,0.142843,-0.201072,-0.173628,-0.112142,0.519255,-0.628246
-0.050000,-0.050000,0.000000,0.000000,0.000000,0.000000,0.000000,0.000000,0.000000,0.100000,0.100000,-0.906421,-0.866695,-0.050000,-0.050000,0.602629,-0.586297,0.000000,0.000000,-0.472268,0.564066,0.161678,0.140545,0.142853,-0.200251,-0.175284,-0.113958,0.522380,-0.630883
-0.050000,-0.050000,0.000000,0.000000,0.000000,0.000000,0.000000,0.000000,0.000000,0.100000,0.100000,-0.898847,-0.861855,-0.050000,-0.050000,0.601615,-0.582472,0.000000,0.000000,-0.469727,0.564901,0.156948,0.137975,0.142393,-0.199206,-0.176909,-0.115814,0.524499,-0.632679
-0.050000,-0.050000,0.000000,0.000000,0.000000,0.000000,0.000000,0.000000,0.000000,0.100000,0.100000,-0.891415,-0.856868,-0.050000,-0.050000,0.600470,-0.578977,0.000000,0.000000,-0.467381,0.565646,0.152082,0.135159,0.141545,-0.198001,-0.178494,-0.117674,0.525824,-0.633813
-0.050000,-0.050000,0.000000,0.000000,0.000000,0.000000,0.000000,0.000000,0.000000,0.100000,0.100000,-0.884370,-0.851787,-0.050000,-0.050000,0.599191,-0.576085,0.000000,0.000000,-0.465522,0.566389,0.147103,0.132101,0.140102,-0.196747,-0.180017,-0.119476,0.525786,-0.633855
-0.050000,-0.050000,0.000000,0.000000,0.000000,0.000000,0.000000,0.000000,0.000000,0.100000,0.100000,-0.877693,-0.846658,-0.050000,-0.050000,0.597840,-0.573588,0.000000,0.000000,-0.463907,0.567001,0.142154,0.128892,0.138243,-0.195455,-0.181457,-0.121185,0.524907,-0.633225
-0.050000,-0.050000,0.000000,0.000000,0.000000,0.000000,0.000000,0.000000,0.000000,0.100000,0.100000,-0.871546,-0.841557,-0.050000,-0.050000,0.596459,-0.571653,0.000000,0.000000,-0.462768,0.567590,0.137311,0.125620,0.135883,-0.194231,-0.182790,-0.122738,0.522881,-0.631687
-0.050000,-0.050000,0.000000,0.000000,0.000000,0.000000,0.000000,0.000000,0.000000,0.100000,0.100000,-0.866007,-0.836562,-0.050000,-0.050000,0.595108,-0.570248,0.000000,0.000000,-0.462086,0.568142,0.132753,0.122435,0.133050,-0.193102,-0.183970,-0.124075,0.519809,-0.629306
-0.050000,-0.050000,0.000000,0.000000,0.000000,0.000000,0.000000,0.000000,0.000000,0.100000,0.100000,-0.861027,-0.831692,-0.050000,-0.050000,0.593769,-0.569234,0.000000,0.000000,-0.461764,0.568635,0.128490,0.119340,0.129826,-0.192030,-0.185031,-0.125239,0.515954,-0.626286
-0.050000,-0.050000,0.000000,0.000000,0.000000,0.000000,0.000000,0.000000,0.000000,0.100000,0.100000,-0.856856,-0.827123,-0.050000,-0.050000,0.592621,-0.568899,0.000000,0.000000,-0.462121,0.569234,0.124907,0.116751,0.126079,-0.191150,-0.185799,-0.126018,0.510858,-0.622190
-0.050000,-0.050000,0.000000,0.000000,0.000000,0.000000,0.000000,0.000000,0.000000,0.100000,0.100000,-0.853353,-0.822839,-0.050000,-0.050000,0.591527,-0.568893,0.000000,0.000000,-0.462830,0.569803,0.121915,0.114526,0.121923,-0.190293,-0.186391,-0.126571,0.505076,-0.617455
-0.050000,-0.050000,0.000000,0.000000,0.000000,0.000000,0.000000,0.000000,0.000000,0.100000,0.100000,-0.850606,-0.818948,-0.050000,-0.050000,0.590626,-0.569400,0.000000,0.000000,-0.464078,0.570471,0.119797,0.112994,0.117305,-0.189524,-0.186664,-0.126749,0.498384,-0.611807
-0.050000,-0.050000,0.000000,0.000000,0.000000,0.000000,0.000000,0.000000,0.000000,0.100000,0.100000,-0.848588,-0.815508,-0.050000,-0.050000,0.589874,-0.570308,0.000000,0.000000,-0.465732,0.571199,0.118671,0.112239,0.112215,-0.188736,-0.186598,-0.126567,0.490957,-0.605303
-0.050000,-0.050000,0.000000,0.000000,0.000000,0.000000,0.000000,0.000000,0.000000,0.100000,0.100000,-0.847213,-0.812491,-0.050000,-0.050000,0.589213,-0.571492,0.000000,0.000000,-0.467693,0.571970,0.118377,0.112120,0.106743,-0.187891,-0.186292,-0.126132,0.483008,-0.598153
-0.050000,-0.050000,0.000000,0.000000,0.000000,0.000000,0.000000,0.000000,0.000000,0.100000,0.100000,-0.846511,-0.810030,-0.050000,-0.050000,0.588769,-0.573151,0.000000,0.000000,-0.469979,0.572815,0.119488,0.113140,0.100741,-0.186909,-0.185425,-0.125188,0.474344,-0.589912
-0.050000,-0.050000,0.000000,0.000000,0.000000,0.000000,0.000000,0.000000,0.000000,0.100000,0.100000,-0.846391,-0.808056,-0.050000,-0.050000,0.588351,-0.574990,0.000000,0.000000,-0.472395,0.573657,0.121507,0.114814,0.094377,-0.185727,-0.184296,-0.124024,0.465357,-0.581065
-0.050000,-0.050000,0.000000,0.000000,0.000000,0.000000,0.000000,0.000000,0.000000,0.100000,0.100000,-0.846759,-0.806575,-0.050000,-0.050000,0.588039,-0.577139,0.000000,0.000000,-0.474877,0.574461,0.124726,0.117359,0.087629,-0.184286,-0.182696,-0.122493,0.456010,-0.571405
-0.050000,-0.050000,0.000000,0.000000,0.000000,0.000000,0.000000,0.000000,0.000000,0.100000,0.100000,-0.847535,-0.805550,-0.050000,-0.050000,0.587754,-0.579488,0.000000,0.000000,-0.477268,0.575133,0.128957,0.120512,0.080611,-0.182518,-0.180712,-0.120706,0.446509,-0.561125
-0.050000,-0.050000,0.000000,0.000000,0.000000,0.000000,0.000000,0.000000,0.000000,0.100000,0.100000,-0.848637,-0.804886,-0.050000,-0.050000,0.587470,-0.581991,0.000000,0.000000,-0.479576,0.575701,0.133936,0.124084,0.073425,-0.180484,-0.178451,-0.118736,0.436931,-0.550391
-0.050000,-0.050000,0.000000,0.000000,0.000000,0.000000,0.000000,0.000000,0.000000,0.100000,0.100000,-0.849906,-0.804559,-0.050000,-0.050000,0.587213,-0.584675,0.000000,0.000000,-0.481476,0.575865,0.139836,0.127916,0.066202,-0.177999,-0.175759,-0.116558,0.427483,-0.539243
-0.050000,-0.050000,0.000000,0.000000,0.000000,0.000000,0.000000,0.000000,0.000000,0.100000,0.100000,-0.851323,-0.804437,-0.050000,-0.050000,0.586932,-0.587449,0.000000,0.000000,-0.483145,0.575783,0.146126,0.131703,0.059056,-0.175231,-0.172904,-0.114301,0.418187,-0.527930
-0.050000,-0.050000,0.000000,0.000000,0.000000,0.000000,0.000000,0.000000,0.000000,0.100000,0.100000,-0.852725,-0.804438,-0.050000,-0.050000,0.586665,-0.590301,0.000000,0.000000,-0.484344,0.575197,0.152780,0.135190,0.052146,-0.172092,-0.169844,-0.111995,0.409229,-0.516636
-0.050000,-0.050000,0.000000,0.000000,0.000000,0.000000,0.000000,0.000000,0.000000,0.100000,0.100000,-0.854028,-0.804432,-0.050000,-0.050000,0.586432,-0.593180,0.000000,0.000000,-0.485094,0.574064,0.159440,0.138044,0.045611,-0.168635,-0.166739,-0.109721,0.400690,-0.505619
-0.050000,-0.050000,0.000000,0.000000,0.000000,0.000000,0.000000,0.000000,0.000000,0.100000,0.100000,-0.855183,-0.804320,-0.050000,-0.050000,0.586237,-0.596101,0.000000,0.000000,-0.485512,0.572496,0.166003,0.140299,0.039420,-0.164969,-0.163603,-0.107436,0.392490,-0.494847
-0.050000,-0.050000,0.000000,0.000000,0.000000,0.000000,0.000000,0.000000,0.000000,0.100000,0.100000,-0.855995,-0.803983,-0.050000,-0.050000,0.586189,-0.598930,0.000000,0.000000,-0.485308,0.570028,0.172043,0.141231,0.033870,-0.160962,-0.160659,-0.105333,0.384954,-0.484979
-0.050000,-0.050000,0.000000,0.000000,0.000000,0.000000,0.000000,0.000000,0.000000,0.100000,0.100000,-0.856462,-0.803288,-0.050000,-0.050000,0.586275,-0.601773,0.000000,0.000000,-0.484835,0.567054,0.177568,0.141210,0.028756,-0.156843,-0.157834,-0.103222,0.377782,-0.475661
-0.050000,-0.050000,0.000000,0.000000,0.000000,0.000000,0.000000,0.000000,0.000000,0.100000,0.100000,-0.856451,-0.802168,-0.050000,-0.050000,0.586580,-0.604516,0.000000,0.000000,-0.483939,0.563271,0.182278,0.139807,0.024196,-0.152551,-0.155311,-0.101231,0.371134,-0.467365
-0.050000,-0.050000,0.000000,0.000000,0.000000,0.000000,0.000000,0.000000,0.000000,0.100000,0.100000,-0.855853,-0.800492,-0.050000,-0.050000,0.587167,-0.607203,0.000000,0.000000,-0.482773,0.558770,0.186068,0.137081,0.020099,-0.148217,-0.153117,-0.099271,0.364883,-0.460101
-0.050000,-0.050000,0.000000,0.000000,0.000000,0.000000,0.000000,0.000000,0.000000,0.100000,0.100000,-0.854716,-0.798265,-0.050000,-0.050000,0.587992,-0.609844,0.000000,0.000000,-0.481420,0.553713,0.189079,0.133278,0.016349,-0.143903,-0.151152,-0.097274,0.358909,-0.453631
-0.050000,-0.050000,0.000000,0.000000,0.000000,0.000000,0.000000,0.000000,0.000000,0.100000,0.100000,-0.852684,-0.795328,-0.050000,-0.050000,0.589275,-0.612422,0.000000,0.000000,-0.479875,0.547773,0.190900,0.128002,0.012998,-0.139719,-0.149706,-0.095295,0.353267,-0.448645
-0.050000,-0.050000,0.000000,0.000000,0.000000,0.000000,0.000000,0.000000,0.000000,0.100000,0.100000,-0.849916,-0.791698,-0.050000,-0.050000,0.590882,-0.614998,0.000000,0.000000,-0.478282,0.541363,0.191961,0.121820,0.009879,-0.135771,-0.148476,-0.093173,0.347748,-0.444475
-0.050000,-0.050000,0.000000,0.000000,0.000000,0.000000,0.000000,0.000000,0.000000,0.100000,0.100000,-0.846162,-0.787347,-0.050000,-0.050000,0.592944,-0.617589,0.000000,0.000000,-0.476674,0.534314,0.192160,0.114658,0.007004,-0.132197,-0.147603,-0.090931,0.342347,-0.441509
-0.050000,-0.050000,0.000000,0.000000,0.000000,0.000000,0.000000,0.000000,0.000000,0.100000,0.100000,-0.841327,-0.782270,-0.050000,-0.050000,0.595474,-0.620261,0.000000,0.000000,-0.475142,0.526781,0.191795,0.106833,0.004369,-0.129177,-0.146951,-0.088490,0.336972,-0.439589
-0.050000,-0.050000,0.000000,0.000000,0.000000,0.000000,0.000000,0.000000,0.000000,0.100000,0.100000,-0.835613,-0.776571,-0.050000,-0.050000,0.598341,-0.622936,0.000000,0.000000,-0.473666,0.518908,0.191014,0.098522,0.001921,-0.126640,-0.146457,-0.085882,0.331608,-0.438462
-0.050000,-0.050000,0.000000,0.000000,0.000000,0.000000,0.000000,0.000000,0.000000,0.100000,0.100000,-0.828323,-0.770227,-0.050000,-0.050000,0.601861,-0.625863,0.000000,0.000000,-0.472438,0.510592,0.190307,0.090045,-0.000080,-0.125115,-0.146033,-0.082995,0.326193,-0.438581
-0.050000,-0.050000,0.000000,0.000000,0.000000,0.000000,0.000000,0.000000,0.000000,0.100000,0.100000,-0.820031,-0.763395,-0.050000,-0.050000,0.605689,-0.628772,0.000000,0.000000,-0.471342,0.502135,0.189752,0.081535,-0.001730,-0.124287,-0.145630,-0.079937,0.320769,-0.439404
-0.050000,-0.050000,0.000000,0.000000,0.000000,0.000000,0.000000,0.000000,0.000000,0.100000,0.100000,-0.810247,-0.756195,-0.050000,-0.050000,0.610038,-0.631859,0.000000,0.000000,-0.470523,0.493503,0.189959,0.073356,-0.002750,-0.124508,-0.145084,-0.076635,0.315294,-0.441157
-0.050000,-0.050000,0.000000,0.000000,0.000000,0.000000,0.000000,0.000000,0.000000,0.100000,0.100000,-0.799044,-0.748828,-0.050000,-0.050000,0.614787,-0.635000,0.000000,0.000000,-0.469990,0.484882,0.191359,0.065772,-0.002975,-0.125740,-0.144291,-0.073134,0.309779,-0.443671
-0.050000,-0.050000,0.000000,0.000000,0.000000,0.000000,0.000000,0.000000,0.000000,0.100000,0.100000,-0.786782,-0.741396,-0.050000,-0.050000,0.619749,-0.638082,0.000000,0.000000,-0.469651,0.476361,0.193785,0.058759,-0.002524,-0.127750,-0.143375,-0.069524,0.304271,-0.446768
-0.050000,-0.050000,0.000000,0.000000,0.000000,0.000000,0.000000,0.000000,0.000000,0.100000,0.100000,-0.772554,-0.734332,-0.050000,-0.050000,0.625181,-0.641260,0.000000,0.000000,-0.469785,0.468050,0.198863,0.053078,-0.000644,-0.130986,-0.141780,-0.065673,0.298627,-0.450585
-0.050000,-0.050000,0.000000,0.000000,0.000000,0.000000,0.000000,0.000000,0.000000,0.100000,0.100000,-0.757362,-0.727638,-0.050000,-0.050000,0.630578,-0.644178,0.000000,0.000000,-0.470113,0.460121,0.205618,0.048374,0.002186,-0.134845,-0.140034,-0.061813,0.292998,-0.454812
-0.050000,-0.050000,0.000000,0.000000,0.000000,0.000000,0.000000,0.000000,0.000000,0.100000,0.100000,-0.740559,-0.721716,-0.050000,-0.050000,0.636079,-0.646962,0.000000,0.000000,-0.470811,0.452636,0.215239,0.045141,0.006454,-0.139493,-0.137697,-0.057858,0.287229,-0.459445
-0.050000,-0.050000,0.000000,0.000000,0.000000,0.000000,0.000000,0.000000,0.000000,0.100000,0.100000,-0.722427,-0.716775,-0.050000,-0.050000,0.641353,-0.649402,0.000000,0.000000,-0.471781,0.445766,0.227691,0.043389,0.012075,-0.144606,-0.134941,-0.053928,0.281351,-0.464315
-0.050000,-0.050000,0.000000,0.000000,0.000000,0.000000,0.000000,0.000000,0.000000,0.100000,0.100000,-0.703337,-0.712748,-0.050000,-0.050000,0.646284,-0.651524,0.000000,0.000000,-0.472892,0.439500,0.242417,0.042922,0.018783,-0.149995,-0.132017,-0.050086,0.275415,-0.469360
-0.050000,-0.050000,0.000000,0.000000,0.000000,0.000000,0.000000,0.000000,0.000000,0.100000,0.100000,-0.682456,-0.710313,-0.050000,-0.050000,0.650583,-0.653164,0.000000,0.000000,-0.474293,0.434081,0.261041,0.044243,0.026983,-0.155470,-0.128441,-0.046356,0.269230,-0.474384
-0.050000,-0.050000,0.000000,0.000000,0.000000,0.000000,0.000000,0.000000,0.000000,0.100000,0.100000,-0.660818,-0.709041,-0.050000,-0.050000,0.654060,-0.654366,0.000000,0.000000,-0.475675,0.429492,0.281920,0.046844,0.036022,-0.160801,-0.124956,-0.042870,0.263043,-0.479394
-0.050000,-0.050000,0.000000,0.000000,0.000000,0.000000,0.000000,0.000000,0.000000,0.100000,0.100000,-0.637826,-0.709305,-0.050000,-0.050000,0.656436,-0.655065,0.000000,0.000000,-0.477098,0.425847,0.305967,0.050870,0.045898,-0.165766,-0.121251,-0.039675,0.256729,-0.484203
-0.050000,-0.050000,0.000000,0.000000,0.000000,0.000000,0.000000,0.000000,0.000000,0.100000,0.100000,-0.613832,-0.710969,-0.050000,-0.050000,0.657414,-0.655274,0.000000,0.000000,-0.478408,0.423279,0.332679,0.056119,0.056133,-0.170159,-0.117643,-0.036875,0.250424,-0.488669
-0.050000,-0.050000,0.000000,0.000000,0.000000,0.000000,0.000000,0.000000,0.000000,0.100000,0.100000,-0.589098,-0.713799,-0.050000,-0.050000,0.657101,-0.655152,0.000000,0.000000,-0.479545,0.421647,0.361463,0.062384,0.066600,-0.174040,-0.114263,-0.034439,0.244142,-0.492864
-0.050000,-0.050000,0.000000,0.000000,0.000000,0.000000,0.000000,0.000000,0.000000,0.100000,0.100000,-0.563233,-0.718041,-0.050000,-0.050000,0.654678,-0.654540,0.000000,0.000000,-0.480490,0.421501,0.393206,0.069704,0.076506,-0.176975,-0.110974,-0.032562,0.237922,-0.496106
-0.050000,-0.050000,0.000000,0.000000,0.000000,0.000000,0.000000,0.000000,0.000000,0.100000,0.100000,-0.536966,-0.723220,-0.050000,-0.050000,0.650667,-0.653777,0.000000,0.000000,-0.481193,0.422533,0.426711,0.077893,0.086019,-0.179310,-0.108084,-0.031100,0.231802,-0.498687
-0.050000,-0.050000,0.000000,0.000000,0.000000,0.000000,0.000000,0.000000,0.000000,0.100000,0.100000,-0.510143,-0.729350,-0.050000,-0.050000,0.644547,-0.652818,0.000000,0.000000,-0.481678,0.425163,0.462467,0.086938,0.094474,-0.180870,-0.105405,-0.030133,0.225740,-0.499951
-0.050000,-0.050000,0.000000,0.000000,0.000000,0.000000,0.000000,0.000000,0.000000,0.100000,0.100000,-0.483194,-0.736174,-0.050000,-0.050000,0.636468,-0.651891,0.000000,0.000000,-0.481997,0.429522,0.500167,0.096897,0.101763,-0.181879,-0.102941,-0.029548,0.219669,-0.499563
-0.050000,-0.050000,0.000000,0.000000,0.000000,0.000000,0.000000,0.000000,0.000000,0.100000,0.100000,-0.456250,-0.743581,-0.050000,-0.050000,0.626678,-0.651023,0.000000,0.000000,-0.482155,0.435256,0.539407,0.107626,0.108144,-0.182483,-0.100691,-0.029277,0.213543,-0.497835
-0.050000,-0.050000,0.000000,0.000000,0.000000,0.000000,0.000000,0.000000,0.000000,0.100000,0.100000,-0.429764,-0.751298,-0.050000,-0.050000,0.614860,-0.650491,0.000000,0.000000,-0.482321,0.443508,0.580789,0.119605,0.112823,-0.182927,-0.098255,-0.029156,0.207059,-0.492952
-0.050000,-0.050000,0.000000,0.000000,0.000000,0.000000,0.000000,0.000000,0.000000,0.100000,0.100000,-0.403796,-0.759378,-0.050000,-0.050000,0.601609,-0.650233,0.000000,0.000000,-0.482436,0.453232,0.623480,0.132542,0.116677,-0.183378,-0.095813,-0.029135,0.200244,-0.486151
-0.050000,-0.050000,0.000000,0.000000,0.000000,0.000000,0.000000,0.000000,0.000000,0.100000,0.100000,-0.378770,-0.767514,-0.050000,-0.050000,0.586991,-0.650482,0.000000,0.000000,-0.482605,0.465169,0.667689,0.146794,0.119421,-0.184210,-0.092998,-0.028997,0.192772,-0.476147
-0.050000,-0.050000,0.000000,0.000000,0.000000,0.000000,0.000000,0.000000,0.000000,0.100000,0.100000,-0.354892,-0.775669,-0.050000,-0.050000,0.571449,-0.651311,0.000000,0.000000,-0.482809,0.478934,0.712912,0.162327,0.121495,-0.185724,-0.089769,-0.028634,0.184498,-0.463178
-0.050000,-0.050000,0.000000,0.000000,0.000000,0.000000,0.000000,0.000000,0.000000,0.100000,0.100000,-0.331958,-0.783859,-0.050000,-0.050000,0.555133,-0.652526,0.000000,0.000000,-0.482948,0.494004,0.758810,0.178832,0.123171,-0.187867,-0.086176,-0.028120,0.175494,-0.447931
-0.050000,-0.050000,0.000000,0.000000,0.000000,0.000000,0.000000,0.000000,0.000000,0.100000,0.100000,-0.310870,-0.791656,-0.050000,-0.050000,0.538889,-0.654788,0.000000,0.000000,-0.483089,0.510948,0.804801,0.196737,0.124611,-0.191577,-0.081918,-0.027071,0.165242,-0.429157
-0.050000,-0.050000,0.000000,0.000000,0.000000,0.000000,0.000000,0.000000,0.000000,0.100000,0.100000,-0.290820,-0.799384,-0.050000,-0.050000,0.522557,-0.657517,0.000000,0.000000,-0.483027,0.528470,0.850425,0.215210,0.126080,-0.196289,-0.077279,-0.025868,0.154124,-0.408753
-0.050000,-0.050000,0.000000,0.000000,0.000000,0.000000,0.000000,0.000000,0.000000,0.100000,0.100000,-0.272412,-0.806691,-0.050000,-0.050000,0.506981,-0.661259,0.000000,0.000000,-0.482745,0.546693,0.894858,0.234253,0.127780,-0.202643,-0.072248,-0.024324,0.141942,-0.386415
-0.050000,-0.050000,0.000000,0.000000,0.000000,0.000000,0.000000,0.000000,0.000000,0.100000,0.100000,-0.255394,-0.813673,-0.050000,-0.050000,0.492420,-0.665993,0.000000,0.000000,-0.482120,0.564713,0.937253,0.253148,0.129802,-0.210461,-0.067091,-0.022661,0.128907,-0.363401
-0.050000,-0.050000,0.000000,0.000000,0.000000,0.000000,0.000000,0.000000,0.000000,0.100000,0.100000,-0.239363,-0.820265,-0.050000,-0.050000,0.478784,-0.671473,0.000000,0.000000,-0.481175,0.582360,0.977760,0.271686,0.132140,-0.219456,-0.061773,-0.020974,0.115167,-0.340063
-0.050000,-0.050000,0.000000,0.000000,0.000000,0.000000,0.000000,0.000000,0.000000,0.100000,0.100000,-0.225103,-0.826503,-0.050000,-0.050000,0.467345,-0.678742,0.000000,0.000000,-0.479750,0.598485,1.013965,0.288750,0.134905,-0.229940,-0.057085,-0.019413,0.101018,-0.318058
-0.050000,-0.050000,0.000000,0.000000,0.000000,0.000000,0.000000,0.000000,0.000000,0.100000,0.100000,-0.211554,-0.832300,-0.050000,-0.050000,0.457307,-0.687008,0.000000,0.000000,-0.478033,0.613195,1.047137,0.304360,0.137902,-0.241116,-0.052574,-0.018036,0.086532,-0.297242
-0.050000,-0.050000,0.000000,0.000000,0.000000,0.000000,0.000000,0.000000,0.000000,0.100000,0.100000,-0.199267,-0.837839,-0.050000,-0.050000,0.449474,-0.697037,0.000000,0.000000,-0.475945,0.625560,1.075562,0.317557,0.141141,-0.252867,-0.049023,-0.017016,0.072185,-0.279129
-0.050000,-0.050000,0.000000,0.000000,0.000000,0.000000,0.000000,0.000000,0.000000,0.100000,0.100000,-0.187882,-0.843118,-0.050000,-0.050000,0.443706,-0.708728,0.000000,0.000000,-0.473612,0.635264,1.099279,0.327914,0.144494,-0.264525,-0.046452,-0.016419,0.058204,-0.264161
-0.050000,-0.050000,0.000000,0.000000,0.000000,0.000000,0.000000,0.000000,0.000000,0.100000,0.100000,-0.177097,-0.848005,-0.050000,-0.050000,0.439660,-0.721799,0.000000,0.000000,-0.471182,0.642763,1.119213,0.335849,0.147896,-0.275976,-0.044556,-0.016085,0.044511,-0.251678
-0.050000,-0.050000,0.000000,0.000000,0.000000,0.000000,0.000000,0.000000,0.000000,0.100000,0.100000,-0.167498,-0.853048,-0.050000,-0.050000,0.438032,-0.736987,0.000000,0.000000,-0.468589,0.646352,1.132998,0.339588,0.151294,-0.286033,-0.044538,-0.016477,0.032089,-0.244272
-0.050000,-0.050000,0.000000,0.000000,0.000000,0.000000,0.000000,0.000000,0.000000,0.100000,0.100000,-0.158293,-0.857581,-0.050000,-0.050000,0.437987,-0.753464,0.000000,0.000000,-0.466100,0.647551,1.143259,0.340652,0.154631,-0.295035,-0.045164,-0.017081,0.020227,-0.239472
-0.050000,-0.050000,0.000000,0.000000,0.000000,0.000000,0.000000,0.000000,0.000000,0.100000,0.100000,-0.149950,-0.862096,-0.050000,-0.050000,0.439713,-0.771417,0.000000,0.000000,-0.463685,0.645349,1.148767,0.338108,0.157899,-0.302020,-0.047239,-0.018257,0.009668,-0.238818
-0.050000,-0.050000,0.000000,0.000000,0.000000,0.000000,0.000000,0.000000,0.000000,0.100000,0.100000,-0.142254,-0.866246,-0.050000,-0.050000,0.442823,-0.790348,0.000000,0.000000,-0.461443,0.640233,1.150609,0.332607,0.161082,-0.306776,-0.050267,-0.019855,0.000264,-0.241401
-0.050000,-0.050000,0.000000,0.000000,0.000000,0.000000,0.000000,0.000000,0.000000,0.100000,0.100000,-0.135030,-0.869953,-0.050000,-0.050000,0.447003,-0.809996,0.000000,0.000000,-0.459404,0.632841,1.149753,0.324858,0.164172,-0.309774,-0.053940,-0.021730,-0.008254,-0.246345
