RRGGZZ/g1_deploy_sonic/data/example_scalelab/qwen_audio/g1_ref_en/case_test13/joint_pos.csv
joint_0,joint_1,joint_2,joint_3,joint_4,joint_5,joint_6,joint_7,joint_8,joint_9,joint_10,joint_11,joint_12,joint_13,joint_14,joint_15,joint_16,joint_17,joint_18,joint_19,joint_20,joint_21,joint_22,joint_23,joint_24,joint_25,joint_26,joint_27,joint_28
-0.050000,-0.050000,0.000000,0.000000,0.000000,0.000000,0.000000,0.000000,0.000000,0.100000,0.100000,-0.240731,-0.620419,-0.050000,-0.050000,0.409562,-0.703913,0.000000,0.000000,-0.556068,0.286835,1.072414,0.002558,0.130349,-0.344577,-0.096515,-0.050147,0.011974,-0.559863
-0.050000,-0.050000,0.000000,0.000000,0.000000,0.000000,0.000000,0.000000,0.000000,0.100000,0.100000,-0.242930,-0.630437,-0.050000,-0.050000,0.400618,-0.708183,0.000000,0.000000,-0.554686,0.285663,1.092831,0.009285,0.134010,-0.340388,-0.102807,-0.054286,0.012487,-0.563713
-0.050000,-0.050000,0.000000,0.000000,0.000000,0.000000,0.000000,0.000000,0.000000,0.100000,0.100000,-0.243770,-0.639352,-0.050000,-0.050000,0.392794,-0.712118,0.000000,0.000000,-0.552674,0.283619,1.111580,0.014914,0.137863,-0.335954,-0.107783,-0.058126,0.012531,-0.566794
-0.050000,-0.050000,0.000000,0.000000,0.000000,0.000000,0.000000,0.000000,0.000000,0.100000,0.100000,-0.241891,-0.646061,-0.050000,-0.050000,0.387211,-0.715385,0.000000,0.000000,-0.549404,0.279831,1.126992,0.018346,0.142100,-0.331032,-0.110130,-0.061368,0.011634,-0.568342
-0.050000,-0.050000,0.000000,0.000000,0.000000,0.000000,0.000000,0.000000,0.000000,0.100000,0.100000,-0.238334,-0.651492,-0.050000,-0.050000,0.382782,-0.718487,0.000000,0.000000,-0.545255,0.275239,1.140803,0.020780,0.146055,-0.325680,-0.111064,-0.064076,0.010378,-0.569044
-0.050000,-0.050000,0.000000,0.000000,0.000000,0.000000,0.000000,0.000000,0.000000,0.100000,0.100000,-0.233938,-0.656285,-0.050000,-0.050000,0.378931,-0.721507,0.000000,0.000000,-0.540666,0.270246,1.153812,0.022714,0.149868,-0.320112,-0.111292,-0.066519,0.008942,-0.569325
-0.050000,-0.050000,0.000000,0.000000,0.000000,0.000000,0.000000,0.000000,0.000000,0.100000,0.100000,-0.227951,-0.659759,-0.050000,-0.050000,0.376193,-0.724653,0.000000,0.000000,-0.534922,0.264858,1.165209,0.024029,0.152790,-0.313911,-0.110353,-0.068272,0.007456,-0.568875
-0.050000,-0.050000,0.000000,0.000000,0.000000,0.000000,0.000000,0.000000,0.000000,0.100000,0.100000,-0.221636,-0.662882,-0.050000,-0.050000,0.373760,-0.727885,0.000000,0.000000,-0.528849,0.259510,1.176070,0.025283,0.155330,-0.307536,-0.109205,-0.069812,0.006040,-0.568302
-0.050000,-0.050000,0.000000,0.000000,0.000000,0.000000,0.000000,0.000000,0.000000,0.100000,0.100000,-0.214668,-0.665301,-0.050000,-0.050000,0.371937,-0.731291,0.000000,0.000000,-0.522118,0.254245,1.185860,0.026414,0.157110,-0.300816,-0.107635,-0.070925,0.004762,-0.567483
-0.050000,-0.050000,0.000000,0.000000,0.000000,0.000000,0.000000,0.000000,0.000000,0.100000,0.100000,-0.207343,-0.667082,-0.050000,-0.050000,0.370683,-0.734843,0.000000,0.000000,-0.514918,0.249296,1.194402,0.027577,0.158077,-0.293885,-0.105874,-0.071630,0.003704,-0.566607
-0.050000,-0.050000,0.000000,0.000000,0.000000,0.000000,0.000000,0.000000,0.000000,0.100000,0.100000,-0.199841,-0.668543,-0.050000,-0.050000,0.369714,-0.738468,0.000000,0.000000,-0.507484,0.244506,1.202320,0.028754,0.158639,-0.286850,-0.104017,-0.072132,0.002755,-0.565703
-0.050000,-0.050000,0.000000,0.000000,0.000000,0.000000,0.000000,0.000000,0.000000,0.100000,0.100000,-0.192172,-0.669097,-0.050000,-0.050000,0.369552,-0.742153,0.000000,0.000000,-0.499746,0.240437,1.208114,0.030139,0.158066,-0.279736,-0.102115,-0.072074,0.002175,-0.564926
-0.050000,-0.050000,0.000000,0.000000,0.000000,0.000000,0.000000,0.000000,0.000000,0.100000,0.100000,-0.184559,-0.669375,-0.050000,-0.050000,0.369630,-0.745781,0.000000,0.000000,-0.492062,0.236666,1.213170,0.031652,0.157187,-0.272665,-0.100252,-0.071858,0.001714,-0.564236
-0.050000,-0.050000,0.000000,0.000000,0.000000,0.000000,0.000000,0.000000,0.000000,0.100000,0.100000,-0.177057,-0.669103,-0.050000,-0.050000,0.370185,-0.749297,0.000000,0.000000,-0.484489,0.233492,1.216749,0.033422,0.155695,-0.265681,-0.098468,-0.071325,0.001493,-0.563719
-0.050000,-0.050000,0.000000,0.000000,0.000000,0.000000,0.000000,0.000000,0.000000,0.100000,0.100000,-0.169871,-0.668391,-0.050000,-0.050000,0.371124,-0.752540,0.000000,0.000000,-0.477346,0.230999,1.218932,0.035612,0.153786,-0.258870,-0.096816,-0.070541,0.001488,-0.563403
-0.050000,-0.050000,0.000000,0.000000,0.000000,0.000000,0.000000,0.000000,0.000000,0.100000,0.100000,-0.162843,-0.667459,-0.050000,-0.050000,0.372254,-0.755646,0.000000,0.000000,-0.470418,0.228847,1.220416,0.038013,0.151669,-0.252146,-0.095230,-0.069631,0.001591,-0.563187
-0.050000,-0.050000,0.000000,0.000000,0.000000,0.000000,0.000000,0.000000,0.000000,0.100000,0.100000,-0.156569,-0.666126,-0.050000,-0.050000,0.373781,-0.758134,0.000000,0.000000,-0.464559,0.227809,1.220110,0.041365,0.149242,-0.245703,-0.093841,-0.068422,0.001974,-0.563220
-0.050000,-0.050000,0.000000,0.000000,0.000000,0.000000,0.000000,0.000000,0.000000,0.100000,0.100000,-0.150626,-0.664771,-0.050000,-0.050000,0.375377,-0.760374,0.000000,0.000000,-0.459158,0.227156,1.219346,0.045153,0.146806,-0.239327,-0.092494,-0.067123,0.002432,-0.563286
-0.050000,-0.050000,0.000000,0.000000,0.000000,0.000000,0.000000,0.000000,0.000000,0.100000,0.100000,-0.145344,-0.663371,-0.050000,-0.050000,0.377112,-0.762117,0.000000,0.000000,-0.454676,0.227276,1.217665,0.049811,0.144352,-0.233086,-0.091230,-0.065645,0.003041,-0.563420
-0.050000,-0.050000,0.000000,0.000000,0.000000,0.000000,0.000000,0.000000,0.000000,0.100000,0.100000,-0.140838,-0.662165,-0.050000,-0.050000,0.378875,-0.763353,0.000000,0.000000,-0.451211,0.228153,1.215347,0.055544,0.142017,-0.226888,-0.089982,-0.063966,0.003759,-0.563461
-0.050000,-0.050000,0.000000,0.000000,0.000000,0.000000,0.000000,0.000000,0.000000,0.100000,0.100000,-0.136722,-0.661054,-0.050000,-0.050000,0.380651,-0.764336,0.000000,0.000000,-0.448256,0.229410,1.212710,0.061814,0.139743,-0.220712,-0.088740,-0.062187,0.004533,-0.563455
-0.050000,-0.050000,0.000000,0.000000,0.000000,0.000000,0.000000,0.000000,0.000000,0.100000,0.100000,-0.133865,-0.660541,-0.050000,-0.050000,0.382337,-0.764676,0.000000,0.000000,-0.446797,0.231700,1.209444,0.069842,0.137752,-0.214477,-0.087428,-0.060044,0.005410,-0.562995
-0.050000,-0.050000,0.000000,0.000000,0.000000,0.000000,0.000000,0.000000,0.000000,0.100000,0.100000,-0.131429,-0.660290,-0.050000,-0.050000,0.383965,-0.764882,0.000000,0.000000,-0.445768,0.234273,1.206027,0.078416,0.135856,-0.208215,-0.086084,-0.057767,0.006308,-0.562269
-0.050000,-0.050000,0.000000,0.000000,0.000000,0.000000,0.000000,0.000000,0.000000,0.100000,0.100000,-0.129833,-0.660566,-0.050000,-0.050000,0.385476,-0.764820,0.000000,0.000000,-0.445597,0.237410,1.202307,0.088082,0.134150,-0.201900,-0.084672,-0.055220,0.007247,-0.561013
-0.050000,-0.050000,0.000000,0.000000,0.000000,0.000000,0.000000,0.000000,0.000000,0.100000,0.100000,-0.129018,-0.661395,-0.050000,-0.050000,0.386842,-0.764713,0.000000,0.000000,-0.446047,0.240943,1.198289,0.098544,0.132573,-0.195631,-0.083239,-0.052440,0.008233,-0.559049
-0.050000,-0.050000,0.000000,0.000000,0.000000,0.000000,0.000000,0.000000,0.000000,0.100000,0.100000,-0.128593,-0.662499,-0.050000,-0.050000,0.388137,-0.764584,0.000000,0.000000,-0.446808,0.244672,1.194124,0.109404,0.131063,-0.189384,-0.081794,-0.049545,0.009242,-0.556731
-0.050000,-0.050000,0.000000,0.000000,0.000000,0.000000,0.000000,0.000000,0.000000,0.100000,0.100000,-0.129163,-0.664309,-0.050000,-0.050000,0.389203,-0.764759,0.000000,0.000000,-0.448055,0.248716,1.189403,0.120703,0.129608,-0.183551,-0.080489,-0.046504,0.010403,-0.553271
-0.050000,-0.050000,0.000000,0.000000,0.000000,0.000000,0.000000,0.000000,0.000000,0.100000,0.100000,-0.129987,-0.666271,-0.050000,-0.050000,0.390193,-0.765145,0.000000,0.000000,-0.449311,0.252779,1.184448,0.131835,0.128126,-0.178020,-0.079314,-0.043533,0.011666,-0.549496
-0.050000,-0.050000,0.000000,0.000000,0.000000,0.000000,0.000000,0.000000,0.000000,0.100000,0.100000,-0.131317,-0.668539,-0.050000,-0.050000,0.391032,-0.765954,0.000000,0.000000,-0.450585,0.256882,1.179026,0.142631,0.126587,-0.173093,-0.078396,-0.040703,0.013134,-0.545091
-0.050000,-0.050000,0.000000,0.000000,0.000000,0.000000,0.000000,0.000000,0.000000,0.100000,0.100000,-0.132975,-0.670907,-0.050000,-0.050000,0.391715,-0.767327,0.000000,0.000000,-0.451616,0.260903,1.173081,0.152470,0.124930,-0.169118,-0.077909,-0.038309,0.014932,-0.540371
-0.050000,-0.050000,0.000000,0.000000,0.000000,0.000000,0.000000,0.000000,0.000000,0.100000,0.100000,-0.134798,-0.673325,-0.050000,-0.050000,0.392321,-0.768981,0.000000,0.000000,-0.452527,0.264882,1.166874,0.161831,0.123216,-0.165619,-0.077639,-0.036133,0.016894,-0.535494
-0.050000,-0.050000,0.000000,0.000000,0.000000,0.000000,0.000000,0.000000,0.000000,0.100000,0.100000,-0.136847,-0.675603,-0.050000,-0.050000,0.392679,-0.771508,0.000000,0.000000,-0.452820,0.268653,1.159938,0.169079,0.121323,-0.163930,-0.078208,-0.035015,0.019485,-0.530774
-0.050000,-0.050000,0.000000,0.000000,0.000000,0.000000,0.000000,0.000000,0.000000,0.100000,0.100000,-0.138893,-0.677770,-0.050000,-0.050000,0.392947,-0.774266,0.000000,0.000000,-0.452885,0.272360,1.152836,0.175553,0.119403,-0.162869,-0.079072,-0.034321,0.022279,-0.526294
-0.050000,-0.050000,0.000000,0.000000,0.000000,0.000000,0.000000,0.000000,0.000000,0.100000,0.100000,-0.140935,-0.679712,-0.050000,-0.050000,0.393036,-0.777486,0.000000,0.000000,-0.452490,0.275937,1.145400,0.180479,0.117430,-0.163066,-0.080527,-0.034474,0.025480,-0.522294
-0.050000,-0.050000,0.000000,0.000000,0.000000,0.000000,0.000000,0.000000,0.000000,0.100000,0.100000,-0.142858,-0.681395,-0.050000,-0.050000,0.392942,-0.780928,0.000000,0.000000,-0.451708,0.279449,1.137884,0.184105,0.115518,-0.164293,-0.082475,-0.035408,0.028922,-0.518938
-0.050000,-0.050000,0.000000,0.000000,0.000000,0.000000,0.000000,0.000000,0.000000,0.100000,0.100000,-0.144721,-0.682950,-0.050000,-0.050000,0.392757,-0.784482,0.000000,0.000000,-0.450733,0.282928,1.130329,0.187081,0.113636,-0.166035,-0.084669,-0.036732,0.032484,-0.515905
-0.050000,-0.050000,0.000000,0.000000,0.000000,0.000000,0.000000,0.000000,0.000000,0.100000,0.100000,-0.146307,-0.684220,-0.050000,-0.050000,0.392324,-0.787899,0.000000,0.000000,-0.449416,0.286441,1.123120,0.189017,0.112040,-0.168545,-0.087265,-0.038788,0.035914,-0.513592
-0.050000,-0.050000,0.000000,0.000000,0.000000,0.000000,0.000000,0.000000,0.000000,0.100000,0.100000,-0.147790,-0.685472,-0.050000,-0.050000,0.391832,-0.791107,0.000000,0.000000,-0.448083,0.290008,1.116182,0.191021,0.110588,-0.170938,-0.089837,-0.040864,0.039080,-0.511270
-0.050000,-0.050000,0.000000,0.000000,0.000000,0.000000,0.000000,0.000000,0.000000,0.100000,0.100000,-0.149069,-0.686687,-0.050000,-0.050000,0.391220,-0.793901,0.000000,0.000000,-0.446714,0.293682,1.109785,0.193163,0.109422,-0.173099,-0.092364,-0.042979,0.041718,-0.508931
-0.050000,-0.050000,0.000000,0.000000,0.000000,0.000000,0.000000,0.000000,0.000000,0.100000,0.100000,-0.150158,-0.688046,-0.050000,-0.050000,0.390555,-0.796006,0.000000,0.000000,-0.445474,0.297512,1.104182,0.196275,0.108573,-0.174186,-0.094514,-0.044664,0.043383,-0.505876
-0.050000,-0.050000,0.000000,0.000000,0.000000,0.000000,0.000000,0.000000,0.000000,0.100000,0.100000,-0.151152,-0.689478,-0.050000,-0.050000,0.389864,-0.797768,0.000000,0.000000,-0.444299,0.301419,1.098977,0.199873,0.107881,-0.174737,-0.096475,-0.046133,0.044561,-0.502462
-0.050000,-0.050000,0.000000,0.000000,0.000000,0.000000,0.000000,0.000000,0.000000,0.100000,0.100000,-0.151898,-0.691354,-0.050000,-0.050000,0.389204,-0.798241,0.000000,0.000000,-0.443435,0.305541,1.095214,0.205828,0.107582,-0.172540,-0.097471,-0.046461,0.043795,-0.496968
-0.050000,-0.050000,0.000000,0.000000,0.000000,0.000000,0.000000,0.000000,0.000000,0.100000,0.100000,-0.152568,-0.693408,-0.050000,-0.050000,0.388584,-0.798264,0.000000,0.000000,-0.442663,0.309698,1.091968,0.212662,0.107351,-0.169179,-0.098077,-0.046372,0.042334,-0.490586
-0.050000,-0.050000,0.000000,0.000000,0.000000,0.000000,0.000000,0.000000,0.000000,0.100000,0.100000,-0.153088,-0.695819,-0.050000,-0.050000,0.388047,-0.797386,0.000000,0.000000,-0.442073,0.313926,1.089754,0.221253,0.107255,-0.163492,-0.097907,-0.045451,0.039483,-0.482428
-0.050000,-0.050000,0.000000,0.000000,0.000000,0.000000,0.000000,0.000000,0.000000,0.100000,0.100000,-0.153448,-0.698532,-0.050000,-0.050000,0.387633,-0.795701,0.000000,0.000000,-0.441549,0.318117,1.088560,0.231321,0.107126,-0.155374,-0.096993,-0.043923,0.035419,-0.472552
-0.050000,-0.050000,0.000000,0.000000,0.000000,0.000000,0.000000,0.000000,0.000000,0.100000,0.100000,-0.153727,-0.701395,-0.050000,-0.050000,0.387281,-0.793611,0.000000,0.000000,-0.441056,0.322290,1.087875,0.242129,0.106982,-0.146040,-0.095708,-0.042091,0.030750,-0.461815
-0.050000,-0.050000,0.000000,0.000000,0.000000,0.000000,0.000000,0.000000,0.000000,0.100000,0.100000,-0.153712,-0.704470,-0.050000,-0.050000,0.387136,-0.790613,0.000000,0.000000,-0.440413,0.326265,1.088607,0.254174,0.106529,-0.133522,-0.093587,-0.040042,0.024874,-0.449259
-0.050000,-0.050000,0.000000,0.000000,0.000000,0.000000,0.000000,0.000000,0.000000,0.100000,0.100000,-0.153574,-0.707506,-0.050000,-0.050000,0.387057,-0.787443,0.000000,0.000000,-0.439642,0.330158,1.089754,0.266227,0.105901,-0.120259,-0.091330,-0.038196,0.018859,-0.436486
-0.050000,-0.050000,0.000000,0.000000,0.000000,0.000000,0.000000,0.000000,0.000000,0.100000,0.100000,-0.153192,-0.710465,-0.050000,-0.050000,0.387110,-0.783930,0.000000,0.000000,-0.438614,0.333887,1.091729,0.278295,0.104924,-0.105505,-0.088798,-0.036759,0.012567,-0.423283
-0.050000,-0.050000,0.000000,0.000000,0.000000,0.000000,0.000000,0.000000,0.000000,0.100000,0.100000,-0.152527,-0.713137,-0.050000,-0.050000,0.387275,-0.780331,0.000000,0.000000,-0.437234,0.337509,1.094388,0.289651,0.103515,-0.090052,-0.086287,-0.036193,0.006496,-0.410437
-0.050000,-0.050000,0.000000,0.000000,0.000000,0.000000,0.000000,0.000000,0.000000,0.100000,0.100000,-0.151721,-0.715666,-0.050000,-0.050000,0.387496,-0.776689,0.000000,0.000000,-0.435678,0.341076,1.097389,0.300651,0.101891,-0.074250,-0.083787,-0.036061,0.000537,-0.397769
-0.050000,-0.050000,0.000000,0.000000,0.000000,0.000000,0.000000,0.000000,0.000000,0.100000,0.100000,-0.150492,-0.717543,-0.050000,-0.050000,0.387843,-0.773203,0.000000,0.000000,-0.433576,0.344687,1.101165,0.309904,0.099617,-0.058559,-0.081664,-0.037542,-0.004567,-0.386434
-0.050000,-0.050000,0.000000,0.000000,0.000000,0.000000,0.000000,0.000000,0.000000,0.100000,0.100000,-0.149150,-0.719171,-0.050000,-0.050000,0.388216,-0.769811,0.000000,0.000000,-0.431327,0.348397,1.105107,0.318522,0.097169,-0.043213,-0.079723,-0.039495,-0.009318,-0.375606
-0.050000,-0.050000,0.000000,0.000000,0.000000,0.000000,0.000000,0.000000,0.000000,0.100000,0.100000,-0.147584,-0.720302,-0.050000,-0.050000,0.388640,-0.766607,0.000000,0.000000,-0.428786,0.352308,1.109379,0.325869,0.094374,-0.028556,-0.078147,-0.042393,-0.013366,-0.365792
-0.050000,-0.050000,0.000000,0.000000,0.000000,0.000000,0.000000,0.000000,0.000000,0.100000,0.100000,-0.145908,-0.720934,-0.050000,-0.050000,0.389075,-0.763568,0.000000,0.000000,-0.426077,0.356567,1.113788,0.332135,0.091392,-0.014976,-0.076918,-0.045810,-0.016782,-0.356716
-0.050000,-0.050000,0.000000,0.000000,0.000000,0.000000,0.000000,0.000000,0.000000,0.100000,0.100000,-0.144177,-0.721318,-0.050000,-0.050000,0.389517,-0.760613,0.000000,0.000000,-0.423285,0.361002,1.118265,0.337860,0.088317,-0.001934,-0.075863,-0.049487,-0.019883,-0.348010
-0.050000,-0.050000,0.000000,0.000000,0.000000,0.000000,0.000000,0.000000,0.000000,0.100000,0.100000,-0.142511,-0.720980,-0.050000,-0.050000,0.389910,-0.757756,0.000000,0.000000,-0.420458,0.366087,1.122666,0.342485,0.085258,0.009264,-0.075158,-0.053087,-0.022354,-0.339608
-0.050000,-0.050000,0.000000,0.000000,0.000000,0.000000,0.000000,0.000000,0.000000,0.100000,0.100000,-0.140945,-0.720395,-0.050000,-0.050000,0.390261,-0.754865,0.000000,0.000000,-0.417684,0.371388,1.126963,0.346921,0.082302,0.019862,-0.074491,-0.056396,-0.024743,-0.331009
-0.050000,-0.050000,0.000000,0.000000,0.000000,0.000000,0.000000,0.000000,0.000000,0.100000,0.100000,-0.139580,-0.719313,-0.050000,-0.050000,0.390530,-0.751905,0.000000,0.000000,-0.415015,0.377123,1.131049,0.350979,0.079552,0.029260,-0.073900,-0.059125,-0.026967,-0.322015
-0.050000,-0.050000,0.000000,0.000000,0.000000,0.000000,0.000000,0.000000,0.000000,0.100000,0.100000,-0.138537,-0.717659,-0.050000,-0.050000,0.390668,-0.748757,0.000000,0.000000,-0.412538,0.383218,1.134812,0.354906,0.077156,0.037590,-0.073250,-0.060943,-0.029244,-0.312152
-0.050000,-0.050000,0.000000,0.000000,0.000000,0.000000,0.000000,0.000000,0.000000,0.100000,0.100000,-0.137655,-0.715720,-0.050000,-0.050000,0.390740,-0.745515,0.000000,0.000000,-0.410158,0.389493,1.138415,0.358766,0.074938,0.045385,-0.072569,-0.062304,-0.031547,-0.301854
-0.050000,-0.050000,0.000000,0.000000,0.000000,0.000000,0.000000,0.000000,0.000000,0.100000,0.100000,-0.137345,-0.712738,-0.050000,-0.050000,0.390552,-0.741868,0.000000,0.000000,-0.408131,0.396139,1.141456,0.362573,0.073371,0.051811,-0.071686,-0.062194,-0.034121,-0.289892
-0.050000,-0.050000,0.000000,0.000000,0.000000,0.000000,0.000000,0.000000,0.000000,0.100000,0.100000,-0.137219,-0.709344,-0.050000,-0.050000,0.390262,-0.738070,0.000000,0.000000,-0.406224,0.402854,1.144318,0.366347,0.072024,0.057840,-0.070737,-0.061674,-0.036803,-0.277383
-0.050000,-0.050000,0.000000,0.000000,0.000000,0.000000,0.000000,0.000000,0.000000,0.100000,0.100000,-0.137459,-0.705130,-0.050000,-0.050000,0.389769,-0.733970,0.000000,0.000000,-0.404556,0.409705,1.146819,0.370057,0.071117,0.063078,-0.069656,-0.060331,-0.039697,-0.263780
-0.050000,-0.050000,0.000000,0.000000,0.000000,0.000000,0.000000,0.000000,0.000000,0.100000,0.100000,-0.137981,-0.700024,-0.050000,-0.050000,0.389056,-0.729568,0.000000,0.000000,-0.403108,0.416615,1.149035,0.373616,0.070600,0.067589,-0.068503,-0.058453,-0.042757,-0.249300
-0.050000,-0.050000,0.000000,0.000000,0.000000,0.000000,0.000000,0.000000,0.000000,0.100000,0.100000,-0.138644,-0.694471,-0.050000,-0.050000,0.388234,-0.725017,0.000000,0.000000,-0.401770,0.423553,1.151108,0.377099,0.070278,0.071737,-0.067314,-0.056307,-0.045899,-0.234381
-0.050000,-0.050000,0.000000,0.000000,0.000000,0.000000,0.000000,0.000000,0.000000,0.100000,0.100000,-0.139538,-0.687636,-0.050000,-0.050000,0.387076,-0.720039,0.000000,0.000000,-0.400720,0.430531,1.152933,0.380242,0.070420,0.074807,-0.066147,-0.053805,-0.049151,-0.218633
-0.050000,-0.050000,0.000000,0.000000,0.000000,0.000000,0.000000,0.000000,0.000000,0.100000,0.100000,-0.140435,-0.680454,-0.050000,-0.050000,0.385809,-0.714924,0.000000,0.000000,-0.399751,0.437523,1.154750,0.383259,0.070674,0.077503,-0.065025,-0.051299,-0.052385,-0.202788
-0.050000,-0.050000,0.000000,0.000000,0.000000,0.000000,0.000000,0.000000,0.000000,0.100000,0.100000,-0.141337,-0.672578,-0.050000,-0.050000,0.384323,-0.709535,0.000000,0.000000,-0.398945,0.444544,1.156550,0.386027,0.071153,0.079449,-0.063992,-0.048786,-0.055586,-0.186746
-0.050000,-0.050000,0.000000,0.000000,0.000000,0.000000,0.000000,0.000000,0.000000,0.100000,0.100000,-0.142106,-0.664278,-0.050000,-0.050000,0.382630,-0.703872,0.000000,0.000000,-0.398274,0.451596,1.158482,0.388573,0.071790,0.080609,-0.063088,-0.046406,-0.058654,-0.170859
-0.050000,-0.050000,0.000000,0.000000,0.000000,0.000000,0.000000,0.000000,0.000000,0.100000,0.100000,-0.142809,-0.655766,-0.050000,-0.050000,0.380834,-0.698072,0.000000,0.000000,-0.397669,0.458664,1.160480,0.391008,0.072506,0.081377,-0.062249,-0.044094,-0.061654,-0.155050
-0.050000,-0.050000,0.000000,0.000000,0.000000,0.000000,0.000000,0.000000,0.000000,0.100000,0.100000,-0.143146,-0.647103,-0.050000,-0.050000,0.378764,-0.691845,0.000000,0.000000,-0.397218,0.465720,1.162865,0.393191,0.073390,0.080983,-0.061604,-0.042105,-0.064329,-0.140006
-0.050000,-0.050000,0.000000,0.000000,0.000000,0.000000,0.000000,0.000000,0.000000,0.100000,0.100000,-0.143324,-0.638544,-0.050000,-0.050000,0.376622,-0.685474,0.000000,0.000000,-0.396798,0.472715,1.165415,0.395309,0.074318,0.080260,-0.061007,-0.040258,-0.066861,-0.125413
-0.050000,-0.050000,0.000000,0.000000,0.000000,0.000000,0.000000,0.000000,0.000000,0.100000,0.100000,-0.143185,-0.630194,-0.050000,-0.050000,0.374339,-0.678815,0.000000,0.000000,-0.396443,0.479589,1.168299,0.397294,0.075332,0.078877,-0.060506,-0.038695,-0.069109,-0.111721
-0.050000,-0.050000,0.000000,0.000000,0.000000,0.000000,0.000000,0.000000,0.000000,0.100000,0.100000,-0.142697,-0.622283,-0.050000,-0.050000,0.371980,-0.671887,0.000000,0.000000,-0.396111,0.486150,1.171522,0.399137,0.076416,0.077101,-0.060051,-0.037498,-0.071017,-0.099356
-0.050000,-0.050000,0.000000,0.000000,0.000000,0.000000,0.000000,0.000000,0.000000,0.100000,0.100000,-0.142032,-0.614590,-0.050000,-0.050000,0.369583,-0.664824,0.000000,0.000000,-0.395789,0.492555,1.174915,0.400909,0.077533,0.075129,-0.059618,-0.036483,-0.072757,-0.087656
-0.050000,-0.050000,0.000000,0.000000,0.000000,0.000000,0.000000,0.000000,0.000000,0.100000,0.100000,-0.140841,-0.607724,-0.050000,-0.050000,0.367210,-0.657458,0.000000,0.000000,-0.395441,0.498144,1.178712,0.402374,0.078716,0.073198,-0.059173,-0.036139,-0.073927,-0.078562
-0.050000,-0.050000,0.000000,0.000000,0.000000,0.000000,0.000000,0.000000,0.000000,0.100000,0.100000,-0.139484,-0.601127,-0.050000,-0.050000,0.364900,-0.650054,0.000000,0.000000,-0.395070,0.503355,1.182572,0.403685,0.079897,0.071540,-0.058702,-0.036040,-0.074895,-0.070473
-0.050000,-0.050000,0.000000,0.000000,0.000000,0.000000,0.000000,0.000000,0.000000,0.100000,0.100000,-0.137797,-0.595070,-0.050000,-0.050000,0.362718,-0.642577,0.000000,0.000000,-0.394650,0.507813,1.186559,0.404687,0.081077,0.070425,-0.058178,-0.036432,-0.075459,-0.064396
-0.050000,-0.050000,0.000000,0.000000,0.000000,0.000000,0.000000,0.000000,0.000000,0.100000,0.100000,-0.135814,-0.589442,-0.050000,-0.050000,0.360776,-0.635225,0.000000,0.000000,-0.394163,0.511406,1.190478,0.405258,0.082184,0.070355,-0.057575,-0.037289,-0.075610,-0.060331
-0.050000,-0.050000,0.000000,0.000000,0.000000,0.000000,0.000000,0.000000,0.000000,0.100000,0.100000,-0.133683,-0.584028,-0.050000,-0.050000,0.358955,-0.627934,0.000000,0.000000,-0.393642,0.514566,1.194363,0.405612,0.083254,0.070807,-0.056931,-0.038377,-0.075556,-0.057273
-0.050000,-0.050000,0.000000,0.000000,0.000000,0.000000,0.000000,0.000000,0.000000,0.100000,0.100000,-0.131162,-0.579005,-0.050000,-0.050000,0.357638,-0.621218,0.000000,0.000000,-0.393002,0.516486,1.197833,0.405130,0.084076,0.073359,-0.056153,-0.040004,-0.074907,-0.056694
-0.050000,-0.050000,0.000000,0.000000,0.000000,0.000000,0.000000,0.000000,0.000000,0.100000,0.100000,-0.128529,-0.574017,-0.050000,-0.050000,0.356515,-0.614842,0.000000,0.000000,-0.392318,0.518095,1.201074,0.404310,0.084765,0.076666,-0.055334,-0.041734,-0.074081,-0.056587
-0.050000,-0.050000,0.000000,0.000000,0.000000,0.000000,0.000000,0.000000,0.000000,0.100000,0.100000,-0.125670,-0.569100,-0.050000,-0.050000,0.355781,-0.609143,0.000000,0.000000,-0.391548,0.519079,1.203858,0.402813,0.085189,0.081484,-0.054434,-0.043669,-0.072899,-0.057426
-0.050000,-0.050000,0.000000,0.000000,0.000000,0.000000,0.000000,0.000000,0.000000,0.100000,0.100000,-0.122612,-0.564069,-0.050000,-0.050000,0.355432,-0.604413,0.000000,0.000000,-0.390685,0.519769,1.206080,0.400521,0.085271,0.087651,-0.053472,-0.045650,-0.071429,-0.058292
-0.050000,-0.050000,0.000000,0.000000,0.000000,0.000000,0.000000,0.000000,0.000000,0.100000,0.100000,-0.119453,-0.558980,-0.050000,-0.050000,0.355276,-0.600169,0.000000,0.000000,-0.389775,0.520312,1.208020,0.397831,0.085182,0.094494,-0.052479,-0.047654,-0.069816,-0.059172
-0.050000,-0.050000,0.000000,0.000000,0.000000,0.000000,0.000000,0.000000,0.000000,0.100000,0.100000,-0.116018,-0.553464,-0.050000,-0.050000,0.355600,-0.597749,0.000000,0.000000,-0.388732,0.520981,1.209105,0.393751,0.084551,0.102799,-0.051427,-0.049558,-0.067911,-0.058731
-0.050000,-0.050000,0.000000,0.000000,0.000000,0.000000,0.000000,0.000000,0.000000,0.100000,0.100000,-0.112491,-0.547731,-0.050000,-0.050000,0.356025,-0.596018,0.000000,0.000000,-0.387653,0.521864,1.209951,0.389129,0.083767,0.111364,-0.050363,-0.051413,-0.065968,-0.057510
-0.050000,-0.050000,0.000000,0.000000,0.000000,0.000000,0.000000,0.000000,0.000000,0.100000,0.100000,-0.108783,-0.541561,-0.050000,-0.050000,0.356652,-0.595663,0.000000,0.000000,-0.386506,0.523173,1.210318,0.383421,0.082682,0.120448,-0.049274,-0.053171,-0.063951,-0.054730
-0.050000,-0.050000,0.000000,0.000000,0.000000,0.000000,0.000000,0.000000,0.000000,0.100000,0.100000,-0.104885,-0.534828,-0.050000,-0.050000,0.357333,-0.596730,0.000000,0.000000,-0.385337,0.525134,1.210365,0.376433,0.081434,0.129684,-0.048164,-0.054896,-0.061999,-0.050081
-0.050000,-0.050000,0.000000,0.000000,0.000000,0.000000,0.000000,0.000000,0.000000,0.100000,0.100000,-0.100892,-0.527812,-0.050000,-0.050000,0.358041,-0.598508,0.000000,0.000000,-0.384158,0.527421,1.210253,0.368804,0.080107,0.138995,-0.047043,-0.056604,-0.060080,-0.044496
-0.050000,-0.050000,0.000000,0.000000,0.000000,0.000000,0.000000,0.000000,0.000000,0.100000,0.100000,-0.096593,-0.519806,-0.050000,-0.050000,0.358596,-0.602290,0.000000,0.000000,-0.383065,0.530789,1.209917,0.358921,0.078833,0.148338,-0.045887,-0.058470,-0.058479,-0.036201
-0.050000,-0.050000,0.000000,0.000000,0.000000,0.000000,0.000000,0.000000,0.000000,0.100000,0.100000,-0.092189,-0.511447,-0.050000,-0.050000,0.359032,-0.606633,0.000000,0.000000,-0.382053,0.534476,1.209571,0.348176,0.077682,0.157788,-0.044721,-0.060466,-0.057053,-0.027166
-0.050000,-0.050000,0.000000,0.000000,0.000000,0.000000,0.000000,0.000000,0.000000,0.100000,0.100000,-0.087572,-0.502384,-0.050000,-0.050000,0.359230,-0.612098,0.000000,0.000000,-0.381203,0.538801,1.209203,0.335711,0.076775,0.167452,-0.043538,-0.062723,-0.055977,-0.016654
-0.050000,-0.050000,0.000000,0.000000,0.000000,0.000000,0.000000,0.000000,0.000000,0.100000,0.100000,-0.082756,-0.492642,-0.050000,-0.050000,0.359087,-0.618359,0.000000,0.000000,-0.380639,0.543575,1.208854,0.321366,0.076286,0.177818,-0.042373,-0.065342,-0.055352,-0.005092
-0.050000,-0.050000,0.000000,0.000000,0.000000,0.000000,0.000000,0.000000,0.000000,0.100000,0.100000,-0.077840,-0.482562,-0.050000,-0.050000,0.358772,-0.625016,0.000000,0.000000,-0.380218,0.548574,1.208514,0.306081,0.076006,0.188536,-0.041218,-0.068142,-0.054954,0.006995
-0.050000,-0.050000,0.000000,0.000000,0.000000,0.000000,0.000000,0.000000,0.000000,0.100000,0.100000,-0.072709,-0.471637,-0.050000,-0.050000,0.357854,-0.632244,0.000000,0.000000,-0.380432,0.553927,1.208112,0.287922,0.076529,0.201287,-0.040217,-0.071471,-0.055303,0.020091
-0.050000,-0.050000,0.000000,0.000000,0.000000,0.000000,0.000000,0.000000,0.000000,0.100000,0.100000,-0.067563,-0.460537,-0.050000,-0.050000,0.356726,-0.639432,0.000000,0.000000,-0.380932,0.559318,1.207621,0.268870,0.077352,0.215017,-0.039333,-0.074907,-0.055889,0.033405
-0.050000,-0.050000,0.000000,0.000000,0.000000,0.000000,0.000000,0.000000,0.000000,0.100000,0.100000,-0.062389,-0.449090,-0.050000,-0.050000,0.355177,-0.646540,0.000000,0.000000,-0.382004,0.564788,1.206949,0.248031,0.078777,0.230708,-0.038684,-0.078557,-0.056951,0.047155
-0.050000,-0.050000,0.000000,0.000000,0.000000,0.000000,0.000000,0.000000,0.000000,0.100000,0.100000,-0.057370,-0.437605,-0.050000,-0.050000,0.353234,-0.653120,0.000000,0.000000,-0.383801,0.570297,1.205917,0.225707,0.080852,0.248697,-0.038431,-0.082180,-0.058399,0.061247
-0.050000,-0.050000,0.000000,0.000000,0.000000,0.000000,0.000000,0.000000,0.000000,0.100000,0.100000,-0.052429,-0.426101,-0.050000,-0.050000,0.351093,-0.659436,0.000000,0.000000,-0.385960,0.575826,1.204705,0.202640,0.083250,0.267834,-0.038375,-0.085790,-0.060040,0.075509
-0.050000,-0.050000,0.000000,0.000000,0.000000,0.000000,0.000000,0.000000,0.000000,0.100000,0.100000,-0.048092,-0.415116,-0.050000,-0.050000,0.348458,-0.664406,0.000000,0.000000,-0.389423,0.581573,1.202688,0.177997,0.086706,0.290286,-0.039144,-0.088926,-0.062059,0.090282
-0.050000,-0.050000,0.000000,0.000000,0.000000,0.000000,0.000000,0.000000,0.000000,0.100000,0.100000,-0.044099,-0.404511,-0.050000,-0.050000,0.345711,-0.668814,0.000000,0.000000,-0.393373,0.587505,1.200335,0.153074,0.090548,0.313564,-0.040238,-0.091771,-0.064126,0.105229
-0.050000,-0.050000,0.000000,0.000000,0.000000,0.000000,0.000000,0.000000,0.000000,0.100000,0.100000,-0.040795,-0.394666,-0.050000,-0.050000,0.342737,-0.672099,0.000000,0.000000,-0.398299,0.593806,1.197306,0.127591,0.095166,0.338495,-0.041984,-0.094032,-0.066291,0.120527
-0.050000,-0.050000,0.000000,0.000000,0.000000,0.000000,0.000000,0.000000,0.000000,0.100000,0.100000,-0.038466,-0.385964,-0.050000,-0.050000,0.339671,-0.674223,0.000000,0.000000,-0.404235,0.600763,1.193513,0.102004,0.100612,0.364135,-0.044401,-0.095522,-0.068412,0.136129
-0.050000,-0.050000,0.000000,0.000000,0.000000,0.000000,0.000000,0.000000,0.000000,0.100000,0.100000,-0.036623,-0.377835,-0.050000,-0.050000,0.336557,-0.675766,0.000000,0.000000,-0.410676,0.608046,1.189338,0.076366,0.106474,0.390129,-0.047154,-0.096626,-0.070510,0.151884
-0.050000,-0.050000,0.000000,0.000000,0.000000,0.000000,0.000000,0.000000,0.000000,0.100000,0.100000,-0.036588,-0.371867,-0.050000,-0.050000,0.333529,-0.675801,0.000000,0.000000,-0.418536,0.616716,1.183960,0.051100,0.113558,0.415482,-0.050803,-0.096469,-0.072367,0.167888
-0.050000,-0.050000,0.000000,0.000000,0.000000,0.000000,0.000000,0.000000,0.000000,0.100000,0.100000,-0.037220,-0.366704,-0.050000,-0.050000,0.330604,-0.675487,0.000000,0.000000,-0.426782,0.625942,1.178184,0.026060,0.120979,0.440073,-0.054674,-0.095922,-0.074103,0.183861
-0.050000,-0.050000,0.000000,0.000000,0.000000,0.000000,0.000000,0.000000,0.000000,0.100000,0.100000,-0.039184,-0.363151,-0.050000,-0.050000,0.327882,-0.674477,0.000000,0.000000,-0.435798,0.636282,1.171610,0.001473,0.129071,0.463142,-0.058990,-0.094597,-0.075595,0.199772
-0.050000,-0.050000,0.000000,0.000000,0.000000,0.000000,0.000000,0.000000,0.000000,0.100000,0.100000,-0.042463,-0.361244,-0.050000,-0.050000,0.325491,-0.673159,0.000000,0.000000,-0.445313,0.647804,1.164288,-0.022592,0.137535,0.483858,-0.063554,-0.092673,-0.076789,0.215338
-0.050000,-0.050000,0.000000,0.000000,0.000000,0.000000,0.000000,0.000000,0.000000,0.100000,0.100000,-0.046400,-0.360158,-0.050000,-0.050000,0.323265,-0.671685,0.000000,0.000000,-0.455076,0.659917,1.156591,-0.046396,0.146183,0.503399,-0.068243,-0.090449,-0.077833,0.230732
-0.050000,-0.050000,0.000000,0.000000,0.000000,0.000000,0.000000,0.000000,0.000000,0.100000,0.100000,-0.052049,-0.361420,-0.050000,-0.050000,0.321659,-0.670308,0.000000,0.000000,-0.465087,0.673713,1.147926,-0.069454,0.154716,0.518796,-0.073008,-0.087700,-0.078382,0.245196
-0.050000,-0.050000,0.000000,0.000000,0.000000,0.000000,0.000000,0.000000,0.000000,0.100000,0.100000,-0.058112,-0.363385,-0.050000,-0.050000,0.320277,-0.669100,0.000000,0.000000,-0.475004,0.687980,1.139023,-0.092287,0.162944,0.532838,-0.077714,-0.084900,-0.078758,0.259244
-0.050000,-0.050000,0.000000,0.000000,0.000000,0.000000,0.000000,0.000000,0.000000,0.100000,0.100000,-0.065005,-0.366755,-0.050000,-0.050000,0.319339,-0.668230,0.000000,0.000000,-0.484735,0.703192,1.129643,-0.114673,0.170564,0.544173,-0.082303,-0.082001,-0.078790,0.272463
-0.050000,-0.050000,0.000000,0.000000,0.000000,0.000000,0.000000,0.000000,0.000000,0.100000,0.100000,-0.072325,-0.371326,-0.050000,-0.050000,0.318826,-0.667821,0.000000,0.000000,-0.493954,0.719079,1.120029,-0.136620,0.177051,0.553257,-0.086650,-0.079189,-0.078486,0.284750
-0.050000,-0.050000,0.000000,0.000000,0.000000,0.000000,0.000000,0.000000,0.000000,0.100000,0.100000,-0.079859,-0.376498,-0.050000,-0.050000,0.318524,-0.667641,0.000000,0.000000,-0.502917,0.735303,1.110297,-0.158348,0.182973,0.561215,-0.090878,-0.076421,-0.078014,0.296571
-0.050000,-0.050000,0.000000,0.000000,0.000000,0.000000,0.000000,0.000000,0.000000,0.100000,0.100000,-0.087408,-0.383117,-0.050000,-0.050000,0.318758,-0.668091,0.000000,0.000000,-0.510718,0.752042,1.100659,-0.179297,0.186574,0.566858,-0.094622,-0.073903,-0.077091,0.307000
-0.050000,-0.050000,0.000000,0.000000,0.000000,0.000000,0.000000,0.000000,0.000000,0.100000,0.100000,-0.094780,-0.390088,-0.050000,-0.050000,0.319121,-0.668666,0.000000,0.000000,-0.518041,0.768772,1.091211,-0.199892,0.189287,0.572110,-0.098180,-0.071450,-0.076048,0.317003
-0.050000,-0.050000,0.000000,0.000000,0.000000,0.000000,0.000000,0.000000,0.000000,0.100000,0.100000,-0.101797,-0.397764,-0.050000,-0.050000,0.319744,-0.669490,0.000000,0.000000,-0.524410,0.785484,1.082144,-0.219780,0.190224,0.576578,-0.101368,-0.069129,-0.074767,0.326151
-0.050000,-0.050000,0.000000,0.000000,0.000000,0.000000,0.000000,0.000000,0.000000,0.100000,0.100000,-0.108208,-0.405858,-0.050000,-0.050000,0.320517,-0.670326,0.000000,0.000000,-0.529740,0.801821,1.073748,-0.238676,0.189382,0.580890,-0.104157,-0.066822,-0.073327,0.334528
-0.050000,-0.050000,0.000000,0.000000,0.000000,0.000000,0.000000,0.000000,0.000000,0.100000,0.100000,-0.114315,-0.414162,-0.050000,-0.050000,0.321365,-0.671169,0.000000,0.000000,-0.534551,0.817971,1.065688,-0.257075,0.187652,0.585124,-0.106747,-0.064522,-0.071808,0.342519
-0.050000,-0.050000,0.000000,0.000000,0.000000,0.000000,0.000000,0.000000,0.000000,0.100000,0.100000,-0.119335,-0.422648,-0.050000,-0.050000,0.322278,-0.671683,0.000000,0.000000,-0.537827,0.833085,1.058965,-0.273467,0.183585,0.589670,-0.108724,-0.062037,-0.070185,0.349406
-0.050000,-0.050000,0.000000,0.000000,0.000000,0.000000,0.000000,0.000000,0.000000,0.100000,0.100000,-0.123995,-0.431052,-0.050000,-0.050000,0.323168,-0.672002,0.000000,0.000000,-0.540643,0.847729,1.052753,-0.289015,0.178939,0.594354,-0.110501,-0.059439,-0.068567,0.355908
-0.050000,-0.050000,0.000000,0.000000,0.000000,0.000000,0.000000,0.000000,0.000000,0.100000,0.100000,-0.127935,-0.439293,-0.050000,-0.050000,0.324012,-0.671930,0.000000,0.000000,-0.542541,0.861434,1.047560,-0.302874,0.173136,0.599313,-0.111877,-0.056617,-0.066959,0.361641
-0.050000,-0.050000,0.000000,0.000000,0.000000,0.000000,0.000000,0.000000,0.000000,0.100000,0.100000,-0.131248,-0.447131,-0.050000,-0.050000,0.324748,-0.671389,0.000000,0.000000,-0.543692,0.874041,1.043422,-0.314756,0.166685,0.604372,-0.112878,-0.053553,-0.065424,0.366517
-0.050000,-0.050000,0.000000,0.000000,0.000000,0.000000,0.000000,0.000000,0.000000,0.100000,0.100000,-0.134247,-0.454768,-0.050000,-0.050000,0.325429,-0.670614,0.000000,0.000000,-0.544471,0.886098,1.039810,-0.325649,0.159909,0.609482,-0.113691,-0.050367,-0.063925,0.370966
-0.050000,-0.050000,0.000000,0.000000,0.000000,0.000000,0.000000,0.000000,0.000000,0.100000,0.100000,-0.136503,-0.461553,-0.050000,-0.050000,0.325900,-0.669151,0.000000,0.000000,-0.544448,0.896397,1.037716,-0.333320,0.152961,0.614294,-0.114014,-0.046922,-0.062600,0.373999
-0.050000,-0.050000,0.000000,0.000000,0.000000,0.000000,0.000000,0.000000,0.000000,0.100000,0.100000,-0.138578,-0.468013,-0.050000,-0.050000,0.326302,-0.667499,0.000000,0.000000,-0.544264,0.906108,1.036080,-0.339911,0.146195,0.618859,-0.114205,-0.043461,-0.061347,0.376542
-0.050000,-0.050000,0.000000,0.000000,0.000000,0.000000,0.000000,0.000000,0.000000,0.100000,0.100000,-0.140289,-0.473824,-0.050000,-0.050000,0.326566,-0.665467,0.000000,0.000000,-0.543758,0.914646,1.035362,-0.344341,0.139789,0.622934,-0.114135,-0.039964,-0.060237,0.378108
-0.050000,-0.050000,0.000000,0.000000,0.000000,0.000000,0.000000,0.000000,0.000000,0.100000,0.100000,-0.141747,-0.478985,-0.050000,-0.050000,0.326717,-0.663167,0.000000,0.000000,-0.543113,0.922051,1.035433,-0.346765,0.134100,0.626334,-0.113879,-0.036597,-0.059290,0.378748
-0.050000,-0.050000,0.000000,0.000000,0.000000,0.000000,0.000000,0.000000,0.000000,0.100000,0.100000,-0.143079,-0.483821,-0.050000,-0.050000,0.326813,-0.660734,0.000000,0.000000,-0.542400,0.928891,1.035897,-0.348186,0.128767,0.629397,-0.113530,-0.033293,-0.058424,0.378923
-0.050000,-0.050000,0.000000,0.000000,0.000000,0.000000,0.000000,0.000000,0.000000,0.100000,0.100000,-0.144155,-0.487758,-0.050000,-0.050000,0.326804,-0.658071,0.000000,0.000000,-0.541683,0.934125,1.037320,-0.347035,0.124801,0.631407,-0.113022,-0.030400,-0.057821,0.377907
-0.050000,-0.050000,0.000000,0.000000,0.000000,0.000000,0.000000,0.000000,0.000000,0.100000,0.100000,-0.145177,-0.491434,-0.050000,-0.050000,0.326780,-0.655380,0.000000,0.000000,-0.541008,0.938856,1.038980,-0.345215,0.121307,0.633123,-0.112497,-0.027693,-0.057309,0.376581
-0.050000,-0.050000,0.000000,0.000000,0.000000,0.000000,0.000000,0.000000,0.000000,0.100000,0.100000,-0.146093,-0.494587,-0.050000,-0.050000,0.326728,-0.652633,0.000000,0.000000,-0.540414,0.942581,1.041113,-0.342055,0.118756,0.634251,-0.111937,-0.025356,-0.056979,0.374638
-0.050000,-0.050000,0.000000,0.000000,0.000000,0.000000,0.000000,0.000000,0.000000,0.100000,0.100000,-0.146956,-0.497296,-0.050000,-0.050000,0.326677,-0.649899,0.000000,0.000000,-0.539943,0.945366,1.043543,-0.337946,0.117048,0.634992,-0.111401,-0.023427,-0.056826,0.372258
-0.050000,-0.050000,0.000000,0.000000,0.000000,0.000000,0.000000,0.000000,0.000000,0.100000,0.100000,-0.147792,-0.499781,-0.050000,-0.050000,0.326627,-0.647172,0.000000,0.000000,-0.539533,0.947679,1.046121,-0.333363,0.115761,0.635538,-0.110876,-0.021700,-0.056762,0.369659
-0.050000,-0.050000,0.000000,0.000000,0.000000,0.000000,0.000000,0.000000,0.000000,0.100000,0.100000,-0.148619,-0.501691,-0.050000,-0.050000,0.326595,-0.644537,0.000000,0.000000,-0.539319,0.948689,1.048880,-0.327883,0.115451,0.635824,-0.110443,-0.020552,-0.056939,0.366630
-0.050000,-0.050000,0.000000,0.000000,0.000000,0.000000,0.000000,0.000000,0.000000,0.100000,0.100000,-0.149462,-0.503431,-0.050000,-0.050000,0.326566,-0.641947,0.000000,0.000000,-0.539164,0.949308,1.051615,-0.322244,0.115354,0.636103,-0.110049,-0.019565,-0.057185,0.363514
-0.050000,-0.050000,0.000000,0.000000,0.000000,0.000000,0.000000,0.000000,0.000000,0.100000,0.100000,-0.150335,-0.504830,-0.050000,-0.050000,0.326542,-0.639449,0.000000,0.000000,-0.539127,0.949148,1.054303,-0.316288,0.115683,0.636367,-0.109734,-0.018901,-0.057566,0.360227
-0.050000,-0.050000,0.000000,0.000000,0.000000,0.000000,0.000000,0.000000,0.000000,0.100000,0.100000,-0.151262,-0.505920,-0.050000,-0.050000,0.326504,-0.637069,0.000000,0.000000,-0.539178,0.948323,1.056804,-0.310225,0.116219,0.636678,-0.109497,-0.018480,-0.058056,0.356858
-0.050000,-0.050000,0.000000,0.000000,0.000000,0.000000,0.000000,0.000000,0.000000,0.100000,0.100000,-0.152215,-0.506854,-0.050000,-0.050000,0.326460,-0.634746,0.000000,0.000000,-0.539274,0.947167,1.059212,-0.304109,0.116860,0.637012,-0.109299,-0.018181,-0.058602,0.353449
-0.050000,-0.050000,0.000000,0.000000,0.000000,0.000000,0.000000,0.000000,0.000000,0.100000,0.100000,-0.153247,-0.507365,-0.050000,-0.050000,0.326363,-0.632637,0.000000,0.000000,-0.539445,0.945237,1.061192,-0.298079,0.117554,0.637357,-0.109194,-0.018130,-0.059277,0.350056
-0.050000,-0.050000,0.000000,0.000000,0.000000,0.000000,0.000000,0.000000,0.000000,0.100000,0.100000,-0.154295,-0.507754,-0.050000,-0.050000,0.326240,-0.630614,0.000000,0.000000,-0.539621,0.943134,1.063005,-0.292147,0.118208,0.637647,-0.109107,-0.018131,-0.059989,0.346724
-0.050000,-0.050000,0.000000,0.000000,0.000000,0.000000,0.000000,0.000000,0.000000,0.100000,0.100000,-0.155375,-0.507898,-0.050000,-0.050000,0.326065,-0.628763,0.000000,0.000000,-0.539806,0.940689,1.064487,-0.286413,0.118784,0.637826,-0.109056,-0.018236,-0.060772,0.343513
-0.050000,-0.050000,0.000000,0.000000,0.000000,0.000000,0.000000,0.000000,0.000000,0.100000,0.100000,-0.156454,-0.507851,-0.050000,-0.050000,0.325827,-0.627124,0.000000,0.000000,-0.539963,0.938089,1.065646,-0.281012,0.119231,0.637752,-0.109013,-0.018401,-0.061613,0.340561
-0.050000,-0.050000,0.000000,0.000000,0.000000,0.000000,0.000000,0.000000,0.000000,0.100000,0.100000,-0.157533,-0.507708,-0.050000,-0.050000,0.325559,-0.625589,0.000000,0.000000,-0.540107,0.935412,1.066644,-0.275777,0.119615,0.637552,-0.108974,-0.018596,-0.062485,0.337738
-0.050000,-0.050000,0.000000,0.000000,0.000000,0.000000,0.000000,0.000000,0.000000,0.100000,0.100000,-0.158561,-0.507388,-0.050000,-0.050000,0.325196,-0.624433,0.000000,0.000000,-0.540169,0.932778,1.067244,-0.271229,0.119812,0.636795,-0.108903,-0.018837,-0.063418,0.335531
-0.050000,-0.050000,0.000000,0.000000,0.000000,0.000000,0.000000,0.000000,0.000000,0.100000,0.100000,-0.159563,-0.507050,-0.050000,-0.050000,0.324803,-0.623424,0.000000,0.000000,-0.540199,0.930234,1.067757,-0.266954,0.119967,0.635827,-0.108811,-0.019081,-0.064359,0.333601
-0.050000,-0.050000,0.000000,0.000000,0.000000,0.000000,0.000000,0.000000,0.000000,0.100000,0.100000,-0.160513,-0.506678,-0.050000,-0.050000,0.324353,-0.622709,0.000000,0.000000,-0.540161,0.927870,1.068096,-0.263225,0.120037,0.634435,-0.108675,-0.019334,-0.065313,0.332225
-0.050000,-0.050000,0.000000,0.000000,0.000000,0.000000,0.000000,0.000000,0.000000,0.100000,0.100000,-0.161417,-0.506352,-0.050000,-0.050000,0.323854,-0.622317,0.000000,0.000000,-0.540055,0.925774,1.068361,-0.260062,0.120079,0.632643,-0.108481,-0.019578,-0.066241,0.331502
-0.050000,-0.050000,0.000000,0.000000,0.000000,0.000000,0.000000,0.000000,0.000000,0.100000,0.100000,-0.162297,-0.506050,-0.050000,-0.050000,0.323332,-0.622089,0.000000,0.000000,-0.539913,0.923812,1.068589,-0.257182,0.120106,0.630651,-0.108259,-0.019818,-0.067157,0.331107
-0.050000,-0.050000,0.000000,0.000000,0.000000,0.000000,0.000000,0.000000,0.000000,0.100000,0.100000,-0.163153,-0.505904,-0.050000,-0.050000,0.322763,-0.622365,0.000000,0.000000,-0.539666,0.922249,1.068835,-0.255029,0.120167,0.628181,-0.107947,-0.020030,-0.067960,0.331723
-0.050000,-0.050000,0.000000,0.000000,0.000000,0.000000,0.000000,0.000000,0.000000,0.100000,0.100000,-0.164023,-0.505819,-0.050000,-0.050000,0.322190,-0.622802,0.000000,0.000000,-0.539378,0.920764,1.069114,-0.253018,0.120256,0.625604,-0.107609,-0.020236,-0.068700,0.332631
-0.050000,-0.050000,0.000000,0.000000,0.000000,0.000000,0.000000,0.000000,0.000000,0.100000,0.100000,-0.164921,-0.505855,-0.050000,-0.050000,0.321611,-0.623560,0.000000,0.000000,-0.539012,0.919436,1.069459,-0.251290,0.120400,0.622812,-0.107221,-0.020428,-0.069315,0.334123
-0.050000,-0.050000,0.000000,0.000000,0.000000,0.000000,0.000000,0.000000,0.000000,0.100000,0.100000,-0.165891,-0.505981,-0.050000,-0.050000,0.321059,-0.624592,0.000000,0.000000,-0.538547,0.918055,1.069889,-0.249533,0.120606,0.619881,-0.106797,-0.020637,-0.069763,0.335980
-0.050000,-0.050000,0.000000,0.000000,0.000000,0.000000,0.000000,0.000000,0.000000,0.100000,0.100000,-0.166897,-0.506150,-0.050000,-0.050000,0.320522,-0.625762,0.000000,0.000000,-0.538031,0.916648,1.070360,-0.247761,0.120842,0.616881,-0.106357,-0.020853,-0.070126,0.338020
-0.050000,-0.050000,0.000000,0.000000,0.000000,0.000000,0.000000,0.000000,0.000000,0.100000,0.100000,-0.168041,-0.506340,-0.050000,-0.050000,0.320093,-0.627231,0.000000,0.000000,-0.537320,0.914741,1.070941,-0.245334,0.121135,0.613677,-0.105892,-0.021181,-0.070193,0.340082
-0.050000,-0.050000,0.000000,0.000000,0.000000,0.000000,0.000000,0.000000,0.000000,0.100000,0.100000,-0.169219,-0.506490,-0.050000,-0.050000,0.319724,-0.628751,0.000000,0.000000,-0.536528,0.912519,1.071548,-0.242455,0.121424,0.610355,-0.105427,-0.021590,-0.070157,0.341924
-0.050000,-0.050000,0.000000,0.000000,0.000000,0.000000,0.000000,0.000000,0.000000,0.100000,0.100000,-0.170466,-0.506560,-0.050000,-0.050000,0.319476,-0.630376,0.000000,0.000000,-0.535572,0.909668,1.072210,-0.238671,0.121703,0.606797,-0.104959,-0.022162,-0.069914,0.343328
-0.050000,-0.050000,0.000000,0.000000,0.000000,0.000000,0.000000,0.000000,0.000000,0.100000,0.100000,-0.171706,-0.506469,-0.050000,-0.050000,0.319394,-0.632007,0.000000,0.000000,-0.534428,0.905936,1.072920,-0.233487,0.121910,0.602785,-0.104493,-0.023002,-0.069475,0.343780
-0.050000,-0.050000,0.000000,0.000000,0.000000,0.000000,0.000000,0.000000,0.000000,0.100000,0.100000,-0.172941,-0.506299,-0.050000,-0.050000,0.319396,-0.633642,0.000000,0.000000,-0.533190,0.901763,1.073655,-0.227603,0.122081,0.598546,-0.104027,-0.023976,-0.068938,0.343756
-0.050000,-0.050000,0.000000,0.000000,0.000000,0.000000,0.000000,0.000000,0.000000,0.100000,0.100000,-0.173963,-0.505849,-0.050000,-0.050000,0.319701,-0.635155,0.000000,0.000000,-0.531654,0.896046,1.074509,-0.218864,0.122032,0.593132,-0.103546,-0.025498,-0.068162,0.341538
-0.050000,-0.050000,0.000000,0.000000,0.000000,0.000000,0.000000,0.000000,0.000000,0.100000,0.100000,-0.174822,-0.505332,-0.050000,-0.050000,0.320117,-0.636600,0.000000,0.000000,-0.530023,0.889807,1.075437,-0.208926,0.121871,0.587119,-0.103047,-0.027230,-0.067338,0.338370
-0.050000,-0.050000,0.000000,0.000000,0.000000,0.000000,0.000000,0.000000,0.000000,0.100000,0.100000,-0.175358,-0.504679,-0.050000,-0.050000,0.320752,-0.637904,0.000000,0.000000,-0.528199,0.882523,1.076513,-0.196590,0.121488,0.579907,-0.102514,-0.029383,-0.066417,0.333300
-0.050000,-0.050000,0.000000,0.000000,0.000000,0.000000,0.000000,0.000000,0.000000,0.100000,0.100000,-0.175363,-0.504025,-0.050000,-0.050000,0.321601,-0.639045,0.000000,0.000000,-0.526198,0.874319,1.077830,-0.181385,0.120805,0.571036,-0.101913,-0.031940,-0.065485,0.326023
-0.050000,-0.050000,0.000000,0.000000,0.000000,0.000000,0.000000,0.000000,0.000000,0.100000,0.100000,-0.175105,-0.503371,-0.050000,-0.050000,0.322557,-0.640104,0.000000,0.000000,-0.524109,0.865654,1.079269,-0.164747,0.119972,0.561335,-0.101279,-0.034697,-0.064549,0.317643
-0.050000,-0.050000,0.000000,0.000000,0.000000,0.000000,0.000000,0.000000,0.000000,0.100000,0.100000,-0.173761,-0.503014,-0.050000,-0.050000,0.323786,-0.640928,0.000000,0.000000,-0.521780,0.855950,1.081208,-0.143175,0.118589,0.548472,-0.100496,-0.037888,-0.063759,0.305774
-0.050000,-0.050000,0.000000,0.000000,0.000000,0.000000,0.000000,0.000000,0.000000,0.100000,0.100000,-0.171984,-0.502862,-0.050000,-0.050000,0.325075,-0.641687,0.000000,0.000000,-0.519376,0.846037,1.083341,-0.119800,0.117000,0.534379,-0.099653,-0.041120,-0.063073,0.292786
-0.050000,-0.050000,0.000000,0.000000,0.000000,0.000000,0.000000,0.000000,0.000000,0.100000,0.100000,-0.169342,-0.503123,-0.050000,-0.050000,0.326486,-0.642313,0.000000,0.000000,-0.516822,0.835708,1.085864,-0.092815,0.114996,0.517823,-0.098688,-0.044433,-0.062599,0.277561
-0.050000,-0.050000,0.000000,0.000000,0.000000,0.000000,0.000000,0.000000,0.000000,0.100000,0.100000,-0.165788,-0.503970,-0.050000,-0.050000,0.327929,-0.642822,0.000000,0.000000,-0.514128,0.825214,1.088766,-0.062072,0.112572,0.498645,-0.097598,-0.047555,-0.062434,0.260391
-0.050000,-0.050000,0.000000,0.000000,0.000000,0.000000,0.000000,0.000000,0.000000,0.100000,0.100000,-0.161778,-0.505108,-0.050000,-0.050000,0.329389,-0.643272,0.000000,0.000000,-0.511363,0.814639,1.091858,-0.029451,0.109937,0.478155,-0.096444,-0.050582,-0.062424,0.242248
-0.050000,-0.050000,0.000000,0.000000,0.000000,0.000000,0.000000,0.000000,0.000000,0.100000,0.100000,-0.156514,-0.507225,-0.050000,-0.050000,0.330730,-0.643513,0.000000,0.000000,-0.508420,0.804063,1.095382,0.008642,0.106758,0.453936,-0.095119,-0.052896,-0.062971,0.221863
-0.050000,-0.050000,0.000000,0.000000,0.000000,0.000000,0.000000,0.000000,0.000000,0.100000,0.100000,-0.150934,-0.509629,-0.050000,-0.050000,0.331969,-0.643647,0.000000,0.000000,-0.505444,0.793500,1.098968,0.048337,0.103467,0.428734,-0.093748,-0.054857,-0.063702,0.201001
-0.050000,-0.050000,0.000000,0.000000,0.000000,0.000000,0.000000,0.000000,0.000000,0.100000,0.100000,-0.144725,-0.512605,-0.050000,-0.050000,0.333004,-0.643566,0.000000,0.000000,-0.502403,0.782965,1.102678,0.091237,0.099950,0.401564,-0.092286,-0.056114,-0.064804,0.179185
-0.050000,-0.050000,0.000000,0.000000,0.000000,0.000000,0.000000,0.000000,0.000000,0.100000,0.100000,-0.138201,-0.515923,-0.050000,-0.050000,0.333714,-0.643154,0.000000,0.000000,-0.499398,0.772345,1.106305,0.136514,0.096426,0.373338,-0.090759,-0.056546,-0.066204,0.156969
-0.050000,-0.050000,0.000000,0.000000,0.000000,0.000000,0.000000,0.000000,0.000000,0.100000,0.100000,-0.131519,-0.519411,-0.050000,-0.050000,0.334263,-0.642576,0.000000,0.000000,-0.496412,0.761681,1.109889,0.182979,0.092898,0.344584,-0.089199,-0.056566,-0.067753,0.134553
-0.050000,-0.050000,0.000000,0.000000,0.000000,0.000000,0.000000,0.000000,0.000000,0.100000,0.100000,-0.124929,-0.522884,-0.050000,-0.050000,0.334189,-0.641320,0.000000,0.000000,-0.493711,0.750572,1.113034,0.231204,0.089771,0.316089,-0.087568,-0.055384,-0.069544,0.112302
-0.050000,-0.050000,0.000000,0.000000,0.000000,0.000000,0.000000,0.000000,0.000000,0.100000,0.100000,-0.118556,-0.526151,-0.050000,-0.050000,0.333886,-0.639805,0.000000,0.000000,-0.491198,0.739204,1.115954,0.279257,0.086922,0.288361,-0.085918,-0.053886,-0.071328,0.090326
-0.050000,-0.050000,0.000000,0.000000,0.000000,0.000000,0.000000,0.000000,0.000000,0.100000,0.100000,-0.112619,-0.529004,-0.050000,-0.050000,0.333125,-0.637772,0.000000,0.000000,-0.489061,0.727320,1.118423,0.326965,0.084628,0.262167,-0.084225,-0.051755,-0.073098,0.068900
-0.050000,-0.050000,0.000000,0.000000,0.000000,0.000000,0.000000,0.000000,0.000000,0.100000,0.100000,-0.107434,-0.531064,-0.050000,-0.050000,0.331926,-0.635254,0.000000,0.000000,-0.487480,0.714808,1.120369,0.372628,0.083141,0.238752,-0.082487,-0.049278,-0.074674,0.048397
-0.050000,-0.050000,0.000000,0.000000,0.000000,0.000000,0.000000,0.000000,0.000000,0.100000,0.100000,-0.102624,-0.532728,-0.050000,-0.050000,0.330508,-0.632493,0.000000,0.000000,-0.486179,0.701982,1.122054,0.417268,0.082058,0.216727,-0.080727,-0.046628,-0.076153,0.028355
-0.050000,-0.050000,0.000000,0.000000,0.000000,0.000000,0.000000,0.000000,0.000000,0.100000,0.100000,-0.099263,-0.532774,-0.050000,-0.050000,0.328550,-0.629223,0.000000,0.000000,-0.485908,0.688353,1.122999,0.456282,0.082444,0.200193,-0.078895,-0.044009,-0.077122,0.010187
-0.050000,-0.050000,0.000000,0.000000,0.000000,0.000000,0.000000,0.000000,0.000000,0.100000,0.100000,-0.096429,-0.532210,-0.050000,-0.050000,0.326477,-0.625898,0.000000,0.000000,-0.486002,0.674624,1.123752,0.492666,0.083353,0.185666,-0.077049,-0.041594,-0.077875,-0.007211
-0.050000,-0.050000,0.000000,0.000000,0.000000,0.000000,0.000000,0.000000,0.000000,0.100000,0.100000,-0.094652,-0.530425,-0.050000,-0.050000,0.324170,-0.622460,0.000000,0.000000,-0.486821,0.660694,1.124123,0.523791,0.085307,0.175153,-0.075173,-0.039587,-0.078195,-0.023068
-0.050000,-0.050000,0.000000,0.000000,0.000000,0.000000,0.000000,0.000000,0.000000,0.100000,0.100000,-0.093901,-0.527444,-0.050000,-0.050000,0.321788,-0.619166,0.000000,0.000000,-0.488296,0.647094,1.124263,0.548528,0.088258,0.168461,-0.073316,-0.038332,-0.078050,-0.037122
-0.050000,-0.050000,0.000000,0.000000,0.000000,0.000000,0.000000,0.000000,0.000000,0.100000,0.100000,-0.093663,-0.523865,-0.050000,-0.050000,0.319368,-0.615944,0.000000,0.000000,-0.490098,0.633659,1.124287,0.570071,0.091708,0.163678,-0.071470,-0.037452,-0.077672,-0.050275
-0.050000,-0.050000,0.000000,0.000000,0.000000,0.000000,0.000000,0.000000,0.000000,0.100000,0.100000,-0.094772,-0.518790,-0.050000,-0.050000,0.317093,-0.613279,0.000000,0.000000,-0.492620,0.621646,1.124164,0.581100,0.096414,0.163704,-0.069780,-0.038047,-0.076618,-0.060391
-0.050000,-0.050000,0.000000,0.000000,0.000000,0.000000,0.000000,0.000000,0.000000,0.100000,0.100000,-0.096233,-0.513393,-0.050000,-0.050000,0.314951,-0.610883,0.000000,0.000000,-0.495260,0.610391,1.124026,0.588593,0.101409,0.164926,-0.068197,-0.039169,-0.075364,-0.069413
-0.050000,-0.050000,0.000000,0.000000,0.000000,0.000000,0.000000,0.000000,0.000000,0.100000,0.100000,-0.098398,-0.507353,-0.050000,-0.050000,0.313076,-0.609027,0.000000,0.000000,-0.498136,0.600650,1.123859,0.589015,0.106982,0.168542,-0.066825,-0.041346,-0.073709,-0.076244
-0.050000,-0.050000,0.000000,0.000000,0.000000,0.000000,0.000000,0.000000,0.000000,0.100000,0.100000,-0.101046,-0.501141,-0.050000,-0.050000,0.311623,-0.607805,0.000000,0.000000,-0.500982,0.592824,1.123637,0.582836,0.112785,0.173779,-0.065770,-0.044471,-0.071728,-0.080802
-0.050000,-0.050000,0.000000,0.000000,0.000000,0.000000,0.000000,0.000000,0.000000,0.100000,0.100000,-0.103937,-0.494842,-0.050000,-0.050000,0.310380,-0.606901,0.000000,0.000000,-0.503813,0.585954,1.123388,0.573356,0.118704,0.179826,-0.064873,-0.048070,-0.069583,-0.084223
-0.050000,-0.050000,0.000000,0.000000,0.000000,0.000000,0.000000,0.000000,0.000000,0.100000,0.100000,-0.107232,-0.489073,-0.050000,-0.050000,0.309947,-0.606999,0.000000,0.000000,-0.506235,0.582181,1.122893,0.555338,0.124353,0.187452,-0.064568,-0.052705,-0.067106,-0.084296
-0.050000,-0.050000,0.000000,0.000000,0.000000,0.000000,0.000000,0.000000,0.000000,0.100000,0.100000,-0.110570,-0.483731,-0.050000,-0.050000,0.309817,-0.607421,0.000000,0.000000,-0.508429,0.579372,1.122236,0.535077,0.129692,0.195453,-0.064474,-0.057513,-0.064586,-0.083364
-0.050000,-0.050000,0.000000,0.000000,0.000000,0.000000,0.000000,0.000000,0.000000,0.100000,0.100000,-0.113996,-0.479243,-0.050000,-0.050000,0.310292,-0.608491,0.000000,0.000000,-0.510164,0.578493,1.121253,0.510330,0.134409,0.204205,-0.064806,-0.062669,-0.061983,-0.080420
-0.050000,-0.050000,0.000000,0.000000,0.000000,0.000000,0.000000,0.000000,0.000000,0.100000,0.100000,-0.117366,-0.476011,-0.050000,-0.050000,0.311369,-0.610152,0.000000,0.000000,-0.511327,0.579119,1.119774,0.482439,0.138084,0.213636,-0.065541,-0.067832,-0.059468,-0.075930
-0.050000,-0.050000,0.000000,0.000000,0.000000,0.000000,0.000000,0.000000,0.000000,0.100000,0.100000,-0.120707,-0.473407,-0.050000,-0.050000,0.312747,-0.612107,0.000000,0.000000,-0.512204,0.580499,1.118048,0.452975,0.141238,0.223407,-0.066477,-0.072999,-0.056997,-0.070667
-0.050000,-0.050000,0.000000,0.000000,0.000000,0.000000,0.000000,0.000000,0.000000,0.100000,0.100000,-0.123811,-0.473044,-0.050000,-0.050000,0.314916,-0.614806,0.000000,0.000000,-0.512154,0.583104,1.115392,0.420794,0.142313,0.234300,-0.067914,-0.077801,-0.054939,-0.064208
-0.050000,-0.050000,0.000000,0.000000,0.000000,0.000000,0.000000,0.000000,0.000000,0.100000,0.100000,-0.126801,-0.473447,-0.050000,-0.050000,0.317280,-0.617692,0.000000,0.000000,-0.511804,0.585665,1.112403,0.388312,0.142590,0.245628,-0.069464,-0.082436,-0.053099,-0.057865
-0.050000,-0.050000,0.000000,0.000000,0.000000,0.000000,0.000000,0.000000,0.000000,0.100000,0.100000,-0.129563,-0.475383,-0.050000,-0.050000,0.320033,-0.620948,0.000000,0.000000,-0.510851,0.588137,1.108749,0.355226,0.141271,0.257823,-0.071241,-0.086736,-0.051700,-0.051756
-0.050000,-0.050000,0.000000,0.000000,0.000000,0.000000,0.000000,0.000000,0.000000,0.100000,0.100000,-0.132053,-0.478683,-0.050000,-0.050000,0.322992,-0.624424,0.000000,0.000000,-0.509366,0.589487,1.104490,0.322556,0.138320,0.270992,-0.073112,-0.090795,-0.050840,-0.047112
-0.050000,-0.050000,0.000000,0.000000,0.000000,0.000000,0.000000,0.000000,0.000000,0.100000,0.100000,-0.134408,-0.482665,-0.050000,-0.050000,0.326055,-0.628008,0.000000,0.000000,-0.507613,0.590277,1.099929,0.290095,0.134552,0.284648,-0.075029,-0.094734,-0.050250,-0.043201
-0.050000,-0.050000,0.000000,0.000000,0.000000,0.000000,0.000000,0.000000,0.000000,0.100000,0.100000,-0.136321,-0.488185,-0.050000,-0.050000,0.329127,-0.631665,0.000000,0.000000,-0.505234,0.587844,1.094716,0.259475,0.128564,0.299845,-0.076871,-0.098706,-0.050479,-0.043395
-0.050000,-0.050000,0.000000,0.000000,0.000000,0.000000,0.000000,0.000000,0.000000,0.100000,0.100000,-0.138081,-0.493994,-0.050000,-0.050000,0.332111,-0.635260,0.000000,0.000000,-0.502722,0.583904,1.089420,0.229778,0.122002,0.315545,-0.078618,-0.102875,-0.050935,-0.045496
-0.050000,-0.050000,0.000000,0.000000,0.000000,0.000000,0.000000,0.000000,0.000000,0.100000,0.100000,-0.139537,-0.500385,-0.050000,-0.050000,0.334916,-0.638731,0.000000,0.000000,-0.499947,0.576954,1.083959,0.201928,0.114293,0.332251,-0.080175,-0.107437,-0.051845,-0.051411
-0.050000,-0.050000,0.000000,0.000000,0.000000,0.000000,0.000000,0.000000,0.000000,0.100000,0.100000,-0.140689,-0.506897,-0.050000,-0.050000,0.337406,-0.641931,0.000000,0.000000,-0.497088,0.566458,1.078674,0.176389,0.105909,0.349832,-0.081428,-0.112770,-0.053047,-0.061781
-0.050000,-0.050000,0.000000,0.000000,0.000000,0.000000,0.000000,0.000000,0.000000,0.100000,0.100000,-0.141689,-0.513471,-0.050000,-0.050000,0.339738,-0.644995,0.000000,0.000000,-0.494187,0.554188,1.073478,0.152006,0.097189,0.367851,-0.082529,-0.118489,-0.054395,-0.074379
-0.050000,-0.050000,0.000000,0.000000,0.000000,0.000000,0.000000,0.000000,0.000000,0.100000,0.100000,-0.142247,-0.519651,-0.050000,-0.050000,0.341500,-0.647515,0.000000,0.000000,-0.491437,0.536462,1.069103,0.131628,0.088300,0.386773,-0.083062,-0.125768,-0.055912,-0.093687
-0.050000,-0.050000,0.000000,0.000000,0.000000,0.000000,0.000000,0.000000,0.000000,0.100000,0.100000,-0.142666,-0.525571,-0.050000,-0.050000,0.343085,-0.649855,0.000000,0.000000,-0.488817,0.517110,1.065174,0.112736,0.079644,0.405786,-0.083391,-0.133588,-0.057415,-0.114897
-0.050000,-0.050000,0.000000,0.000000,0.000000,0.000000,0.000000,0.000000,0.000000,0.100000,0.100000,-0.142807,-0.530970,-0.050000,-0.050000,0.344317,-0.651834,0.000000,0.000000,-0.486461,0.494506,1.062137,0.096813,0.071454,0.424977,-0.083314,-0.142494,-0.058889,-0.139914
-0.050000,-0.050000,0.000000,0.000000,0.000000,0.000000,0.000000,0.000000,0.000000,0.100000,0.100000,-0.142702,-0.535714,-0.050000,-0.050000,0.345317,-0.653582,0.000000,0.000000,-0.484488,0.469459,1.060244,0.084131,0.064255,0.443816,-0.082850,-0.152234,-0.060266,-0.167483
-0.050000,-0.050000,0.000000,0.000000,0.000000,0.000000,0.000000,0.000000,0.000000,0.100000,0.100000,-0.142475,-0.540130,-0.050000,-0.050000,0.346201,-0.655213,0.000000,0.000000,-0.482707,0.443190,1.058924,0.073069,0.057552,0.462479,-0.082192,-0.162392,-0.061594,-0.196329
-0.050000,-0.050000,0.000000,0.000000,0.000000,0.000000,0.000000,0.000000,0.000000,0.100000,0.100000,-0.141954,-0.543483,-0.050000,-0.050000,0.347042,-0.656895,0.000000,0.000000,-0.481599,0.414889,1.059490,0.067221,0.052942,0.479801,-0.081034,-0.172987,-0.062796,-0.226574
-0.050000,-0.050000,0.000000,0.000000,0.000000,0.000000,0.000000,0.000000,0.000000,0.100000,0.100000,-0.141372,-0.546462,-0.050000,-0.050000,0.347999,-0.658778,0.000000,0.000000,-0.480724,0.386504,1.060655,0.063189,0.049149,0.496463,-0.079748,-0.183358,-0.063992,-0.256427
-0.050000,-0.050000,0.000000,0.000000,0.000000,0.000000,0.000000,0.000000,0.000000,0.100000,0.100000,-0.140666,-0.548693,-0.050000,-0.050000,0.349187,-0.661067,0.000000,0.000000,-0.480312,0.357953,1.063019,0.062788,0.046989,0.511803,-0.078209,-0.193281,-0.065176,-0.285496
-0.050000,-0.050000,0.000000,0.000000,0.000000,0.000000,0.000000,0.000000,0.000000,0.100000,0.100000,-0.139926,-0.550112,-0.050000,-0.050000,0.350879,-0.664169,0.000000,0.000000,-0.480333,0.330346,1.066352,0.066013,0.046512,0.525607,-0.076511,-0.201987,-0.066448,-0.312203
-0.050000,-0.050000,0.000000,0.000000,0.000000,0.000000,0.000000,0.000000,0.000000,0.100000,0.100000,-0.139169,-0.551126,-0.050000,-0.050000,0.352824,-0.667678,0.000000,0.000000,-0.480572,0.303210,1.070170,0.071051,0.046878,0.538644,-0.074733,-0.210086,-0.067763,-0.337728
-0.050000,-0.050000,0.000000,0.000000,0.000000,0.000000,0.000000,0.000000,0.000000,0.100000,0.100000,-0.138514,-0.550774,-0.050000,-0.050000,0.355899,-0.672936,0.000000,0.000000,-0.481372,0.278831,1.074897,0.081149,0.049572,0.549411,-0.072869,-0.215451,-0.069342,-0.357792
-0.050000,-0.050000,0.000000,0.000000,0.000000,0.000000,0.000000,0.000000,0.000000,0.100000,0.100000,-0.137943,-0.549915,-0.050000,-0.050000,0.359444,-0.678881,0.000000,0.000000,-0.482324,0.255662,1.079707,0.092662,0.052903,0.559527,-0.071029,-0.219756,-0.071036,-0.375591
-0.050000,-0.050000,0.000000,0.000000,0.000000,0.000000,0.000000,0.000000,0.000000,0.100000,0.100000,-0.137540,-0.548042,-0.050000,-0.050000,0.363926,-0.686200,0.000000,0.000000,-0.483579,0.234915,1.084683,0.107003,0.057508,0.568343,-0.069235,-0.221940,-0.072962,-0.388857
-0.050000,-0.050000,0.000000,0.000000,0.000000,0.000000,0.000000,0.000000,0.000000,0.100000,0.100000,-0.137394,-0.545083,-0.050000,-0.050000,0.369436,-0.694903,0.000000,0.000000,-0.485060,0.216827,1.089369,0.123348,0.063010,0.576156,-0.067586,-0.222070,-0.075134,-0.397131
-0.050000,-0.050000,0.000000,0.000000,0.000000,0.000000,0.000000,0.000000,0.000000,0.100000,0.100000,-0.137377,-0.541581,-0.050000,-0.050000,0.375460,-0.704297,0.000000,0.000000,-0.486655,0.200070,1.093911,0.140696,0.068961,0.583468,-0.066008,-0.221173,-0.077430,-0.402907
-0.050000,-0.050000,0.000000,0.000000,0.000000,0.000000,0.000000,0.000000,0.000000,0.100000,0.100000,-0.137845,-0.536437,-0.050000,-0.050000,0.382988,-0.715456,0.000000,0.000000,-0.488473,0.187142,1.097391,0.159524,0.075621,0.589702,-0.064778,-0.217796,-0.080060,-0.401189
-0.050000,-0.050000,0.000000,0.000000,0.000000,0.000000,0.000000,0.000000,0.000000,0.100000,0.100000,-0.138493,-0.530779,-0.050000,-0.050000,0.390944,-0.727002,0.000000,0.000000,-0.490327,0.175283,1.100337,0.178306,0.082308,0.595679,-0.063700,-0.213916,-0.082772,-0.397212
-0.050000,-0.050000,0.000000,0.000000,0.000000,0.000000,0.000000,0.000000,0.000000,0.100000,0.100000,-0.139504,-0.524093,-0.050000,-0.050000,0.399758,-0.739320,0.000000,0.000000,-0.492251,0.165564,1.102216,0.196998,0.089048,0.601144,-0.062928,-0.209028,-0.085646,-0.388718
-0.050000,-0.050000,0.000000,0.000000,0.000000,0.000000,0.000000,0.000000,0.000000,0.100000,0.100000,-0.140882,-0.516514,-0.050000,-0.050000,0.409173,-0.751844,0.000000,0.000000,-0.494165,0.157334,1.102713,0.214612,0.095471,0.606224,-0.062520,-0.203904,-0.088588,-0.376677
-0.050000,-0.050000,0.000000,0.000000,0.000000,0.000000,0.000000,0.000000,0.000000,0.100000,0.100000,-0.142443,-0.508488,-0.050000,-0.050000,0.418889,-0.764472,0.000000,0.000000,-0.496075,0.149848,1.102520,0.231686,0.101735,0.611112,-0.062295,-0.198661,-0.091564,-0.362863
-0.050000,-0.050000,0.000000,0.000000,0.000000,0.000000,0.000000,0.000000,0.000000,0.100000,0.100000,-0.144505,-0.499389,-0.050000,-0.050000,0.429004,-0.776392,0.000000,0.000000,-0.497858,0.143408,1.099792,0.245992,0.107094,0.615552,-0.062684,-0.194225,-0.094437,-0.345849
-0.050000,-0.050000,0.000000,0.000000,0.000000,0.000000,0.000000,0.000000,0.000000,0.100000,0.100000,-0.146697,-0.490030,-0.050000,-0.050000,0.439071,-0.787713,0.000000,0.000000,-0.499570,0.136911,1.096044,0.259146,0.112066,0.619879,-0.063293,-0.190390,-0.097186,-0.328632
-0.050000,-0.050000,0.000000,0.000000,0.000000,0.000000,0.000000,0.000000,0.000000,0.100000,0.100000,-0.149150,-0.480150,-0.050000,-0.050000,0.449040,-0.797835,0.000000,0.000000,-0.501138,0.130301,1.090253,0.269997,0.116262,0.623981,-0.064345,-0.187756,-0.099688,-0.311008
-0.050000,-0.050000,0.000000,0.000000,0.000000,0.000000,0.000000,0.000000,0.000000,0.100000,0.100000,-0.151749,-0.469922,-0.050000,-0.050000,0.458579,-0.806063,0.000000,0.000000,-0.502531,0.122884,1.081988,0.278438,0.119635,0.627903,-0.065862,-0.186779,-0.101732,-0.294778
-0.050000,-0.050000,0.000000,0.000000,0.000000,0.000000,0.000000,0.000000,0.000000,0.100000,0.100000,-0.154421,-0.459522,-0.050000,-0.050000,0.467903,-0.813343,0.000000,0.000000,-0.503836,0.115064,1.072485,0.285673,0.122595,0.631737,-0.067611,-0.186629,-0.103549,-0.279245
-0.050000,-0.050000,0.000000,0.000000,0.000000,0.000000,0.000000,0.000000,0.000000,0.100000,0.100000,-0.157109,-0.448791,-0.050000,-0.050000,0.476223,-0.816929,0.000000,0.000000,-0.504886,0.105381,1.058511,0.289642,0.124424,0.635238,-0.070082,-0.189203,-0.104367,-0.268135
-0.050000,-0.050000,0.000000,0.000000,0.000000,0.000000,0.000000,0.000000,0.000000,0.100000,0.100000,-0.159738,-0.437981,-0.050000,-0.050000,0.484155,-0.819115,0.000000,0.000000,-0.505873,0.095041,1.042786,0.292789,0.125953,0.638525,-0.072799,-0.192591,-0.104775,-0.258993
-0.050000,-0.050000,0.000000,0.000000,0.000000,0.000000,0.000000,0.000000,0.000000,0.100000,0.100000,-0.162249,-0.427011,-0.050000,-0.050000,0.491311,-0.818500,0.000000,0.000000,-0.506734,0.083388,1.023556,0.294290,0.126884,0.641381,-0.076006,-0.197606,-0.104361,-0.253786
-0.050000,-0.050000,0.000000,0.000000,0.000000,0.000000,0.000000,0.000000,0.000000,0.100000,0.100000,-0.164564,-0.415871,-0.050000,-0.050000,0.497723,-0.815057,0.000000,0.000000,-0.507546,0.070768,1.000384,0.294904,0.127411,0.643400,-0.079697,-0.203692,-0.103078,-0.252710
-0.050000,-0.050000,0.000000,0.000000,0.000000,0.000000,0.000000,0.000000,0.000000,0.100000,0.100000,-0.166783,-0.404645,-0.050000,-0.050000,0.503764,-0.810200,0.000000,0.000000,-0.508333,0.057664,0.975241,0.295075,0.127735,0.645001,-0.083630,-0.210313,-0.101361,-0.253699
-0.050000,-0.050000,0.000000,0.000000,0.000000,0.000000,0.000000,0.000000,0.000000,0.100000,0.100000,-0.168718,-0.393058,-0.050000,-0.050000,0.508911,-0.801570,0.000000,0.000000,-0.509181,0.044212,0.943829,0.295257,0.127713,0.644506,-0.088219,-0.217198,-0.098487,-0.259920
-0.050000,-0.050000,0.000000,0.000000,0.000000,0.000000,0.000000,0.000000,0.000000,0.100000,0.100000,-0.171255,-0.381372,-0.050000,-0.050000,0.514986,-0.791498,0.000000,0.000000,-0.510098,0.030038,0.908475,0.295481,0.127465,0.642422,-0.092176,-0.223859,-0.095631,-0.267732
-0.050000,-0.050000,0.000000,0.000000,0.000000,0.000000,0.000000,0.000000,0.000000,0.100000,0.100000,-0.174994,-0.369489,-0.050000,-0.050000,0.522916,-0.778544,0.000000,0.000000,-0.511151,0.014419,0.865235,0.295787,0.126765,0.637159,-0.094869,-0.230071,-0.092813,-0.278724
-0.050000,-0.050000,0.000000,0.000000,0.000000,0.000000,0.000000,0.000000,0.000000,0.100000,0.100000,-0.177458,-0.357155,-0.050000,-0.050000,0.529279,-0.764858,0.000000,0.000000,-0.512328,0.002492,0.820670,0.298434,0.125950,0.629927,-0.098302,-0.233343,-0.089678,-0.289454
-0.050000,-0.050000,0.000000,0.000000,0.000000,0.000000,0.000000,0.000000,0.000000,0.100000,0.100000,-0.179286,-0.344596,-0.050000,-0.050000,0.534857,-0.750806,0.000000,0.000000,-0.513568,-0.007590,0.775443,0.302251,0.125076,0.621711,-0.102106,-0.235145,-0.086385,-0.300052
-0.050000,-0.050000,0.000000,0.000000,0.000000,0.000000,0.000000,0.000000,0.000000,0.100000,0.100000,-0.181209,-0.331828,-0.050000,-0.050000,0.539592,-0.736678,0.000000,0.000000,-0.514730,-0.012397,0.726964,0.310072,0.123785,0.609928,-0.106250,-0.232315,-0.083366,-0.307831
-0.050000,-0.050000,0.000000,0.000000,0.000000,0.000000,0.000000,0.000000,0.000000,0.100000,0.100000,-0.183395,-0.319014,-0.050000,-0.050000,0.544148,-0.722793,0.000000,0.000000,-0.515857,-0.015215,0.677928,0.319279,0.122207,0.596993,-0.110243,-0.227778,-0.080712,-0.313831
-0.050000,-0.050000,0.000000,0.000000,0.000000,0.000000,0.000000,0.000000,0.000000,0.100000,0.100000,-0.186106,-0.306108,-0.050000,-0.050000,0.548346,-0.709397,0.000000,0.000000,-0.516915,-0.014058,0.627776,0.331257,0.120054,0.581752,-0.113934,-0.219824,-0.078790,-0.316274
-0.050000,-0.050000,0.000000,0.000000,0.000000,0.000000,0.000000,0.000000,0.000000,0.100000,0.100000,-0.189588,-0.293222,-0.050000,-0.050000,0.552143,-0.696759,0.000000,0.000000,-0.517872,-0.008669,0.578028,0.345634,0.117076,0.564545,-0.116991,-0.208747,-0.077942,-0.314018
-0.050000,-0.050000,0.000000,0.000000,0.000000,0.000000,0.000000,0.000000,0.000000,0.100000,0.100000,-0.193455,-0.280346,-0.050000,-0.050000,0.555741,-0.684500,0.000000,0.000000,-0.518778,-0.001165,0.528483,0.361209,0.113684,0.546355,-0.119731,-0.196109,-0.077630,-0.309414
-0.050000,-0.050000,0.000000,0.000000,0.000000,0.000000,0.000000,0.000000,0.000000,0.100000,0.100000,-0.198637,-0.267815,-0.050000,-0.050000,0.558568,-0.673311,0.000000,0.000000,-0.519472,0.012459,0.481979,0.379148,0.108861,0.525959,-0.121238,-0.180145,-0.079147,-0.297173
-0.050000,-0.050000,0.000000,0.000000,0.000000,0.000000,0.000000,0.000000,0.000000,0.100000,0.100000,-0.204242,-0.255529,-0.050000,-0.050000,0.561085,-0.662341,0.000000,0.000000,-0.520071,0.027831,0.437228,0.397311,0.103581,0.505138,-0.122318,-0.163720,-0.081248,-0.282584
-0.050000,-0.050000,0.000000,0.000000,0.000000,0.000000,0.000000,0.000000,0.000000,0.100000,0.100000,-0.210691,-0.243734,-0.050000,-0.050000,0.562985,-0.651808,0.000000,0.000000,-0.520480,0.046700,0.395982,0.415922,0.097387,0.483466,-0.122543,-0.146371,-0.084515,-0.263300
-0.050000,-0.050000,0.000000,0.000000,0.000000,0.000000,0.000000,0.000000,0.000000,0.100000,0.100000,-0.217813,-0.232682,-0.050000,-0.050000,0.564217,-0.641361,0.000000,0.000000,-0.520608,0.068121,0.359364,0.433772,0.090457,0.461704,-0.122030,-0.129456,-0.088712,-0.240371
-0.050000,-0.050000,0.000000,0.000000,0.000000,0.000000,0.000000,0.000000,0.000000,0.100000,0.100000,-0.225270,-0.222002,-0.050000,-0.050000,0.565114,-0.630959,0.000000,0.000000,-0.520595,0.090818,0.325061,0.451242,0.083159,0.439896,-0.121149,-0.112760,-0.093374,-0.215621
-0.050000,-0.050000,0.000000,0.000000,0.000000,0.000000,0.000000,0.000000,0.000000,0.100000,0.100000,-0.233307,-0.212752,-0.050000,-0.050000,0.565006,-0.620312,0.000000,0.000000,-0.519901,0.115590,0.298656,0.465986,0.075076,0.419291,-0.119508,-0.098389,-0.098832,-0.187591
-0.050000,-0.050000,0.000000,0.000000,0.000000,0.000000,0.000000,0.000000,0.000000,0.100000,0.100000,-0.240686,-0.202742,-0.050000,-0.050000,0.564141,-0.609700,0.000000,0.000000,-0.519488,0.140466,0.275401,0.478835,0.067356,0.400185,-0.118328,-0.085281,-0.103863,-0.160108
-0.050000,-0.050000,0.000000,0.000000,0.000000,0.000000,0.000000,0.000000,0.000000,0.100000,0.100000,-0.246750,-0.191209,-0.050000,-0.050000,0.561760,-0.599159,0.000000,0.000000,-0.519638,0.165551,0.258449,0.487894,0.060363,0.384076,-0.118071,-0.074696,-0.108040,-0.133722
-0.050000,-0.050000,0.000000,0.000000,0.000000,0.000000,0.000000,0.000000,0.000000,0.100000,0.100000,-0.253186,-0.182454,-0.050000,-0.050000,0.559378,-0.588350,0.000000,0.000000,-0.517971,0.189427,0.245303,0.494874,0.051949,0.369198,-0.116841,-0.066041,-0.112248,-0.106794
-0.050000,-0.050000,0.000000,0.000000,0.000000,0.000000,0.000000,0.000000,0.000000,0.100000,0.100000,-0.259807,-0.175087,-0.050000,-0.050000,0.556995,-0.577407,0.000000,0.000000,-0.515395,0.212698,0.234060,0.500815,0.042825,0.354935,-0.115124,-0.058352,-0.116471,-0.079596
-0.050000,-0.050000,0.000000,0.000000,0.000000,0.000000,0.000000,0.000000,0.000000,0.100000,0.100000,-0.265847,-0.170859,-0.050000,-0.050000,0.553940,-0.566659,0.000000,0.000000,-0.509967,0.233116,0.228662,0.503138,0.031726,0.345035,-0.113052,-0.054001,-0.119301,-0.054844
-0.050000,-0.050000,0.000000,0.000000,0.000000,0.000000,0.000000,0.000000,0.000000,0.100000,0.100000,-0.271554,-0.167544,-0.050000,-0.050000,0.550534,-0.556180,0.000000,0.000000,-0.503499,0.252291,0.224885,0.504297,0.019670,0.336919,-0.111064,-0.050585,-0.121297,-0.031487
-0.050000,-0.050000,0.000000,0.000000,0.000000,0.000000,0.000000,0.000000,0.000000,0.100000,0.100000,-0.276595,-0.166052,-0.050000,-0.050000,0.546428,-0.546239,0.000000,0.000000,-0.494948,0.268977,0.224349,0.503126,0.005702,0.332371,-0.109246,-0.049038,-0.121623,-0.010918
-0.050000,-0.050000,0.000000,0.000000,0.000000,0.000000,0.000000,0.000000,0.000000,0.100000,0.100000,-0.280944,-0.166310,-0.050000,-0.050000,0.541455,-0.537174,0.000000,0.000000,-0.484190,0.282742,0.226125,0.499935,-0.011121,0.331715,-0.107780,-0.048857,-0.119783,0.006151
-0.050000,-0.050000,0.000000,0.000000,0.000000,0.000000,0.000000,0.000000,0.000000,0.100000,0.100000,-0.284946,-0.167444,-0.050000,-0.050000,0.536050,-0.528547,0.000000,0.000000,-0.472329,0.295045,0.229058,0.495733,-0.029371,0.333005,-0.106489,-0.049357,-0.116861,0.021471
-0.050000,-0.050000,0.000000,0.000000,0.000000,0.000000,0.000000,0.000000,0.000000,0.100000,0.100000,-0.288093,-0.171169,-0.050000,-0.050000,0.529217,-0.521522,0.000000,0.000000,-0.457222,0.302622,0.233982,0.489079,-0.053421,0.340406,-0.105860,-0.051265,-0.110361,0.030917
-0.050000,-0.050000,0.000000,0.000000,0.000000,0.000000,0.000000,0.000000,0.000000,0.100000,0.100000,-0.291054,-0.175734,-0.050000,-0.050000,0.521911,-0.515036,0.000000,0.000000,-0.441160,0.308607,0.239120,0.481787,-0.079805,0.349891,-0.105501,-0.053529,-0.102709,0.038314
-0.050000,-0.050000,0.000000,0.000000,0.000000,0.000000,0.000000,0.000000,0.000000,0.100000,0.100000,-0.293642,-0.181980,-0.050000,-0.050000,0.513657,-0.509628,0.000000,0.000000,-0.423192,0.311409,0.244685,0.473219,-0.110858,0.363543,-0.105683,-0.056505,-0.092750,0.041615
-0.050000,-0.050000,0.000000,0.000000,0.000000,0.000000,0.000000,0.000000,0.000000,0.100000,0.100000,-0.296055,-0.189794,-0.050000,-0.050000,0.504565,-0.505138,0.000000,0.000000,-0.403767,0.311172,0.249942,0.463657,-0.146914,0.381309,-0.106561,-0.060205,-0.080848,0.040867
-0.050000,-0.050000,0.000000,0.000000,0.000000,0.000000,0.000000,0.000000,0.000000,0.100000,0.100000,-0.298380,-0.198393,-0.050000,-0.050000,0.495054,-0.501106,0.000000,0.000000,-0.383615,0.309417,0.255043,0.453598,-0.185471,0.401131,-0.107788,-0.064268,-0.067973,0.038095
-0.050000,-0.050000,0.000000,0.000000,0.000000,0.000000,0.000000,0.000000,0.000000,0.100000,0.100000,-0.300636,-0.209044,-0.050000,-0.050000,0.484612,-0.498035,0.000000,0.000000,-0.362155,0.303576,0.258882,0.442336,-0.231038,0.426631,-0.110359,-0.069741,-0.053072,0.029707
-0.050000,-0.050000,0.000000,0.000000,0.000000,0.000000,0.000000,0.000000,0.000000,0.100000,0.100000,-0.302882,-0.220235,-0.050000,-0.050000,0.474017,-0.495132,0.000000,0.000000,-0.340576,0.296609,0.262138,0.430742,-0.278413,0.453657,-0.113461,-0.075837,-0.037868,0.019745
-0.050000,-0.050000,0.000000,0.000000,0.000000,0.000000,0.000000,0.000000,0.000000,0.100000,0.100000,-0.305107,-0.232502,-0.050000,-0.050000,0.463116,-0.492565,0.000000,0.000000,-0.318759,0.287390,0.264225,0.418482,-0.329405,0.483734,-0.117628,-0.083176,-0.022058,0.006633
-0.050000,-0.050000,0.000000,0.000000,0.000000,0.000000,0.000000,0.000000,0.000000,0.100000,0.100000,-0.307232,-0.245473,-0.050000,-0.050000,0.452297,-0.490087,0.000000,0.000000,-0.297307,0.276525,0.265012,0.405694,-0.382323,0.515675,-0.122900,-0.091983,-0.006434,-0.008759
-0.050000,-0.050000,0.000000,0.000000,0.000000,0.000000,0.000000,0.000000,0.000000,0.100000,0.100000,-0.309306,-0.258797,-0.050000,-0.050000,0.441519,-0.487654,0.000000,0.000000,-0.276039,0.264838,0.265148,0.392641,-0.436202,0.548547,-0.128725,-0.101524,0.009096,-0.025291
-0.050000,-0.050000,0.000000,0.000000,0.000000,0.000000,0.000000,0.000000,0.000000,0.100000,0.100000,-0.310987,-0.272530,-0.050000,-0.050000,0.431501,-0.485178,0.000000,0.000000,-0.256096,0.251716,0.263401,0.379109,-0.489832,0.581900,-0.135960,-0.113238,0.023265,-0.043668
-0.050000,-0.050000,0.000000,0.000000,0.000000,0.000000,0.000000,0.000000,0.000000,0.100000,0.100000,-0.312437,-0.286169,-0.050000,-0.050000,0.421939,-0.482698,0.000000,0.000000,-0.236799,0.238471,0.261132,0.365587,-0.542296,0.614582,-0.143475,-0.125499,0.036712,-0.062125
-0.050000,-0.050000,0.000000,0.000000,0.000000,0.000000,0.000000,0.000000,0.000000,0.100000,0.100000,-0.313424,-0.299620,-0.050000,-0.050000,0.413287,-0.480210,0.000000,0.000000,-0.218790,0.224978,0.257818,0.352087,-0.592428,0.645922,-0.151551,-0.138853,0.048716,-0.080745
-0.050000,-0.050000,0.000000,0.000000,0.000000,0.000000,0.000000,0.000000,0.000000,0.100000,0.100000,-0.313746,-0.312423,-0.050000,-0.050000,0.405859,-0.477838,0.000000,0.000000,-0.202357,0.211893,0.253824,0.339115,-0.638321,0.674435,-0.159651,-0.152637,0.059019,-0.098628
-0.050000,-0.050000,0.000000,0.000000,0.000000,0.000000,0.000000,0.000000,0.000000,0.100000,0.100000,-0.313737,-0.324903,-0.050000,-0.050000,0.399042,-0.475525,0.000000,0.000000,-0.186712,0.199012,0.249489,0.326407,-0.682095,0.701535,-0.167762,-0.166636,0.068470,-0.116143
-0.050000,-0.050000,0.000000,0.000000,0.000000,0.000000,0.000000,0.000000,0.000000,0.100000,0.100000,-0.312475,-0.335765,-0.050000,-0.050000,0.394297,-0.473617,0.000000,0.000000,-0.173710,0.187559,0.244861,0.315458,-0.717434,0.722833,-0.175034,-0.180022,0.075422,-0.131651
-0.050000,-0.050000,0.000000,0.000000,0.000000,0.000000,0.000000,0.000000,0.000000,0.100000,0.100000,-0.310742,-0.345905,-0.050000,-0.050000,0.390229,-0.471903,0.000000,0.000000,-0.161642,0.176784,0.240410,0.305453,-0.749603,0.741970,-0.181762,-0.192787,0.081682,-0.146358
-0.050000,-0.050000,0.000000,0.000000,0.000000,0.000000,0.000000,0.000000,0.000000,0.100000,0.100000,-0.308062,-0.354598,-0.050000,-0.050000,0.387513,-0.470574,0.000000,0.000000,-0.151442,0.167364,0.236313,0.297334,-0.775431,0.756781,-0.187402,-0.204308,0.086556,-0.159460
-0.050000,-0.050000,0.000000,0.000000,0.000000,0.000000,0.000000,0.000000,0.000000,0.100000,0.100000,-0.304404,-0.361559,-0.050000,-0.050000,0.385959,-0.469664,0.000000,0.000000,-0.143171,0.159555,0.233098,0.291776,-0.794849,0.767376,-0.191553,-0.213905,0.090445,-0.170961
-0.050000,-0.050000,0.000000,0.000000,0.000000,0.000000,0.000000,0.000000,0.000000,0.100000,0.100000,-0.300255,-0.367654,-0.050000,-0.050000,0.384985,-0.468963,0.000000,0.000000,-0.135863,0.152551,0.230325,0.287498,-0.811062,0.775863,-0.194958,-0.222541,0.093843,-0.181661
-0.050000,-0.050000,0.000000,0.000000,0.000000,0.000000,0.000000,0.000000,0.000000,0.100000,0.100000,-0.294708,-0.370859,-0.050000,-0.050000,0.385334,-0.468816,0.000000,0.000000,-0.131515,0.148148,0.229511,0.287843,-0.818297,0.778801,-0.195746,-0.227619,0.096318,-0.190172
-0.050000,-0.050000,0.000000,0.000000,0.000000,0.000000,0.000000,0.000000,0.000000,0.100000,0.100000,-0.288758,-0.373049,-0.050000,-0.050000,0.385991,-0.468799,0.000000,0.000000,-0.128178,0.144616,0.229472,0.289871,-0.822866,0.780231,-0.195599,-0.231407,0.098583,-0.198023
-0.050000,-0.050000,0.000000,0.000000,0.000000,0.000000,0.000000,0.000000,0.000000,0.100000,0.100000,-0.282002,-0.373205,-0.050000,-0.050000,0.387265,-0.469044,0.000000,0.000000,-0.126867,0.142826,0.230982,0.295261,-0.822102,0.778645,-0.193582,-0.232613,0.100426,-0.204551
-0.050000,-0.050000,0.000000,0.000000,0.000000,0.000000,0.000000,0.000000,0.000000,0.100000,0.100000,-0.274625,-0.371293,-0.050000,-0.050000,0.389001,-0.469429,0.000000,0.000000,-0.127653,0.142694,0.234056,0.304009,-0.816599,0.774647,-0.189681,-0.231222,0.101778,-0.209786
-0.050000,-0.050000,0.000000,0.000000,0.000000,0.000000,0.000000,0.000000,0.000000,0.100000,0.100000,-0.266938,-0.368348,-0.050000,-0.050000,0.390968,-0.469884,0.000000,0.000000,-0.129489,0.143391,0.237912,0.314435,-0.808726,0.769443,-0.184837,-0.228533,0.102882,-0.214374
-0.050000,-0.050000,0.000000,0.000000,0.000000,0.000000,0.000000,0.000000,0.000000,0.100000,0.100000,-0.261708,-0.365669,-0.050000,-0.050000,0.393324,-0.470072,0.000000,0.000000,-0.134281,0.145825,0.244776,0.331528,-0.792445,0.760187,-0.176570,-0.221983,0.102970,-0.216912
-0.050000,-0.050000,0.000000,0.000000,0.000000,0.000000,0.000000,0.000000,0.000000,0.100000,0.100000,-0.255662,-0.361161,-0.050000,-0.050000,0.395997,-0.470288,0.000000,0.000000,-0.140299,0.148977,0.251975,0.349534,-0.774215,0.750125,-0.167666,-0.214348,0.102267,-0.218427
-0.050000,-0.050000,0.000000,0.000000,0.000000,0.000000,0.000000,0.000000,0.000000,0.100000,0.100000,-0.247982,-0.353000,-0.050000,-0.050000,0.399302,-0.470557,0.000000,0.000000,-0.148771,0.153564,0.259846,0.369364,-0.752086,0.738449,-0.157487,-0.204545,0.099980,-0.217894
-0.050000,-0.050000,0.000000,0.000000,0.000000,0.000000,0.000000,0.000000,0.000000,0.100000,0.100000,-0.240000,-0.342442,-0.050000,-0.050000,0.403477,-0.470650,0.000000,0.000000,-0.159591,0.159146,0.267946,0.390838,-0.725317,0.724478,-0.146118,-0.192931,0.095616,-0.215443
-0.050000,-0.050000,0.000000,0.000000,0.000000,0.000000,0.000000,0.000000,0.000000,0.100000,0.100000,-0.231866,-0.330686,-0.050000,-0.050000,0.408086,-0.470655,0.000000,0.000000,-0.171584,0.165225,0.276161,0.413132,-0.696229,0.709361,-0.134153,-0.180413,0.090214,-0.212034
-0.050000,-0.050000,0.000000,0.000000,0.000000,0.000000,0.000000,0.000000,0.000000,0.100000,0.100000,-0.224116,-0.316184,-0.050000,-0.050000,0.414269,-0.470227,0.000000,0.000000,-0.186779,0.172420,0.284046,0.437266,-0.659805,0.690277,-0.121123,-0.165950,0.081084,-0.205600
-0.050000,-0.050000,0.000000,0.000000,0.000000,0.000000,0.000000,0.000000,0.000000,0.100000,0.100000,-0.216653,-0.301005,-0.050000,-0.050000,0.420993,-0.469590,0.000000,0.000000,-0.202865,0.179898,0.291633,0.461847,-0.621052,0.669828,-0.108088,-0.151159,0.070648,-0.198182
-0.050000,-0.050000,0.000000,0.000000,0.000000,0.000000,0.000000,0.000000,0.000000,0.100000,0.100000,-0.209763,-0.284472,-0.050000,-0.050000,0.428801,-0.468531,0.000000,0.000000,-0.220731,0.187941,0.298623,0.487326,-0.577641,0.646647,-0.095044,-0.135715,0.057602,-0.188795
-0.050000,-0.050000,0.000000,0.000000,0.000000,0.000000,0.000000,0.000000,0.000000,0.100000,0.100000,-0.203664,-0.267146,-0.050000,-0.050000,0.437508,-0.466891,0.000000,0.000000,-0.239838,0.196413,0.304851,0.513558,-0.530522,0.621066,-0.082778,-0.120311,0.042273,-0.177722
-0.050000,-0.050000,0.000000,0.000000,0.000000,0.000000,0.000000,0.000000,0.000000,0.100000,0.100000,-0.197959,-0.249425,-0.050000,-0.050000,0.446667,-0.464961,0.000000,0.000000,-0.259566,0.205099,0.310697,0.540168,-0.481550,0.594284,-0.070902,-0.104928,0.025803,-0.165805
-0.050000,-0.050000,0.000000,0.000000,0.000000,0.000000,0.000000,0.000000,0.000000,0.100000,0.100000,-0.193639,-0.231519,-0.050000,-0.050000,0.456570,-0.461913,0.000000,0.000000,-0.280093,0.214230,0.315564,0.567923,-0.429640,0.565139,-0.061222,-0.090569,0.007175,-0.152127
-0.050000,-0.050000,0.000000,0.000000,0.000000,0.000000,0.000000,0.000000,0.000000,0.100000,0.100000,-0.189804,-0.213909,-0.050000,-0.050000,0.466443,-0.458436,0.000000,0.000000,-0.300481,0.223421,0.320286,0.596068,-0.377940,0.535833,-0.052457,-0.076794,-0.011531,-0.138201
-0.050000,-0.050000,0.000000,0.000000,0.000000,0.000000,0.000000,0.000000,0.000000,0.100000,0.100000,-0.186938,-0.196893,-0.050000,-0.050000,0.476254,-0.454100,0.000000,0.000000,-0.320592,0.232731,0.324719,0.624993,-0.326662,0.506205,-0.045524,-0.064189,-0.030390,-0.123781
-0.050000,-0.050000,0.000000,0.000000,0.000000,0.000000,0.000000,0.000000,0.000000,0.100000,0.100000,-0.185004,-0.181135,-0.050000,-0.050000,0.485411,-0.448899,0.000000,0.000000,-0.339601,0.241900,0.329395,0.654524,-0.278460,0.477754,-0.040350,-0.053029,-0.047890,-0.109606
-0.050000,-0.050000,0.000000,0.000000,0.000000,0.000000,0.000000,0.000000,0.000000,0.100000,0.100000,-0.183536,-0.166006,-0.050000,-0.050000,0.494240,-0.443266,0.000000,0.000000,-0.358060,0.250999,0.334191,0.684360,-0.231796,0.449892,-0.036057,-0.042593,-0.064710,-0.095554
-0.050000,-0.050000,0.000000,0.000000,0.000000,0.000000,0.000000,0.000000,0.000000,0.100000,0.100000,-0.183324,-0.153548,-0.050000,-0.050000,0.501365,-0.436558,0.000000,0.000000,-0.373749,0.259378,0.340189,0.714307,-0.193479,0.426059,-0.033739,-0.034452,-0.077334,-0.082888
-0.050000,-0.050000,0.000000,0.000000,0.000000,0.000000,0.000000,0.000000,0.000000,0.100000,0.100000,-0.182487,-0.140998,-0.050000,-0.050000,0.507751,-0.430195,0.000000,0.000000,-0.388219,0.267741,0.346139,0.742664,-0.159718,0.404805,-0.031673,-0.026773,-0.087833,-0.071421
-0.050000,-0.050000,0.000000,0.000000,0.000000,0.000000,0.000000,0.000000,0.000000,0.100000,0.100000,-0.180396,-0.128264,-0.050000,-0.050000,0.512661,-0.424523,0.000000,0.000000,-0.400251,0.276071,0.351995,0.767839,-0.135068,0.388706,-0.030112,-0.020016,-0.094083,-0.062351
-0.050000,-0.050000,0.000000,0.000000,0.000000,0.000000,0.000000,0.000000,0.000000,0.100000,0.100000,-0.179850,-0.118835,-0.050000,-0.050000,0.516212,-0.417951,0.000000,0.000000,-0.409399,0.282493,0.359957,0.792289,-0.116842,0.376075,-0.028822,-0.014927,-0.096603,-0.054209
-0.050000,-0.050000,0.000000,0.000000,0.000000,0.000000,0.000000,0.000000,0.000000,0.100000,0.100000,-0.180076,-0.111058,-0.050000,-0.050000,0.519085,-0.410930,0.000000,0.000000,-0.417103,0.287960,0.368972,0.816376,-0.101829,0.365178,-0.027666,-0.010673,-0.097257,-0.046531
-0.050000,-0.050000,0.000000,0.000000,0.000000,0.000000,0.000000,0.000000,0.000000,0.100000,0.100000,-0.181813,-0.107297,-0.050000,-0.050000,0.520525,-0.404249,0.000000,0.000000,-0.420319,0.291090,0.380359,0.835920,-0.099583,0.361763,-0.026861,-0.009052,-0.091507,-0.041364
-0.050000,-0.050000,0.000000,0.000000,0.000000,0.000000,0.000000,0.000000,0.000000,0.100000,0.100000,-0.183961,-0.104648,-0.050000,-0.050000,0.521811,-0.398003,0.000000,0.000000,-0.422110,0.293550,0.392254,0.853102,-0.101475,0.360966,-0.026246,-0.008279,-0.083873,-0.037122
-0.050000,-0.050000,0.000000,0.000000,0.000000,0.000000,0.000000,0.000000,0.000000,0.100000,0.100000,-0.186932,-0.104222,-0.050000,-0.050000,0.522789,-0.392628,0.000000,0.000000,-0.421050,0.294670,0.405165,0.865559,-0.111640,0.365404,-0.026015,-0.009200,-0.072471,-0.034728
-0.050000,-0.050000,0.000000,0.000000,0.000000,0.000000,0.000000,0.000000,0.000000,0.100000,0.100000,-0.190674,-0.105622,-0.050000,-0.050000,0.524228,-0.388488,0.000000,0.000000,-0.417537,0.294706,0.418387,0.872179,-0.128714,0.374652,-0.026499,-0.011756,-0.058389,-0.034165
-0.050000,-0.050000,0.000000,0.000000,0.000000,0.000000,0.000000,0.000000,0.000000,0.100000,0.100000,-0.194801,-0.107936,-0.050000,-0.050000,0.525896,-0.384966,0.000000,0.000000,-0.412798,0.294199,0.431766,0.875880,-0.149241,0.386304,-0.027340,-0.015130,-0.042967,-0.034518
-0.050000,-0.050000,0.000000,0.000000,0.000000,0.000000,0.000000,0.000000,0.000000,0.100000,0.100000,-0.200035,-0.112447,-0.050000,-0.050000,0.529431,-0.383480,0.000000,0.000000,-0.405406,0.292576,0.444467,0.870289,-0.176895,0.403765,-0.029658,-0.020777,-0.025663,-0.037465
-0.050000,-0.050000,0.000000,0.000000,0.000000,0.000000,0.000000,0.000000,0.000000,0.100000,0.100000,-0.205612,-0.117536,-0.050000,-0.050000,0.533927,-0.382632,0.000000,0.000000,-0.397608,0.290780,0.456587,0.861841,-0.205582,0.422480,-0.032463,-0.027053,-0.008479,-0.041199
-0.050000,-0.050000,0.000000,0.000000,0.000000,0.000000,0.000000,0.000000,0.000000,0.100000,0.100000,-0.211874,-0.123782,-0.050000,-0.050000,0.540349,-0.383060,0.000000,0.000000,-0.388996,0.288641,0.467546,0.847677,-0.236335,0.443704,-0.036242,-0.034588,0.008465,-0.046506
-0.050000,-0.050000,0.000000,0.000000,0.000000,0.000000,0.000000,0.000000,0.000000,0.100000,0.100000,-0.218762,-0.130936,-0.050000,-0.050000,0.549189,-0.384566,0.000000,0.000000,-0.380726,0.286596,0.476774,0.829048,-0.266255,0.465755,-0.040636,-0.042934,0.023858,-0.053160
-0.050000,-0.050000,0.000000,0.000000,0.000000,0.000000,0.000000,0.000000,0.000000,0.100000,0.100000,-0.225963,-0.138545,-0.050000,-0.050000,0.559237,-0.386612,0.000000,0.000000,-0.372627,0.284597,0.485138,0.808187,-0.295759,0.488219,-0.045337,-0.051684,0.038474,-0.060487
-0.050000,-0.050000,0.000000,0.000000,0.000000,0.000000,0.000000,0.000000,0.000000,0.100000,0.100000,-0.234051,-0.147216,-0.050000,-0.050000,0.573290,-0.389956,0.000000,0.000000,-0.366897,0.283433,0.490305,0.783329,-0.319854,0.509136,-0.050054,-0.060667,0.049297,-0.069355
-0.050000,-0.050000,0.000000,0.000000,0.000000,0.000000,0.000000,0.000000,0.000000,0.100000,0.100000,-0.242443,-0.156149,-0.050000,-0.050000,0.588676,-0.393656,0.000000,0.000000,-0.362540,0.282779,0.494275,0.758162,-0.340984,0.528619,-0.054458,-0.069317,0.058546,-0.078515
-0.050000,-0.050000,0.000000,0.000000,0.000000,0.000000,0.000000,0.000000,0.000000,0.100000,0.100000,-0.251446,-0.165608,-0.050000,-0.050000,0.606725,-0.398065,0.000000,0.000000,-0.360927,0.283147,0.495851,0.732373,-0.356184,0.545235,-0.058234,-0.077302,0.064646,-0.088258
-0.050000,-0.050000,0.000000,0.000000,0.000000,0.000000,0.000000,0.000000,0.000000,0.100000,0.100000,-0.261138,-0.175397,-0.050000,-0.050000,0.627162,-0.403091,0.000000,0.000000,-0.362976,0.284967,0.494863,0.707919,-0.363851,0.557396,-0.060933,-0.083753,0.067260,-0.098007
-0.050000,-0.050000,0.000000,0.000000,0.000000,0.000000,0.000000,0.000000,0.000000,0.100000,0.100000,-0.271175,-0.185351,-0.050000,-0.050000,0.648794,-0.408426,0.000000,0.000000,-0.366855,0.287513,0.492593,0.684131,-0.367750,0.567328,-0.063095,-0.089438,0.068129,-0.107757
-0.050000,-0.050000,0.000000,0.000000,0.000000,0.000000,0.000000,0.000000,0.000000,0.100000,0.100000,-0.282401,-0.195471,-0.050000,-0.050000,0.673175,-0.414562,0.000000,0.000000,-0.376987,0.292739,0.486355,0.664705,-0.359332,0.568901,-0.063488,-0.091733,0.063558,-0.116472
-0.050000,-0.050000,0.000000,0.000000,0.000000,0.000000,0.000000,0.000000,0.000000,0.100000,0.100000,-0.294053,-0.205519,-0.050000,-0.050000,0.698054,-0.420883,0.000000,0.000000,-0.389188,0.298941,0.478823,0.647228,-0.346985,0.567447,-0.063434,-0.092712,0.057197,-0.124472
-0.050000,-0.050000,0.000000,0.000000,0.000000,0.000000,0.000000,0.000000,0.000000,0.100000,0.100000,-0.306555,-0.215426,-0.050000,-0.050000,0.723930,-0.427576,0.000000,0.000000,-0.405528,0.307095,0.468701,0.633652,-0.326781,0.559937,-0.062484,-0.091062,0.047257,-0.131044
-0.050000,-0.050000,0.000000,0.000000,0.000000,0.000000,0.000000,0.000000,0.000000,0.100000,0.100000,-0.319811,-0.224911,-0.050000,-0.050000,0.749703,-0.434314,0.000000,0.000000,-0.425370,0.317125,0.456290,0.624322,-0.300078,0.546602,-0.061214,-0.086926,0.034058,-0.135545
-0.050000,-0.050000,0.000000,0.000000,0.000000,0.000000,0.000000,0.000000,0.000000,0.100000,0.100000,-0.333445,-0.234185,-0.050000,-0.050000,0.775425,-0.441075,0.000000,0.000000,-0.446965,0.328093,0.442733,0.617116,-0.270125,0.530354,-0.059784,-0.081547,0.019231,-0.139009
-0.050000,-0.050000,0.000000,0.000000,0.000000,0.000000,0.000000,0.000000,0.000000,0.100000,0.100000,-0.347660,-0.242377,-0.050000,-0.050000,0.799045,-0.447138,0.000000,0.000000,-0.471967,0.341323,0.426687,0.615952,-0.233677,0.506743,-0.058846,-0.073447,0.000575,-0.138801
-0.050000,-0.050000,0.000000,0.000000,0.000000,0.000000,0.000000,0.000000,0.000000,0.100000,0.100000,-0.361708,-0.250058,-0.050000,-0.050000,0.821275,-0.452647,0.000000,0.000000,-0.497239,0.354975,0.410299,0.616508,-0.196392,0.481425,-0.058299,-0.064953,-0.018793,-0.137382
-0.050000,-0.050000,0.000000,0.000000,0.000000,0.000000,0.000000,0.000000,0.000000,0.100000,0.100000,-0.375421,-0.256717,-0.050000,-0.050000,0.840726,-0.457050,0.000000,0.000000,-0.523049,0.369470,0.393228,0.620501,-0.157434,0.452694,-0.058532,-0.055672,-0.039585,-0.133540
-0.050000,-0.050000,0.000000,0.000000,0.000000,0.000000,0.000000,0.000000,0.000000,0.100000,0.100000,-0.387725,-0.262099,-0.050000,-0.050000,0.856104,-0.459697,0.000000,0.000000,-0.547354,0.383925,0.376690,0.627198,-0.119562,0.422445,-0.059596,-0.046677,-0.060365,-0.127723
-0.050000,-0.050000,0.000000,0.000000,0.000000,0.000000,0.000000,0.000000,0.000000,0.100000,0.100000,-0.399323,-0.266843,-0.050000,-0.050000,0.869445,-0.461466,0.000000,0.000000,-0.570906,0.398359,0.360419,0.635246,-0.082232,0.391437,-0.061075,-0.037825,-0.081138,-0.120918
-0.050000,-0.050000,0.000000,0.000000,0.000000,0.000000,0.000000,0.000000,0.000000,0.100000,0.100000,-0.406866,-0.269450,-0.050000,-0.050000,0.875110,-0.459851,0.000000,0.000000,-0.589077,0.411312,0.346794,0.646304,-0.050277,0.361243,-0.063236,-0.030622,-0.099667,-0.112234
-0.050000,-0.050000,0.000000,0.000000,0.000000,0.000000,0.000000,0.000000,0.000000,0.100000,0.100000,-0.412445,-0.271359,-0.050000,-0.050000,0.877880,-0.456998,0.000000,0.000000,-0.604568,0.423370,0.334535,0.658078,-0.021110,0.332291,-0.065313,-0.024160,-0.116832,-0.103302
-0.050000,-0.050000,0.000000,0.000000,0.000000,0.000000,0.000000,0.000000,0.000000,0.100000,0.100000,-0.414096,-0.271869,-0.050000,-0.050000,0.874856,-0.451670,0.000000,0.000000,-0.614697,0.433642,0.325008,0.671285,0.002478,0.305824,-0.067219,-0.019177,-0.131270,-0.093873
-0.050000,-0.050000,0.000000,0.000000,0.000000,0.000000,0.000000,0.000000,0.000000,0.100000,0.100000,-0.411048,-0.271203,-0.050000,-0.050000,0.865784,-0.444004,0.000000,0.000000,-0.618358,0.441650,0.318684,0.685460,0.019077,0.283388,-0.068374,-0.015651,-0.142238,-0.084505
-0.050000,-0.050000,0.000000,0.000000,0.000000,0.000000,0.000000,0.000000,0.000000,0.100000,0.100000,-0.405650,-0.269949,-0.050000,-0.050000,0.853687,-0.435169,0.000000,0.000000,-0.618785,0.448526,0.313961,0.700120,0.032181,0.262967,-0.069154,-0.012854,-0.151472,-0.075168
-0.050000,-0.050000,0.000000,0.000000,0.000000,0.000000,0.000000,0.000000,0.000000,0.100000,0.100000,-0.393224,-0.267475,-0.050000,-0.050000,0.832784,-0.423551,0.000000,0.000000,-0.609261,0.451878,0.313845,0.715599,0.033518,0.250022,-0.068405,-0.011853,-0.155242,-0.066312
-0.050000,-0.050000,0.000000,0.000000,0.000000,0.000000,0.000000,0.000000,0.000000,0.100000,0.100000,-0.378917,-0.264794,-0.050000,-0.050000,0.809271,-0.411368,0.000000,0.000000,-0.596846,0.454180,0.314938,0.731125,0.030763,0.239708,-0.067228,-0.011299,-0.157361,-0.057623
-0.050000,-0.050000,0.000000,0.000000,0.000000,0.000000,0.000000,0.000000,0.000000,0.100000,0.100000,-0.360850,-0.261701,-0.050000,-0.050000,0.780539,-0.398054,0.000000,0.000000,-0.578649,0.454381,0.318447,0.746745,0.019827,0.234657,-0.065195,-0.011639,-0.156178,-0.049270
-0.050000,-0.050000,0.000000,0.000000,0.000000,0.000000,0.000000,0.000000,0.000000,0.100000,0.100000,-0.340842,-0.261298,-0.050000,-0.050000,0.746905,-0.384854,0.000000,0.000000,-0.554380,0.453807,0.323784,0.764118,0.000350,0.234388,-0.062835,-0.013429,-0.152434,-0.040418
-0.050000,-0.050000,0.000000,0.000000,0.000000,0.000000,0.000000,0.000000,0.000000,0.100000,0.100000,-0.319862,-0.262240,-0.050000,-0.050000,0.710820,-0.371713,0.000000,0.000000,-0.527074,0.452846,0.330036,0.782367,-0.023398,0.236511,-0.060312,-0.015944,-0.147409,-0.031315
-0.050000,-0.050000,0.000000,0.000000,0.000000,0.000000,0.000000,0.000000,0.000000,0.100000,0.100000,-0.298731,-0.260223,-0.050000,-0.050000,0.672354,-0.359166,0.000000,0.000000,-0.499126,0.449641,0.336679,0.796791,-0.058061,0.245747,-0.058411,-0.018458,-0.139596,-0.023486
-0.050000,-0.050000,0.000000,0.000000,0.000000,0.000000,0.000000,0.000000,0.000000,0.100000,0.100000,-0.278537,-0.258042,-0.050000,-0.050000,0.633809,-0.347055,0.000000,0.000000,-0.471438,0.445921,0.343337,0.810369,-0.095454,0.256321,-0.056990,-0.021050,-0.131268,-0.015919
-0.050000,-0.050000,0.000000,0.000000,0.000000,0.000000,0.000000,0.000000,0.000000,0.100000,0.100000,-0.260217,-0.255534,-0.050000,-0.050000,0.595108,-0.335817,0.000000,0.000000,-0.444272,0.441171,0.350023,0.822252,-0.138307,0.269570,-0.056529,-0.023796,-0.121910,-0.008876
-0.050000,-0.050000,0.000000,0.000000,0.000000,0.000000,0.000000,0.000000,0.000000,0.100000,0.100000,-0.244927,-0.253185,-0.050000,-0.050000,0.558173,-0.325771,0.000000,0.000000,-0.418813,0.436027,0.356641,0.832754,-0.184142,0.283999,-0.057391,-0.026734,-0.112009,-0.002591
-0.050000,-0.050000,0.000000,0.000000,0.000000,0.000000,0.000000,0.000000,0.000000,0.100000,0.100000,-0.231151,-0.250916,-0.050000,-0.050000,0.522122,-0.316320,0.000000,0.000000,-0.394207,0.430685,0.363226,0.842566,-0.231467,0.299020,-0.058916,-0.029766,-0.101836,0.003315
-0.050000,-0.050000,0.000000,0.000000,0.000000,0.000000,0.000000,0.000000,0.000000,0.100000,0.100000,-0.220357,-0.246094,-0.050000,-0.050000,0.491452,-0.307512,0.000000,0.000000,-0.374147,0.424877,0.368944,0.849330,-0.275176,0.312399,-0.061980,-0.032245,-0.091346,0.006871
-0.050000,-0.050000,0.000000,0.000000,0.000000,0.000000,0.000000,0.000000,0.000000,0.100000,0.100000,-0.211641,-0.242202,-0.050000,-0.050000,0.462922,-0.299709,0.000000,0.000000,-0.355118,0.419720,0.375021,0.856294,-0.318803,0.325357,-0.065642,-0.034841,-0.080406,0.009912
-0.050000,-0.050000,0.000000,0.000000,0.000000,0.000000,0.000000,0.000000,0.000000,0.100000,0.100000,-0.207080,-0.240170,-0.050000,-0.050000,0.438670,-0.293917,0.000000,0.000000,-0.338149,0.415868,0.381816,0.863659,-0.362262,0.337473,-0.070497,-0.037670,-0.068568,0.011921
-0.050000,-0.050000,0.000000,0.000000,0.000000,0.000000,0.000000,0.000000,0.000000,0.100000,0.100000,-0.206070,-0.239238,-0.050000,-0.050000,0.419444,-0.289449,0.000000,0.000000,-0.323687,0.413249,0.389778,0.871732,-0.401780,0.347328,-0.076120,-0.040330,-0.055748,0.012487
-0.050000,-0.050000,0.000000,0.000000,0.000000,0.000000,0.000000,0.000000,0.000000,0.100000,0.100000,-0.206837,-0.238857,-0.050000,-0.050000,0.402730,-0.285641,0.000000,0.000000,-0.310478,0.411247,0.398324,0.880161,-0.439328,0.356054,-0.082126,-0.042905,-0.042438,0.012331
-0.050000,-0.050000,0.000000,0.000000,0.000000,0.000000,0.000000,0.000000,0.000000,0.100000,0.100000,-0.211861,-0.239688,-0.050000,-0.050000,0.393650,-0.283279,0.000000,0.000000,-0.300936,0.411074,0.409093,0.890320,-0.468270,0.360008,-0.088579,-0.044786,-0.027378,0.009938
-0.050000,-0.050000,0.000000,0.000000,0.000000,0.000000,0.000000,0.000000,0.000000,0.100000,0.100000,-0.217888,-0.240826,-0.050000,-0.050000,0.386954,-0.281307,0.000000,0.000000,-0.292558,0.411460,0.420644,0.901213,-0.493880,0.362108,-0.094906,-0.046335,-0.011833,0.006921
-0.050000,-0.050000,0.000000,0.000000,0.000000,0.000000,0.000000,0.000000,0.000000,0.100000,0.100000,-0.225923,-0.242576,-0.050000,-0.050000,0.385025,-0.280113,0.000000,0.000000,-0.286506,0.412965,0.433760,0.913573,-0.512828,0.360501,-0.100982,-0.047220,0.004680,0.002659
-0.050000,-0.050000,0.000000,0.000000,0.000000,0.000000,0.000000,0.000000,0.000000,0.100000,0.100000,-0.235025,-0.244695,-0.050000,-0.050000,0.387339,-0.279641,0.000000,0.000000,-0.282775,0.415362,0.448268,0.927422,-0.524713,0.355027,-0.106216,-0.047353,0.021451,-0.002383
-0.050000,-0.050000,0.000000,0.000000,0.000000,0.000000,0.000000,0.000000,0.000000,0.100000,0.100000,-0.244661,-0.246998,-0.050000,-0.050000,0.391774,-0.279528,0.000000,0.000000,-0.280204,0.418206,0.463472,0.942018,-0.533069,0.347620,-0.111029,-0.047110,0.038352,-0.007814
-0.050000,-0.050000,0.000000,0.000000,0.000000,0.000000,0.000000,0.000000,0.000000,0.100000,0.100000,-0.254411,-0.249372,-0.050000,-0.050000,0.401638,-0.280546,0.000000,0.000000,-0.281302,0.421883,0.480212,0.958418,-0.530709,0.334731,-0.113783,-0.045793,0.053921,-0.013530
-0.050000,-0.050000,0.000000,0.000000,0.000000,0.000000,0.000000,0.000000,0.000000,0.100000,0.100000,-0.263718,-0.251586,-0.050000,-0.050000,0.412955,-0.281977,0.000000,0.000000,-0.283700,0.425632,0.497244,0.975161,-0.524848,0.320303,-0.115695,-0.044198,0.068376,-0.019046
-0.050000,-0.050000,0.000000,0.000000,0.000000,0.000000,0.000000,0.000000,0.000000,0.100000,0.100000,-0.272139,-0.253482,-0.050000,-0.050000,0.427180,-0.284234,0.000000,0.000000,-0.288699,0.429527,0.514861,0.992590,-0.511982,0.302798,-0.115923,-0.042049,0.080601,-0.024163
-0.050000,-0.050000,0.000000,0.000000,0.000000,0.000000,0.000000,0.000000,0.000000,0.100000,0.100000,-0.278834,-0.254704,-0.050000,-0.050000,0.443456,-0.287361,0.000000,0.000000,-0.296294,0.433127,0.532704,1.010096,-0.492509,0.283122,-0.114512,-0.039596,0.089406,-0.028408
-0.050000,-0.050000,0.000000,0.000000,0.000000,0.000000,0.000000,0.000000,0.000000,0.100000,0.100000,-0.284665,-0.255590,-0.050000,-0.050000,0.460759,-0.290922,0.000000,0.000000,-0.305186,0.436579,0.550662,1.027640,-0.469732,0.262360,-0.112282,-0.036990,0.096500,-0.032216
-0.050000,-0.050000,0.000000,0.000000,0.000000,0.000000,0.000000,0.000000,0.000000,0.100000,0.100000,-0.286934,-0.255055,-0.050000,-0.050000,0.479559,-0.295709,0.000000,0.000000,-0.317447,0.438952,0.568765,1.044487,-0.438233,0.240048,-0.108266,-0.034343,0.097429,-0.034306
-0.050000,-0.050000,0.000000,0.000000,0.000000,0.000000,0.000000,0.000000,0.000000,0.100000,0.100000,-0.287809,-0.253968,-0.050000,-0.050000,0.498228,-0.300810,0.000000,0.000000,-0.330430,0.440784,0.587014,1.060925,-0.404490,0.217828,-0.104020,-0.031795,0.096335,-0.035801
-0.050000,-0.050000,0.000000,0.000000,0.000000,0.000000,0.000000,0.000000,0.000000,0.100000,0.100000,-0.285897,-0.251782,-0.050000,-0.050000,0.516637,-0.306537,0.000000,0.000000,-0.344860,0.441536,0.605555,1.076548,-0.366257,0.195795,-0.099316,-0.029445,0.091194,-0.036106
-0.050000,-0.050000,0.000000,0.000000,0.000000,0.000000,0.000000,0.000000,0.000000,0.100000,0.100000,-0.281036,-0.248476,-0.050000,-0.050000,0.533402,-0.312559,0.000000,0.000000,-0.359530,0.440951,0.624919,1.091255,-0.325422,0.175072,-0.094900,-0.027408,0.082882,-0.035386
